/* XPM */
static char *bonus_south[] = {
"64 64 2 1",
"a c #414342",
"b c #9C826B",
"aaaaaaaaaaaaaaaaaaaaaaaaaaaaaaaaaaaaaaaaaaaaaaaaaaaaaaaaaaaaaaaa",
"aaaaaaaaaaaaaaaaaaaaaaaaaaaaaaaaaaaaaaaaaaaaaaaaaaaaaaaaaaaaaaaa",
"aabbbbbbbbbbbbbbbbbbbbbbbbbbbbbbaabbbbbbbbbbbbbbbbbbbbbbbbbbbbbb",
"aabbbbbbbbbbbbbbbbbbbbbbbbbbbbbbaabbbbbbbbbbbbbbbbbbbbbbbbbbbbbb",
"aabbbbbbbbbbbbbbbbbbbbbbbbbbbbbbaabbbbbbbbbbbbbbbbbbbbbbbbbbbbbb",
"aabbbbbbbbbbbbbbbbbbbbbbbbbbbbbbaabbbbbbbbbbbbbbbbbbbbbbbbbbbbbb",
"aabbbbbbbbbbbbbbbbbbbbbbbbbbbbbbaabbbbbbbbbbbbbbbbbbbbbbbbbbbbbb",
"aabbbbbbbbbbbbbbbbbbbbbbbbbbbbbbaabbbbbbbbbbbbbbbbbbbbbbbbbbbbbb",
"aabbbbbbbbbbbbbbbbbbbbbbbbbbbbbbaabbbbbbbbbbbbbbbbbbbbbbbbbbbbbb",
"aabbbbbbbbbbbbbbbbbbbbbbbbbbbbbbaabbbbbbbbbbbbbbbbbbbbbbbbbbbbbb",
"aabbbbbbbbbbbbbbbbbbbbbbbbbbbbbbaabbbbbbbbbbbbbbbbbbbbbbbbbbbbbb",
"aabbbbbbbbbbbbbbbbbbbbbbbbbbbbbbaabbbbbbbbbbbbbbbbbbbbbbbbbbbbbb",
"aabbbbbbbbbbbbbbbbbbbbbbbbbbbbbbaabbbbbbbbbbbbbbbbbbbbbbbbbbbbbb",
"aabbbbbbbbbbbbbbbbbbbbbbbbbbbbbbaabbbbbbbbbbbbbbbbbbbbbbbbbbbbbb",
"aabbbbbbbbbbbbbbbbbbbbbbbbbbbbbbaabbbbbbbbbbbbbbbbbbbbbbbbbbbbbb",
"aabbbbbbbbbbbbbbbbbbbbbbbbbbbbbbaabbbbbbbbbbbbbbbbbbbbbbbbbbbbbb",
"aaaaaaaaaaaaaaaaaaaaaaaaaaaaaaaaaaaaaaaaaaaaaaaaaaaaaaaaaaaaaaaa",
"aaaaaaaaaaaaaaaaaaaaaaaaaaaaaaaaaaaaaaaaaaaaaaaaaaaaaaaaaaaaaaaa",
"bbbbbbbbbbbbbbbbaabbbbbbbbbbbbbbbbbbbbbbbbbbbbbbaabbbbbbbbbbbbbb",
"bbbbbbbbbbbbbbbbaabbbbbbbbbbbbbbbbbbbbbbbbbbbbbbaabbbbbbbbbbbbbb",
"bbbbbbbbbbbbbbbbaabbbbbbbbbbbbbbbbbbbbbbbbbbbbbbaabbbbbbbbbbbbbb",
"bbbbbbbbbbbbbbbbaabbbbbbbbbbbbbbbbbbbbbbbbbbbbbbaabbbbbbbbbbbbbb",
"bbbbbbbbbbbbbbbbaabbbbbbbbbbbbbbbbbbbbbbbbbbbbbbaabbbbbbbbbbbbbb",
"bbbbbbbbbbbbbbbbaabbbbbbbbbbbbbbbbbbbbbbbbbbbbbbaabbbbbbbbbbbbbb",
"bbbbbbbbbbbbbbbbaabbbbbbbbbbbbbbbbbbbbbbbbbbbbbbaabbbbbbbbbbbbbb",
"bbbbbbbbbbbbbbbbaabbbbbbbbbbbbbbbbbbbbbbbbbbbbbbaabbbbbbbbbbbbbb",
"bbbbbbbbbbbbbbbbaabbbbbbbbbbbbbbbbbbbbbbbbbbbbbbaabbbbbbbbbbbbbb",
"bbbbbbbbbbbbbbbbaabbbbbbbbbbbbbbbbbbbbbbbbbbbbbbaabbbbbbbbbbbbbb",
"bbbbbbbbbbbbbbbbaabbbbbbbbbbbbbbbbbbbbbbbbbbbbbbaabbbbbbbbbbbbbb",
"bbbbbbbbbbbbbbbbaabbbbbbbbbbbbbbbbbbbbbbbbbbbbbbaabbbbbbbbbbbbbb",
"bbbbbbbbbbbbbbbbaabbbbbbbbbbbbbbbbbbbbbbbbbbbbbbaabbbbbbbbbbbbbb",
"bbbbbbbbbbbbbbbbaabbbbbbbbbbbbbbbbbbbbbbbbbbbbbbaabbbbbbbbbbbbbb",
"aaaaaaaaaaaaaaaaaaaaaaaaaaaaaaaaaaaaaaaaaaaaaaaaaaaaaaaaaaaaaaaa",
"aaaaaaaaaaaaaaaaaaaaaaaaaaaaaaaaaaaaaaaaaaaaaaaaaaaaaaaaaaaaaaaa",
"aabbbbbbbbbbbbbbbbbbbbbbbbbbbbbbaabbbbbbbbbbbbbbbbbbbbbbbbbbbbbb",
"aabbbbbbbbbbbbbbbbbbbbbbbbbbbbbbaabbbbbbbbbbbbbbbbbbbbbbbbbbbbbb",
"aabbbbbbbbbbbbbbbbbbbbbbbbbbbbbbaabbbbbbbbbbbbbbbbbbbbbbbbbbbbbb",
"aabbbbbbbbbbbbbbbbbbbbbbbbbbbbbbaabbbbbbbbbbbbbbbbbbbbbbbbbbbbbb",
"aabbbbbbbbbbbbbbbbbbbbbbbbbbbbbbaabbbbbbbbbbbbbbbbbbbbbbbbbbbbbb",
"aabbbbbbbbbbbbbbbbbbbbbbbbbbbbbbaabbbbbbbbbbbbbbbbbbbbbbbbbbbbbb",
"aabbbbbbbbbbbbbbbbbbbbbbbbbbbbbbaabbbbbbbbbbbbbbbbbbbbbbbbbbbbbb",
"aabbbbbbbbbbbbbbbbbbbbbbbbbbbbbbaabbbbbbbbbbbbbbbbbbbbbbbbbbbbbb",
"aabbbbbbbbbbbbbbbbbbbbbbbbbbbbbbaabbbbbbbbbbbbbbbbbbbbbbbbbbbbbb",
"aabbbbbbbbbbbbbbbbbbbbbbbbbbbbbbaabbbbbbbbbbbbbbbbbbbbbbbbbbbbbb",
"aabbbbbbbbbbbbbbbbbbbbbbbbbbbbbbaabbbbbbbbbbbbbbbbbbbbbbbbbbbbbb",
"aabbbbbbbbbbbbbbbbbbbbbbbbbbbbbbaabbbbbbbbbbbbbbbbbbbbbbbbbbbbbb",
"aabbbbbbbbbbbbbbbbbbbbbbbbbbbbbbaabbbbbbbbbbbbbbbbbbbbbbbbbbbbbb",
"aabbbbbbbbbbbbbbbbbbbbbbbbbbbbbbaabbbbbbbbbbbbbbbbbbbbbbbbbbbbbb",
"aaaaaaaaaaaaaaaaaaaaaaaaaaaaaaaaaaaaaaaaaaaaaaaaaaaaaaaaaaaaaaaa",
"aaaaaaaaaaaaaaaaaaaaaaaaaaaaaaaaaaaaaaaaaaaaaaaaaaaaaaaaaaaaaaaa",
"bbbbbbbbbbbbbbbbaabbbbbbbbbbbbbbbbbbbbbbbbbbbbbbaabbbbbbbbbbbbbb",
"bbbbbbbbbbbbbbbbaabbbbbbbbbbbbbbbbbbbbbbbbbbbbbbaabbbbbbbbbbbbbb",
"bbbbbbbbbbbbbbbbaabbbbbbbbbbbbbbbbbbbbbbbbbbbbbbaabbbbbbbbbbbbbb",
"bbbbbbbbbbbbbbbbaabbbbbbbbbbbbbbbbbbbbbbbbbbbbbbaabbbbbbbbbbbbbb",
"bbbbbbbbbbbbbbbbaabbbbbbbbbbbbbbbbbbbbbbbbbbbbbbaabbbbbbbbbbbbbb",
"bbbbbbbbbbbbbbbbaabbbbbbbbbbbbbbbbbbbbbbbbbbbbbbaabbbbbbbbbbbbbb",
"bbbbbbbbbbbbbbbbaabbbbbbbbbbbbbbbbbbbbbbbbbbbbbbaabbbbbbbbbbbbbb",
"bbbbbbbbbbbbbbbbaabbbbbbbbbbbbbbbbbbbbbbbbbbbbbbaabbbbbbbbbbbbbb",
"bbbbbbbbbbbbbbbbaabbbbbbbbbbbbbbbbbbbbbbbbbbbbbbaabbbbbbbbbbbbbb",
"bbbbbbbbbbbbbbbbaabbbbbbbbbbbbbbbbbbbbbbbbbbbbbbaabbbbbbbbbbbbbb",
"bbbbbbbbbbbbbbbbaabbbbbbbbbbbbbbbbbbbbbbbbbbbbbbaabbbbbbbbbbbbbb",
"bbbbbbbbbbbbbbbbaabbbbbbbbbbbbbbbbbbbbbbbbbbbbbbaabbbbbbbbbbbbbb",
"bbbbbbbbbbbbbbbbaabbbbbbbbbbbbbbbbbbbbbbbbbbbbbbaabbbbbbbbbbbbbb",
"bbbbbbbbbbbbbbbbaabbbbbbbbbbbbbbbbbbbbbbbbbbbbbbaabbbbbbbbbbbbbb"
};
