/* XPM */
static char *bonus_west[] = {
"64 64 2 1",
"a c #414342",
"b c #8B9A9E",
"aaaaaaaaaaaaaaaaaaaaaaaaaaaaaaaaaaaaaaaaaaaaaaaaaaaaaaaaaaaaaaaa",
"aaaaaaaaaaaaaaaaaaaaaaaaaaaaaaaaaaaaaaaaaaaaaaaaaaaaaaaaaaaaaaaa",
"aabbbbbbbbbbbbbbbbbbbbbbbbbbbbbbaabbbbbbbbbbbbbbbbbbbbbbbbbbbbbb",
"aabbbbbbbbbbbbbbbbbbbbbbbbbbbbbbaabbbbbbbbbbbbbbbbbbbbbbbbbbbbbb",
"aabbbbbbbbbbbbbbbbbbbbbbbbbbbbbbaabbbbbbbbbbbbbbbbbbbbbbbbbbbbbb",
"aabbbbbbbbbbbbbbbbbbbbbbbbbbbbbbaabbbbbbbbbbbbbbbbbbbbbbbbbbbbbb",
"aabbbbbbbbbbbbbbbbbbbbbbbbbbbbbbaabbbbbbbbbbbbbbbbbbbbbbbbbbbbbb",
"aabbbbbbbbbbbbbbbbbbbbbbbbbbbbbbaabbbbbbbbbbbbbbbbbbbbbbbbbbbbbb",
"aabbbbbbbbbbbbbbbbbbbbbbbbbbbbbbaabbbbbbbbbbbbbbbbbbbbbbbbbbbbbb",
"aabbbbbbbbbbbbbbbbbbbbbbbbbbbbbbaabbbbbbbbbbbbbbbbbbbbbbbbbbbbbb",
"aabbbbbbbbbbbbbbbbbbbbbbbbbbbbbbaabbbbbbbbbbbbbbbbbbbbbbbbbbbbbb",
"aabbbbbbbbbbbbbbbbbbbbbbbbbbbbbbaabbbbbbbbbbbbbbbbbbbbbbbbbbbbbb",
"aabbbbbbbbbbbbbbbbbbbbbbbbbbbbbbaabbbbbbbbbbbbbbbbbbbbbbbbbbbbbb",
"aabbbbbbbbbbbbbbbbbbbbbbbbbbbbbbaabbbbbbbbbbbbbbbbbbbbbbbbbbbbbb",
"aabbbbbbbbbbbbbbbbbbbbbbbbbbbbbbaabbbbbbbbbbbbbbbbbbbbbbbbbbbbbb",
"aabbbbbbbbbbbbbbbbbbbbbbbbbbbbbbaabbbbbbbbbbbbbbbbbbbbbbbbbbbbbb",
"aaaaaaaaaaaaaaaaaaaaaaaaaaaaaaaaaaaaaaaaaaaaaaaaaaaaaaaaaaaaaaaa",
"aaaaaaaaaaaaaaaaaaaaaaaaaaaaaaaaaaaaaaaaaaaaaaaaaaaaaaaaaaaaaaaa",
"bbbbbbbbbbbbbbbbaabbbbbbbbbbbbbbbbbbbbbbbbbbbbbbaabbbbbbbbbbbbbb",
"bbbbbbbbbbbbbbbbaabbbbbbbbbbbbbbbbbbbbbbbbbbbbbbaabbbbbbbbbbbbbb",
"bbbbbbbbbbbbbbbbaabbbbbbbbbbbbbbbbbbbbbbbbbbbbbbaabbbbbbbbbbbbbb",
"bbbbbbbbbbbbbbbbaabbbbbbbbbbbbbbbbbbbbbbbbbbbbbbaabbbbbbbbbbbbbb",
"bbbbbbbbbbbbbbbbaabbbbbbbbbbbbbbbbbbbbbbbbbbbbbbaabbbbbbbbbbbbbb",
"bbbbbbbbbbbbbbbbaabbbbbbbbbbbbbbbbbbbbbbbbbbbbbbaabbbbbbbbbbbbbb",
"bbbbbbbbbbbbbbbbaabbbbbbbbbbbbbbbbbbbbbbbbbbbbbbaabbbbbbbbbbbbbb",
"bbbbbbbbbbbbbbbbaabbbbbbbbbbbbbbbbbbbbbbbbbbbbbbaabbbbbbbbbbbbbb",
"bbbbbbbbbbbbbbbbaabbbbbbbbbbbbbbbbbbbbbbbbbbbbbbaabbbbbbbbbbbbbb",
"bbbbbbbbbbbbbbbbaabbbbbbbbbbbbbbbbbbbbbbbbbbbbbbaabbbbbbbbbbbbbb",
"bbbbbbbbbbbbbbbbaabbbbbbbbbbbbbbbbbbbbbbbbbbbbbbaabbbbbbbbbbbbbb",
"bbbbbbbbbbbbbbbbaabbbbbbbbbbbbbbbbbbbbbbbbbbbbbbaabbbbbbbbbbbbbb",
"bbbbbbbbbbbbbbbbaabbbbbbbbbbbbbbbbbbbbbbbbbbbbbbaabbbbbbbbbbbbbb",
"bbbbbbbbbbbbbbbbaabbbbbbbbbbbbbbbbbbbbbbbbbbbbbbaabbbbbbbbbbbbbb",
"aaaaaaaaaaaaaaaaaaaaaaaaaaaaaaaaaaaaaaaaaaaaaaaaaaaaaaaaaaaaaaaa",
"aaaaaaaaaaaaaaaaaaaaaaaaaaaaaaaaaaaaaaaaaaaaaaaaaaaaaaaaaaaaaaaa",
"aabbbbbbbbbbbbbbbbbbbbbbbbbbbbbbaabbbbbbbbbbbbbbbbbbbbbbbbbbbbbb",
"aabbbbbbbbbbbbbbbbbbbbbbbbbbbbbbaabbbbbbbbbbbbbbbbbbbbbbbbbbbbbb",
"aabbbbbbbbbbbbbbbbbbbbbbbbbbbbbbaabbbbbbbbbbbbbbbbbbbbbbbbbbbbbb",
"aabbbbbbbbbbbbbbbbbbbbbbbbbbbbbbaabbbbbbbbbbbbbbbbbbbbbbbbbbbbbb",
"aabbbbbbbbbbbbbbbbbbbbbbbbbbbbbbaabbbbbbbbbbbbbbbbbbbbbbbbbbbbbb",
"aabbbbbbbbbbbbbbbbbbbbbbbbbbbbbbaabbbbbbbbbbbbbbbbbbbbbbbbbbbbbb",
"aabbbbbbbbbbbbbbbbbbbbbbbbbbbbbbaabbbbbbbbbbbbbbbbbbbbbbbbbbbbbb",
"aabbbbbbbbbbbbbbbbbbbbbbbbbbbbbbaabbbbbbbbbbbbbbbbbbbbbbbbbbbbbb",
"aabbbbbbbbbbbbbbbbbbbbbbbbbbbbbbaabbbbbbbbbbbbbbbbbbbbbbbbbbbbbb",
"aabbbbbbbbbbbbbbbbbbbbbbbbbbbbbbaabbbbbbbbbbbbbbbbbbbbbbbbbbbbbb",
"aabbbbbbbbbbbbbbbbbbbbbbbbbbbbbbaabbbbbbbbbbbbbbbbbbbbbbbbbbbbbb",
"aabbbbbbbbbbbbbbbbbbbbbbbbbbbbbbaabbbbbbbbbbbbbbbbbbbbbbbbbbbbbb",
"aabbbbbbbbbbbbbbbbbbbbbbbbbbbbbbaabbbbbbbbbbbbbbbbbbbbbbbbbbbbbb",
"aabbbbbbbbbbbbbbbbbbbbbbbbbbbbbbaabbbbbbbbbbbbbbbbbbbbbbbbbbbbbb",
"aaaaaaaaaaaaaaaaaaaaaaaaaaaaaaaaaaaaaaaaaaaaaaaaaaaaaaaaaaaaaaaa",
"aaaaaaaaaaaaaaaaaaaaaaaaaaaaaaaaaaaaaaaaaaaaaaaaaaaaaaaaaaaaaaaa",
"bbbbbbbbbbbbbbbbaabbbbbbbbbbbbbbbbbbbbbbbbbbbbbbaabbbbbbbbbbbbbb",
"bbbbbbbbbbbbbbbbaabbbbbbbbbbbbbbbbbbbbbbbbbbbbbbaabbbbbbbbbbbbbb",
"bbbbbbbbbbbbbbbbaabbbbbbbbbbbbbbbbbbbbbbbbbbbbbbaabbbbbbbbbbbbbb",
"bbbbbbbbbbbbbbbbaabbbbbbbbbbbbbbbbbbbbbbbbbbbbbbaabbbbbbbbbbbbbb",
"bbbbbbbbbbbbbbbbaabbbbbbbbbbbbbbbbbbbbbbbbbbbbbbaabbbbbbbbbbbbbb",
"bbbbbbbbbbbbbbbbaabbbbbbbbbbbbbbbbbbbbbbbbbbbbbbaabbbbbbbbbbbbbb",
"bbbbbbbbbbbbbbbbaabbbbbbbbbbbbbbbbbbbbbbbbbbbbbbaabbbbbbbbbbbbbb",
"bbbbbbbbbbbbbbbbaabbbbbbbbbbbbbbbbbbbbbbbbbbbbbbaabbbbbbbbbbbbbb",
"bbbbbbbbbbbbbbbbaabbbbbbbbbbbbbbbbbbbbbbbbbbbbbbaabbbbbbbbbbbbbb",
"bbbbbbbbbbbbbbbbaabbbbbbbbbbbbbbbbbbbbbbbbbbbbbbaabbbbbbbbbbbbbb",
"bbbbbbbbbbbbbbbbaabbbbbbbbbbbbbbbbbbbbbbbbbbbbbbaabbbbbbbbbbbbbb",
"bbbbbbbbbbbbbbbbaabbbbbbbbbbbbbbbbbbbbbbbbbbbbbbaabbbbbbbbbbbbbb",
"bbbbbbbbbbbbbbbbaabbbbbbbbbbbbbbbbbbbbbbbbbbbbbbaabbbbbbbbbbbbbb",
"bbbbbbbbbbbbbbbbaabbbbbbbbbbbbbbbbbbbbbbbbbbbbbbaabbbbbbbbbbbbbb"
};
