/* XPM */
static char *bonus_door[] = {
"64 64 4 1",
"a c #493E31",
"b c #4C3322",
"c c #987044",
"d c #D3B763",
"aaaaaaaaaaaaaaaaaaaaaaaaaaaaaaaaaaaaaaaaaaaaaaaaaaaaaaaaaaaaaaaa",
"aaaaaaaaaaaaaaaaaaaaaaaaaaaaaaaaaaaaaaaaaaaaaaaaaaaaaaaaaaaaaaaa",
"aaaaaaaaaaaaaaaaaaaaaaaaaaaaaaaaaaaaaaaaaaaaaaaaaaaaaaaaaaaaaaaa",
"aaaaaaaaaaaaaaaaaaaaaaaaaaaaaaaaaaaaaaaaaaaaaaaaaaaaaaaaaaaaaaaa",
"bbccccccccccccccbbccccccccccccccbbccccccccccccccbbcccccccccccccc",
"bbccccccccccccccbbccccccccccccccbbccccccccccccccbbcccccccccccccc",
"bbccccccccccccccbbccccccccccccccbbccccccccccccccbbcccccccccccccc",
"bbccccccccccccccbbccccccccccccccbbccccccccccccccbbcccccccccccccc",
"bbccccccccccccccbbccccccccccccccbbccccccccccccccbbcccccccccccccc",
"bbccccccccccccccbbccccccccccccccbbccccccccccccccbbcccccccccccccc",
"bbccccccccccccccbbccccccccccccccbbccccccccccccccbbcccccccccccccc",
"bbccccccccccccccbbccccccccccccccbbccccccccccccccbbcccccccccccccc",
"bbccccccccccccccbbccccccccccccccbbccccccccccccccbbcccccccccccccc",
"bbccccccccccccccbbccccccccccccccbbccccccccccccccbbcccccccccccccc",
"bbccccccccccccccbbccccccccccccccbbccccccccccccccbbcccccccccccccc",
"bbccccccccccccccbbccccccccccccccbbccccccccccccccbbcccccccccccccc",
"bbccccccccccccccbbccccccccccccccbbccccccccccccccbbcccccccccccccc",
"bbccccccccccccccbbccccccccccccccbbccccccccccccccbbcccccccccccccc",
"bbccccccccccccccbbccccccccccccccbbccccccccccccccbbcccccccccccccc",
"bbccccccccccccccbbccccccccccccccbbccccccccccccccbbcccccccccccccc",
"bbccccccccccccccbbccccccccccccccbbccccccccccccccbbcccccccccccccc",
"bbccccccccccccccbbccccccccccccccbbccccccccccccccbbcccccccccccccc",
"bbccccccccccccccbbccccccccccccccbbccccccccccccccbbcccccccccccccc",
"bbccccccccccccccbbccccccccccccccbbccccccccccccccbbcccccccccccccc",
"bbccccccccccccccbbccccccccccccccbbccccccccccccccbbcccccccccccccc",
"bbccccccccccccccbbccccccccccccccbbccccccccccccccbbcccccccccccccc",
"bbccccccccccccccbbccccccccccccccbbccccccccccccccbbcccccccccccccc",
"bbccccccccccccccbbccccccccccccccbbccccccccccccccbbcccccccccccccc",
"bbccccccccccccccbbccccccccccccccbbccccccccccccccbbcccccccccccccc",
"bbccccccccccccccbbccccccccccccccbbccccccccccccccbbdddddccccccccc",
"bbccccccccccccccbbccccccccccccccbbccccccccccccccbbdddddccccccccc",
"bbccccccccccccccbbccccccccccccccbbccccccccccccccbbdddddccccccccc",
"bbccccccccccccccbbccccccccccccccbbccccccccccccccbbdddddccccccccc",
"bbccccccccccccccbbccccccccccccccbbccccccccccccccbbdddddccccccccc",
"bbccccccccccccccbbccccccccccccccbbccccccccccccccbbdddddccccccccc",
"bbccccccccccccccbbccccccccccccccbbccccccccccccccbbdddddccccccccc",
"bbccccccccccccccbbccccccccccccccbbccccccccccccccbbcccccccccccccc",
"bbccccccccccccccbbccccccccccccccbbccccccccccccccbbcccccccccccccc",
"bbccccccccccccccbbccccccccccccccbbccccccccccccccbbcccccccccccccc",
"bbccccccccccccccbbccccccccccccccbbccccccccccccccbbcccccccccccccc",
"bbccccccccccccccbbccccccccccccccbbccccccccccccccbbcccccccccccccc",
"bbccccccccccccccbbccccccccccccccbbccccccccccccccbbcccccccccccccc",
"bbccccccccccccccbbccccccccccccccbbccccccccccccccbbcccccccccccccc",
"bbccccccccccccccbbccccccccccccccbbccccccccccccccbbcccccccccccccc",
"bbccccccccccccccbbccccccccccccccbbccccccccccccccbbcccccccccccccc",
"bbccccccccccccccbbccccccccccccccbbccccccccccccccbbcccccccccccccc",
"bbccccccccccccccbbccccccccccccccbbccccccccccccccbbcccccccccccccc",
"bbccccccccccccccbbccccccccccccccbbccccccccccccccbbcccccccccccccc",
"bbccccccccccccccbbccccccccccccccbbccccccccccccccbbcccccccccccccc",
"bbccccccccccccccbbccccccccccccccbbccccccccccccccbbcccccccccccccc",
"bbccccccccccccccbbccccccccccccccbbccccccccccccccbbcccccccccccccc",
"bbccccccccccccccbbccccccccccccccbbccccccccccccccbbcccccccccccccc",
"bbccccccccccccccbbccccccccccccccbbccccccccccccccbbcccccccccccccc",
"bbccccccccccccccbbccccccccccccccbbccccccccccccccbbcccccccccccccc",
"bbccccccccccccccbbccccccccccccccbbccccccccccccccbbcccccccccccccc",
"bbccccccccccccccbbccccccccccccccbbccccccccccccccbbcccccccccccccc",
"bbccccccccccccccbbccccccccccccccbbccccccccccccccbbcccccccccccccc",
"bbccccccccccccccbbccccccccccccccbbccccccccccccccbbcccccccccccccc",
"bbccccccccccccccbbccccccccccccccbbccccccccccccccbbcccccccccccccc",
"bbccccccccccccccbbccccccccccccccbbccccccccccccccbbcccccccccccccc",
"aaaaaaaaaaaaaaaaaaaaaaaaaaaaaaaaaaaaaaaaaaaaaaaaaaaaaaaaaaaaaaaa",
"aaaaaaaaaaaaaaaaaaaaaaaaaaaaaaaaaaaaaaaaaaaaaaaaaaaaaaaaaaaaaaaa",
"aaaaaaaaaaaaaaaaaaaaaaaaaaaaaaaaaaaaaaaaaaaaaaaaaaaaaaaaaaaaaaaa",
"aaaaaaaaaaaaaaaaaaaaaaaaaaaaaaaaaaaaaaaaaaaaaaaaaaaaaaaaaaaaaaaa"
};
