/* XPM */
static char *bonus_north[] = {
"64 64 2 1",
"a c #414342",
"b c #A87559",
"aaaaaaaaaaaaaaaaaaaaaaaaaaaaaaaaaaaaaaaaaaaaaaaaaaaaaaaaaaaaaaaa",
"aaaaaaaaaaaaaaaaaaaaaaaaaaaaaaaaaaaaaaaaaaaaaaaaaaaaaaaaaaaaaaaa",
"aabbbbbbbbbbbbbbbbbbbbbbbbbbbbbbaabbbbbbbbbbbbbbbbbbbbbbbbbbbbbb",
"aabbbbbbbbbbbbbbbbbbbbbbbbbbbbbbaabbbbbbbbbbbbbbbbbbbbbbbbbbbbbb",
"aabbbbbbbbbbbbbbbbbbbbbbbbbbbbbbaabbbbbbbbbbbbbbbbbbbbbbbbbbbbbb",
"aabbbbbbbbbbbbbbbbbbbbbbbbbbbbbbaabbbbbbbbbbbbbbbbbbbbbbbbbbbbbb",
"aabbbbbbbbbbbbbbbbbbbbbbbbbbbbbbaabbbbbbbbbbbbbbbbbbbbbbbbbbbbbb",
"aabbbbbbbbbbbbbbbbbbbbbbbbbbbbbbaabbbbbbbbbbbbbbbbbbbbbbbbbbbbbb",
"aabbbbbbbbbbbbbbbbbbbbbbbbbbbbbbaabbbbbbbbbbbbbbbbbbbbbbbbbbbbbb",
"aabbbbbbbbbbbbbbbbbbbbbbbbbbbbbbaabbbbbbbbbbbbbbbbbbbbbbbbbbbbbb",
"aabbbbbbbbbbbbbbbbbbbbbbbbbbbbbbaabbbbbbbbbbbbbbbbbbbbbbbbbbbbbb",
"aabbbbbbbbbbbbbbbbbbbbbbbbbbbbbbaabbbbbbbbbbbbbbbbbbbbbbbbbbbbbb",
"aabbbbbbbbbbbbbbbbbbbbbbbbbbbbbbaabbbbbbbbbbbbbbbbbbbbbbbbbbbbbb",
"aabbbbbbbbbbbbbbbbbbbbbbbbbbbbbbaabbbbbbbbbbbbbbbbbbbbbbbbbbbbbb",
"aabbbbbbbbbbbbbbbbbbbbbbbbbbbbbbaabbbbbbbbbbbbbbbbbbbbbbbbbbbbbb",
"aabbbbbbbbbbbbbbbbbbbbbbbbbbbbbbaabbbbbbbbbbbbbbbbbbbbbbbbbbbbbb",
"aaaaaaaaaaaaaaaaaaaaaaaaaaaaaaaaaaaaaaaaaaaaaaaaaaaaaaaaaaaaaaaa",
"aaaaaaaaaaaaaaaaaaaaaaaaaaaaaaaaaaaaaaaaaaaaaaaaaaaaaaaaaaaaaaaa",
"bbbbbbbbbbbbbbbbaabbbbbbbbbbbbbbbbbbbbbbbbbbbbbbaabbbbbbbbbbbbbb",
"bbbbbbbbbbbbbbbbaabbbbbbbbbbbbbbbbbbbbbbbbbbbbbbaabbbbbbbbbbbbbb",
"bbbbbbbbbbbbbbbbaabbbbbbbbbbbbbbbbbbbbbbbbbbbbbbaabbbbbbbbbbbbbb",
"bbbbbbbbbbbbbbbbaabbbbbbbbbbbbbbbbbbbbbbbbbbbbbbaabbbbbbbbbbbbbb",
"bbbbbbbbbbbbbbbbaabbbbbbbbbbbbbbbbbbbbbbbbbbbbbbaabbbbbbbbbbbbbb",
"bbbbbbbbbbbbbbbbaabbbbbbbbbbbbbbbbbbbbbbbbbbbbbbaabbbbbbbbbbbbbb",
"bbbbbbbbbbbbbbbbaabbbbbbbbbbbbbbbbbbbbbbbbbbbbbbaabbbbbbbbbbbbbb",
"bbbbbbbbbbbbbbbbaabbbbbbbbbbbbbbbbbbbbbbbbbbbbbbaabbbbbbbbbbbbbb",
"bbbbbbbbbbbbbbbbaabbbbbbbbbbbbbbbbbbbbbbbbbbbbbbaabbbbbbbbbbbbbb",
"bbbbbbbbbbbbbbbbaabbbbbbbbbbbbbbbbbbbbbbbbbbbbbbaabbbbbbbbbbbbbb",
"bbbbbbbbbbbbbbbbaabbbbbbbbbbbbbbbbbbbbbbbbbbbbbbaabbbbbbbbbbbbbb",
"bbbbbbbbbbbbbbbbaabbbbbbbbbbbbbbbbbbbbbbbbbbbbbbaabbbbbbbbbbbbbb",
"bbbbbbbbbbbbbbbbaabbbbbbbbbbbbbbbbbbbbbbbbbbbbbbaabbbbbbbbbbbbbb",
"bbbbbbbbbbbbbbbbaabbbbbbbbbbbbbbbbbbbbbbbbbbbbbbaabbbbbbbbbbbbbb",
"aaaaaaaaaaaaaaaaaaaaaaaaaaaaaaaaaaaaaaaaaaaaaaaaaaaaaaaaaaaaaaaa",
"aaaaaaaaaaaaaaaaaaaaaaaaaaaaaaaaaaaaaaaaaaaaaaaaaaaaaaaaaaaaaaaa",
"aabbbbbbbbbbbbbbbbbbbbbbbbbbbbbbaabbbbbbbbbbbbbbbbbbbbbbbbbbbbbb",
"aabbbbbbbbbbbbbbbbbbbbbbbbbbbbbbaabbbbbbbbbbbbbbbbbbbbbbbbbbbbbb",
"aabbbbbbbbbbbbbbbbbbbbbbbbbbbbbbaabbbbbbbbbbbbbbbbbbbbbbbbbbbbbb",
"aabbbbbbbbbbbbbbbbbbbbbbbbbbbbbbaabbbbbbbbbbbbbbbbbbbbbbbbbbbbbb",
"aabbbbbbbbbbbbbbbbbbbbbbbbbbbbbbaabbbbbbbbbbbbbbbbbbbbbbbbbbbbbb",
"aabbbbbbbbbbbbbbbbbbbbbbbbbbbbbbaabbbbbbbbbbbbbbbbbbbbbbbbbbbbbb",
"aabbbbbbbbbbbbbbbbbbbbbbbbbbbbbbaabbbbbbbbbbbbbbbbbbbbbbbbbbbbbb",
"aabbbbbbbbbbbbbbbbbbbbbbbbbbbbbbaabbbbbbbbbbbbbbbbbbbbbbbbbbbbbb",
"aabbbbbbbbbbbbbbbbbbbbbbbbbbbbbbaabbbbbbbbbbbbbbbbbbbbbbbbbbbbbb",
"aabbbbbbbbbbbbbbbbbbbbbbbbbbbbbbaabbbbbbbbbbbbbbbbbbbbbbbbbbbbbb",
"aabbbbbbbbbbbbbbbbbbbbbbbbbbbbbbaabbbbbbbbbbbbbbbbbbbbbbbbbbbbbb",
"aabbbbbbbbbbbbbbbbbbbbbbbbbbbbbbaabbbbbbbbbbbbbbbbbbbbbbbbbbbbbb",
"aabbbbbbbbbbbbbbbbbbbbbbbbbbbbbbaabbbbbbbbbbbbbbbbbbbbbbbbbbbbbb",
"aabbbbbbbbbbbbbbbbbbbbbbbbbbbbbbaabbbbbbbbbbbbbbbbbbbbbbbbbbbbbb",
"aaaaaaaaaaaaaaaaaaaaaaaaaaaaaaaaaaaaaaaaaaaaaaaaaaaaaaaaaaaaaaaa",
"aaaaaaaaaaaaaaaaaaaaaaaaaaaaaaaaaaaaaaaaaaaaaaaaaaaaaaaaaaaaaaaa",
"bbbbbbbbbbbbbbbbaabbbbbbbbbbbbbbbbbbbbbbbbbbbbbbaabbbbbbbbbbbbbb",
"bbbbbbbbbbbbbbbbaabbbbbbbbbbbbbbbbbbbbbbbbbbbbbbaabbbbbbbbbbbbbb",
"bbbbbbbbbbbbbbbbaabbbbbbbbbbbbbbbbbbbbbbbbbbbbbbaabbbbbbbbbbbbbb",
"bbbbbbbbbbbbbbbbaabbbbbbbbbbbbbbbbbbbbbbbbbbbbbbaabbbbbbbbbbbbbb",
"bbbbbbbbbbbbbbbbaabbbbbbbbbbbbbbbbbbbbbbbbbbbbbbaabbbbbbbbbbbbbb",
"bbbbbbbbbbbbbbbbaabbbbbbbbbbbbbbbbbbbbbbbbbbbbbbaabbbbbbbbbbbbbb",
"bbbbbbbbbbbbbbbbaabbbbbbbbbbbbbbbbbbbbbbbbbbbbbbaabbbbbbbbbbbbbb",
"bbbbbbbbbbbbbbbbaabbbbbbbbbbbbbbbbbbbbbbbbbbbbbbaabbbbbbbbbbbbbb",
"bbbbbbbbbbbbbbbbaabbbbbbbbbbbbbbbbbbbbbbbbbbbbbbaabbbbbbbbbbbbbb",
"bbbbbbbbbbbbbbbbaabbbbbbbbbbbbbbbbbbbbbbbbbbbbbbaabbbbbbbbbbbbbb",
"bbbbbbbbbbbbbbbbaabbbbbbbbbbbbbbbbbbbbbbbbbbbbbbaabbbbbbbbbbbbbb",
"bbbbbbbbbbbbbbbbaabbbbbbbbbbbbbbbbbbbbbbbbbbbbbbaabbbbbbbbbbbbbb",
"bbbbbbbbbbbbbbbbaabbbbbbbbbbbbbbbbbbbbbbbbbbbbbbaabbbbbbbbbbbbbb",
"bbbbbbbbbbbbbbbbaabbbbbbbbbbbbbbbbbbbbbbbbbbbbbbaabbbbbbbbbbbbbb"
};
