/* XPM */
static char *c334c2242f804eacb44b776a2051f722JHuKtUcnH0RKLCDM[] = {
/* columns rows colors chars-per-pixel */
"440 454 256 2 ",
"   c #000000",
".  c #090203",
"X  c #180303",
"o  c #0F1613",
"O  c #2C0102",
"+  c #250305",
"@  c #330103",
"#  c #3A0206",
"$  c #340C14",
"%  c #102D10",
"&  c #31330A",
"*  c #10162B",
"=  c #2F0A2E",
"-  c #092F31",
";  c #2F2B33",
":  c #470107",
">  c #5C0102",
",  c #570208",
"<  c #470217",
"1  c #580217",
"2  c #4E170F",
"3  c #640001",
"4  c #6C0102",
"5  c #67030B",
"6  c #730101",
"7  c #780307",
"8  c #660318",
"9  c #720C17",
"0  c #522E11",
"q  c #692B16",
"w  c #570425",
"e  c #4E0A2C",
"r  c #670626",
"t  c #720E2E",
"y  c #54312C",
"u  c #6E3032",
"i  c #165406",
"p  c #2F5009",
"a  c #316D0E",
"s  c #0A4E33",
"d  c #314F2E",
"f  c #1A6D26",
"g  c #4C4D0F",
"h  c #6D5309",
"j  c #716B0C",
"k  c #524A31",
"l  c #6D4A36",
"z  c #5A7022",
"x  c #0E3052",
"c  c #2E324F",
"v  c #2D196D",
"b  c #11316A",
"n  c #2B2E6F",
"m  c #1F1755",
"M  c #4D324D",
"N  c #773946",
"B  c #6F3348",
"V  c #511A75",
"C  c #721479",
"Z  c #4D2F72",
"A  c #6E2E74",
"S  c #630A4A",
"D  c #0C4E50",
"F  c #304E4E",
"G  c #0F6D50",
"H  c #2F6D53",
"J  c #0C506E",
"K  c #2C4D6C",
"L  c #0B6E72",
"P  c #33716C",
"I  c #504E50",
"U  c #79545A",
"Y  c #724B4F",
"T  c #736C50",
"R  c #765468",
"E  c #736C73",
"W  c #4F6366",
"Q  c #8B0811",
"!  c #880A33",
"~  c #892D35",
"^  c #A91D26",
"/  c #8D730D",
"(  c #935F28",
")  c #DD6518",
"_  c #90054B",
"`  c #8F354B",
"'  c #AE3151",
"]  c #AA1270",
"[  c #A11D69",
"{  c #CD2863",
"}  c #8F4F53",
"|  c #AA4B55",
" . c #8D6E54",
".. c #845B66",
"X. c #93526B",
"o. c #AE536D",
"O. c #88636C",
"+. c #8B6973",
"@. c #98747C",
"#. c #936E73",
"$. c #AD6D72",
"%. c #AD6F51",
"&. c #CB5574",
"*. c #D16878",
"=. c #D6565F",
"-. c #D0221B",
";. c #259624",
":. c #4F8C0B",
">. c #639B21",
",. c #69E32A",
"<. c #0D9071",
"1. c #0EAF70",
"2. c #1F9E5A",
"3. c #619A5F",
"4. c #0FCD72",
"5. c #12F671",
"6. c #20E85A",
"7. c #60EF54",
"8. c #21D834",
"9. c #979521",
"0. c #AED336",
"q. c #95E733",
"w. c #8F8F50",
"e. c #B4B356",
"r. c #B19276",
"t. c #B6AC6F",
"y. c #979B62",
"u. c #C9B671",
"i. c #CEA362",
"p. c #B4CB4B",
"a. c #A7E25D",
"s. c #CFCF74",
"d. c #D1EA6E",
"f. c #C9D452",
"g. c #DEA724",
"h. c #063897",
"j. c #062F8B",
"k. c #13259C",
"l. c #692694",
"z. c #074698",
"x. c #075899",
"c. c #09508B",
"v. c #0A6C93",
"b. c #0849A5",
"n. c #0858A8",
"m. c #0A57B3",
"M. c #0867A7",
"N. c #0977A9",
"B. c #0967B7",
"V. c #0978B8",
"C. c #1372B1",
"Z. c #2E6499",
"A. c #70708D",
"S. c #5C5F9B",
"D. c #6A30C5",
"F. c #0A79C7",
"G. c #0A78D8",
"H. c #0F6ECE",
"J. c #1B5FCF",
"K. c #595ACC",
"L. c #193EC6",
"P. c #922BB1",
"I. c #9A1F9B",
"U. c #967586",
"Y. c #A57A87",
"T. c #B3728E",
"R. c #B670A9",
"E. c #A3529F",
"W. c #D06E88",
"Q. c #DD698F",
"!. c #8C21C4",
"~. c #AC50AE",
"^. c #0C8F90",
"/. c #0EB090",
"(. c #0A86B8",
"). c #0D90AE",
"_. c #0DB8B7",
"`. c #0FADB0",
"'. c #2EA09C",
"]. c #61A29E",
"[. c #10CD93",
"{. c #11EB8F",
"}. c #0DC7BA",
"|. c #12DAB8",
" X c #11CFAF",
".X c #11E6B0",
"XX c #2DDBA8",
"oX c #63D5A9",
"OX c #0A88CA",
"+X c #0B97C9",
"@X c #0B88D4",
"#X c #0C96D8",
"$X c #1392D1",
"%X c #0CA7D9",
"&X c #13A7D9",
"*X c #0CB7D9",
"=X c #14B7D8",
"-X c #0EB0C8",
";X c #0E95E3",
":X c #0EACEC",
">X c #0DA8E5",
",X c #12AAE9",
"<X c #0DB7E8",
"1X c #12B8E9",
"2X c #0FBAF0",
"3X c #11BBF1",
"4X c #11ADF2",
"5X c #2DA1D5",
"6X c #629FD9",
"7X c #13D6C8",
"8X c #14D7D8",
"9X c #0FCBD1",
"0X c #2DD2D0",
"qX c #12EBCE",
"wX c #12C7E6",
"eX c #11CFE7",
"rX c #17E8EB",
"tX c #30ECF0",
"yX c #2DDEE1",
"uX c #71CFD1",
"iX c #50ECF1",
"pX c #70EBEF",
"aX c #5CDCDC",
"sX c #908B8E",
"dX c #A8848B",
"fX c #B68896",
"gX c #B38E8F",
"hX c #B3AE8B",
"jX c #B491AB",
"kX c #99A9A7",
"lX c #CD8F91",
"zX c #CEB191",
"xX c #CD95A9",
"cX c #D1AEB1",
"vX c #E99DA8",
"bX c #A6DEA5",
"nX c #D5CF90",
"mX c #D3D2AB",
"MX c #D2EAAE",
"NX c #E1DE9D",
"BX c #9EA8D8",
"VX c #D6AFC9",
"CX c #90D3D4",
"ZX c #B0CFD2",
"AX c #92F0D0",
"SX c #AFF0D3",
"DX c #B3D3E9",
"FX c #92E9ED",
"GX c #AFEAED",
"HX c #90D7E9",
"JX c #D2D1D1",
"KX c #EAD0D5",
"LX c #CBEDD4",
"PX c #CDD7E8",
"IX c #CCECE9",
"UX c #EADFE5",
/* pixels */
"                                                                                                                                                                                                                                                                                                                                                                                                                                                                                                                                                                                                                                                                                                                                                                                                                                                                                                                ",
"                                                                                                                                                                                                                                                                                                                                                                                                                                                                                                                                                                                                                                                                                                                                                                                                                                                                                                                ",
"                                                                                                                                                                                                                                                                                                                                                                                                                                                                                                                                                                                                                                                                                                                                                                                                                                                                                                                ",
"                                                                                                                                                                                                                                                                                                                                                                                                                                                                                                                                                                                                                                                                                                                                                                                                                                                                                                                ",
"                                                                                                                                                                                                                                                                                                                                                                                                                                                                                                                                                                                                                                                                                                                                                                                                                                                                                                                ",
"                                                                                                                                                                                                                                                                                                                                                                                                                                                                                                                                                                                                                                                                                                                                                                                                                                                                                                                ",
"                                                                                                                                                                                                                                                                                                                                                                                                                                                                                                                                                                                                                                                                                                                                                                                                                                                                                                                ",
"                                                                                                                                                                                                                                                                                                                                                                                                                                                                                                                                                                                                                                                                                                                                                                                                                                                                                                                ",
"                                                                                                                                                                                                                                                                                                                                                                                                                                                                                                                                                                                                                                                                                                                                                                                                                                                                                                                ",
"                                                                                                                                                                                                                                                                                                                                                                                                                                                                                                                                                                                                                                                                                                                                                                                                                                                                                                                ",
"                                                                                                                                                                                                                                                                                                                                                                                                                                                                                                                                                                                                                                                                                                                                                                                                                                                                                                                ",
"                                                                                                                                                                                                                                                                                                                                                                                                                                                                                                                                                                                                                                                                                                                                                                                                                                                                                                                ",
"                                                                                                                                                                                                                                                                                                                                                                                                                                                                                                                                                                                                                                                                                                                                                                                                                                                                                                                ",
"                                                                                                                                                                                                                                                                                                                                                                                                                                                                                                                                                                                                                                                                                                                                                                                                                                                                                                                ",
"                                                                                                                                                                                                                                                                                                                                                                                                                                                                                                                                                                                                                                                                                                                                                                                                                                                                                                                ",
"                                                                                                                                                                                                                                                                                                                                                                                                                                                                                                                                                                                                                                                                                                                                                                                                                                                                                                                ",
"                                                                                                                                                                                                                                                                                                                                                                                                                                                                                                                                                                                                                                                                                                                                                                                                                                                                                                                ",
"                                                                                                                                                                                                                                                                                                                                                                                                                                                                                                                                                                                                                                                                                                                                                                                                                                                                                                                ",
"                                                                                                                                                                                                                                                                                                                                                                                                                                                                                                                                                                                                                                                                                                                                                                                                                                                                                                                ",
"                                                                                                                                                                                                                                                                                                                                                                                                                                                                                                                                                                                                                                                                                                                                                                                                                                                                                                                ",
"                                                                                                                                                                                                                                                                                                                                                                                                                                                                                                                                                                                                                                                                                                                                                                                                                                                                                                                ",
"                                                                                                                                                                                                                                                                                                                                                                                                                                                                                                                                                                                                                                                                                                                                                                                                                                                                                                                ",
"                                                                                                                                                                                                                                                                                                                                                                                                                                                                                                                                                                                                                                                                                                                                                                                                                                                                                                                ",
"                                                                                                                                                                                                                                                                                                                                                                                                                                                                                                                                                                                                                                                                                                                                                                                                                                                                                                                ",
"                                                                                                                                                                                                                                                                                                                                                                                                                                                                                                                                                                                                                                                                                                                                                                                                                                                                                                                ",
"                                                                                                                                                                                                                                                                                                                                                                                                                                                                                                                                                                                                                                                                                                                                                                                                                                                                                                                ",
"                                                                                                                                                                                                                                                                                                                                                                                                                                                                                                                                                                                                                                                                                                                                                                                                                                                                                                                ",
"                                                                                                                                                                                                                                                                                                                                                                                                                                                                                                                                                                                                                                                                                                                                                                                                                                                                                                                ",
"                                                                                                                                                                                                                                                                                                                                                                                                                                                                                                                                                                                                                                                                                                                                                                                                                                                                                                                ",
"                                                                                                                                                                                                                                                                                                                                                                                                                                                                                                                                                                                                                                                                                                                                                                                                                                                                                                                ",
"                                                                                                                                                                                                                                                                                                                                                                                                                                                                                                                                                                                                                                                                                                                                                                                                                                                                                                                ",
"                                                                                                                                                                                                                                                                                                                                                                                                                                                                                                                                                                                                                                                                                                                                                                                                                                                                                                                ",
"                                                                                                                                                                                                                                                                                                                                                                                                                                                                                                                                                                                                                                                                                                                                                                                                                                                                                                                ",
"                                                                                                                                                                                                                                                                                                                                                                                                                                                                                                                                                                                                                                                                                                                                                                                                                                                                                                                ",
"                                                                                                                                                                                                                                                                                                                                                                                                                                                                                                                                                                                                                                                                                                                                                                                                                                                                                                                ",
"                                                                                                                                                                                                                                                                                                                                                                                                                                                                                                                                                                                                                                                                                                                                                                                                                                                                                                                ",
"                                                                                                                                                                                                                                                                                                                                                                                                                                                                                                                                                                                                                                                                                                                                                                                                                                                                                                                ",
"                                                                                                                                                                                                                                                                                                                                                                                                                                                                                                                                                                                                                                                                                                                                                                                                                                                                                                                ",
"                                                                                                                                                                                                                                                                                                                                                                                                                                                                                                                                                                                                                                                                                                                                                                                                                                                                                                                ",
"                                                                                                                                                                                                                                                                                                                                                                                                                                                                                                                                                                                                                                                                                                                                                                                                                                                                                                                ",
"                                                                                                                                                                                                                                                                                                                                                                                                                                                                                                                                                                                                                                                                                                                                                                                                                                                                                                                ",
"                                                                                                                                                                                                                                                                                                                                                                                                                                                                                                                                                                                                                                                                                                                                                                                                                                                                                                                ",
"                                                                                                                                                                                                                                                                                                                                                                                                                                                                                                                                                                                                                                                                                                                                                                                                                                                                                                                ",
"                                                                                                                                                                                                                                                                                                                                                                                                                                                                                                                                                                                                                                                                                                                                                                                                                                                                                                                ",
"                                                                                                                                                                                                                                                                                                                                                                                                                                                                                                                                                                                                                                                                                                                                                                                                                                                                                                                ",
"                                                                                                                                                                                                                                                                                                                                                                                                                                                                                                                                                                                                                                                                                                                                                                                                                                                                                                                ",
"                                                                                                                                                                                                                                                                                                                                                                                                                                                                                                                                                                                                                                                                                                                                                                                                                                                                                                                ",
"                                                                                                                                                                                                                                                                                                                                                                                                                                                                                                                                                                                                                                                                                                                                                                                                                                                                                                                ",
"                                                                                                                                                                                                                                                                                                                                                                                                                                                                                                                                                                                                                                                                                                                                                                                                                                                                                                                ",
"                                                                                                                                                                                                                                                                                                                                                                                                                                                                                                                                                                                                                                                                                                                                                                                                                                                                                                                ",
"                                                                                                                                                                                                                                                                                                                                                                                                                                                                                                                                                                                                                                                                                                                                                                                                                                                                                                                ",
"                                                                                                                                                                                                                                                                                                                                                                                                                                                                                                                                                                                                                                                                                                                                                                                                                                                                                                                ",
"                                                                                                                                                                                                                                                                                                                                                                                                                                                                                                                                                                                                                                                                                                                                                                                                                                                                                                                ",
"                                                                                                                                                                                                                                                                                                                                                                                                                                                                                                                                                                                                                                                                                                                                                                                                                                                                                                                ",
"                                                                                                                                                                                                                                                                                                                                                                                                                                                                                                                                                                                                                                                                                                                                                                                                                                                                                                                ",
"                                                                                                                                                                                                                                                                                                                                                                                                                                                                                                                                                                                                                                                                                                                                                                                                                                                                                                                ",
"                . .                                                             . .         . .                                                                                                                                                                             .                                               . .         . . .                                                                                                   .                                                         . . .                                 .                                                                                                                                                                               .       .       . .           .                 . .     . . . . . . .     . . . .           .   . .   . . . . . . .         . . .             .   . .                 .         ",
"  . . . . . .                               . .         . .     . . . . . . . .                           . .   . . . .         . . . .   . . . . . . . . . .   . . . . . . .                                                                                                                   . . . . . . .       .                                                                   .         . . .                         . .                                                         . .                                                                                                         . .     . . . . . . . .                 . . . . . . . . . . . . . . . .                                 . . . . . . . .           .       .           .             .                               . .                                             . .                           . . .                 ",
". . . . . . .                   . . . .         . . . . . . . .           .     . . . .             . . .                           . .   . . . . . . . . . . . . . . . . .     . . . . . . . . . . . . . . . . . . . . . .     . . . . . . . . . . . . . . . . . . . . . . . . . . . . . . . . . . . . . . . . . . . .                                 . . . .         .   .       . .             . .                     . . . . . . . . . .             . . . .             .             . . . . . . .     . . . . . .     . . . .       . .               .   .   .               . . . .     . . .                       . . . . . . . .     . . . . . . . . . . . . . . . . . . . . . . . . . . . . . . . . . . . . . .                               . . .         .           . .   . .       . . . . .   . .         . . . .     . o               .                               .                 ",
"* * * * * * * * * * * * * * * * * * * * * o o o o o o o o o o o * * * * * * * * * * * * * * * * o o * * * * * * * * * * * * * * * * * * * * * * * * * * * * * * * * * * * * * * * * * * * * * * * * * * * * * * * * * * * * * * * * * * * * * * * * * * * * * * * * o o o o o o * * * * o o o o o o o o % % % % o o o o o o o o o o o o o o o o o o o o o o o o o o o o o o o o o o o o o o o o o o o o o o o o o o o o o o o o o o o o o o o o o o o . . . o X . . . o o o o o o o o o o o . . o . o o o o o o o o o o o o o o o o o o o o o o o o o o o o o o o o o o o o o o o o o o o o o o * * * * * * * * * * * * * * * * * * * * * * * * * - * * * * - - * * * * * * * * * * * * * * * * * * * * * * * * * * * * * * * * * * * * * * o o % o o o $ o X X + o o .   . o o o o X . X X X + X X X X X X + + $ + $ + X + $ o o o X X + X + + $ + + + $ $ @ O O O O O + X X X X . o * * * * * * * * * * * * * ",
"J J c.c.c.c.c.c.c.c.c.c.c.K K K J J J J J J J D P Z.'.'.'.Z.Z.Z.L L J J J J J J v.c.c.c.c.v.v.v.J J c.J J J J J c.c.c.c.c.c.c.c.v.v.v.v.v.v.v.v.v.v.v.v.v.v.v.v.v.v.v.v.v.v.v.v.^.^.^.^.^.^.^.^.^.^.^.^.^.^.^.^.^.^.^.^.^.^.^.^.^.^.^.^.^.^.^.^.^.^.^.^.^.^.^.^.^.^.^.^.^./././.^.^.<.<.<.<.<.<.1.1.'.'.'.'.'.'.].].].].kXkXkXkXkXkXkXkXkXkXkXkXkXkXkXkXkXkXkXkXkXkXkXkXkXkXkXkX].].kXkX].].3.3.P H H H H P P 3.3.].].].].].].].].].].].].].].].].].3.E W E E R R R E E ].].sX].].].].].3.W W H H H F H W W 3.].].].].].].].].].kX].kX].].].].].kXkXkXsXsXsXsXsXU.U.U.U.U.A.A.A.A.A.A.S.S.S.S.S.Z.Z.Z.Z.Z.Z.v.v.v.v.v.v.v.v.v.v.v.v.v.v.v.v.v.v.v.v.v.v.v.v.v.v.v.v.v.v.v.v.v.v.^.^.^.^.^.^.^.^.^.^.^.^.^.^.^.^.v.v.v.v.v.v.v.v.Z.v.v.v.v.'.'.].].].R Y U Y y y Y T T k d F F W E +. . . . .} %.%.%.} ( } | o.o.$.$.o.o.X.#.T.T.$.o.X.` ` ` ` ` B t t ! ~ ! 9 7 6 7 9 5 5 , : : $ e M Z W K Z.v.Z.Z.Z.Z.Z.Z.Z.Z.",
"C.H.H.F.G.G.H.H.OXF.F.F.F.V.V.V.C.C.C.C.N.v.v.v.^.'.5XaX0X5X5X5X).).).).).(.(.(.(.(.(.(.(.(.(.(.(.(.(.(.(.(.(.OX(.(.(.(.(.(.(.(.OXOX$X$XOX$X$X$X$X$X$X$X$X$X$X$X&X&X&X&X&X&X&X&X=X=X=X=X=X=X=X=X=X=X=X=X=X=X=X=X=X9X=X9X9X9X9X9X9X9X9X9X9X9X9X9X9X9X9X9X9X7X7X7X9X9X7X7X7X7X7X7X7X7X|.|.|..XXXXX.X.XXXXXXXXXXXXXiXpXAXAXSXSXSXLXIXIXIXIXIXIXIXIXIXIXIXIXIXIXIXIXIXIXIXIXIXSXSXSXSXSXSXAXCX].3.2.P P H H P 2.3.3.].oXbXAXAXSXAXAXSXAXAXAXAXAXAXuXuXCXkX].sXsXU.U.U.sXjXkXZXZXZXZXCXCX].].3.P P H H F F H H P ].].kXbXbXAXSXSXSXSXSXSXSXSXSXSXSXSXGXGXSXDXDXDXJXVXVXVXVXBXBXBXBXBXBXBXBXBX6X6X6X6X6X6X5X5X5X5X5X5X-X-X-X-X-X-X-X-X-X-X-X=X=X=X=X-X=X=X=X=X=X=X=X=X=X=X=X=X=X=X=X=X=X=X=X=X=X=X=X=X=X=X=X=X=X=X=X=X=X=X=X=X=X=X=X=X=X=X*X*X=X0X0XaXCXkX].+.#.} ~ ~  .y.y.3.H P ].].sXhXr.i.i.i.i.i.i.i.=.=.=.*.*.Q.Q.Q.Q.Q.W.Q.vXVXvXvXQ.&.{ { { [ [ _ _ ' { { ^ Q Q Q ^ Q Q Q 7 4 r t B A.S.'.$X$X&X&X&X&X&X&X&X&X",
"H.H.G.G.G.G.G.G.G.G.G.G.G.G.G.G.F.F.V.V.N.M.v.v.v.).`.=X=X&X-X+X+X+X(.(.(.(.(.+X(.(.+X$X+X+X+X+X(.(.(.(.(.(.(.(.OXOXOXOXOXOXOXOX@X@X@X@X@X@X@X@X#X#X#X#X#X#X;X;X,X>X>X,X,X,X,X<X,X,X,X,X,X,X,X,X,X,X,X,X,X,X,X,X1X1X1X1X1X1X1X1X1X1X1X1X1X1X1X1XwX9X9X9X9X9X9X9X8X8X8X8X8X8X7X0X7X|.|.|.|.|.|.|..X.X.X.X.X.X.X.XqXyXaXpXAXAXAXSXSXLXLXLXIXIXIXIXIXIXIXIXIXIXIXIXIXIXIXIXSXSXSXSXSXAXoX].2.H G s s s s s s s s G 2.2.].oXAXAXAXAXAXAXAXAXAXuXuXoXoXoX].].].sXU.+.U.dXjXcXZXZXbXbXoX].3.H D s s s s - - s s s G P 3.].oXbXAXAXAXAXAXAXAXAXAXAXAXAXFXFXFXDXDXDXZXVXVXVXBXBXBXBXBXBXBXBXBXBX6X6X6X6X6X5X5X$X+X%X-X%X%X%X&X=X=X=X=X=X&X&X=X&X&X&X&X&X*X*X*X*X1X1X1X1X1X1X1XwX=XwXwXwX1X1X1X1X1X=X1X1X=X=X=X=X1X1X1X1XwXwXwXwXwXwXwXwX<XwXwX<X*X-X}.|.].].W M B u 9 q ( ( T H G H 3.'.sXt.i.%.) ) ) g.g.) ) ) ) =.=.=.Q.Q.Q.{ { Q.vXVXvXQ.Q.{ { ] ] ] _ _ ^ { { -.-.-.-.-.-.-.Q Q Q 7 9 r B R S.5X$X#X>X>X>X>X>X>X>X>X",
"H.H.G.G.G.G.G.H.J.J.J.J.H.H.J.J.F.F.F.B.M.M.x.x.v.v.(.).-X%X%X%X+X+X(.(.(.(.+X+X9XeXtXtXtXtXtXtXyXyX=X-X).).).).OXOXOXOXOXOXOXOX@X@X@X@X;X;X;X;X@X;X;X;X;X;X;X;X,X,X,X,X,X,X,X4X:X:X<X<X<X<X<X<X<X<X<X<X<X<X<X<XwXwXwXwXwXwXwXwXwXwXwXwXwXwXeXeX9X9X9X9X9X9X9X9X9X9X9X7X7X7X7X7XqXqXqXqXqXqXqXqX.X.X.X.X.X.X.XqXqXyXiXpXpXAXAXSXSXSXSXLXIXIXIXIXLXLXLXLXIXLXLXLXIXIXIXIXIXSXSXSXAXoX3.H s s s s s s s s s s s s G G 2.oXoXAXAXAXAXAXAXAXAXpXuXoXuXoX].].].sXU.+.Y.fXjXcXZXbXkXkX3.H D s s s s s s s s s s - s D H 3.].bXAXAXAXAXAXAXAXAXAXAXAXAXFXFXFXHXDXDXDXVXVXVXBXBXBXBXBXBXBXBXBXBX6X6X6X6X6X6X5X&X&X%X%X%X%X%X&X&X&X&X&X&X*X*X*X*X*X*X*X*X*X*X*X*X<X1X1X1X1X1X1X1X*X*X=X1XwXwXwXwXwXwXwXwXwXwXwXwXwXwXwXwX<X<X<X<X1X1X1X1X,X1X3X3X1X-X_._.'.'.H c y 1 > q h j z H G <.'.].y.t.i.) ) ) ) g.) ) ) ) ) =.=.=.&.&.{ { ] Q.vXVXvXQ.Q.{ ] ] ] ] _ _ ^ { -.-.-.-.-.-.-.-.Q Q Q Q 7 8 e I S.5X&X>X;X;X,X,X,X,X,X,X",
"m.J.H.H.H.J.H.H.H.H.H.H.H.H.H.H.H.H.H.B.B.M.M.M.M.M.M.N.(.+X+X).+X+X(.(.+X-X=XwXrXrXrXrXrXrXrXrXtXtXtXtXyX=X).).(.(.$XOXV.V.OXOXOXOXOX@X@X@X@X@X@X@X@X#X#X#X#X;X#X#X;X>X>X>X>X>X>X>X,X,X,X>X>X>X4X4X4X4X:X:X<X<X<X<X<X<X<X2X3X3X1X1X<X2X<XwXwXwX9X9X9X9X9XwXwXwX9X9X9X9X9X7X7X7X7X7X7X7XqXqXqXqX.X.X.X.XqXqXqXqXqXqXiXiXpXAXAXAXSXSXSXSXSXLXLXLXLXLXLXLXIXIXIXIXIXLXLXIXSXSXSXAXoX2.G s s s G s s s s s s s s s G G G 3.oXAXAXAXAXAXAXAXAXAXoXoXCXCXkXkXsXdX@...fXjXcXcXkXkXkX3.H s s s G D s s s D D D D D s s s G 3.].bXAXAXAXAXAXAXAXAXAXAXAXFXFXFXFXHXZXZXZXZXVXVXVXBXBXBXBXBXBXBXBXBXBX6X6X6X6X6X5X5X5X;X;X#X#X%X%X%X%X%X%X%X%X%X%X%X%X%X%X%X%X*X*X*X*X1X<X1X=X*X=X1X1X1X<X1X1X1X1X1X1X1X1XwX*X<X<X<X1X2XwX2X2X2X2X2X2X2X2X<X3X2X<X*X-X`././.<.H c y y 2 0 l l d H <.P '.].hXu.g.) ) ) ) ) ) ) ) ) ) ) =.=.{ { { ] ] Q.VXvXQ.Q.Q.{ ] ] ] ] _ _ ^ { { -.-.^ -.-.-.-.Q Q Q Q 7 9 r M S.5X+X+X>X>X>X>X>X>X;X;X",
"m.J.H.H.J.J.H.H.J.H.H.J.H.H.B.B.H.H.H.B.B.M.M.M.M.M.M.N.(.).+X+X+X+X+X+X+X&X=XwX9X9X9X9X9X9X9X9X9X8XyXtXtXtXyXyX=X+X(.V.OX$XOXF.OXF.F.F.F.F.@X@X@X@X@X@X@X@X#X#X#X#X#X;X;X>X>X>X,X,X,X,X,X,X,X>X,X,X4X,X:X4X:X:X:X:X:X:X:X<X:X:X1X<X1X<X<X<X<XwXwXwXwXwXwXwX9XwX9X9X9X9X9X9X9X7X7X7X7X7X7XqXqXqX.X.X.XqXqXqXqXqXqXqXtXiXpXpXAXAXSXSXSXSXSXSXLXIXLXLXLXLXIXIXIXIXLXLXLXIXSXSXAX].3.G s G D s G s D s s s s s s s G s G 2.].oXAXAXAXAXAXAXAXAXAXoXbXbXkXkXsXsX#.O.dXjXcXkXkXsX3.H s s s G s s s s s D s D D D s s s s H ].bXAXAXAXAXAXAXAXAXAXAXAXFXFXFXFXHXCXZXZXZXVXVXVXBXBXBXBXBXBXBXBXBXBX6X6X6X6X6X6X5X5X;X;X;X#X%X%X%X%X%X&X%X%X%X%X%X%X%X%X%X%X%X%X*X*X<X<X1X*X1X*X*X*X*X1X<X<X1X1X1X1X1X1X*X*X<X<X<X1X2X2X2X2X2X2X2X2X2X2X2X2X3X<X*X-X`././.'.P c y y 0 0 u k d G <.^.'.].hXu.g.) g.g.g.g.) ) ) ) ) ) -.{ { { { ] ] Q.VXvXQ.Q.Q.{ ] ] ] ] _ _ ! -.{ -.-.^ -.-.-.-.Q Q Q Q Q 9 r M S.5X+X#X>X>X;X>X>X>X>X;X",
"m.m.H.J.J.J.J.J.J.H.J.H.m.m.m.m.m.B.B.B.B.M.M.M.M.M.M.M.N.(.).-X+X+X+X+X+X&X=X=X-X-X-X-X-X-X-X_.`._.-X-X=XwXwXyXyXwX%X+X(.V.F.F.F.F.F.F.F.F.F.OXF.F.OXOXOX@X@X@X#X#X#X#X;X;X;X;X>X>X>X,X,X,X>X>X,X,X>X>X>X>X:X:X:X:X:X:X:X:X:X:X<X<X<X<X<X<X<X<X<X<X1XwXwXwXwXwXwXwX9X9X8X9X9X9X9X7X7X7X7X7X7X7XqXqXqXqXqXqXqXqXqXqXtXiXpXpXpXAXFXAXGXGXSXSXSXSXIXIXIXIXIXIXIXIXLXIXSXSXSXAXoX2.s s s G H G G D D D D D s D D D G D D G 2.oXAXAXAXAXAXAXAXAXAXbXbXbXkXkXsXsX#.+.gXcXcXkXy.W d d s s s s s D D D D D D D D D s s s s G 3.].bXAXAXAXAXAXAXAXAXAXAXFXFXFXFXAXCXZXZXZXVXVXVXVXBXBXjXBXBXBXBXBXBX6XK.6X6X6X6X6X5X5X5X;X;X;X#X#X#X&X&X%X%X%X%X%X%X%X%X%X%X%X%X%X*X*X*X1X1X*X*X*X*X<X<X<X<X*X*X=X=X1X1X*X*X<X<X<X2X1X2X1X1X1X1X1X2X1X1X2X2X3X2X*X-X`.`./.'.P c ; y y y y d s G ^.'.'.].sXt.g.) g.g.g.g.) ) ) ) ) -.-.{ { { { ] ] ~.VXvXQ.Q.Q.{ ] ] ] ] _ _ ^ -.-.-.-.Q Q Q Q Q Q Q Q Q Q Q r M S.5X+X%X>X>X>X;X>X>X>X;X",
"b.m.m.m.L.L.L.m.J.J.m.m.m.m.m.m.m.m.m.B.B.M.M.M.M.M.M.x.M.N.(.+X(.(.(.(.(.(.+X-X-X-X-X`.`.`.`.`.-X-X-X`.`.-X-X-XwXeXyXwX%XOXV.V.F.F.F.F.F.F.F.F.F.F.F.F.F.G.@X@X@X@X@X@X#X;X;X;X#X#X;X;X;X>X>X>X>X>X>X>X>X>X>X>X>X>X>X>X:X:X:X:X>X<X<X<X<X<X<X<X1X1X1X1X1X1X1X1XwXwXwXwXwXwX9X9X9X9X9X7X7X7X7X7XqXqXqXqXqXqXqXqXqXqXtXiXiXpXpXpXFXFXFXFXGXGXSXSXGXGXSXSXSXIXIXIXLXIXSXSXSXoX3.s s H 3.].2.D s s D D D D D D D D D G G G 2.].bXbXAXAXAXAXbXbXbXbXbXbXbXhXsXy.#.#.hXmXzXy.3.d d 3.].3.H s s D s - D D D D D D D s s s s H ].oXAXAXAXAXAXAXAXAXAXAXAXAXAXAXAXAXZXZXZXVXVXVXVXVXjXjXBXBXBXBXjXBXBXBXK.K.K.K.6X6X5X5X;X;X;X;X#X#X#X#X#X#X#X#X%X%X%X%X%X%X%X%X%X%X%X%X=X=X=X=X*X*X*X*X<X<X*X*X*X*X1X1X*X*X<X<X<X2X1X1X1X1X1X2X2X2X1X1X2X2X2X1X*X-X_.`.`.'.'.K c M y y I F G L '.'.'.].sXt.g.) ) ) ) ) ) ) ) ) -.-.-.{ { { ] ] _ E.vXvXQ.Q.Q.] _ ] _ _ ! ! Q -.-.-.Q Q Q Q Q Q Q Q Q Q Q ! r M Z.5X+X>X>X>X>X>X>X>X>X;X",
"b.m.m.L.L.L.L.m.m.m.m.m.L.L.m.m.m.m.B.B.B.B.M.M.x.M.M.M.M.M.N.(.(.(.(.(.(.(.(.(.&X+X).).).).).).-X-X-X-X-X-X-X-X`.-X*XwXeX1X+XV.V.V.V.V.F.F.F.V.F.F.F.F.F.F.G.G.@X@X@X@X@X@X@X;X#X#X#X#X#X#X#X;X;X>X>X>X>X>X>X>X>X>X,X,X,X,X,X,X>X>X>X>X<X<X<X<X<X1X1X1X1X1X1X1XwXwXwXwXwX9X9XwX9X9X9X9X9X7X7X8X7XqXqXqXqXqXqXqXqXrXtXtXiXiXpXpXFXFXFXFXFXGXSXGXGXGXGXGXGXSXIXIXSXSXSXSXbX3.H s 2.oXSXSX].s s D D D D D D D D D D G G G 2.3.oXbXbXbXbXAXbXbXbXbXbXbXhXhXy.w. .#.hXzXhX3.z p H bXIXSX].G s s s s D s D D D D s s s s s G 3.].bXbXAXAXAXAXAXAXAXAXAXAXAXAXAXAXZXZXZXVXVXVXVXVXVXxXjXjXjXjXBXBXBXBX6X6X6XK.K.K.6X6X5X$X$X#X#X#X#X#X#X#X#X#X#X#X#X%X%X%X%X%X&X&X&X%X*X=X=X*X*X*X<X*X*X*X*X*X<X<X<X<X*X*X*X<X<X<X2X1X1X1X1X1X2X2X2X1X1X2X2X2X<X*X-X-X`.`.'.L K c c c K P ^.^.`.`.'.'.sXt.g.) ) ) ) ) ) ) ) ) -.-.-.-.{ { { ' _ o.vXvXvXQ.&.' ^ ^ ! ! Q Q Q -.-.-.Q Q Q Q Q Q Q Q Q Q Q ! r M Z.$X#X>X>X>X>X>X>X>X>X;X",
"b.m.m.L.L.L.L.m.m.L.m.m.L.m.m.m.m.m.m.B.B.m.m.n.n.x.M.M.M.M.M.N.(.(.(.(.(.(.(.(.+X+X).(.).).(.).).).-X=X=X=X=X*X-X).).).*XwX1X%XOXV.V.B.B.B.V.F.H.H.F.F.F.F.F.F.G.G.G.G.@X@X@X@X@X@X@X@X#X#X;X;X;X;X;X,X>X>X>X>X>X>X>X>X>X,X,X,X>X>X>X>X>X>X<X1X<X<X<X1X1X1X1X1XwXwXwXwXwXwX9X9X9X9X9X9X9X9X9X9X8X8X8X8XqXqXqXrXqXrXtXtXiXiXpXpXFXFXFXFXFXGXGXGXGXGXGXGXGXIXGXSXSXSXSXSX].G G G 3.AXGXAX'.D D D D D D D D D D D D G G G ;.3.oXbXbXbXbXbXbXbXbXbXbXbXhXt.y.w. .y.zXhXy.T p % W bXIXSX].G s D D D s s D D s D s s s s s G 3.].bXbXbXSXAXAXAXAXAXAXAXAXAXAXAXAXZXZXZXVXVXVXVXVXVXxXjXjXjXjXjXjXjXjXBXR.~.K.K.K.K.K.K.5X$X@X@X#X#X#X#X#X#X#X#X#X#X#X%X%X%X%X%X%X%X&X%X%X%X*X*X<X<X<X*X*X*X*X<X<X<X<X*X*X<X<X<X<X2X1X1X1X1X1X2X2X1X1X1X1X1X2X<X*X=X=X-X-X).v.L D x x L ^.^.).`.).).'.].r.i.) ) ) ) ) ) ) ) ) -.-.-.-.{ =.=.=.=.*.vXvXvXlX*.| =.=.=.' ^ ^ ^ -.-.-.Q Q Q Q Q Q Q Q Q Q 9 t e Z Z.5X#X>X>X>X;X>X>X>X>X;X",
"b.m.m.L.L.L.L.m.L.L.L.L.L.J.m.m.m.m.m.B.B.m.m.m.n.n.x.x.x.M.M.M.(.).).).).(.(.N.(.(.(.).(.(.(.(.(.(.+X=X=XwXwXeX9X=X`.).).+X=XwX&X+XOXV.B.B.B.C.H.H.H.G.H.F.F.F.F.G.G.G.G.G.G.@X@X@X@X@X@X@X;X;X;X;X;X;X;X;X;X;X;X;X;X;X;X;X;X;X>X>X>X>X>X>X,X>X<X<X<X<X1X1X1X1X<X1X1X=XwXwXwXwXwXwXwX9X9X9X9X9X8X8XrXrX8X8X8XrXrXrXtXtXiXiXpXpXFXFXFXFXFXGXGXGXGXGXGXGXGXGXIXIXIXSXSXbX2.s 2.3.].AXoX3.G D D D D D D D D D D D D G G G G 3.oXbXbXbXbXbXbXbXbXbXbXhXt.t.y.w. .y.hXr.3.g & d T sXSX].P G D D s s D D D D s s s s s s s G 3.].bXbXbXbXSXSXSXAXAXAXAXAXAXAXpXAXAXZXZXVXVXVXVXVXVXVXjXjXjXjXjXjXjXjXR.R.R.~.K.K.K.K.K.K.J.@XOX@XOX@X#X#X#X#X#X#X#X#X%X%X%X%X%X%X%X%X%X%X%X%X*X<X<X<X*X*X*X*X*X<X<X<X*X*X<X<X<X<X2X2X2X2X1X1X2X2X2X2X1X1X1X1X1X1X=X=X*X-X`.).v.J D J v.^.`.`.-X+X`.'.].y.i.) ) ) ) ) ) ) ) ) -.-.-.-.=.i.i.i.i.vXvXvXvXlX*.%.i.i.i.=.) ) -.-.-.Q Q Q Q Q 9 9 9 9 Q Q 9 t e Z Z.5X#X>X>X>X;X>X>X>X>X;X",
"b.m.m.m.m.L.m.m.L.L.L.J.J.J.m.m.m.m.m.m.B.m.m.n.n.x.x.x.x.M.M.M.N.N.(.).(.(.N.N.N.(.).).(.(.N.N.N.N.(.).).-XwXyX9X8X9X=X-X+X-X%X3X1X&XOXOXV.C.B.H.H.H.G.G.F.F.F.H.H.H.G.G.G.G.G.@X@X@X@X@X@X@X@X#X@X@X@X@X#X#X#X#X#X#X#X#X;X;X;X;X>X>X>X>X>X,X,X*X<X<X=X=X1X1X1X<X*X*X=X*X*XwX*XwXwXwXwX9X9X9X9X8X8XrXrX8X8X8XrXqXrXtXtXiXiXpXpXFXFXFXFXFXGXGXGXGXGXGXGXGXGXIXIXSXSXAX].G G oXAX3.].G s D G G D D D D D D D D s D G G f G 3.3.bXbXbXbXbXbXMXbXbXnXhXt.t.y.w. .y.y.w.T p d 3.kXsXW H s s s s D D D D D D s s s s G G G H 3.].bXbXbXbXSXSXSXSXAXAXAXAXAXAXpXAXSXZXJXVXVXVXVXVXVXjXjXjXjXjXjXjXjXjXR.R.R.R.~.K.K.K.K.K.J.H.OXOXOX$X@X#X#X#X#X#X#X#X#X%X%X%X%X%X%X%X%X%X%X%X*X*X<X<X*X*X*X*X*X*X<X<X*X*X<X<X<X<X2X2X2X2X1X1X2X2X2X2X1X1X1X1X1X1X1X=X<X*X`.).^.L L v.^.`._.-X*X%X`.`.].sXr.%.) %.%.=.=.=.=.-.-.-.-.) i.i.i.i.i.u.NXNXvXr.r.%.i.i.i.) ) ) -.-.-.Q Q Q 5 5 8 8 8 8 8 8 8 r e Z S.5X#X>X>X>X;X>X>X>X;X;X",
"m.L.J.J.L.L.L.L.m.m.J.J.L.m.m.m.m.m.m.m.m.m.n.n.n.n.n.x.x.x.x.M.x.v.N.N.(.N.N.N.N.N.).(.(.(.N.N.N.N.N.).).).-X-X9XwXeXeXeX*X-X+X-X*X1X1X%XOXF.B.H.H.H.F.F.H.H.H.F.H.H.H.H.G.G.G.G.G.G.G.G.G.@X;X;X;X;X@X;X@X;X@X#X#X#X#X#X#X#X#X;X#X;X;X#X>X>X>X>X,X,X1X:X1X<X<X<X*X*X*X*X*X*X*XwXwXwXwXwXwXwXwXeX8XrXrX8X8XqXqXrXrXtXtXiXiXpXpXpXpXFXFXAXAXSXSXGXGXGXGXSXSXIXSXSXAXoX3.f 2.oXAX;.f s s G G G D G G G D D D D D G G f f f 3.3.bXbXbXbXMXMXMXbXMXmXnXt.t.y. . . .w.T z & p 3.kXW % s s G D D D D D D D D D s s G H H d H 3.3.bXbXbXbXbXMXSXSXSXSXAXAXAXAXAXAXSXZXZXJXVXVXVXVXcXcXcXcXjXjXjXjXjXjXBXjXR.R.~.K.K.K.K.K.K.K.J.J.J.G.G.@X@X@X@X+X@X$X$X$X$X&X&X&X&X&X%X%X%X%X%X%X*X<X=X=X=X=X=X=X=X=X*X*X*X*X<X<X<X<X1X1X1X1X1X1X1X1X2X2X2X1X1X<X<X*X*X*X=X-X).).).).`.-X=X=X-X-X-X-X].].r.%.%. . .} } } | ' -.-.-.) g.g.g.g.g.i.s.nXzXt.w.9.i.i.g.g.) ) -.-.-.Q Q 7 8 1 < = e w r r r t M S.'.$X%X;X>X>X;X>X>X>X>X;X",
"L.L.J.J.J.J.J.J.J.J.J.J.J.J.m.m.m.m.m.m.m.m.m.m.n.n.x.x.x.x.x.x.x.M.M.N.N.N.N.N.v.N.N.(.(.(.(.(.N.N.N.N.).).).).-X-X9XwXeXwX=X=X-X*X*X1X1X>X@XF.H.H.H.H.H.H.H.H.F.H.H.H.H.G.G.G.G.G.G.G.G.G.@X@X@X@X@X@X@X@X@X@X@X@X@X#X#X#X#X#X#X#X#X#X#X#X;X;X>X>X>X,X>X<X<X<X*X*X*X*X*X*X*X*X*XwXwXwX9X9X9XwXeXrXrXrX8X8X8XqXrXrXtXtXiXiXiXpXpXpXFXFXFXAXAXSXGXGXGXGXSXSXSXSXSXAXoX2.f G 3.3.;.G G G G G G G D D D D D D s s s f f f f 3.y.bXbXbXbXMXMXMXMXMXNXnXt.t.y. . . . .T g & p z T F s s D D D D D D D D D D s s s G H H d d 3.3.bXbXbXbXbXbXbXSXSXSXAXSXAXAXAXAXSXZXZXJXVXVXVXVXcXVXVXcXjXjXjXjXjXjXjXjXR.R.~.K.K.K.K.K.K.K.K.J.J.J.G.G.@X@X@X@X@X@X#X#X#X#X&X&X&X#X%X%X%X%X%X%X%X%X*X*X=X=X=X=X=X=X*X*X*X*X*X*X<X<X1X1X1X1X1X1X1X1X2X1X2X1X1X<X<X<X<X1X=X&X+X).).).-X=X=X=X=X-X-X-X'.].r.%. . .O...R ..} | ' -.-.) g.g.g.g.g.i.s.nXhXy.( 9.e.f.g.g.) ) -.-.-.Q 7 5 w e = = = e w w w S Z S.).+X%X>X>X>X>X>X>X>X>X;X",
"m.J.J.J.J.J.J.J.J.H.H.H.J.J.J.J.m.m.m.m.m.B.B.m.n.n.n.x.z.c.x.x.x.x.M.M.N.N.N.N.v.N.N.N.(.(.(.(.N.N.N.N.N.).).).).`.-X*XwXwXwXwX=X*X*XwXwXwX,X%XF.V.F.H.H.H.H.H.H.H.H.H.H.H.G.G.G.G.G.H.H.G.G.;XG.G.G.G.@X@X@X@X@X@X@X@X@X@X@X@X@X@X#X@X#X#X#X#X#X#X>X%X>X>X>X>X%X%X*X*X*X*X*X*X*X*X*X*X*X9X9XwXeX8X8XrXrX8X8X8XrXrXtXtXiXiXiXiXpXpXFXFXFXFXAXSXGXGXGXGXSXSXSXSXAXAX3.H f G 2.G 2.;.G G G G G G D D D D D D s s s f f a a 3.y.hXbXbXMXMXMXNXNXNXNXnXt.t.y. . . .y.l & & p p d d d G G G D s s D s s s s s - s s d d d z z y.bXbXbXbXMXbXMXbXSXSXSXSXAXAXAXAXSXSXLXJXJXVXVXVXVXVXVXcXjXjXjXjXjXjXjXjXR.R.~.~.K.K.K.K.K.K.K.K.K.J.J.J.G.G.@X@X@X@X+X#X#X#X%X%X#X#X%X%X%X%X%X%X%X%X*X*X*X*X=X=X=X=X*X*X*X*X*X*X<X<X<X<X<X<X<X<X<X<X2X2X1X1X1X<X<X<X<X1X1X=X%X%X%X&X=X=X=X1X=X*X-X-X'.].sX#.U U E A.A.E R X.' ' -.) ) g.g.g.g.g.e.t.y.w.z 9.e.g.g./ / / -.-.^ Q 4 1 = = = = = = = e e M S.'.$X+X%X:X>X>X>X>X>X>X>X>X",
"m.J.J.J.J.J.J.J.H.H.H.H.J.J.J.J.J.J.J.J.H.H.H.B.m.m.n.x.z.x.x.x.x.x.x.M.M.N.N.N.N.N.N.N.N.C.(.(.(.(.N.N.N.N.).).).).`.-X-X=XwXwXeXwX9XwXeXeXeXwX%XOXV.B.H.H.H.F.H.H.H.H.H.H.H.G.G.H.H.H.H.G.;X;XG.G.G.G.G.G.G.G.@X@X@X@X@X@X@X@X@X@X@X@X@X@X@X@X#X#X#X#X#X%X%X>X%X%X%X%X%X<X=X=X*X*X*X*X*X*XwXwXeXeX8X8XrX8X8X8XrXtXtXiXiXiXiXiXpXpXFXFXFXFXAXSXGXGXGXGXSXIXSXSXSXbX3.f f G G f G G G G G G G D D D D s s s s s i a a a a >.y.t.nXnXnXNXNXNXNXNXNXnXt.t.y. . . . .l & & p p & d d f G G s - - s - - - - - % s d d d a g z y.hXbXbXbXMXMXMXMXbXSXSXSXSXAXAXAXSXSXSXJXJXJXVXVXVXVXVXcXcXjXcXjXjXjXjXjXjXR.R.~.K.K.K.K.K.K.K.K.K.K.K.K.J.J.G.G.G.@XOXOX+X+X+X+X#X+X%X%X%X%X%X%X%X%X%X%X%X*X=X=X=X=X*X*X*X*X*X*X<X<X<X<X<X<X<X<X<X<X<X2X2X1X1X<X<X<X<X1X<X<X<X*X*X*X,X1X<X<X1X=X=X%X`.].kXsXE W W S.S.S.A.X.| ' -.-.) g.g.g.g.9.e.e.y.3.z >.e.f.9./ / / -.^ Q 7 5 1 = m m m m = = = M Z S.'.$X+X%X:X>X>X>X>X>X>X>X>X",
"m.H.J.H.H.H.H.H.H.H.H.H.H.H.H.H.H.H.H.H.H.H.H.H.B.m.m.b.z.z.c.c.c.x.x.x.M.M.M.N.N.N.N.N.N.N.N.(.(.(.N.N.N.N.N.N.).).).).).+X-X=X9XwXwXeXeXrXrXrXyX1X$XV.B.B.B.B.F.H.H.H.H.H.H.F.G.H.H.J.J.J.5X5XJ.J.H.H.G.G.G.G.G.G.G.G.G.G.G.G.G.G.G.G.@X@X@X@X@X@X@X@X#X#X#X#X%X%X%X%X%X&X&X,X*X*X*X*X*X*XwXwXeXeXrXeXrX8XrXyXyXyXtXiXiXiXiXpXpXpXFXFXFXFXGXGXGXGXGXGXIXIXSXSXbXoXf i f f f G f f s s G G D s s s s - - - % % p p p p a >.y.t.nXnXnXNXnXnXnXnXNXnXt.t.w. . . . .k & & p p & p d d s s s - - - - - - - % % i d p p p p z y.t.nXbXnXMXMXMXMXMXMXMXSXSXSXAXSXSXSXSXJXJXJXJXcXcXVXVXVXcXcXcXjXjXjXjXjXR.R.R.~.K.K.K.K.K.K.K.K.K.K.K.K.K.K.J.J.J.H.OXOXOXOXOXOXOXOX+X#X%X%X%X%X%X&X=X=X=X=X%X&X=X=X*X*X*X*X*X=X=X=X<X<X<X<X<X1X1X1X<X<X<X<X<X2X<X<X2X2X2X<X<X<X<X<X1X&X>X<X1X<X&X%X`.'.].kX3.W W S.Z.S.S...o.' -.-.) g.g.g.g.9.p.y.].3.>.3.p.f.9.9./ ( ^ ^ Q 7 8 w = = m m m = = = Z W Z.5X$X#X>X,X>X>X>X>X>X>X>X>X",
"m.H.H.H.G.H.G.H.G.G.G.G.G.G.H.H.H.H.H.H.H.H.H.H.H.B.m.b.z.z.c.c.z.c.c.x.x.M.M.M.C.C.N.N.N.N.N.N.(.(.(.(.(.).N.N.).).).).).).+X-X-X-X9XeXrXrXtXtXtXtXyX5XV.M.B.V.F.H.H.H.H.H.H.F.G.H.J.J.J.J.6X6XK.J.J.H.H.G.G.G.G.G.G.G.G.G.G.G.G.G.G.G.G.G.@X@X@X@X@X@X@X@X#X#X#X#X%X%X%X%X%X&X&X&X&X*X*X*X1XwXeXeXeXeXrXrXyXyXyXiXiXiXiXaXpXpXpXpXFXFXFXGXGXGXGXGXIXIXIXIXSXSXbX].f i f s s s s s s s s s s - - - - - % % % % p p p g z >.y.u.nXnXnXnXnXnXnXnXnXnXt.t.w.T  . . .k & & & & p & % s s s s - % % - - - % % % d d g p p z w.t.t.nXnXnXMXMXMXMXMXMXMXSXSXSXSXSXSXSXSXJXJXJXJXcXcXcXVXVXcXcXcXcXjXjXjXjXjXR.R.R.~.K.K.~.~.P.D.K.K.K.K.K.K.K.K.K.K.K.J.C.J.C.C.C.C.C.$X+X+X+X-X%X%X&X%X-X-X-X=X%X=X=X=X=X=X=X=X=X=X=X<X<X<X<X<X1X1X1X<X<X<X<X2X2X2X2X3X3X3X1X1X<X<X<X&X>X>X:X<X1X=X%X`.'.].kX].W K S.S.S.S...o.' -.-.) g.g.g.g.9.>.3.3.H f 3.e.e.9./ / ( ^ Q Q 7 1 e = = m m m = = M W S.'.$X$X&X>X>X>X:X:X:X>X>X>X>X",
"H.H.G.G.G.G.G.G.G.G.G.G.G.G.G.G.G.G.G.G.G.G.G.G.H.B.m.n.z.z.c.c.c.c.c.c.x.x.M.M.C.N.C.N.N.N.N.N.N.N.(.(.(.(.(.N.^.).).(.).).).-X`.-X-X9XrXrXtXtXiXiXiXiX=X+XV.N.B.F.H.H.H.H.G.G.G.H.J.J.6X6X6X6X6X6XK.J.H.H.H.G.F.F.H.H.H.G.G.G.G.G.G.G.G.G.G.G.G.G.@X@X@X@X@X@X#X#X#X#X#X%X%X%X&X&X%X%X%X*X<XwXwXeXeX8X8X8XyXyXaXaXaXaXpXpXpXpXpXpXFXFXFXGXGXGXIXIXIXIXIXLXSXSXbX].f i s s s s i i % s s - - - - - - % % % % p g p z >.y.e.t.s.nXnXnXnXnXnXnXnXnXzXu.t.w.T  . . .k & & % & p & % % s - - % % - - % % % % & d k g g z y.hXnXnXnXnXmXmXmXMXMXMXMXbXbXSXSXSXSXSXSXSXLXJXJXJXmXcXcXVXVXcXcXcXcXjXjXjXjXjXR.R.R.~.~.~.~.~.P.P.D.D.K.K.K.K.K.K.K.K.K.S.S.K.K.K.6X6XK.(.(.).).+X-X-X-X%X%X%X%X%X=X&X=X=X=X%X%X%X%X&X%X>X>X>X>X<X<X1X<X*X*X<X<X<X2X2X2X1X1X1X<X1X1X<X<X1X<X<X<X<X1X=X&X-X`.'.].kXA.W Z.S.S.Z A [ ' -.-.) ) g.g.9.>.>.;.H s s H 3.w.j j / ( Q Q Q 7 r e = = m m m m M Z A.'.).+X%X>X,X>X:X:X:X:X>X>X>X>X",
"H.H.G.G.G.G.G.G.G.G.G.G.G.G.G.G.G.G.G.G.G.G.G.G.H.H.m.n.z.z.c.c.z.z.z.z.c.x.x.M.M.M.C.C.N.N.N.N.N.N.N.(.(.(.).(.).).).).N.).).+X-X_._.-X9XrXtXtXiXiXiXiXiX0XOXM.V.F.H.H.H.G.G.G.$XG.5X6X6X6XBXBX6X6X6XJ.J.H.H.H.H.H.H.H.H.G.G.G.G.G.G.G.G.G.G.G.G.G.G.@X@X@X@X@X#X#X#X#X#X#X#X#X&X%X%X%X%X*X*XwX9XwXeXeX8XyXyXyXaXaXaXpXpXpXpXpXpXpXFXFXGXGXGXGXIXIXIXIXIXLXSXSXbX].f % i f f s i % % % - - - - o % % % % % p p k z 3.nXNXNXnXnXnXnXnXnXnXnXNXNXnXzXzXt.w.T (  . .0 & & % & p & & % % % % % % - % % % % % & k k g z y.NXMXMXnXnXnXmXmXmXMXMXMXMXbXbXSXSXSXSXSXLXSXLXJXJXJXJXcXcXVXVXcXcXcXxXjXjXjXjXjXR.R.R.~.~.P.~.~.P.P.P.D.D.K.K.D.D.K.K.K.K.S.S.S.K.BXBX6X6X(.).(.).`.`.-X-X-X%X%X%X%X=X=X=X=X=X%X%X%X%X%X%X%X%X%X%X>X>X<X<X*X*X<X<X<X2X2X2X<X<X<X<X1X1X1X1X1X1X1X<X<X<X=X=X%X`.'.].kX].S.K S.l.Z A [ ' -.-.) ) g.g.9.:.a f D s s f 3.>.j g q q 7 7 Q 7 r e S m m m m m Z W S.'.`.-X%X>X,X:X:X:X:X:X>X>X>X>X",
"H.G.G.G.;XG.G.@XG.G.@X;X;X;X;XG.G.G.G.G.G.G.G.G.H.H.B.n.b.z.z.z.h.z.c.c.z.c.z.x.x.M.C.C.C.V.V.N.N.N.N.N.).N.).).).).).).).).).).-X-X-X-X-X9XrXtXtXiXiXiXiXiXyX-XN.N.V.F.F.F.OXOXF.5X6X6X6XBXHXHXHX6X6XK.J.J.H.G.G.G.G.G.G.G.G.G.G.G.G.G.G.G.G.G.G.G.G.G.G.G.G.OX@X@X@X@X#X;X#X;X$X#X#X%X%X%X*X*XeXwXeXyXyXaXaXaXaXaXpXpXpXpXpXFXHXFXFXGXGXGXIXIXIXIXIXIXLXLXSXZXbX3.f i i f d d i % % % % % % % % % o . o & p p g g w.NXNXNXnXnXnXnXnXnXnXnXnXnXnXzXu.t. .T  . . .k & & & & & & % % % % % % % o % % o % & p k k g z t.MXUXNXnXnXmXmXmXmXNXmXMXMXMXMXMXSXbXbXZXLXLXLXJXJXJXJXmXmXJXcXcXcXcXcXjXjXjXjXjXjXjXR.R.R.E.E.~.P.P.P.P.D.D.D.P.P.P.P.~.~.l.C A I.R.VXVXBX6XS.C.).`.).`.-X-X-X-X-X-X-X%X%X%X%X%X+X+X+X%X%X%X%X%X>X%X%X%X%X*X<X<X>X,X1X1X*X1X1X1X<X<X<X<X<X<X<X<X<X<X<X1X1X1X-X`.'.].kXA.I R A [ ] _ ^ -.-.-.) ) 9.9.:.;.H D D D H ;.z z 0 0 3 6 Q 9 r r w S S m = = S Z S.'.).-X-X%X>X>X>X:X:X:X:X:X>X>X>X",
"H.G.G.G.@XG.G.@X@X@X@X@X@X@X@X;XG.G.@X@XG.G.G.G.G.H.B.n.b.z.z.z.z.z.h.c.c.z.z.z.x.x.M.C.C.V.V.V.N.N.N.N.N.N.N.).).).).).).).).).).`.`.-X-X*X8XrXtXiXiXiXiXiXiXyX-X(.N.V.$X$XOX+X5X5X6X6XBXHXDXDXHXHX6X6X6XG.G.G.G.G.G.G.G.G.G.G.G.G.G.G.G.G.G.G.H.G.G.G.G.G.G.G.@X@X@X@X@X@X@X@X#X#X&X#X%X%X%X*XwXwXyXyXaXaXaXaXaXaXpXpXpXpXHXHXHXFXGXGXDXIXIXIXPXPXPXJXLXLXZXbXbX3.H i i i i d p % % % % % % % o % o % % p g g g g T t.NXnXnXnXnXnXnXnXnXnXnXnXnXzXu.r. .l  . . .l 0 & & & & & & % % % % % % o % % % % & g g k k T t.MXUXNXNXNXmXmXmXmXmXmXmXMXMXMXMXMXbXbXZXLXLXLXJXJXJXKXmXmXJXcXcXcXcXcXxXjXjXjXjXjXjXR.R.R.~.~.~.~.P.P.P.P.P.D.P.P.P.P.~.~.I.[ [ [ ~.R.VXjXkXS.Z.).).).).`.%X-X-X-X-X-X+X+X%X-X+X(.(.$X$X$X+X+X#X#X#X&X%X%X%X<X<X>X>X1X1X*X2X2X1X1X<X<X<X<X<X:X<X<X<X<X1X1X&X-X`.'.].].A.R A C ] _ _ ^ -.-.-.-.) 9.9.:.;.H D D D H ;.z z 0 2 3 6 Q Q r r w S S = = S V S.S.).`.-X%X%X>X>X:X:X:X:X:X4X:X>X>X",
"H.@X@XG.@X@X@X;X;X@X@X;X@X@X;X;X@X@X;X;X@X@X@X@XG.F.B.m.n.b.z.z.z.h.z.c.c.z.z.c.z.x.n.M.N.V.V.V.N.N.N.N.N.N.N.N.N.N.).).).).).).).).`.-X-X-X*X9XtXtXiXiXiXpXpXiXyX5X).(.OX+X#X#X5X5X6X6XHXDXDXDXDXHX6X6X6X5X;X;X@XG.G.G.G.G.H.G.G.G.G.G.G.G.G.G.H.H.H.G.G.G.G.G.G.G.G.@X@X@X@X@X#X#X#X#X#X&X&X,X1X1X0XaXaXuXuXuXuXuXpXHXHXHXHXHXHXDXGXDXDXPXPXPXPXPXJXJXJXJXZXZXbX].H i i i % p & % % % % % % % % % % & d g g p g g T t.nXnXnXs.nXnXnXnXnXnXnXnXnXzXu.r. .l T  . .l 0 & & & & & & & & & & % % % % & & & p g g g k T y.nXNXNXNXNXmXmXmXmXmXmXmXMXmXMXMXMXbXbXZXLXLXLXJXJXJXJXJXJXJXmXcXcXcXcXcXxXcXjXjXjXjXjXR.R.~.~.~.~.~.~.P.P.P.P.P.P.P.P.~.R.~.~.E.[ E.R.xXR.U.A.S.'.'.'.).`.%X%X-X%X-X-X+X).).).'.'.Z.Z.Z.Z.C.C.C.F.F.$X$X+X-X%X%X%X<X1X1X<X1X1X1X1X1X1X<X<X:X:X:X:X<X<X<X1X%X*X-X`.'.].].E A [ _ ] _ ^ -.-.-.-.) 9.9.>.H G D D D H 2.z g 0 2 3 6 Q Q r r r S S e S S Z S.].`.-X=X%X,X,X4X4X:X:X:X:X4X:X>X>X",
"C.F.OXF.OX@XG.@X@X@X@X@X;X;X;X;X;X;X;X;X;X;X@X@X@XG.H.m.n.b.z.z.z.z.z.j.j.z.z.z.z.z.x.n.M.M.N.V.C.N.N.N.N.N.N.N.N.N.).).).).).).).).).`.`.-X-X=X9XyXtXiXiXpXpXiXpXiX0X).(.+X%X+X&X5X5X6XHXHXDXDXDXHX6X6X6X5XG.G.G.G.G.G.G.G.G.H.G.G.G.G.G.G.G.G.H.H.H.H.H.G.G.G.G.G.G.G.@X@X@X@X@X#X#X#X#X,X,X,X5X5X6X6XuXuXuXuXuXHXHXHXHXHXHXHXDXDXDXPXPXPXPXUXJXJXJXJXJXJXZXbXkXsXW d p p & p p & & & & & & & p p p d g g p p g z w.t.t.nXnXnXnXnXnXnXnXnXnXnXnXzXt.r. .l T  . . .k & & & & & & & p p p p & & p p p p g g g g k T y.t.nXnXnXnXmXmXmXmXmXNXNXmXmXmXmXbXbXbXZXZXLXLXKXJXJXJXKXKXKXmXcXcXcXcXcXcXcXjXjXjXjXjXR.R.R.R.R.~.~.E.E.E.P.E.P.P.I.I.E.R.Q.Q.Q.{ ' o.*.o.X.U.].].].].5X`.+X%X%X%X+X).).).'.'.].].A.W Z Z Z.Z.Z.Z.Z.Z.Z.Z.).`.-X%X*X<X2X2X1X1X1X1X1X1X1X1X1X:X:X:X<X<X<X<X>X*X-X`.`.'.].A.X.[ ] _ _ ^ -.-.-.-.) 9.9.>.H G D D D H 2.a g 0 , 4 7 Q 7 r r r S S e e M Z Z.'.-X-X*X:X4X4X4X4X4X:X:X:X4X:X>X>X",
"M.(.+X+X+X$XOXF.@X@X;X;X;X;X;X;X;X;X;X;X;X;X;X;X;XG.H.m.n.z.z.z.z.z.z.h.h.j.z.z.h.z.z.x.x.M.M.M.N.N.N.N.N.N.N.N.N.N.N.N.).).).).N.).).).).`.`.-X-X9X8XyXiXiXpXiXpXpXiX0X-X(.+X+X+X#X5X5X6XuXHXDXHX6X6X6X5XG.G.G.G.G.G.G.G.H.H.G.H.H.H.H.G.G.G.G.H.H.H.H.G.G.G.G.G.G.G.G.G.G.@X@X@X@X@X;X;X,X5X5X6X6X6X6X6XuXuXuXHXHXHXHXHXHXHXDXDXDXPXPXPXPXPXKXJXVXVXJXJXmXbXkXkXsXT k d p & & p p p g g g g g p g g g g g g k z >.y.t.u.nXnXzXnXnXnXnXNXNXnXnXzXzXhXr. .l  . . . .T k & & & & & & p p p g g g g g g & & & g g T w.y.t.hXnXnXnXmXmXmXmXmXmXmXmXmXmXmXmXhXbXZXZXJXJXJXJXJXJXKXmXmXmXcXcXcXcXcXzXcXcXjXjXjXjXjXR.R.R.R.R.E.E.E.E.E.E.E.[ S C [ [ ' &.{ ' ~ ' | } U y.kX].].].5X`.(.+X%X-X).).`.'.CXkXkXhXr.} Y U B M M Z M c K W '.'.).`.%X>X1X2X1X1X1X1X<X<X<X<X1X1X1X:X<X<X<X<X1X%X-X-X`.'.'.A.E.[ _ _ _ ^ -.-.-.-.) / 9.>.z G D D D H ;.a g 0 , 4 7 Q 7 r r r S S e S Z Z.'.`.-X*X*X:X4X4X4X4X4X:X:X:X4X4X>X>X",
"(.5XyXtXtX3X,X#X@X@X;X;X;X;X;X;X;X;X;X;X;X;X;X;X;X@XH.B.n.b.z.z.z.h.h.h.h.h.j.j.h.z.z.z.x.x.x.M.N.N.N.N.N.N.N.N.N.N.N.N.(.(.(.(.).).).).).).`.-X_.-X-X9XyXiXiXiXpXiXiXiXyX`.(.$X&X&X&X5X5X6XuXHX6X6X6X5X$X@XG.@XG.G.G.G.G.G.G.G.G.G.G.G.G.G.G.G.G.G.G.G.G.G.G.G.G.G.G.G.G.G.G.G.G.G.@X;X5X5X5X6X6X6X6X6X6X6XuXHXHXBXHXBXHXDXDXDXDXDXPXPXPXPXKXKXJXVXcXVXJXmXhXhXsXsX3.T k p & & p p g g g g g g g g g g g g k T w.y.t.nXu.u.nXzXnXnXnXNXNXNXNXmXnXhXhXr. .T  .#. . . .l k 0 & & & & & p p g g g g g g 0 g g z T w.y.t.t.hXnXnXnXNXNXmXmXmXmXmXmXmXmXnXhXhXkXZXZXJXJXJXJXJXJXKXmXmXmXcXcXcXcXcXcXcXcXjXjXjXjXjXjXR.R.R.R.R.E.E.E.E.R.E.S e r t r 8 ! ! ! 9 ~ ~ ~ T y.kXkX].].'.).N.(.+X+X).`.oXuXSXMXnXu.i.( | | ~ t ! ` B y Y +.].].'.).-X%X*X,X1X1X1X<X<X<X<X<X1X1X1X:X<X<X<X<X1X%X%X*X-X).'.].A.X.[ _ ! Q Q Q -.-.-./ 9.9.>.H D s D 2.2.a g 0 , 4 7 7 7 9 r w e e e M K Z.).-X&X*X:X:X4X4X4X4X4X:X:X:X4X4X>X>X",
"5XiXiXtXtXtXeX3X;X#X#X#X@X#X#X#X;X;X;X;X;X;X;X;X;X;X@XH.m.b.z.z.h.h.h.h.j.j.h.h.j.h.z.z.z.z.x.x.M.M.M.N.N.N.N.N.).).).).(.).(.).).).).).).).).).).`.-X-X9XyXiXiXiXtXtXiXiX0X-X+X&X&X&X&X5X5X6X6X6X5X5X5X$X@X@X@X@X@X@XG.G.G.G.G.G.G.G.G.G.G.G.G.G.G.G.G.G.G.G.G.G.G.G.G.G.G.G.G.G.G.5X5X6X6X6X6X6X6X6X6X6XBXBXBXBXBXBXBXDXDXDXDXDXPXPXPXPXPXKXJXKXcXcXVXJXmXhXhXkXsXy.T T k p p & & p p & & 0 g g g g g g k T w.t.t.t.nXu.u.zXzXnXnXnXNXNXNXNXNXzXhXhXr. . .#.r.#. . . .l k 0 0 0 & & & 0 0 0 g g g g g h z w.y.y.t.t.hXhXzXnXmXNXNXNXNXmXmXmXnXmXmXhXhXhXcXZXZXmXJXJXJXJXKXKXKXKXmXmXcXcXcXcXcXcXzXxXxXxXfXfXfXjXjXR.R.T.T.T.T.E.R.E.B w 1 1 1 > 9 9 q 5 q q (  .y.hXkX].].Z.C.C.(.(.(.).'.uXAXMXnXs.i.g.) ) ) | ^ ^ | | ~ ( r.y.3.<.^.`.-X&X&X1X<X<X<X<X<X<X<X1X1X1X<X<X<X<X<X<X&X&X&X*X-X).'.A.A.X._ ! Q Q -.-.-.-.) 9.9.>.H s s D 2.2.p g 0 , 4 7 7 5 8 w w e S M K Z.).-X-X&X%X:X:X,X,X4X2X4X:X:X:X4X4X>X>X",
"`.yXtXrX8XeXwXwX>X;X#X#X@X@X#X#X#X;X;X;X;X;X;X;X;X;X;XG.B.b.z.z.h.h.h.h.j.j.h.h.j.j.h.z.z.z.z.x.x.x.M.N.N.N.N.).).).).).).).).).).).).).).).).).).).`.-X-X8XtXiXiXtXyX8XtXiXwX).+X-X&X&X&X5X5X6X5X5X$X$X$X;X#X@X@X@X@X@XG.G.G.G.G.G.G.G.@X@X@XG.G.G.G.G.G.G.G.G.G.G.G.G.G.G.G.@XJ.J.K.6X6X6X6X6X6X6X6XBXBXBXBXBXBXBXBXBXDXDXDXDXPXPXPXPXPXPXJXJXKXcXxXcXJXcXhXsXkXhXy.w.T z g g & p p p & & & & g g g z z 3.y.hXnXt.u.nXzXzXnXzXnXnXNXNXNXNXNXNXmXhXhXr. . .r.r.#.#.#.#. .l k g 0 0 g g g g g g g g h j z  .y.t.hXhXhXhXhXnXmXmXNXNXMXNXNXmXnXzXmXzXhXhXhXcXZXZXcXJXJXKXKXKXKXKXmXmXmXcXcXcXcXcXzXzXxXxXxXjXfXfXjXfXfXfXT.T.T.T.T.R.T.X.t 1 1 1 2 q 2 q 2 q q h ( w.y.y.A.S.Z.Z.C.C.(.(.`.oXAXSXMXnXs.s.g.g.) g.) ^ ^ =.=.( ( w.y.3.3.^.).`.-X&X<X<X<X<X<X<X<X<X1X1X1X<X<X>X<X<X*X,X&X&X*X*X-X).A.A.U.` ! Q ^ -.-.-.-.) g.9.3.H s s D 2.2.p g 0 , 3 7 4 5 8 w w S S Z Z.'.-X-X-X&X%X>X>X,X,X4X2X4X4X:X:X4X4X>X>X",
").-X9X=X`.).+X&X&X$XOX$X#X#X#X#X;X;X;X;X;X;X;X;X;X;X;X#XF.m.z.z.h.h.j.j.j.j.j.j.j.j.j.j.j.c.c.c.c.x.x.M.M.C.C.(.N.N.(.(.(.(.(.(.N.N.(.(.(.(.(.(.).).`.`.-X=X8XyXrXrX8X8X8XrXrXeX+X-X%X%X%X%X,X,X&X%X#X#X>X>X;X;X;X;X;X;X;X#X@X@X@X@X@X@X@X@X@X@X@X@X@XG.G.G.G.G.G.G.G.G.J.J.J.K.K.K.K.6X6X6XBXK.BXBXBXBXBXBXBXBXBXBXBXBXDXDXDXPXPXPXUXUXKXKXKXKXVXcXxXcXcXcXhXr.r.r.r.r.y.w.T T z k g g g g g g l l T w.y.t.hXnXzXzXzXzXzXzXzXzXnXnXNXNXNXMXKXMXcXzXgXgXdX@.@.dX@.@.#.#.#. . .T l l l l l l l l l T  . .w.t.t.t.hXzXzXzXzXnXmXmXNXKXKXKXNXmXnXzXzXzXhXgXhXcXcXcXcXmXJXJXPXJXJXJXmXmXmXmXcXcXcXcXzXzXzXzXxXlXgXgXgXgXgXfXgXdXdXY.Y.#.#.@. .y 2 0 0 0 0 0 0 g h j l  .r.@.A.S.S.S.Z.K.$XC.5XuXCXAXbXs.d.d.g.g.g.g.g.) ) g.g.) / / w.3.3.P ^.`.=X%X&X&X,X1X<X1X1X1X<X<X<X<X<X<X<X<X,X,X>X>X>X>X%X%X'.].A.+.` ~ ' =.=.) ) ) ) e.w.T s s G 2.H p 0 0 4 7 7 7 9 r w e S Z Z.).$X&X&X1X,X,X,X,X4X4X4X4X4X4X4X4X4X4X>X>X",
"N.).-X-X-X).(.(.OXOXF.OX@X@X@X#X;X;X;X;X;X;X;X;X;X;X;X#XOXB.n.z.h.h.j.j.j.j.j.j.j.j.j.j.j.j.c.z.c.c.c.x.M.M.N.(.V.(.(.(.(.(.(.N.N.N.(.(.(.(.(.(.(.(.).).`.-X=X9X8X8X8X8X8X8XrXrX*X-X-X%X&X&X&X,X&X%X%X%X>X>X>X>X;X;X;X;X;X;X;X;X;X#X#X#X@X@X@X@X@X@X@X@X@X@XG.G.G.G.G.G.J.J.K.K.K.K.6X6X6X6X6XBXBXBXBXBXBXBXBXBXBXBXBXBXDXDXDXPXPXPXUXUXUXKXKXKXVXcXxXxXcXcXgXgXr.r.r.r.r.y.y.y.w.T T T T T T T w.w.y.t.t.zXnXnXzXzXnXnXnXnXnXnXnXNXNXNXMXKXKXKXmXcXhXdXU.@.@.dXr.@.@.#.#.#. . . . . . . . . . . .w.y.y.r.u.u.u.zXzXzXzXzXnXmXNXKXKXKXNXNXmXnXnXzXzXhXgXgXcXcXcXcXmXZXJXJXJXJXJXmXmXmXmXmXcXcXcXzXzXzXzXzXzXgXgXgXgXgXgXgXgXdXdXY.#.#.@. .l l l h h h h h h j (  . .r.U.A.S.S.K.S.K.C.(.5X].oXAXbXbXnXd.g.g.g.g.g.) ) g.g.9./ / w.3.P L ^.`.-X%X&X&X,X>X1X:X1X:X<X<X<X<X>X>X>X>X,X,X>X,X,X>X>X%X).'.].A.R ` ' ) =.) ) ) ) w.w.3.F s G 2.;.p 0 0 4 9 7 7 8 w e S Z K Z.).$X&X,X1X,X,X,X,X4X4X4X4X4X4X4X4X4X4X>X>X",
"v.).).+X(.(.N.N.V.B.B.V.F.OX@X#X#X;X;X;X>X>X>X;X;X;X;X#X@XF.m.z.h.h.j.j.j.j.j.j.j.j.j.j.j.j.j.j.j.c.c.c.x.M.C.C.(.(.(.(.(.(.N.N.N.N.N.N.N.N.N.N.(.(.+X+X+X+X-X-X9X9X9X9X9X9XrXrXrX*X-X&X=X&X%X<X&X%X%X>X>X>X>X>X>X;X>X;X;X;X;X;X;X;X;X;X;X;X#X#X@X@X@X@X@X@X@X@X@XG.;X;XG.5XK.K.K.6X6X6XK.K.6XBXBXBXBXBXBXBXBXBXBXBXBXBXDXDXPXPXPXPXUXUXUXKXKXVXKXcXxXxXxXxXgXgXr.r.r.r.r.r.r.r.t.r.y.y.y.y.y.y.t.t.hXzXnXnXnXhXzXnXnXnXnXnXnXnXnXNXNXNXMXKXMXmXmXmXhXgXU.+.+.@.@.r.@.#.#.#.y.r.r.y.y.y.y.y.y.y.r.r.t.r.t.u.zXzXzXzXzXzXzXmXmXKXKXKXNXNXmXnXnXnXzXzXgXgXgXcXcXcXcXcXZXZXJXJXJXJXmXmXmXmXmXcXcXcXcXcXzXzXzXzXhXgXgXgXgXgXgXgXdXdX@.@.O.O. .l l l j h h j j j (  . .#.@.U.A.S.S.K.K.K.K.5X5X'.].uXbXbXMXnXp.g.f.f.g.g.g.g.g.9./ j 3.T P L ^.`.-X%X%X%X>X>X>X>X<X<X<X<X<X<X<X>X>X>X1X>X>X>X>X>X>X%X+X).'.].E U ( -.=.) ) ) ) w.w.3.F s G 2.;.p 0 q 5 9 9 5 1 e = M S.Z.).$X&X%X>X:X,X,X,X,X4X4X4X4X4X4X4X4X4X4X>X>X",
"x.M.N.N.N.N.N.N.M.M.M.B.B.V.F.@X#X#X;X;X;X>X,X,X;X;X;X;X$XF.B.n.h.h.j.j.j.j.j.j.j.j.j.j.j.j.j.j.j.j.z.c.x.x.M.C.V.V.(.(.(.N.N.N.N.N.N.N.N.N.N.N.(.(.(.+X+X+X-X%X-X-X9X-X-X9X8XrXtXeX-X-X&X&X*X<X*X%X>X>X>X:X:X>X>X>X>X>X,X>X>X>X>X;X;X;X;X;X;X;X#X#X#X@X@X@X@X@X;X@X;X;X5X5X6X6X6X6X6X6X6X6XBXBXBXBXBXBXBXBXBXBXDXDXBXBXBXDXPXPXPXPXUXUXUXKXKXVXVXVXcXcXxXgXgXdXgXgXr.r.r.r.r.r.t.t.t.hXhXhXt.zXt.zXzXzXnXnXzXt.zXzXnXnXnXnXnXnXnXnXNXNXNXMXMXmXJXmXcXkXsXE E +.@.@.r.r.#. .y.r.r.r.r.r.r.r.r.r.r.r.r.r.r.u.zXzXzXzXzXzXzXzXmXmXNXNXNXmXnXnXnXnXzXzXlXlXxXxXcXcXcXcXZXZXJXJXJXJXmXmXmXmXmXmXcXcXcXcXzXzXzXzXhXhXgXgXgXgXgXgXgXdXdXr.@. .T l l l j j j j j ( w. .#.#.+.U.E.S.D.K.K.K.K.K.Z.'.'.XX].].bXbXe.9.f.f.g.g.g.g.e.9.z z z H H L v.).-X%X%X%X%X%X>X>X>X>X>X>X<X<X>X>X>X>X<X<X>X<X:X<X>X>X%X+X`.'.].E } ( ) ) ) ) / %.w.3.F s G 2.;.p 0 2 9 9 9 5 1 = c K Z.'.$X&X%X%X>X<X,X,X,X4X4X4X4X4X4X4X4X4X4X4X>X>X",
"c.c.x.x.n.n.x.x.n.n.n.n.n.m.B.F.@X#X#X;X;X;X;X>X;X;X;X#X;X$XF.n.h.j.j.j.j.j.j.j.j.j.j.j.j.j.j.j.j.j.j.j.z.c.x.M.N.N.V.V.V.V.N.N.N.N.N.N.N.N.N.N.N.N.V.(.(.(.(.+X-X-X_._._.9X8XrXrXrXwX-X-X=X1X<X<X>X<X<X:X:X:X:X>X>X>X>X>X>X>X>X>X>X>X>X;X;X;X;X#X#X#X#X#X#X#X#X;X;X;X5X5X6X6X6X6X6XK.K.BXBXBXBXBXBXBXBXBXBXBXBXDXDXDXDXDXDXPXPXPXUXUXUXKXKXKXVXVXVXVXVXcXxXgXr.gXgXgXgXr.r.r.r.hXt.hXzXzXzXzXzXzXzXzXzXzXnXnXnXnXnXnXnXnXnXnXnXNXnXnXNXNXmXMXmXJXJXcXkXsXE E +.O.#.@.r.r.@.#.y.r.r.r.r.r.r.r.r.r.r.r.r.t.zXzXzXzXzXzXzXzXzXmXmXmXmXmXzXzXzXzXzXzXzXlXlXxXcXcXcXcXcXZXZXJXJXJXJXMXMXmXmXmXmXmXmXmXzXzXzXzXzXhXhXzXhXhXgXgXgXgXgXgXgXgXr.y.w. . .(  . .h g l y. .#.+.X.E.E.P.P.D.D.K.K.K.S.'.'./.<.2.oXbX3.w.p.d.e.e.e.9.9.>.z d d H G J v.).-X%X%X%X%X%X>X>X>X>X>X>X>X>X>X<X<X>X:X<X>X<X:X:X>X>X>X%X+X`.'.3. .( ( ) ) ) / ( w.3.F s D 2.H p 0 2 Q 9 4 , e c K Z.5X$X&X%X%X>X>X<X1X1X,X4X4X4X4X4X4X:X4X4X4X4X:X>X",
"c.c.x.n.n.z.z.c.z.z.z.z.z.b.b.m.G.@X;X;X;X;X;X,X;X>X;X#X#X$XF.B.h.j.j.j.j.j.j.j.j.j.j.j.j.j.j.j.b b j.j.j.c.c.c.M.M.M.N.V.V.N.N.N.N.N.N.N.N.N.N.N.N.N.N.N.(.(.(.`.`.`.`._.-X9X8XrXrXrX9X-X*X1X*X*X*X<X<X>X>X>X:X>X>X>X>X>X,X,X,X>X>X>X>X>X>X;X;X#X#X#X#X#X#X#X#X;X;X;X5X5X5X6X6X6X6X6X6XBXBXBXBXBXBXBXBXBXBXBXBXDXDXDXDXDXPXPXPXUXUXUXUXKXKXKXVXVXVXVXVXcXxXlXr.gXgXgXr.r.r.lXlXzXzXzXzXzXzXzXzXzXzXzXzXzXzXnXnXnXnXnXnXnXnXnXnXNXmXnXmXmXmXJXJXmXkXkXkXsXA.E E R O.@.r.r.r.r.r.r.r.r.r.r.r.r.r.r.r.r.r.r.zXzXzXzXzXzXzXzXvXvXvXmXmXvXzXzXzXvXzXzXlXlXxXxXcXcXcXcXcXcXZXZXJXLXJXMXMXmXmXmXNXmXmXmXnXzXzXzXzXhXhXzXhXhXhXgXgXgXgXgXgXhXgXgXr.r.r.y.y.y.l 0 l r.#.U.U.E.E.E.P.P.P.P.D.K.S.6X].'.^.<.<.].].3.3.t.nXt.e.y.w.3.z d d s D J J v.).+X%X%X%X%X%X%X>X>X>X>X>X>X>X>X>X<X>X<X<X>X<X:X1X<X>X4X&X&X`.'.'.3.T ( %.%.( ( ( w.3.D s D H H p & 0 ~ q , : y K Z.'.$X&X%X>X>X>X>X:X:X:X:X:X4X4X4X4X4X:X4X4X4X4X:X>X",
"c.c.n.n.b.z.z.z.h.h.h.h.h.h.h.b.J.H.@X@X#X;X,X,X#X>X>X#X#X;X@XF.h.j.j.b j.j.j.j.j.j.j.j.j.j.j.j.b b j.j.j.j.j.j.c.x.x.M.N.N.N.N.N.N.N.N.N.N.N.N.N.N.N.N.N.N.(.(.).).).`.`.`.-X8XrXrXrXrXwX*X=X&X*X*X<X<X*X%X>X<X:X:X:X:X>X,X,X,X:X>X>X>X>X>X>X>X&X%X&X%X%X#X#X#X#X#X;X5X5X6X6X6X6X6X6X6XBXBXBXBXBXBXBXBXBXBXBXDXDXDXDXDXPXPXPXPXUXUXKXKXKXKXVXVXVXVXVXVXVXcXlXgXgXr.r.r.r.r.lXlXlXlXzXzXzXzXzXzXzXzXzXzXzXzXzXzXnXzXnXnXnXnXnXnXmXmXmXmXmXmXmXJXbXkXkXsXsX].E #.O.O.+.#.r.r.r.r.$.r.r.r.r.r.r.r.r.r.r.r.r.lXlXzXzXzXzXzXvXvXvXvXvXvXvXzXzXvXzXzXlXlXlXxXcXcXcXVXcXVXVXZXZXJXLXJXMXMXmXmXmXNXNXmXmXnXnXzXzXzXhXhXzXhXhXhXhXhXgXgXgXgXgXgXgXr.r.r.r.r.r. .0 l @.@.U.E.E.E.~.~.P.P.P.D.S.E.BX].'.^.<.<.^.'.G 2.3.kX3.3.3.3.3.H f s s G J L v.).+X#X%X%X%X%X%X%X%X>X>X>X>X>X>X>X>X>X>X>X>X,X1X1X1X1X4X,X&X-X).'.'.3.T  . . . .T T 3.s s G H d & & y u y 2 ; K Z.'.5X&X&X>X<X,X,X,X>X:X:X:X:X4X4X4X4X4X:X4X4X4X4X>X>X",
"c.x.x.z.h.h.h.h.h.j.j.j.h.h.h.h.b.n.B.F.OX#X>X,X#X>X>X#X#X;X$XF.z.j.j.b b j.j.j.j.j.j.j.j.j.j.b b b b j.j.j.j.j.j.z.x.M.M.N.N.N.N.N.N.N.N.N.N.N.N.N.N.N.N.N.N.(.(.).).).).).`.9XrXrXtXrXrX*X%X&X*X<X1X<X*X%X>X1X:X:X:X:X,X,X,X,X:X:X:X:X>X>X>X>X&X&X>X>X>X>X&X&X%X>X>X&X5X6X6X6X6X6X6X6XBXBXBXBXBXBXBXBXBXBXDXDXDXDXDXPXPXUXUXUXKXKXKXKXVXVXVXVXvXvXcXcXVXvXvXlXgXgXgXgXlXlXlXlXlXlXlXzXzXzXzXzXzXzXzXzXzXzXzXzXzXzXzXzXnXnXzXzXmXnXnXmXmXmXmXmXbXkXsXsXsXsXy.y.#.+.O.O.#.r.r.r.r.r.r.r.r.r.r.r.r.r.r.r.r.lXlXzXzXzXzXzXzXzXzXzXvXvXvXzXzXvXlXlXlXlXlXxXcXcXcXVXcXVXVXZXZXJXLXJXMXMXMXmXNXNXNXNXnXnXnXzXzXzXhXhXzXzXhXhXhXgXgXr.gXgXgXgXgXgXgXr.r.r.hXr.l Y @.Y.E.E.E.~.~.P.P.P.P.D.S.BXBX].'.'.'.<.^.<.D G 3.].3.2.3.3.H f s s G G L L v.).+X+X%X%X%X%X%X%X%X%X%X>X>X>X>X,X,X,X,X>X>X,X,X,X,X1X,X1X,X%X+X`.'.'.E E T T T T H H G D G H s % ; ; y y ; F Z.'.$X#X&X&X<X:X,X,X=X*X:X:X:X:X4X4X4X4X4X:X4X4X4X4X>X>X",
"M.n.z.h.h.b.z.z.h.h.j.j.j.j.h.h.h.z.b.m.B.F.@X#X>X>X>X>X;X#X@XG.b.j.b j.j.j.j.j.j.j.j.j.j.j.j.j.j.j.j.j.j.j.j.j.j.j.z.x.M.M.N.V.C.V.V.N.N.N.M.M.M.N.N.N.N.N.N.C.).).).).).).`.`.8XrXtXtXtXrX9X_.=X1X3X2X<X1X1X,X<X<X<X<X<X<X<X<X<X<X<X<X<X<X<X1X%X%X%X%X&X&X%X%X%X%X%X&X5X5X6X6X6X6X6XBXBXBXBXBXBXBXBXBXBXDXDXDXPXDXDXPXUXUXUXPXJXJXJXVXVXcXcXxXxXvXvXvXvXvXvXvXlXlXlXlXlXlXlXlXlXlXlXlXlXzXzXzXzXzXzXzXzXzXzXcXcXcXcXcXzXzXzXzXzXzXzXmXmXMXMXMXcXkXsX].].].sXsXU.@.+.E O.#.r.r.gXr.r.r.r.gXgXgXr.r.r.lXr.r.lXlXzXzXzXzXzXzXzXzXzXzXvXvXlXlXlXlXlXlXlXvXcXcXVXVXcXVXVXBXZXZXJXLXMXMXMXMXNXNXnXnXnXnXnXnXnXnXu.t.hXt.t.t.hXhXhXhXgXgXgXgXgXgXgXgXgXgXgXr.T l @.@.E.E.E.E.~.P.P.P.~.E.E.U.jXkX].3.].2.<.L G L <.'.P G G G G D s s D G L L ^.).$X$X$X$X#X&X&X#X%X>X%X%X%X>X>X,X>X>X,X,X,X,X>X>X<X<X,X1X:X1X%X-X).).'.<.P P H H H G L G D D - - - - * - D Z.'.`.+X-X*X*X*X<X<X<X<X>X:X:X:X:X:X:X:X:X4X:X:X:X:X4X>X>X",
"C.M.z.h.h.h.h.h.h.h.j.j.j.j.h.h.h.h.h.h.b.m.F.F.@X#X;X;X;X#X@XF.m.h.j.j.j.j.j.j.j.j.j.j.j.j.j.j.j.j.j.j.j.j.j.b j.b j.z.x.x.M.M.C.C.N.N.N.N.N.M.M.M.M.M.M.M.N.N.).).).).).).`.`.9XrXtXtXtXtX9X-X=X=X1X2X1X<X1X1X<X<X<X<X<X<X<X<X<X<X<X<X1X1X1X1X*X<X<X=X=X&X*X%X%X1X1X1X6X6X6X6X6XHXBXBXBXBXBXBXBXBXBXBXBXDXDXDXDXDXPXPXUXUXUXPXJXJXcXcXcXcXcXxXvXvXvXvXvXvXvXvXvXvXvXvXvXxXlXlXlXlXlXlXlXlXlXlXlXzXzXzXzXzXzXzXzXlXlXlXlXgXgXgXzXzXzXmXmXJXLXmXkXkXsX].].].sXsXsXU.+.E O.O.O. .r.r.r.r.r.r.r.r.r.r.r.r.r.r.lXlXlXlXlXlXlXzXvXvXlXlXlXlXlXlXlXlXlXvXvXvXVXVXVXVXcXVXVXBXZXZXJXLXMXMXMXMXNXNXnXnXnXnXnXnXnXs.u.t.t.t.t.t.hXhXhXhXhXhXgXgXgXgXgXgXgXgXgXgXT l O.Y.T.E.E.~.~.~.~.~.E.I.E.E.jXkXkX3.3.3.3.2.D D G L G D D D D D G D H P <.<.^.).(.OX+X$X#X&X#X#X#X%X%X%X>X>X>X,X>X>X>X,X,X>X>X>X<X<X,X,X:X<X*X%X`.).^.^.<.P P G G G L G D D - - - - x D P '.-X-X*X*X*X*X<X<X<X<X<X>X>X>X:X:X:X:X:X:X4X:X:X:X:X4X>X>X",
"V.C.m.b.h.h.j.h.h.h.h.j.h.h.h.h.h.h.j.j.h.h.b.n.B.F.OX@X@X@XOXF.m.h.j.j.j.j.j.j.b b b j.j.j.j.j.j.j.j.j.j.b b b j.b j.j.z.z.x.x.M.N.N.N.N.N.N.N.M.M.M.M.v.M.M.N.N.).).).).).).).-X8XtXtXtXtXyX-X-X=X1X1X1X1X<X1X<X<X<X<X<X<X<X<X2X2X2X3X1X1X1X1X1X1X1X1X1X*X*X*X*XwXyXiXpXpX6XHXHXHXHXDXDXBXBXBXBXBXDXDXDXDXDXDXPXPXPXPXUXUXPXJXJXVXcXcXcXcXxXxXvXvXvXvXvXvXvXvXvXvXvXvXvXvXvXvXvXlXlXlXlXlXlXlXlXlXlXlXlXlXlXlXlXgXgXr.r.r.r.r.gXgXhXcXmXJXJXJXkXkX].].].].].sXsXsXy.#.+.E E T #.@.r.r.r.$.$.$.$.$.r.lXr.lXlXlXlXlXlXlXlXlXlXlXlXlXlXlXlXlXlXlXvXvXvXvXVXVXcXcXcXVXVXVXZXZXZXLXMXMXMXMXNXNXnXnXnXnXnXnXs.s.s.u.u.u.t.t.t.hXhXhXhXhXhXhXgXgXgXgXgXgXgXgX .k ..dXT.T.R.~.~.~.~.~.~.E.E.E.Y.gXhXt.t.y.y.3.H s D D J D D D D D H H H P 3.<.^.).(.(.+X+X+X#X#X#X#X#X%X%X>X>X>X>X>X>X>X>X,X>X>X>X>X>X,X1X:X<X>X%X-X-X`.).^.^.<.<.L L L G D D D x x x J v.).-X-X*X*X*X%X%X<X<X<X<X<X>X>X>X:X:X:X:X:X:X2X:X:X:X:X4X>X>X",
"OXV.B.m.z.h.h.h.h.h.h.j.j.h.h.h.h.h.h.j.j.h.h.b.b.n.B.F.F.F.F.F.m.b.j.j.j.j.b j.b b b j.b j.b b j.j.j.j.j.j.j.b j.j.j.j.j.z.z.x.n.M.M.N.N.N.N.N.M.M.M.M.M.M.M.M.v.N.).).).).).).`.9XyXtXiXiXtX8X-X-X=X1X1X1X<X<X2X2X2X2X2X2X2X2X2X2X2X2X1X1X1X1X=X=X=XwXwXwX*X*X*XyXiXpXpXHXHXHXHXHXDXDXDXDXDXBXDXDXDXDXDXDXDXDXPXPXPXUXUXKXJXJXJXVXcXcXxXcXcXcXvXvXvXvXxXvXvXvXxXvXvXvXvXvXvXvXvXvXvXvXvXvXvXvXxXxXxXlXlXlXlXlXT.T.$.$.$.$.$.Y.gXgXhXcXmXJXJXZXkXsX].3.].].].].sXsXsXy.y.y.y.#.O.#.@.@.@.$.$.T.$.W.lXlXgXlXlXlXlXlXlXlXlXlXlXlXxXxXxXxXvXvXvXvXvXvXvXvXvXxXxXxXcXVXVXVXZXZXZXLXMXMXMXMXNXNXNXNXnXnXnXs.s.s.s.s.s.s.t.t.t.t.hXhXhXhXhXt.t.r.gXgXgXr.r.hX .k U dXT.T.T.R.R.R.~.~.~.~.E.E.o.$.r.r.e.e.y.y.T d F F D D D D G H H W W W W P '.'.(.(.+X+X+X#X#X#X#X#X#X%X%X>X&X>X>X>X>X>X>X>X>X>X>X>X,X,X>X<X:X>X<X&X*X-X`.^.^.^.L L L L D D D x D J v.(.-X*X*X*X>X%X%X*X<X<X<X<X<X<X:X:X:X:X:X:X4X4X2X:X:X:X:X4X>X>X",
"OXOXF.B.b.h.h.h.h.h.h.h.j.j.j.j.h.h.h.h.h.h.h.h.h.h.b.n.m.B.B.B.m.b.h.h.j.j.j.j.j.j.b b b b b j.b b j.j.j.j.j.j.j.b b j.j.j.j.h.x.x.M.N.N.N.N.M.M.M.M.M.v.M.M.M.v.N.).).).).).).)._.8XtXiXiXiXtX-X-X*X1X1X1X<X2X2X2X2X2X2X2X2X2X2X2X2X2X1X1X1X1X=X=XwXwXwXwX9X9XwXyXiXpXpXHXHXHXHXDXDXDXDXDXDXBXBXDXBXDXDXDXDXDXPXPXPXUXKXKXKXKXJXVXcXxXxXxXxXxXxXxXvXvXvXvXvXxXvXvXvXvXvXvXvXvXvXvXvXvXvXvXvXvXxXxXlXlXlXlXW.W.$.$.$.$.$.$.Y.Y.dXgXgXcXmXJXZXbXkXsX].].].].sXsXsXsXsXsXy.y.sXy.#.#.#.#.@.$.$.$.T.T.lXlXlXlXlXlXlXlXxXvXvXvXvXvXvXvXvXvXvXvXvXxXlXlXlXW.lXxXxXvXVXVXVXVXZXZXZXLXMXMXMXMXNXNXNXNXnXnXs.s.s.s.s.s.s.s.s.s.t.t.t.t.t.t.t.t.t.r.r.r.r.r.r.r.w.l l r.fXT.T.T.R.R.~.~.~.~.E.E.o.o.%.%.i.i.e.e.w.z k d x D F H H H T T T T E A.Z.Z.C.V.OXOXOX+X$X#X#X#X#X#X#X%X&X&X%X%X>X>X>X>X>X>X>X>X,X,X>X>X<X:X:X1X:X%X+X).).^.^.v.L L L D x D J v.(.&X*X<X<X<X,X,X%X<X<X<X<X<X<X<X:X:X:X:X:X:X4X4X4X:X:X:X4X4X>X>X",
"+X$X@XF.m.b.h.h.h.h.h.h.j.j.j.j.j.j.h.h.h.h.h.h.h.h.h.h.b.b.n.n.m.m.m.b.b.z.h.h.j.j.j.j.j.j.j.j.j.j.j.j.j.j.j.b j.j.j.j.j.j.j.j.z.z.x.M.M.N.M.M.M.M.v.x.x.x.x.x.v.v.N.).).).).).).`.-X8XtXiXiXiX8X9X-X*X1X1X<X1X2X2X2X2X2X2X2X2X2X2X2X2X1X1X1X1X=X*XwXwXwXwXwXwXyXiXpXpXFXHXHXHXGXGXGXDXDXDXDXZXDXDXDXDXDXDXPXPXPXPXUXKXKXKXKXKXKXcXcXxXlXlXlXxXxXxXvXvXvXvXvXlXvXvXvXvXvXvXvXvXvXvXlXlXlXlXlXlXlXW.W.W.T.T.T.T.T.T.$.$.T.T.Y.T.Y.dXgXjXcXcXkXkXsXsX].sXsXsXsXsXsXsXsXsXsXsXsXsXsXr.#.#.#.$.$.$.$.$.$.gXgXlXlXlXvXvXvXvXvXvXvXvXvXvXvXvXvXxXlXlXlXlXW.W.lXxXvXVXVXVXVXVXkXkXZXLXLXMXMXMXNXNXNXNXnXd.s.s.s.s.s.s.s.s.s.s.t.t.t.t.t.t.t.t.t.t.t.t.t.t.r.r.y.l k r.gXT.T.T.R.R.R.E.E.E.E.E.o.| | | ( ( w.i.w. .l k ; k I I k l T T Y R E S.S.Z.J.J.OXOXOX@X@X#X;X;X#X#X#X#X%X%X&X%X>X%X>X>X%X>X>X>X>X>X>X>X>X,X1X1X4X,X&X+X).).^.^.v.v.L J D J v.).&X&X>X>X:X:X,X,X>X<X<X<X1X<X:X<X:X:X:X:X:X:X4X4X4X:X:X:X4X4X>X>X",
"#X#X#X@XF.n.b.h.h.h.h.h.h.j.j.j.j.j.h.h.h.j.h.h.h.h.h.h.z.b.b.b.m.m.m.m.m.n.n.n.b.b.h.j.j.j.j.h.h.h.h.h.h.h.j.j.h.j.j.h.h.j.j.h.j.z.x.x.M.M.M.M.M.M.x.x.x.x.x.x.v.v.v.).).).).).).`._.9XyXiXiXiXtX8X-X*X1X1X<X1X2X2X2X2X2X2X2X2X3X3X3X2X2X2X3X3X1X1XwXwXwXeXyXyXiXpXpXHXHXHXHXDXGXGXIXPXDXDXDXDXDXDXDXDXPXPXPXPXPXPXUXKXKXKXKXVXKXcXcXxXlXlXlXlXlXlXxXvXvXvXvXvXlXlXvXvXvXvXvXvXvXvXlXlXlXlXlXlXlXlXW.W.W.W.W.T.W.W.T.T.T.T.T.Y.@.Y.dXgXhXkXkXkXsXsXsXsXsXsXsXsXsXsXsXsXsXsXsXsXsXsXr.@.#.#.$.o.$.$.$.$.$.gXlXlXlXlXvXvXvXvXvXvXxXxXvXxXxXlXlXlXlXxXxXxXvXvXvXVXVXVXVXVXkXkXZXLXLXLXMXMXMXNXNXNXnXnXd.d.s.s.s.f.f.p.f.f.u.u.u.t.t.t.t.t.t.t.t.t.t.t.t.y.y.T k r.r.gXT.T.W.R.R.R.E.E.E.E.E.o.| | ~ ~ ( %.%.%.( ( q l l l k l l u B R S.S.S.K.J.J.F.H.F.G.@X@X@X;X#X#X#X#X#X#X&X#X%X%X%X%X%X%X>X>X>X>X>X,X,X,X,X,X4X,X&X&X+X).).^.N.v.L J J v.).$X%X%X>X,X>X>X>X:X<X<X<X1X1X1X:X:X:X:X<X<X:X:X4X4X4X:X:X:X4X4X>X>X",
"+X&X>X;X@XB.m.b.h.h.h.h.h.j.j.j.j.j.j.j.j.j.h.h.h.h.h.h.z.b.b.b.b.n.m.m.m.B.B.B.B.m.b.z.z.z.z.z.z.z.z.z.z.z.z.z.z.z.z.z.z.h.j.h.j.h.z.x.x.M.M.M.M.M.v.v.M.M.v.x.v.v.v.^.).).).).).`.`._.8XtXiXtXtX8X-X-X1X1X1X1X<X<X<X<X<X<X<X<XwXwX3X3XwX3X2X3XwXwXwXwXeXeXtXtXpXFXFXHXDXDXDXDXGXGXGXPXPXDXDXDXPXDXDXDXPXPXPXPXPXUXKXKXKXKXVXVXVXcXxXlXlXlXlXlXlXlXlXxXvXvXvXvXvXvXvXvXvXvXvXvXvXvXvXvXvXvXvXvXxXlXlXlXlXlXlXlXlXW.T.T.T.Y.Y.@.@.@.@.dXgXkXsXsXsXsXsXsXsXsXsXsXsXsXsXsXsXsXsXsXsXsXdXdX@.#.X.X.X.o.$.$.$.$.*.lXgXlXlXlXlXlXlXlXlXlXxXxXxXxXvXxXvXvXvXvXvXvXVXvXVXVXVXVXkXkXZXLXLXLXMXMXMXNXNXNXnXnXd.d.d.d.s.f.f.f.f.p.s.u.u.t.t.t.t.t.t.t.t.t.t.t.t.y.r.T k r.r.gXlXW.W.R.W.R.T.T.E.~.E.E.o.| ~ ~ ^ ( ) ( ( ( q u l l 0 0 q 2 B A l.l.D.K.J.J.H.H.H.F.F.@X@X@X#X#X#X#X;X&X#X#X%X%X%X%X%X%X>X>X>X>X>X,X&X,X,X>X1X>X%X%X%X`.`.`.).v.L J L N.).&X*X%X,X4X4X>X<X2X<X<X<X1X1X1X:X:X:X:X<X<X:X:X4X4X4X:X:X:X4X4X>X>X",
"OX#X>X>X#X@XF.m.b.b.h.h.j.h.j.h.h.h.h.h.h.h.h.h.h.h.h.z.z.b.b.b.n.n.n.n.m.M.B.C.B.B.B.M.n.n.n.n.n.n.n.n.n.n.n.M.n.n.M.M.n.x.x.x.c.z.z.c.x.x.M.M.M.M.M.M.M.M.x.v.v.v.v.v.N.).).).`.).).`.9XyXtXtXtXtX8X-X-X1XwX<X1X1X2X2X2X2X2X2X3X3X3X3XwXwX2X1X1X*X<XwXeXtXiXiXFXFXFXFXGXGXDXDXPXPXPXPXPXPXPXPXDXPXPXPXPXPXUXUXJXJXKXKXKXKXVXcXvXxXlXlXlXW.W.W.W.W.W.lXlXvXvXvXvXvXvXvXvXvXvXvXvXvXvXvXvXvXvXvXvXxXlXW.W.W.W.T.T.T.T.$.$.$.$.$.#.@.dXdXsXsXsXsXsXsXsXsXsXsXsXsXsXsXsXsXsXsXsXsXdXdXdXdX$.$.$.o.} X.X.o.$.$.W.W.lXlXlXlXlXlXlXlXlXlXlXxXvXvXvXvXvXvXvXvXvXVXVXVXVXVXcXjXkXkXZXIXLXLXLXMXMXMXNXNXnXnXd.d.d.d.d.f.f.f.f.p.p.f.s.s.t.u.u.t.t.t.t.t.t.t.t.t.t.w.z w.r.r.r.gXfXW.T.T.T.T.T.R.T.E.T.E.o.' ^ ^ ^ ^ ( ( ~ ~ ~ q , 1 r B [ l.l.l.D.D.K.K.J.J.J.H.H.G.G.@X@X@X;X;X;X;X;X;X>X>X>X;X>X>X>X>X>X>X>X>X>X,X,X,X%X%X%X%X%X%X-X`.).N.v.v.N.).&X%X>X>X>X>X1X1X,X,X:X:X:X,X,X,X1X1X4X4X4X4X4X:X:X:X4X:X:X:X:X:X>X>X",
"OX#X>X>X;X@XF.F.m.b.h.h.h.h.h.h.h.h.h.h.h.h.h.h.h.h.h.z.z.z.b.b.b.b.n.n.n.n.M.M.B.B.C.C.B.M.M.M.B.C.C.C.V.V.V.F.OX$X$X$X$X$X$X$XC.M.x.c.c.x.M.M.M.M.M.x.x.M.v.x.v.v.v.v.v.^.).`.`.).).`.`.9XyXtXtXtXrX*X-X*X1X<X1X1X2X2X2X2X2X2X3X3X3XwXwXwX1X1X1X*X<XwXyXiXiXpXFXFXFXGXGXDXPXPXPXPXPXPXIXPXPXPXIXIXIXIXPXUXUXKXUXKXKXKXKXVXvXvXlXlXlXlXlXW.W.W.W.W.lXlXlXvXvXvXvXvXvXvXvXvXvXvXvXvXvXvXvXvXvXvXvXlXW.W.W.W.T.$.o.o.o.o.o.o.$.$.@.Y.dXdXsXsXsXsXsXsXsXsXsXsXsXsXsXsXsXsXsXsXsXsXdXdXdXdXY.$.$.o.X.X.X.X.o.$.$.W.W.W.W.lXlXlXlXlXlXlXlXlXxXvXvXvXvXvXvXvXvXvXvXvXcXcXcXjXkXkXZXIXLXLXLXMXMXMXNXNXnXnXd.d.d.d.d.a.f.f.p.p.p.p.f.p.e.e.e.t.u.u.t.t.t.t.t.t.y.T z w.r.r.r.gXgXfXT.T.T.T.R.R.R.T.T.T.W.o.~ Q 7 Q ^ ( ~ ~ 9 , , r B ` I.I.l.D.D.D.D.K.K.J.J.J.H.H.G.G.@X@X@X@X#X#X;X;X;X>X;X;X#X;X%X>X>X>X>X%X>X>X&X,X&X%X&X&X&X-X-X`.).).).).).+X&X<X>X>X>X>X1X,X,X,X:X:X:X,X,X1X1X1X4X4X4X4X:X:X4X:X4X:X:X:X:X:X>X>X",
"OX$X&X>X>X;X#X@XH.m.b.h.h.h.h.h.h.h.h.h.h.h.h.h.h.h.z.z.z.b.b.b.b.b.n.n.n.n.n.n.B.B.C.C.C.C.C.C.V.V.V.V.V.(.OX$X+X&X&X&X&X&X&X&X$X+XV.M.x.x.M.N.M.M.x.x.x.x.x.x.v.v.v.v.v.N.).`.`.`.`.).).`.9X8XtXtXtX9X-X%X<X<X1X1X1X2X2X2X2X2X3X3XwXwXwXwXwXwX*X<XwXyXiXiXpXFXFXFXGXGXGXIXIXIXIXIXIXIXIXIXIXIXIXIXIXUXUXUXKXKXKXKXcXvXlXlXlX*.W.W.lXlXW.W.W.W.lXlXvXvXvXvXvXvXvXvXvXvXvXvXvXvXvXvXvXvXvXvXvXvXQ.W.W.&.$.$.o.o.o.o.o.o.o.o.o.$.Y.dXdXdXdXdXdXdXdXsXU.U.sXU.sXdXsXsXsXsXsXdXsXsXdXdXdXdXY.$.$.$.$.X.X.} X.o.$.$.$.W.W.lXlXlXlXlXlXlXlXlXlXlXlXlXxXxXxXxXxXxXxXxXxXxXjXjXkXkXZXIXLXLXLXMXMXMXMXMXMXnXnXd.d.d.d.a.f.f.a.p.p.p.p.p.p.p.p.p.p.e.e.w.w.w.e.e.e.w.z w.t.r.r.r.gXfXfXfXR.R.R.R.R.T.T.T.Q.W.' ! 6 6 Q ^ ~ 9 3 , w S [ I.I.I.l.D.D.D.D.D.K.K.L.J.J.J.H.H.H.G.G.@X@X@X#X#X#X#X#X#X#X#X#X#X%X%X%X%X%X&X&X&X&X&X&X=X&X=X-X-X).).).).`.-X&X&X>X>X>X>X1X1X,X,X:X:X:X,X,X,X1X1X4X4X4X4X4X4X4X4X4X:X:X:X:X:X>X>X",
"$X#X>X>X>X>X#X#XG.F.m.b.z.h.h.h.h.h.h.h.h.h.h.h.z.z.z.b.b.b.b.b.b.b.b.x.x.n.n.n.n.n.M.C.C.V.V.V.N.V.V.V.V.V.(.(.OX+X+X+X+X+X+X+X%X+X+X(.N.N.N.N.N.M.M.x.x.x.x.x.x.v.c.c.v.v.).).`.`.`.).^.)._.9XtXtXtXrX*X%X*X1X<X1X1X2X2X2X2X2X3X3XwXwXwXwXwXwX<XwXyXtXiXpXFXFXGXGXGXGXIXIXIXIXIXIXIXIXIXIXUXIXLXUXUXUXUXKXKXmXzXlX$.$.$.o.o.| o.*.Q.Q.Q.W.Q.Q.vXvXvXvXvXvXvXvXvXvXvXvXvXvXvXvXvXvXvXvXlXlXQ.Q.W.&.o.o.o.o.o.o.o.o.o.o.o.o.$.$.T.fXdXdXdXdXdXdXY.Y.Y.Y.Y.Y.Y.Y.dXdXdXdXdXdXdXdXdXdXdXdXdXT.T.$.$.o.X.} } | o.o.o.$.W.W.W.W.W.W.W.W.W.W.W.W.W.W.W.W.W.W.W.W.W.W.fXfXfXsXsXkXZXLXLXLXLXMXMXMXMXMXMXMXbXnXd.d.a.a.a.a.a.a.p.p.p.p.p.p.p.p.p.p.w.9.9.9.9.9.e.9.j w.t.t.r.r.r.gXgXfXfXfXfXR.R.T.T.T.W.W.W.o.' ~ ~ ~ ~ 9 , 8 S [ I.I.I.P.P.P.D.D.D.D.D.D.K.K.J.J.J.J.H.H.G.G.@X@X#X@X#X#X#X#X#X#X#X#X%X%X%X%X%X%X&X%X&X%X&X&X&X=X-X-X).).).`.-X-X&X%X>X>X>X<X1X1X,X,X:X:X:X,X,X,X1X1X4X4X4X4X4X4X4X4X4X:X:X:X:X:X>X>X",
"$X&X>X>X>X>X>X#X;X@XF.B.n.b.z.b.b.b.b.b.b.b.b.b.b.b.b.b.b.b.b.b.b.x.n.x.n.n.x.x.x.x.x.n.M.M.M.N.V.V.V.V.V.V.V.V.(.OXOXOX+X(.+X+X+X+X+X+X+X(.).).(.N.M.x.x.x.x.x.v.x.c.c.c.v.v.^.).`.`.).).).`.`.8XtXtXrX9X*X*X1X<X<X<X1X2X2X2X2X3X3X3XwXwXwXwXwXeXeXtXiXpXpXHXHXGXGXGXIXIXIXIXIXIXIXIXUXUXUXUXUXUXUXUXKXKXcXzXlXW.$.| | | | | | | &.Q.Q.Q.Q.Q.vXvXvXvXvXlXlXlXvXvXvXvXvXvXlXlXW.W.W.W.W.W.W.&.&.' ' ' ' o.o.o.o.o.o.o.o.o.o.T.T.T.T.T.Y.dXdXdXdXY.Y.Y.Y.Y.Y.T.T.Y.Y.Y.Y.dXdXdXdXdXdXdXfXfXT.T.T.$.$.o.| | | | o.o.o.*.W.W.W.W.W.W.W.W.W.W.W.*.*.T.T.T.T.T.T.T.W.T.Y.U.U.].].kXZXLXLXLXLXMXMXMXMXMXMXMXbXbXa.a.a.a.a.a.a.p.p.p.p.p.p.p.p.p.p.p.p.p.e.9.>.9.j h w.e.t.t.r.r.r.gXgXgXfXfXfXfXT.T.T.W.W.W.W.&.&.&.=.~ 9 8 B [ I.I.I.I.P.!.!.!.!.D.D.D.D.D.D.K.K.J.J.J.J.H.G.G.@X@X@X@X@X@X#X#X#X#X#X#X#X#X%X%X%X%X%X%X%X%X%X&X-X-X-X^.^.^.).`.-X%X%X>X>X1X1X1X1X,X,X:X:X:X1X:X1X:X1X:X4X4X4X4X4X4X4X4X:X:X:X:X:X>X>X",
"+X#X&X>X>X>X>X>X;X;X;X@XB.m.n.m.n.n.m.n.n.n.n.n.n.n.n.n.b.b.z.z.b.b.x.x.n.x.n.n.x.x.x.x.x.M.M.B.M.M.C.C.C.V.V.V.OXOXOXOXOXOX+X+X(.(.+X(.(.(.(.).(.V.N.M.x.x.x.x.x.c.c.c.J J v.v.^.).).).).).).).9XtXtXtXeX*X*X*X<X<X<X<X1X2X2X2X3X3X2XwXwXwXwXwXeXtXiXiXpXpXHXHXGXGXGXIXIXIXIXUXUXUXUXUXUXUXUXUXUXUXKXKXcXvXlX$.o.| ` ' ' ' ' ' ' =.*.Q.Q.Q.vXvXvXvXvXvXvXlXlXlXlXlXlXlXlXW.W.*.W.W.W.&.o.o.o.' ' ' ' ' ' o.o.o.&.&.&.&.&.W.W.W.T.T.T.T.T.T.T.T.T.T.T.T.T.T.T.T.T.T.T.T.T.T.dXfXdXdXfXfXT.T.T.T.$.$.o.o.o.| | | o.o.o.*.*.&.&.&.o.o.o.o.o.o.o.o.o.o.o.T.T.T.T.T.Y.#.+.A.E ].kXZXLXLXLXLXLXMXMXMXMXMXbXbXbXa.a.a.a.a.a.a.a.p.p.p.0.0.p.p.0.p.p.p.p.p.p.9.9.j g w.e.e.t.t.t.r.r.r.r.gXgXgXfXfXdXdXR.T.T.W.W.*.o.| ~ t u X.E.I.I.I.P.P.!.!.!.!.!.D.D.D.D.D.D.D.K.K.J.J.J.H.H.G.G.OX@X@X@X@X#X#X#X#X#X#X#X%X%X%X%X%X%X%X%X%X%X%X-X-X^.^.^.^.`.-X%X%X>X>X<X1X1X1X,X,X:X:X:X1X:X:X1X1X:X4X4X4X4X4X:X4X4X:X:X:X:X:X>X>X",
"+X#X&X>X>X,X,X>X,X,X>X;X@XF.V.B.B.B.B.B.B.B.B.B.B.B.m.n.n.b.b.b.b.x.x.x.x.x.x.x.x.x.x.x.x.n.M.M.M.M.M.M.M.V.V.V.(.(.(.(.(.(.+X+X+X+X(.(.(.(.(.(.(.(.N.M.x.x.x.x.x.c.c.J J J J v.v.^.).).).).).)._.8XtXtXrXwX*X*X<X<X<X<X1X1X2X2X2X2X2XwXwXwXwXwXeXtXiXiXpXFXFXFXGXGXGXIXIXIXIXIXUXUXUXUXUXUXUXUXKXKXVXcXlXW.o.| | ~ ! ! ! ! ! ^ ^ ' { =.*.Q.vXvXvXvXvXvXvXvXlXlXQ.Q.Q.Q.W.W.W.*.W.W.W.*.&.&.o.o.o.o.' { &.&.&.&.o.&.&.&.&.W.W.W.$.T.T.T.T.T.T.$.$.$.$.$.T.T.T.T.T.T.T.T.T.T.T.T.T.fXfXfXT.T.T.T.$.$.$.o.o.o.| | | o.o.o.o.o.o.o.o.o.o.o.o.o.o.o.o.o.o.o.o.o.o.o.X.....E E E ].kXSXSXLXLXSXSXSXMXbXbXbXbXbXbXa.a.a.a.a.a.a.p.p.0.0.0.0.0.0.p.p.p.p.p.f.p.0.>.g >.e.e.e.t.t.t.r.r.r.r.r.gXdXdXdXdXT.T.T.T.W.*.| ` ` | o.o.E.E.I.I.P.!.!.!.!.!.!.P.D.D.D.D.D.D.D.D.K.J.J.J.J.H.H.H.F.OXOX@X@X@X$X+X+X#X+X%X%X%X%X%X%X%X%X%X%X-X-X`.).^.^.^.).-X%X%X>X>X>X1X1X1X1X1X:X:X:X1X:X:X1X1X:X:X4X4X4X4X:X:X4X:X:X:X:X:X>X>X",
"+X&X>X>X>X,X,X>X>X>X>X>X#X@XF.V.B.B.B.B.B.B.B.B.B.B.B.B.m.n.n.n.x.x.x.x.x.n.x.x.x.x.x.x.x.n.n.n.M.M.B.M.M.N.V.V.(.(.(.(.(.+X+X+X$X+X(.(.+X(.(.(.(.(.N.M.x.x.x.c.x.c.J J b J J c.v.v.).).).).).).`.9XtXtXrXeX*X*X<X<X<X<X2X1X2X2X2X2X2XwXwXwXwXwXeXtXiXpXpXFXFXGXGXGXIXIXIXIXIXIXUXUXUXUXUXKXKXKXVXcXxXlX*.o.| ' ` ! 9 Q Q Q Q Q ! ^ ' ' =.*.Q.Q.vXvXvXvXvXvXlXlXQ.Q.Q.Q.W.W.W.W.W.Q.Q.W.W.W.W.&.W.W.&.&.&.&.&.&.o.&.&.&.&.&.&.&.*.W.W.T.$.T.$.$.$.$.$.$.$.$.T.T.T.T.T.T.T.T.T.T.T.T.T.W.W.T.T.T.$.$.$.o.o.o.o.o.| o.o.o.o.o.o.o.| | o.o.o.o.o.o.| o.o.o.o.X.X.X.X.U R E E E ].kXSXSXLXLXSXSXSXSXbXbXbXbXbXbXa.a.a.a.a.a.a.p.p.0.0.0.0.0.0.p.p.p.p.p.p.p.p.>.g z w.e.e.e.t.t.r.r.r.r.r.r.r.r.dXr.fXY.T.T.W.*.$.%.o.*.W.o.X.E.E.I.P.!.!.!.!.!.!.P.D.D.D.D.D.D.D.D.K.K.K.J.J.J.J.J.F.F.F.@X@X@X@X@X+X+X#X#X%X%X%X%X&X%X%X%X%X-X-X`.`.^.^.^.).+X%X%X>X>X>X1X1X1X1X,X:X:X:X1X:X:X1X1X4X:X4X4X4X4X4X4X4X:X:X:X:X:X>X>X",
"$X>X>X>X4X,X>X>X>X>X>X>X;X#X#X@XF.F.F.F.F.V.V.V.V.V.V.V.B.B.B.B.m.n.n.n.n.x.n.n.n.x.x.x.x.n.n.n.M.M.M.M.M.N.V.V.N.V.(.(.(.(.(.(.(.(.OX+XOX+X(.(.(.(.V.M.x.x.x.x.x.c.J J b b J c.v.v.).).).).).).`.9XrXrXrXeXwX%X<X*X<X<X1XwXwX3XwXwXwXwXwXwXwXwXeXeXiXpXFXFXGXGXGXGXIXIXIXUXUXUXUXKXUXUXKXKXcXcXlXr.$.o.&.| ' ' Q Q Q 7 7 7 7 Q Q ! ^ ' ' =.=.*.*.lXvXvXvXvXQ.Q.lXQ.*.*.W.W.Q.Q.W.Q.Q.W.*.*.*.*.Q.Q.Q.Q.*.&.&.&.&.&.&.&.&.&.&.&.W.T.T.$.$.$.$.o.o.o.o.o.o.o.o.o.o.o.o.T.W.W.W.W.W.W.W.W.W.T.T.$.$.$.o.o.o.o.o.o.o.o.o.| ' ' ' ' ' ' ' ' ' ' ' ' ` ` ` ` ` ` ` ` ` ` ` } R E ].].bXSXLXLXSXSXSXSXSXbXbXbXbXbXbXa.a.a.a.a.a.a.0.0.0.0.0.0.0.p.p.0.p.p.p.p.p.>.g z 9.9.9.e.e.e.t.t.t.r.r.r.r.r.r.r.gXgXdX$.T.*.$.$.$.$.T.E.E.E.I.E.I.P.P.P.!.!.!.!.!.!.!.!.D.D.D.D.D.K.K.K.K.K.J.m.C.$X5X@XF.@X@XOX#X#X#X#X#X#X%X&X%X%X%X%X+X+X`.`.^.^.v.v.).+X&X,X>X:X:X1X1X:X:X:X1X,X,X:X:X:X4X4X4X:X:X:X:X4X4X4X4X4X:X:X:X:X>X>X",
"$X>X>X>X4X,X>X>X>X>X>X>X>X;X;X#X@X@XOXF.F.F.F.F.F.F.F.F.F.V.B.B.B.m.n.n.n.n.n.n.n.n.x.x.x.n.n.n.n.M.M.M.M.M.V.V.N.V.(.(.(.(.(.(.(.(.(.(.+X(.(.(.(.(.V.N.M.x.x.x.x.c.J J b b J c.v.v.^.).).).).).`.=X8XrXrXeXwX*X*X*X<X<X1X2X2X2XwXwXwXwXwXwXwXwX8XyXiXpXFXFXGXGXGXGXIXIXIXUXUXUXUXUXKXKXKXcXzXlX$.%.| | | ' ~ ! Q Q 7 7 6 6 7 7 7 Q Q ^ ' =.=.=.=.*.*.Q.Q.Q.Q.Q.lXlXQ.W.Q.Q.Q.Q.Q.Q.Q.Q.W.W.*.*.Q.Q.W.W.*.&.&.&.&.&.&.&.&.&.W.*.W.o.W.o.o.o.o.o.o.o.o.o.o.o.o.o.o.o.o.o.W.W.W.W.T.W.W.W.W.T.$.$.$.o.o.o.o.&.&.o.o.o.o.o.' ' ' ' ` ` ` ` ` ` ` ` ~ ` ` ` t B ` ` B B B B B R E ].kXSXLXSXSXSXSXSXSXbXbXbXbXbXbXbXa.a.a.a.a.a.a.p.0.f.f.0.0.0.p.0.p.p.p.p.p.>.g >.e.w.9.w.y.e.t.t.t.t.t.r.r.r.r.r.gXgXgXgXgXr.$.$.| o.o.E.E.E.E.E.P.P.P.P.P.P.P.!.!.!.!.!.!.D.D.D.D.D.K.K.K.K.Z.Z.6X6X5X$XF.OXOXV.@X@X@X#X#X#X#X&X%X%X&X&X+X+X-X`.^.^.v.N.).+X&X%X>X>X:X:X1X:X:X>X,X,X,X,X:X:X4X4X:X:X:X:X:X4X4X4X4X4X:X:X:X:X>X>X",
"$X>X>X>X4X4X>X>X>X>X>X:X:X,X,X>X;X;X@X@XOXOXOXOXOXOXOXOXF.F.F.V.B.B.B.m.n.n.n.n.n.n.x.x.x.n.n.n.n.n.n.M.M.M.M.M.N.N.V.V.V.(.(.(.(.(.(.(.(.(.OX(.(.(.V.N.M.x.x.x.x.c.c.J b b J J v.v.v.v.v.N.).).).-X9XeXrXrXeX<X*X<X<X<X<X1X1X2XwXwXwXwXwXwXwXwXeXyXiXpXFXFXGXGXGXGXIXIXUXUXUXUXUXUXKXKXmXzXr.$.| | ~ ~ ~ ~ Q 7 6 6 7 7 6 6 4 4 4 4 7 Q ^ ' ' | | =.=.=.=.*.*.Q.Q.lXlXlXQ.Q.Q.Q.Q.Q.Q.Q.W.Q.Q.W.W.W.Q.W.W.W.W.Q.&.&.&.&.W.W.W.W.o.&.&.&.&.&.&.&.&.&.o.&.o.o.o.o.o.o.o.&.W.W.W.W.W.W.W.W.W.T.$.$.&.o.o.&.o.o.o.o.o.o.o.' ' ' ' ' ` ` ` _ ! ! ! ! t t t t t _ ` ` t t t t B Y E ].].bXSXSXSXSXSXSXAXAXAXbXbXbXbXbXa.a.a.a.q.a.a.f.0.0.0.0.0.0.p.p.p.p.p.p.p.>.a >.p.p.e.w.w.y.t.t.t.t.t.t.r.r.r.r.gXgXgXgXlXlX$.$.} o.o.T.E.E.E.E.~.P.P.P.P.P.P.I.P.!.!.!.!.!.D.D.D.D.D.D.K.S.S.6X6X6X5XC.V.V.V.F.@XOXOX+X#X#X#X#X%X%X&X&X&X-X+X-X).).).).+X&X&X>X>X>X:X:X:X:X:X>X>X>X,X,X:X:X4X4X:X:X:X:X:X4X4X4X4X4X4X:X:X:X:X>X",
"$X>X>X>X4X4X>X>X>X>X>X:X:X:X4X,X;X;X;X#X@XOXOXOXOXOXOXOXOXOXF.F.V.V.B.B.B.n.n.n.n.n.n.n.n.n.n.n.n.n.n.n.n.M.M.M.M.M.N.V.N.V.(.(.(.(.(.(.(.+X(.(.OX(.(.N.M.M.x.x.x.c.c.J J J J c.c.v.v.v.v.v.v.).).`.-X9XeXrXeXwX<X<X<X<X<X<X<XwXwXwXwXwXwXwXeXeXrXtXiXpXpXFXGXGXGXIXIXIXUXUXUXUXUXKXKXKXzXr.%.%.| | ~ ~ Q 9 4 4 4 4 4 4 4 4 4 4 4 4 6 7 Q ^ ^ ^ ^ ' ' ' | | =.=.*.*.Q.Q.Q.Q.Q.Q.Q.Q.Q.Q.Q.Q.Q.Q.Q.Q.Q.Q.Q.Q.Q.W.W.W.W.W.W.W.W.W.&.&.&.&.&.&.&.&.&.&.&.&.&.&.&.&.&.&.&.&.&.W.W.W.&.W.W.W.W.*.o.o.&.&.&.&.o.o.o.' ' ' ' ' ' ' ' ' ' ' ` ` ! ! ! ! _ ! t ! ` ` ` t t r r t u B R E ].kXSXSXSXSXSXAXAXAXAXAXbXbXbXbXoXa.a.q.,.q.0.0.9.9.9.0.0.0.p.p.p.p.p.p.p.>.a >.p.p.p.w.w.y.t.t.t.t.t.t.t.t.r.r.r.gXgXgXgXlXr.$.o.o.T.T.R.~.~.~.~.~.~.P.P.P.I.I.P.P.P.!.!.!.!.D.D.D.D.D.S.S.A.BX].S.Z.Z.C.C.H.H.F.F.OX@X#X#X#X#X%X&X&X&X&X+X-X+X`.+X+X$X$X&X>X>X>X>X>X>X:X:X>X>X>X>X:X,X4X:X4X4X:X:X:X:X:X4X4X4X4X4X4X:X<X:X>X>X",
"$X>X>X>X4X4X>X>X>X>X>X>X>X>X>X>X;X;X;X#X#X#X$X$X@XOXOXOXOXOXOXF.F.F.F.V.C.B.M.n.n.n.n.n.n.n.n.n.n.n.n.n.n.n.n.n.n.M.M.C.V.V.V.(.(.(.(.(.OXOX+X+X(.(.(.N.N.M.M.x.x.x.c.c.c.c.c.c.c.c.c.v.v.v.v.N.(.).-X=XeXrXeXeX<X<X<X<X<X<X1X1XwXwXwXwXwXeXeXeXrXyXiXpXpXHXGXGXGXIXIXIXIXUXUXUXUXmXcXlX$.%.%.| | ^ ^ Q 7 4 3 3 3 3 3 3 4 4 4 4 4 4 4 4 6 7 Q Q ^ ^ ^ ^ ' ' ' ' =.=.*.*.*.*.*.*.Q.Q.Q.Q.Q.Q.Q.Q.W.W.Q.Q.Q.W.W.W.W.W.W.W.W.W.W.W.&.&.&.&.&.&.&.&.&.&.&.&.&.&.&.&.&.&.&.&.&.W.W.W.W.W.W.W.W.*.&.&.W.*.&.&.o.o.' ' ' ' ' ' ' ' ' ' ' ' ' ' _ _ _ _ _ _ ! ` ` ` t r r r r t t B U +.3.kXZXSXSXAXAXAXAXAXAXAXAXbXoXoXoXbXa.,.>.>.>.>.>.>.9.0.0.0.0.0.0.0.a.a.0.>.a >.p.p.p.w.w.e.t.t.t.t.t.t.t.t.t.t.r.r.r.r.r.r.r.r.$.T.T.W.R.R.~.~.~.~.~.~.~.~.P.P.I.P.P.P.!.!.!.P.D.D.D.l.S.A.sXsXA.S.Z.Z.Z.m.J.J.H.F.F.@X@X+X#X#X#X&X#X#X&X%X+X+X+X+X+X+X+X#X%X>X>X>X>X>X,X,X,X,X>X>X:X:X4X:X:X4X4X:X:X:X:X:X:X4X4X:X:X:X<X:X,X,X",
"$X>X>X>X4X4X>X>X>X>X>X>X>X>X>X>X;X>X>X>X&X&X#X#X@XOXOXOXOXOXOXOXOXOXF.F.V.C.B.B.M.M.M.n.n.n.n.n.x.n.n.n.n.n.n.n.n.n.M.B.C.V.V.V.V.V.V.(.OXOXOXOX(.(.(.N.N.N.M.x.x.x.x.c.c.c.c.c.c.c.c.c.v.v.v.v.N.(.+X-XwXeXrXeX1X<X<X<X<X1X1X=XwXwXwXwXwXwXeXeXeXyXiXpXpXHXGXGXGXIXIXIXIXUXUXUXKXgX#. .%.| | | ^ ^ 7 6 4 3 3 3 3 3 3 3 3 3 4 4 4 4 5 4 4 4 6 7 Q Q Q ^ ^ ^ ^ ^ ' | =.=.=.=.=.=.*.*.*.Q.Q.Q.Q.Q.Q.W.Q.Q.Q.W.W.*.W.W.W.W.W.W.&.&.W.W.&.&.&.&.&.&.&.&.&.&.&.&.&.&.&.&.&.&.&.&.&.W.*.*.W.W.W.W.W.W.W.W.&.&.&.&.o.' ' ' ' ' ' ' ' ' ' ' ' ' ' ' ' ' ' ' ' ' ` t r 8 8 r r r r t N ..E sXkXAXSXAXAXAXAXAXAXoXoXoXoXoXoXoXa.7.>.:.:.:.:.:.>.q.q.q.q.q.q.q.a.a.a.>.a >.p.p.9.>.w.e.t.e.e.e.t.t.t.t.t.t.t.r.r.r.r.r.r.r.gXgXT.T.T.R.R.R.R.~.~.~.~.~.~.P.I.I.P.P.!.!.P.P.D.D.D.l.S.U.U.A.E E S.S.Z.J.J.J.H.H.F.F.@X@X@X#X+X+X#X#X#X#X+X+X+X&X#X#X#X#X#X%X>X>X>X>X,X,X,X,X>X>X:X:X4X:X4X4X4X:X:X:X:X:X4X4X:X:X:X:X:X:X,X,X",
"$X>X>X>X4X,X>X>X,X,X>X>X>X>X:X4X,X,X>X>X>X&X#X#X$X$XOXOXOXOXOXOXOXOXOXF.F.V.V.V.B.B.M.M.n.n.n.n.x.x.n.n.n.n.n.n.n.n.M.M.M.B.C.V.V.V.V.V.(.OXOXOX(.(.(.(.N.N.M.x.v.x.x.c.c.c.c.c.c.c.x.v.v.v.v.v.N.).).-X*XwXeXeXwX<X*X*X<XwXwX*XwXwXwXwXwXwXwXwX8XyXiXaXpXHXFXGXGXGXIXIXIXUXUXUXcX#.Y } } | ~ ~ Q 9 6 4 4 4 3 3 3 3 3 3 3 3 3 4 6 4 4 4 4 4 6 7 7 7 Q Q Q ^ ^ ^ ^ ^ ^ ' | ' | ' =.=.*.*.*.Q.Q.W.*.Q.W.W.W.W.*.*.W.W.W.*.*.*.&.&.W.W.W.W.W.W.&.&.&.&.&.&.&.&.&.&.&.&.&.&.&.&.&.&.*.*.W.W.W.W.W.W.W.W.&.&.&.&.&.&.{ ' ' ' ' ' ' ' ' ' ' ' ' ' ' ' ' ' ' ` t 8 8 8 8 8 r r r r B } E U.kXCXAXAXAXAXAXpXoXoXoXoXoXoXoXoXoX7.>.:.:.:.:.:.,.q.q.q.q.q.q.q.q.q.q.>.a >.p.9.>.9.e.e.e.e.e.e.e.e.t.t.t.t.t.t.t.r.r.r.r.r.r.r.gXfXT.T.T.T.R.R.R.E.E.E.E.E.E.P.P.P.P.P.P.P.P.P.l.A.U.@.y.y.y.E A.S.Z.Z.J.J.J.H.H.F.F.OXOX@X+X+X#X#X#X#X#X+X&X#X#X#X#X&X&X&X%X>X>X>X,X,X,X,X>X>X:X:X:X4X:X4X4X:X:X:X:X:X:X4X:X:X<X:X:X<X,X,X",
"$X>X>X>X4X,X>X>X,X4X4X>X:X4X4X4X4X,X,X>X>X&X&X&X#X$X$X@XOXOXOXOXOXOXOXF.F.F.F.F.V.B.B.M.n.n.n.n.x.x.n.n.M.M.M.M.n.n.M.M.M.M.M.B.C.C.V.V.V.V.(.(.(.(.(.(.N.N.M.x.v.x.x.c.c.c.c.c.x.x.v.v.v.v.v.v.N.(.(.-X*XwXeXeXwX<X*X*X1XwXwX*XwXwXwXwXwXwXwXwX8XyXiXaXpXHXFXGXGXGXGXIXIXUXUXUX#.} l } } ~ ~ Q 9 4 4 4 4 4 > > 3 3 3 4 4 4 3 3 6 4 3 3 4 4 4 4 6 6 7 Q Q Q Q ^ ^ ^ ^ ^ ^ ^ ^ ^ ' | =.=.*.*.*.*.*.*.*.*.*.*.W.W.W.W.*.*.*.&.&.&.Q.Q.W.W.W.W.W.&.&.&.&.&.&.&.&.&.&.&.&.W.*.*.W.W.*.*.*.W.W.W.W.W.W.W.&.&.&.&.&.&.&.{ ' ' ' ' ' ' ' ' ' ' ' ' ' ' ' ' ` ! r 8 8 8 r 8 8 r r r u N R E ].kXAXFXFXAXpXaXaXoXoXXXXXXXXXoXoX7.8.;.>.:.>.,.,.q.q.q.q.q.q.q.q.q.q.:.a >.>.>.9.p.p.p.p.e.e.e.e.e.e.t.t.t.e.t.t.t.r.r.r.r.r.r.gXgXfXT.T.T.R.R.R.R.R.E.E.~.E.E.P.P.P.P.P.P.P.I.E.U.@.y.y.y.hXsXE W Z.Z.Z.L.J.J.H.H.F.F.OX@X+X+X#X#X#X+X+X+X+X+X#X#X;X#X&X#X%X%X>X>X,X,X,X,X>X>X:X:X:X4X:X:X:X:X:X:X:X:X4X4X:X:X<X:X:X<X,X,X",
"+X&X,X4X4X4X:X>X>X>X>X>X>X>X>X4X,X,X,X,X>X>X;X;X#X#X#X#X$X@X@XOXOXOXOXF.F.F.F.V.V.V.B.B.B.B.m.m.n.n.n.n.n.n.m.m.m.m.m.m.m.m.m.B.B.C.C.C.V.V.V.F.V.V.V.V.N.N.N.M.v.v.v.x.x.x.x.x.x.x.x.v.x.x.x.v.C.).).+X&X=XwXrXeXeX*X=X1X1X1X9XwXwXwXwXwXwXwXwX9XyXiXaXpXHXHXGXGXGXDXIXIXIXUXKXO.Y } ~ ~ ~ Q 9 3 3 3 3 3 3 3 3 3 3 3 3 3 3 3 3 3 3 4 4 4 4 3 3 7 7 6 6 6 7 Q Q Q ^ ^ ^ ^ ^ ^ ^ ^ ^ ' | =.=.=.*.*.*.*.*.*.*.*.*.*.*.*.*.*.*.*.*.*.*.&.*.*.&.&.&.&.&.&.&.&.&.*.*.*.*.&.&.*.*.*.*.Q.*.Q.W.W.W.*.*.*.*.&.&.&.&.&.&.&.&.' ' ' ' ' ' ' ' ' ' ' ' ' ' ' ` ! 8 8 , , , 1 8 8 8 8 r t B U E ].].CXSXFXAXpXpXiXqX.X.X.X.X.X.XXX{.7.7.7.7.7.7.7.,.q.q.q.q.7.q.q.a.q.:.a :.>.q.p.p.p.p.p.p.p.p.e.e.e.e.e.e.e.e.t.t.t.t.t.t.r.r.r.gXgXfXT.T.T.T.T.R.R.R.R.R.E.E.E.E.P.P.P.P.P.l.A.+.#.w.w.w.nXnXsXR Z S.S.Z.L.J.J.H.H.F.F.@XOXOXOXOX$X#X+X+X#X#X#X#X#X#X#X%X%X%X%X>X%X>X>X>X>X>X>X>X>X>X>X<X,X,X,X,X:X:X:X:X<X<X<X:X1X,X,X>X",
"+X&X,X4X4X4X:X>X4X:X:X>X:X:X:X:X,X,X,X>X>X>X>X;X#X#X#X#X#X@XOXOXOXOXOXOXOXF.F.F.V.V.V.V.B.B.B.B.M.n.n.n.n.n.m.m.m.m.m.m.m.m.m.m.B.B.B.B.B.V.V.V.V.V.V.V.N.N.N.M.v.v.v.v.x.v.x.x.v.x.x.v.x.x.v.v.N.(.).).-X=X*XrXeXeX<X*X=X1XwXwXwXwXwXwXwXwXwXwX9XyXiXaXaXpXHXGXGXGXPXIXIXIXUXKXO.Y ~ ~ ~ Q 7 4 3 3 3 3 3 3 3 3 3 3 3 3 3 3 3 3 3 3 4 4 4 4 3 3 4 4 4 4 6 7 7 Q Q Q Q Q ^ ^ ^ Q ^ ^ ^ ' ' | =.=.=.=.*.*.*.*.*.*.*.*.*.*.*.*.*.*.*.*.*.*.*.*.&.&.&.&.&.&.&.*.*.*.*.*.*.*.*.*.*.*.W.W.W.W.W.W.*.*.*.&.&.&.&.&.&.&.&.&.{ ' ' ' ' ' ' ' ' ' ' ' _ ' ~ ! 9 5 , , , > , 8 5 5 8 8 t t N R A.].oXAXFXAXpXaXiXqX.X.X.X.X.X.X.X{.{.XXoXoX7.7.7.7.7.7.7.7.7.7.q.q.,.:.a >.q.a.a.a.p.p.p.p.p.p.p.p.e.e.e.e.e.e.t.t.t.t.t.t.r.r.r.gXgXgXfXfXT.T.T.R.R.R.R.R.E.E.~.~.~.~.P.P.E.E.U.#.w.w.w.w.s.nXhX+.A.S.S.K.K.K.J.J.J.J.H.F.OXOXOXOX@X$X#X#X#X#X#X#X#X#X#X#X%X%X%X>X>X>X>X>X>X>X>X>X>X>X>X>X,X,X,X,X:X:X:X:X<X<X:X:X1X,X,X>X",
"$X&X,X4X4X4X:X>X4X4X:X:X>X:X>X>X>X>X>X>X>X>X;X;X;X#X#X#X#X$X$XOXOXOXOXOXOXOX(.(.F.F.V.V.V.V.B.B.M.M.n.n.n.n.n.n.n.n.n.n.m.m.m.m.m.m.B.B.B.B.V.V.V.V.V.N.N.N.N.N.M.M.v.x.x.x.x.x.x.v.v.v.v.x.x.v.v.N.(.).-X-X*XeXrXeXwX*X=X=X=XwXwXwXwXwXeXeXwXwX8XyXyXaXaXpXHXGXGXGXDXIXIXPXUXJXO.Y ~ ~ Q Q 4 3 3 3 3 3 3 3 3 3 3 3 3 3 3 3 3 3 3 3 3 3 4 4 4 3 4 4 4 4 4 6 6 6 6 7 7 Q Q Q Q Q Q Q ^ ^ ^ ' ' | =.=.=.=.=.=.*.*.*.*.*.*.*.*.*.*.*.*.*.*.*.*.*.*.*.*.*.*.*.*.Q.Q.*.*.*.W.W.Q.Q.Q.Q.Q.Q.W.W.W.*.*.*.*.&.&.&.&.&.&.&.&.' ' ' ^ ! ! ^ ! ! ! ! ! ! ! 9 9 5 5 5 > > , , 5 5 , , 1 r t B R E ].].CXFXFXpXaXyXqX.X.X.X.X.X.X.X.X{.{.{.{.7.7.7.7.7.7.7.7.7.7.,.,.>.:.:.,.q.a.a.a.a.p.p.p.p.p.p.p.p.p.e.e.e.e.e.e.t.t.t.t.t.t.r.r.gXgXgXfXfXfXT.T.R.R.R.R.R.R.R.~.~.~.~.E.E.U.O. .w.9.9.9.e.f.t.y.A.S.S.D.D.K.K.J.J.J.J.H.F.F.OXOX@X$X#X#X#X#X#X#X#X#X#X#X#X%X%X>X>X>X>X>X&X>X>X>X>X>X>X>X,X,X,X,X:X:X:X:X<X<X:X:X1X1X,X>X",
"$X&X,X4X4X4X:X>X4X4X4X4X:X:X>X>X>X>X>X>X>X>X>X;X>X;X;X#X#X#X#X+X$XOXOXOXOXOXOX(.OXOXF.V.V.V.V.V.M.M.M.n.n.n.m.n.n.n.n.n.n.n.n.n.m.m.m.m.B.B.B.B.N.N.V.V.N.N.N.N.M.M.M.M.v.v.M.v.v.v.v.v.v.x.x.v.v.N.).).+X+X-XwXrXeXeX*X*X=XwXwXwXwXwXwXeXeXeXeX8XyXiXaXpXpXHXGXGXGXDXIXPXPXUXVX#.Y ~ ~ 9 7 4 3 3 3 3 3 3 3 3 3 3 3 3 3 3 3 3 3 3 3 3 3 3 4 4 4 3 3 4 4 4 4 4 4 4 4 4 4 6 6 6 6 Q Q Q Q ^ ^ ^ ' ' ' | | | | =.=.*.*.*.*.*.*.*.*.*.*.*.*.*.*.*.*.Q.Q.Q.*.*.*.Q.Q.W.W.W.W.Q.Q.Q.Q.Q.Q.Q.W.W.*.*.*.*.*.&.&.&.&.&.&.{ ' ' ' ^ ^ ! ! ! ! ! ! Q Q Q 9 4 4 4 3 3 3 > > > > 3 > , 1 8 t S B R A.].kXAXFXpXaXyXqXqXqXqXqXqX.X.X.X{.{.{.{.{.5.6.6.6.7.7.7.7.7.,.,.>.;.;.7.q.q.q.q.q.q.0.0.p.p.p.p.p.p.p.p.p.e.e.e.e.e.e.e.t.t.t.r.r.r.gXgXgXgXfXlXfXT.T.T.R.R.R.R.R.R.E.E.U.+.O. .w.9.9.9.9.9.e.w.+.A.S.D.D.K.K.K.K.J.J.J.H.H.F.F.@X@X@X#X#X#X#X#X#X#X#X#X#X#X>X>X>X>X>X>X%X>X>X>X>X>X>X>X,X,X>X,X:X:X:X:X<X<X:X:X1X1X,X>X",
"$X&X,X4X4X4X4X>X4X4X:X:X:X:X>X>X>X>X:X:X>X>X>X>X>X>X;X#X#X#X+X#X$X+XOXOXOXOX(.(.OXOX(.V.V.V.V.V.V.M.M.M.n.n.n.n.n.n.n.n.n.n.n.n.m.m.m.m.M.B.B.B.M.M.C.V.N.N.N.N.M.M.M.M.M.M.M.M.M.v.x.x.x.x.v.v.v.N.(.).).`.-XwXeXrXeXwX*X=X=X9XwXwXwXwXwXeXeXeXyXyXiXaXpXpXHXGXGXGXGXIXPXPXUXVXO.N u q 9 7 3 3 3 3 3 3 3 3 3 3 3 3 3 3 3 3 3 3 3 3 3 3 3 3 3 3 3 3 4 4 4 4 3 3 4 4 4 4 4 4 4 4 Q Q Q Q Q Q ^ ^ ^ ^ ^ ' ' | | | =.=.=.=.=.=.*.*.*.*.*.*.*.*.Q.Q.Q.Q.Q.Q.Q.Q.Q.Q.Q.Q.Q.Q.Q.Q.Q.Q.Q.Q.Q.Q.*.*.*.*.&.&.&.&.&.{ ' ' ' ' ' ^ ^ ^ ^ ^ ! Q Q Q 7 7 7 7 4 4 4 4 3 3 > > > > > > , , 8 r t B R E ].kXAXGXpXaXXX.XqXqXqXqX.X.X.X.X{.{.{.{.{.5.5.6.6.6.7.7.6.8.8.8.8.;.;.7.a.q.q.q.q.q.q.q.q.q.0.0.p.p.p.p.p.p.e.e.e.e.e.e.e.t.t.t.t.r.r.r.gXgXgXgXgXgXfXfXfXR.R.R.T.T.T.T.Y.#. . .9.9.9.9.>.9.e.w.#.A.l.D.D.D.K.K.K.K.J.J.J.J.H.H.F.G.@X@X@X@X#X#X#X#X#X#X#X#X;X>X>X>X>X>X%X&X>X>X>X>X>X>X>X>X>X>X>X>X:X:X<X<X:X:X,X,X,X>X",
"$X&X,X4X4X4X4X>X4X4X4X:X4X:X:X:X:X:X:X:X4X4X>X,X:X>X>X>X#X#X+X+X+X+X+XOXOXOX(.(.OXOX(.V.V.V.V.V.V.N.B.M.M.m.m.n.n.n.n.n.n.n.n.n.m.m.m.m.m.m.B.B.M.M.B.N.N.N.N.N.N.N.M.M.M.M.M.N.M.M.v.M.v.x.v.v.M.N.(.(.).).`.=XeXrXrXwX*X*X=X9XwXwX*X*X9XwX8XyXiXiXaXaXpXpXHXFXFXGXGXIXPXPXUXcX..u u 9 6 4 3 3 3 3 3 3 3 3 3 3 3 3 3 3 3 3 3 3 3 3 3 3 3 3 3 3 4 4 4 4 4 4 3 4 4 4 4 4 4 4 4 4 4 6 6 7 Q Q Q Q Q Q ^ ^ ^ ^ ' ' | | =.=.=.=.=.=.=.=.*.&.*.*.*.*.*.Q.Q.Q.Q.Q.Q.Q.vXvXvXvXvXvXvXvXQ.Q.Q.*.*.&.&.=.=.=.=.' ' ' ' ' ^ ^ ! ! ! ! ! Q Q 7 7 7 7 6 4 4 4 4 4 3 3 3 > > 3 > > > , , 8 8 r B Y R E sXCXSXAXaXXX.XqXqXqXqX.X.X.X.X.X{.{.{.{.{.5.5.6.6.6.6.6.6.8.8.8.;.;.7.a.q.q.q.q.q.q.q.q.q.q.q.0.0.p.p.p.p.p.p.e.e.e.e.e.e.t.t.t.t.t.t.r.r.gXgXgXgXgXgXfXfXfXT.T.T.Y.Y.@.#. . .j j j j 9.9.e.w.#.O.l.l.D.D.K.K.K.K.K.K.J.J.J.H.H.G.G.@XOX@X@X@X#X#X#X#X#X#X;X;X>X>X>X>X%X%X%X>X>X>X>X>X>X>X>X>X>X>X:X:X<X<X:X:X:X,X,X>X",
"$X&X,X4X4X4X4X>X4X4X4X:X4X4X4X4X:X:X:X4X4X4X4X4X:X:X>X>X#X#X#X#X$X$X+X+XOXOXOX(.(.(.(.V.V.V.V.V.V.V.B.M.M.M.m.m.n.n.n.n.n.n.n.n.n.n.n.n.n.m.m.m.M.M.M.M.M.C.N.N.N.N.N.N.M.M.N.C.M.M.M.M.v.x.v.v.M.N.(.).).).`.-XwXrXrXeX*X-X=X9XwXwX9X9XwXyXtXiXpXpXpXpXpXHXFXFXFXGXGXIXIXJXKXcX..u u 9 4 4 3 3 3 3 3 3 3 3 3 3 3 3 3 3 3 3 3 3 3 3 4 4 3 4 3 3 4 4 4 4 4 3 4 4 4 4 4 4 4 3 3 3 3 3 4 6 6 6 7 7 Q Q Q Q Q ^ ^ ^ ^ ' ' ' ' | =.=.=.=.=.=.=.=.=.*.*.*.*.*.*.*.Q.Q.vXvXQ.vXQ.Q.Q.Q.*.*.=.=.=.=.=.=.' ' ' ^ ^ ^ ^ ^ ! ! ! Q Q Q Q Q 7 6 6 4 4 4 4 4 4 4 4 4 3 > > > > > > > , , 8 8 r u N U E 3.bXSXAXaXXX.XqXqXqX.XqX.X.X.X.X.X{.{.{.{.5.5.6.5.5.5.6.6.6.6.8.;.;.7.q.7.7.7.,.,.,.,.q.q.q.q.q.0.0.0.0.p.p.p.p.p.p.p.p.e.e.t.t.t.t.t.t.t.t.r.r.r.gXgXgXgXgXgXgXr.r.r.r.r. .T z j j h j 9.e.w.w.O.R l.D.D.D.D.D.D.D.K.K.K.J.J.H.H.G.G.OXOXOX@X@X#X#X#X#X#X#X;X;X;X;X;X&X%X%X%X>X>X>X>X>X>X>X>X>X>X:X:X<X<X<X:X:X,X>X>X",
"$X&X,X4X4X4X4X>X4X4X4X4X4X4X4X4X:X4X4X4X4X4X4X4X4X:X>X>X%X#X#X#X$X$X$X+X+XOXOXOX(.(.(.(.V.V.V.V.V.N.B.M.M.M.m.m.n.n.n.n.n.n.n.n.n.n.n.n.n.n.n.m.n.n.M.M.M.M.C.N.N.N.N.N.N.N.C.C.M.M.M.M.v.x.v.v.v.N.(.).).).).-X9XrXrXeX*X-X=X9X9X9XwXeXyXiXiXiXpXFXFXFXFXFXFXGXHXGXGXIXIXJXKXcX..u u 9 4 4 > 3 3 3 3 3 3 3 3 3 3 3 3 3 3 3 3 3 3 3 4 4 4 4 3 3 4 4 4 4 3 3 3 4 3 4 4 4 4 3 3 3 3 3 3 4 4 4 6 7 7 7 7 Q Q Q Q Q ^ ^ ^ ^ ^ ^ ' ' =.=.=.=.=.=.=.=.=.=.=.=.=.=.=.*.*.*.*.*.*.*.*.*.=.=.=.' ' ' ' ^ ^ ^ ^ Q Q Q Q 7 Q Q 7 7 7 7 7 7 4 4 4 4 4 4 4 4 3 4 4 3 3 3 > > > > > > , , 8 8 r u N U T y.kXSXAXoXXX.XqXqX.X.XqXqX.X.X.X.X.X.X{.{.5.6.6.5.5.5.5.6.6.6.8.;.;.q.7.7.7.7.7.,.,.7.q.q.q.q.q.0.0.0.0.0.p.p.p.p.p.p.p.p.e.t.t.t.t.t.t.t.t.t.t.r.r.gXr.r.gXgXr.r.r.r.r.r.w.T z z g g j 9.9.w.w.O.R E.l.l.D.D.D.D.D.D.K.K.K.J.J.H.H.H.F.F.OX@X@X#X#X#X#X#X#X#X;X;X;X;X%X&X%X%X>X>X>X>X>X>X>X>X>X>X:X:X<X<X>X:X:X,X>X>X",
"$X>X,X:X4X4X4X:X4X4X4X4X4X4X4X4X4X4X4X4X4X4X4X4X,X,X>X>X>X>X&X+X#X#X#X+X+X+XOXOXOXOX(.(.(.(.V.V.V.V.B.B.B.M.m.n.n.n.n.n.n.n.n.n.n.n.n.n.n.n.n.n.n.n.n.n.M.M.M.M.M.M.N.N.N.N.N.N.N.M.M.M.v.v.v.v.N.N.N.).).).).`.9X8XrXrXeX*X=X9X1X9X8XyXiXpXFXFXFXFXFXFXFXFXFXFXGXGXDXGXPXJXKXcX} u u 9 4 4 3 3 3 3 3 3 3 3 3 3 3 3 3 3 3 3 3 3 4 4 4 3 3 3 4 4 4 4 4 4 4 4 4 4 4 4 4 4 4 4 4 4 4 4 4 4 4 4 3 3 4 4 4 6 6 6 6 6 Q Q Q Q Q Q ^ ^ ^ ^ ^ ^ ' ' ' ' ' | ' ' =.=.=.=.=.=.=.=.=.=.=.=.' ' -.^ ^ ^ ^ ^ Q Q Q 7 7 6 6 6 4 4 4 4 4 4 4 4 4 4 4 4 4 4 4 4 3 3 3 3 3 > > > > > > , , > 5 5 9 t N }  .+.kXbXAXAXXX.X.XqXqXqX.X.X.X.X.X.X.X.X.X{.{.4.4.5.5.5.5.5.5.6.;.;.8.7.7.7.7.7.7.7.7.q.q.q.q.q.q.0.0.0.0.0.0.0.0.p.p.p.p.e.e.e.e.t.t.e.t.t.t.t.t.t.t.t.r.r.r.r.r.r.r.r.r.y.w. .T z g g g j 9.w.w.O.R R E.P.l.D.D.D.D.D.D.D.K.K.J.J.J.H.H.H.G.@X@X#X@XOX#X#X#X;X#X;X;X>X;X;X;X>X>X%X%X%X>X>X>X>X>X>X>X>X>X>X:X1X1X>X>X>X",
"$X>X,X:X4X4X4X:X4X4X4X4X4X4X4X4X4X4X4X4X4X4X4X4X,X,X>X>X>X>X&X#X#X&X#X#X#X+X+XOXOXOX(.(.(.(.V.V.V.V.B.B.B.M.M.n.n.n.n.n.n.n.n.n.n.n.n.n.n.n.n.m.n.n.n.n.n.M.M.M.M.M.N.N.N.N.N.N.N.N.M.M.v.v.v.v.v.N.N.).).).).`.=X9XrXrXeX*X-X9XwXeXrXiXpXFXFXFXFXFXFXFXFXFXFXFXGXGXDXGXPXJXKXcX} u u 9 4 4 3 3 3 3 3 3 3 3 3 3 3 3 3 3 3 3 3 3 4 4 4 4 3 3 3 3 4 4 4 4 4 4 4 4 4 4 4 4 4 4 4 4 4 3 4 4 3 4 3 3 4 4 4 4 6 6 6 6 7 7 7 Q Q Q Q Q Q Q Q ^ ^ ^ ^ ^ ^ ^ ^ ^ ' ' ' ' ' ' ' ' ' ' ^ ^ ^ ^ ^ ^ Q Q Q Q Q Q 7 6 6 4 4 4 4 4 4 4 4 4 4 4 4 4 4 4 4 4 4 4 3 3 3 3 3 > > > > > > , , > 5 9 9 t u Y U T y.bXAXAXXX.X.XqXqXqX.X.X.X.X.X.X.X.X{.{.4.4.4.5.5.5.5.5.5.6.8.;.8.7.6.6.7.7.7.7.7.7.7.7.q.q.q.q.q.q.0.0.0.0.0.p.p.p.p.p.p.e.e.e.e.e.t.t.t.t.t.y.e.t.r.r.r.r.r.r.r.r.r.r.y.w. .T z z g h z  . .#.....E.P.P.P.!.!.D.D.D.D.D.D.K.J.J.J.J.J.H.G.@X@X@X@X@X@X#X#X#X#X#X#X#X#X#X#X%X%X>X>X>X>X>X>X>X>X>X>X>X>X:X:X:X:X>X>X",
"$X>X:X:X4X4X4X:X4X4X4X4X4X4X4X4X4X4X4X4X4X4X4X4X,X>X>X>X>X>X#X#X&X&X&X%X%X+X+XOXOX(.(.(.OXOXV.V.V.V.V.B.B.B.M.n.n.n.n.n.n.b.n.n.n.n.n.n.n.n.n.n.b.b.n.x.n.n.n.n.M.M.N.N.N.N.N.N.N.N.M.M.v.x.v.v.v.v.N.N.).).).).-X9XrXrXeX-X-X9XwXeXtXiXFXFXGXGXGXGXGXGXFXFXFXGXGXGXGXIXIXUXKXcX} u u 9 4 4 3 3 3 3 3 3 3 3 3 3 3 3 3 3 3 3 3 3 3 3 3 3 3 3 3 3 4 4 4 4 4 4 4 4 4 4 4 4 4 4 4 4 3 3 3 3 3 3 3 3 4 4 4 4 4 4 6 6 6 6 6 7 7 7 7 7 7 7 Q Q Q Q Q Q Q Q ^ ^ ^ ^ ^ ^ ^ ^ ^ ^ ^ ^ ^ ^ Q Q Q Q Q Q Q 7 7 6 6 4 4 4 4 4 4 4 4 4 4 4 4 4 4 4 4 4 4 4 4 4 3 3 3 3 3 > > > > > > , , , 5 9 9 9 u Y Y T y.kXbXAXXX.X.XqXqXqX.X.X.X.X.X.X.X.X{.{.4.4.4.4.5.5.5.5.5.6.8.;.8.6.6.6.6.6.6.6.7.7.7.7.7.,.q.q.q.q.q.0.0.0.0.0.p.p.p.p.p.p.p.e.e.e.e.t.u.e.w.9.w.w.e.y.y.y.r.r.r.r.r.r.r.r.y.w. .T T T T  . .#.+.X.E.E.P.P.!.!.!.D.D.D.D.D.D.K.K.K.K.J.J.H.G.G.@X@X@X@X@X#X#X$X#X$X#X#X#X#X>X>X>X>X>X>X>X>X>X>X>X>X>X>X:X:X:X:X>X>X",
"$X>X:X:X4X4X4X:X4X4X4X4X4X4X4X4X4X4X4X4X4X4X4X4X,X,X>X>X,X>X&X#X#X&X&X&X%X#X+XOXOXOXOXOXOXOX(.V.V.V.V.B.B.B.M.n.n.n.n.n.n.n.n.n.b.n.n.n.b.b.b.b.b.b.b.z.x.x.x.x.M.M.M.M.M.N.V.V.N.N.M.M.x.x.v.v.v.v.v.N.).).).).-X9XeXrXeX*X-X=XwXeXtXpXFXGXGXGXGXGXGXGXGXGXGXGXGXGXGXGXIXUXKXcX} u u 9 4 4 3 3 3 3 3 3 3 3 3 3 3 3 3 3 3 3 3 3 3 3 3 3 3 3 3 3 4 4 4 4 4 4 4 4 4 4 4 4 4 4 4 4 3 3 3 3 3 3 3 3 3 4 4 4 4 4 4 4 6 6 6 6 6 6 6 6 6 6 6 6 7 7 7 7 Q Q Q Q Q Q Q Q Q Q Q Q Q Q Q Q 7 7 7 7 7 7 7 7 6 6 4 4 4 4 4 4 4 4 4 4 4 4 4 4 4 4 4 4 4 4 4 4 3 3 3 3 3 > > > > > , , , > 8 9 9 9 u Y Y U y.bXbXAXoX.X.XqX.XqX.X.X.X.X.X.X.X.X{.{.4.4.4.4.5.5.5.5.5.6.8.8.6.5.5.5.5.5.5.5.6.7.7.7.7.7.,.q.q.q.q.q.0.0.0.0.p.0.0.p.p.p.p.p.e.e.e.e.e.9.j 9.w.9.e.e.e.y.r.r.r.r.r.r.r.r.r.r.r.y.r.y.w.y.y.@.@.#.E.E.P.P.P.!.!.D.D.D.D.D.D.D.D.D.K.K.J.J.H.G.G.G.@X@X@X@X@X$X#X#X#X+X#X#X#X;X>X>X>X>X>X>X>X>X>X>X>X>X>X1X1X>X>X>X",
"$X>X,X:X4X4X4X:X4X4X4X4X4X4X4X4X4X4X4X4X4X4X4X4X,X,X>X>X>X>X%X#X#X#X&X&X&X#X+X+XOXOXOXOXOXOX(.V.V.V.V.C.B.B.M.m.n.n.n.n.n.n.n.n.b.b.b.b.b.b.b.b.b.b.b.b.z.z.z.x.x.n.M.M.M.N.C.V.N.N.M.M.x.x.x.x.x.v.v.N.N.).).).-X=XeXrXeX9X-X-XwXeXtXpXFXGXGXGXGXGXGXGXGXGXGXGXGXGXGXIXIXUXUXcX} u u 9 4 4 3 3 3 3 3 3 3 3 3 3 3 3 3 3 3 3 3 3 3 3 3 3 3 3 3 3 4 4 4 4 4 4 4 4 4 4 4 4 4 4 4 4 4 4 4 3 3 3 3 3 3 3 3 3 4 4 4 4 4 4 4 4 4 4 4 6 6 6 6 6 6 6 6 6 7 7 6 7 7 7 7 7 7 7 7 7 7 7 7 7 6 6 6 6 6 6 4 4 4 4 4 4 4 4 4 4 4 4 4 4 4 4 4 4 4 4 4 4 4 4 4 4 3 3 3 3 3 > > > > > , , , , 8 9 9 t u Y Y T y.kXbXAXXX.XqXqX.XqX.X.X.X.X.X.X.X.X{.{.{.4.4.4.{.{.{.5.5.6.8.8.6.5.5.5.5.5.5.5.6.6.7.7.7.7.7.q.q.q.q.q.q.q.0.0.0.0.0.0.0.0.p.p.p.p.p.9.j j >.e.e.e.e.e.e.e.r.r.r.r.r.r.r.dXdXdXr.r.r.r.r.r.r.Y.Y.Y.E.E.E.P.P.P.P.P.D.D.D.D.D.D.D.D.D.K.K.J.J.H.H.G.@X@X@X#X#X#X#X#X+X#X#X#X#X;X;X;X>X>X>X>X>X>X>X>X>X>X,X,X,X,X>X>X",
"$X>X,X:X4X4X4X:X,X4X4X4X4X4X4X4X4X4X4X4X4X4X4X4X,X,X>X>X,X>X&X#X#X#X%X%X%X#X+X+XOXOXOXOXOXOX(.V.V.V.V.B.B.B.B.m.n.n.n.n.n.n.n.n.b.b.b.b.b.b.b.b.b.b.b.z.z.z.z.z.x.x.n.M.M.M.N.V.N.N.M.M.x.x.x.x.x.x.v.v.N.).).).-X=XeXrXrXwX*X-XeXeXiXpXGXGXIXIXIXIXGXGXGXGXGXGXGXGXSXIXIXUXUXcX} u u 9 4 4 3 3 3 3 3 3 3 3 3 3 3 3 3 3 3 3 3 3 3 4 3 3 3 3 3 3 4 4 4 4 4 4 4 4 4 4 4 4 4 4 4 4 4 4 3 3 3 3 3 3 3 3 3 3 3 3 4 4 3 3 4 4 4 4 4 4 4 4 4 4 4 4 4 4 6 6 6 6 6 6 6 6 6 6 6 6 6 6 6 6 4 4 4 4 4 4 3 3 4 4 4 4 4 4 4 4 4 4 4 4 4 4 4 4 4 4 4 4 4 4 4 4 3 3 3 3 3 > > > > > , > , , 8 9 9 t u l Y T y.kXbXoXXX.XqXqX.XqXqXqXqX.X.X|.|.|..X{.{.4.4.4.{.{.{.4.4.4.8.8.5.5.5.5.5.{.5.5.5.6.7.7.7.7.7.7.,.q.q.q.q.q.q.q.0.0.0.0.0.0.p.p.p.0.9.j j 9.e.e.e.e.e.e.e.e.r.r.r.r.r.r.dXdXdXdXdXdXU.dXdXdXdXY.T.T.E.E.E.P.P.P.P.P.!.!.!.D.D.D.D.D.D.D.K.K.J.J.J.H.G.@X@X@X#X#X#X#X+X$X$X#X#X#X#X;X%X%X>X>X>X>X>X>X>X>X>X,X,X>X>X>X",
"$X>X,X4X4X4X4X:X,X,X4X4X4X4X4X4X4X4X4X4X4X4X:X:X1X,X:X>X,X>X&X#X#X#X%X%X%X#X+X+XOXOXOXOXOXOX(.V.V.V.V.B.B.B.B.B.m.n.n.n.n.n.b.b.b.b.b.b.b.b.b.b.b.b.b.z.z.z.z.z.z.x.x.x.n.M.M.N.N.N.M.M.x.x.x.x.x.x.x.v.N.).).).5X-X9XrXrXeX9X=X9XyXiXpXGXGXIXIXIXIXIXGXGXGXGXGXGXGXSXIXIXJXUXcX} u u 9 4 4 3 3 3 3 3 3 3 3 3 3 3 3 3 3 3 3 3 3 4 4 4 4 3 3 3 3 4 4 4 4 4 4 4 4 4 4 4 4 4 4 4 4 4 4 4 4 3 3 3 3 > > 3 3 3 3 3 3 4 4 4 4 4 4 4 4 4 4 4 4 4 4 3 3 4 4 4 4 4 4 4 4 6 6 6 6 6 4 4 4 4 4 4 4 4 3 3 3 4 4 4 4 4 4 4 4 4 4 4 4 4 4 4 4 4 4 4 4 4 4 4 4 3 3 3 3 3 > > > > > > , , , 8 9 t t u l Y T sXbXbXoXXX.XqXqX.XqXqXqXqX.X|.|.|.|..X.X{.{.[.{.{.{.{.4.4.4.8.8.5.5.5.5.{.{.5.5.5.6.6.6.6.7.7.7.7.7.,.q.q.q.q.q.q.0.0.0.0.0.p.0.0.9.:.>.9.p.f.p.e.e.e.e.e.t.r.r.r.r.r.r.gXgXdXdXdXdXdXdXdXdXY.Y.Y.T.E.E.E.P.P.P.P.P.!.!.!.!.!.D.D.D.D.D.D.K.K.J.J.J.H.G.G.@X@X@X@X@X@X@X#X#X#X#X#X#X&X&X%X>X>X>X>X>X>X>X,X,X,X,X>X>X",
"$X>X,X4X4X4X4X:X,X,X,X4X4X4X4X4X4X4X4X4X4X:X:X:X1X,X:X>X,X>X&X#X%X%X%X%X%X#X+X+X$XOXOXOXOXOX(.V.V.V.V.V.B.B.B.B.m.m.n.n.n.b.b.b.b.b.b.b.b.b.b.b.b.b.z.z.z.z.z.z.z.z.x.x.x.n.M.M.N.M.M.x.x.x.x.x.x.c.x.v.v.).).).$X-X9XrXrXeXwX9X9XyXiXFXGXGXIXGXIXIXIXGXGXGXGXGXGXGXSXIXIXJXUXcX} u u 9 4 4 3 3 3 3 3 3 3 3 3 3 3 3 3 3 3 3 3 3 4 4 4 4 3 3 3 3 4 4 4 4 4 4 4 4 4 4 4 4 4 4 4 4 4 4 4 4 4 4 3 3 > > > 3 3 3 3 3 3 3 4 4 4 4 4 4 3 3 3 3 3 3 3 3 3 3 3 3 4 4 4 4 4 4 4 4 4 4 3 3 4 4 4 4 4 4 3 3 4 4 4 4 4 4 4 4 4 4 4 4 4 4 4 4 4 4 4 4 4 4 4 4 3 3 3 3 3 > > > > > > , , , 8 9 t t u l Y E kXbXAXoXXX.XqXqX.XqXqXqXqXqX|.|.|.|. X.X.X[.[.4.{.{.{.4.4.4.8.6.5.5.5.5.5.5.5.5.5.5.6.6.6.6.7.7.7.7.7.,.q.q.q.q.q.q.q.q.0.0.p.0.9.>.j 0.f.p.e.e.e.e.e.e.e.t.r.r.r.r.r.gXgXgXgXgXgXgXgXdXdXdXY.Y.T.T.E.E.E.P.P.P.P.P.!.!.!.!.!.!.!.D.D.D.D.D.D.K.L.J.J.H.H.G.G.G.@X@X@X@X@X#X#X#X#X#X;X&X%X%X>X>X>X>X>X>X,X,X,X,X>X>X",
"$X&X1X:X4X4X4X:X:X:X:X:X:X:X:X:X:X:X:X:X:X:X:X:X4X4X4X,X,X>X%X#X#X#X%X&X&X&X#X#XOXOX(.OXOX(.V.V.V.V.V.B.B.B.M.M.m.n.n.n.n.n.b.b.b.b.b.b.b.b.b.b.b.b.z.h.h.h.z.z.z.z.z.x.x.x.M.M.M.M.M.x.c.c.c.c.c.c.c.v.v.N.).).-X-X=XeXrXrXeX9X9XyXiXFXGXGXGXIXGXGXGXGXGXGXGXGXGXGXDXIXIXIXUXcX} l u 9 4 3 3 > > > > > > > > > 3 3 3 3 3 3 3 3 4 4 4 4 4 4 4 4 4 4 4 4 4 4 4 4 4 4 4 4 4 4 4 3 3 3 3 3 3 3 3 3 3 3 3 3 3 3 3 3 3 3 3 3 3 3 3 3 4 4 4 4 4 4 4 4 4 4 4 4 4 4 4 4 4 4 4 4 4 4 4 4 6 6 6 4 4 4 4 4 4 4 4 4 4 4 4 4 4 4 4 4 4 4 4 4 4 4 4 4 4 4 4 4 3 > > > > > , > > > , , > , 9 9 u u u u T y.kXbXoXoXXX.XqXqX.X.X|.7X.XqXqX7X|.|.|..X.X[.[.4.4.{.{.4.4.8.8.6.4.4.{.{.{.{.5.5.6.6.6.6.6.5.6.6.7.7.7.7.,.,.q.q.q.q.a.a.p.p.0.0.>.>.9.0.0.9.9.9.9.9.9.9.9.9.w.w.y.t.r.r.r.r.gXgXgXgXdXdXdXdXY.Y.T.T.R.E.E.E.I.I.I.I.P.P.P.P.P.P.!.!.D.D.D.D.D.D.D.K.K.J.J.J.H.H.G.G.@X@X@X@X#X#X#X;X;X;X;X;X>X>X,X,X%X%X%X>X>X,X>X>X",
"$X&X1X:X4X4X4X:X:X:X:X:X:X:X:X:X:X:X:X:X:X:X:X:X4X:X4X4X,X>X%X%X#X#X#X&X&X&X#X+XOXOX(.OXOX(.V.V.V.V.V.B.B.B.M.M.m.n.n.n.n.n.b.b.b.b.b.b.b.b.b.b.b.b.z.h.h.h.z.z.z.z.z.x.x.x.M.M.M.n.x.x.c.c.c.c.c.c.c.x.v.N.).).-X-X=XwXrXrXrXeXeXyXiXpXFXGXGXGXGXGXGXGXGXGXGXGXGXGXDXIXIXIXUXcX} l u 9 4 3 3 > > > > > > > > > 3 3 3 3 3 3 3 3 4 4 4 4 4 4 4 4 4 4 4 4 4 4 4 4 4 4 4 4 4 4 3 3 3 3 3 3 3 3 3 3 3 3 3 3 3 3 3 3 3 3 3 3 3 3 3 3 4 4 4 4 4 4 4 4 4 4 4 4 4 4 4 4 4 4 4 4 4 4 4 4 6 6 6 6 4 4 4 4 4 4 4 4 4 4 4 4 4 4 4 4 4 4 4 4 4 4 4 4 4 4 4 4 3 > > > > > , , > > , , , , 9 9 u u u y T kXbXuXoXXXXXqXqXqXqX|.|.7X|.|.7X7X|.|.|..X.X[.[.4.4.{.{.4.4.8.8.4.4.4.4.5.{.5.5.5.6.6.6.6.5.5.5.6.6.6.7.7.7.7.q.q.q.q.q.q.p.0.9.>.>.:.>.>.>.>.>.9.9.9.9.9.9.w.e.e.e.t.r.r.r.gXgXgXgXgXdXdXdXdXdXY.T.T.R.E.E.E.E.P.P.P.P.P.I.P.P.P.!.!.D.D.D.D.D.D.D.D.K.K.J.J.J.H.H.G.@X@X@X@X#X#X#X;X;X;X;X;X;X>X>X>X%X%X%X>X>X>X>X>X",
"$X&X1X:X4X4X4X:X:X:X:X:X:X:X:X:X:X:X:X:X:X:X:X:X:X:X:X4X,X,X>X%X#X#X#X#X&X&X#X+X+XOXOXOXOX(.V.V.V.V.V.B.B.B.M.M.m.n.n.n.n.n.n.b.b.b.b.b.b.b.b.b.b.b.z.h.h.h.h.h.z.z.z.z.x.x.n.M.x.x.x.x.c.c.c.c.c.c.c.c.v.N.).).-X-X=XeXrXrXrXeXeXyXiXpXFXFXFXFXGXGXGXGXGXGXGXGXGXGXDXIXIXIXKXxXY l u 9 4 3 3 > > > > > 3 3 3 3 3 3 3 3 3 3 3 3 4 4 4 4 4 4 4 4 4 4 4 4 4 4 4 4 4 4 4 4 4 4 3 3 3 3 3 3 3 3 3 3 3 3 3 3 3 3 3 3 3 3 3 3 3 3 3 3 4 4 4 4 4 4 4 4 4 4 4 4 4 4 4 4 4 4 4 4 4 4 4 4 7 7 6 6 6 4 4 4 4 4 4 4 4 4 4 4 4 4 4 4 4 4 4 4 4 4 4 4 4 4 4 4 3 3 > > > > , , > , , > , , 9 q u u B I E kXCXoXXXXXqXqXqXqXqX|.|.|.|.|.|.|.7X|.|.|.|.[.[.4.4.{.{.4.4.8.8.6.4.4.4.4.4.4.4.6.6.5.5.5.5.5.5.5.6.6.6.7.7.7.7.q.q.q.q.q.q.9.>.>.9.q.9.9.9.9.0.0.p.p.e.e.e.e.e.e.e.e.t.t.r.r.gXgXgXgXgXgXdXdXdXdXT.T.R.R.E.E.~.~.~.P.P.I.P.P.P.P.P.!.P.D.D.D.D.D.D.D.D.K.K.J.J.J.J.J.G.G.G.@X@X@X#X;X;X;X;X;X;X&X>X>X%X%X%X%X%X>X%X%X",
"$X&X1X:X4X4X4X:X:X:X:X:X:X:X:X:X:X:X:X:X:X:X:X:X:X:X:X:X,X,X>X>X#X#X#X#X&X&X#X+X+XOXOXOXOX(.(.V.V.V.V.B.B.B.M.M.m.n.n.n.n.n.n.b.b.b.b.b.b.b.b.b.b.b.h.h.h.h.h.h.z.z.z.z.z.x.x.n.n.x.x.x.c.z.z.c.c.c.c.c.v.N.).).`.-X=X9XeXrXrXeXeXeXyXiXpXFXFXFXFXGXGXGXGXGXGXFXGXGXDXIXIXIXJXgXY l u 9 4 3 3 > > > > 3 3 3 3 3 3 3 3 3 3 3 3 3 4 4 4 4 4 4 4 4 4 4 4 4 4 4 4 4 4 4 4 4 4 4 3 3 3 3 3 3 3 3 3 3 3 3 3 3 3 3 3 3 3 3 3 3 3 3 3 3 4 4 4 4 4 4 4 4 4 4 4 4 4 4 4 4 4 4 4 4 4 4 4 4 7 7 7 6 6 6 4 4 4 4 4 4 4 4 4 4 4 4 4 4 4 4 4 4 4 4 4 4 4 4 4 4 3 3 > > > > , , , > > > , 5 q u ` N Y E sXCXuX0XqXqXqXqXqXqXqX|.|.|.7X7X7X7X7X7X|.|. X[.[.4.4.4.4.4.4.8.8.6.4.4.4.4.4.4.4.4.5.5.5.5.5.5.5.5.5.5.6.6.6.7.7.7.q.q.q.q.>.>.q.q.0.0.0.0.0.0.p.f.p.p.p.p.p.p.e.e.e.e.e.t.t.t.hXgXgXgXgXgXdXdXdXdXfXT.R.R.R.R.~.~.~.~.P.P.P.P.P.P.!.!.!.!.P.P.D.D.D.D.D.D.D.K.K.K.J.J.H.H.G.G.@X@X@X@X#X#X;X#X&X&X&X&X%X%X%X%X%X&X%X%X",
"$X&X,X4X4X4X4X<X:X:X:X:X:X:X:X:X:X:X:X:X:X:X:X:X4X:X:X:X4X,X>X>X&X#X+X+X%X&X%X+X+X+X+XOXOXOXV.(.V.V.V.B.B.B.B.B.m.n.n.n.n.n.b.b.b.b.b.b.b.b.b.b.b.b.h.h.h.h.h.h.h.z.z.z.z.z.x.n.x.x.x.z.c.z.z.z.c.c.c.c.v.v.).).).+X-X9XeXrXrXeXeXeXyXyXiXpXpXpXFXFXFXFXFXFXFXFXGXGXDXIXIXPXJXdXl l u 9 4 4 3 > 3 3 3 3 3 3 3 3 4 4 4 4 4 4 4 4 4 4 4 4 4 4 4 4 4 4 4 4 4 4 4 4 4 4 4 4 4 4 3 3 3 3 3 3 3 3 3 3 3 3 3 3 3 3 3 3 3 3 3 3 3 3 3 3 3 3 3 3 3 3 3 3 3 3 3 3 3 3 3 3 3 3 3 3 3 3 4 4 7 7 7 7 6 6 4 4 4 4 4 4 4 4 4 4 4 4 4 4 4 4 4 4 4 4 4 4 4 4 4 4 3 3 > > > > > > , , > > , 9 u u N N R ].CXCXaX0XqXqXqXqXqXqXqX7X.X|.qX7X7XqX7X7X|.|.|. X[.1.4.4.4.4.4.8.8.6.4.4.4.4.4.4.4.4.5.5.5.5.5.{.{.5.5.5.5.6.6.7.7.7.,.,.,.,.,.q.q.0.0.0.0.0.0.0.p.p.0.0.p.p.p.p.e.e.e.e.e.e.t.t.t.r.r.r.gXgXgXgXgXgXfXfXR.R.R.R.R.R.~.~.~.~.P.I.P.P.I.I.!.!.!.!.P.P.D.D.D.D.D.D.D.D.K.L.J.J.J.H.G.G.@X@X@X@X#X;X#X#X#X#X&X%X%X%X%X%X%X%X",
"$X&X1X4X4X4X4X<X:X:X:X:X:X:X:X:X4X4X4X4X:X:X:X:X4X:X:X:X4X4X>X>X%X#X#X+X#X%X%X#X$X+X+XOXOXOX(.(.V.V.V.B.B.B.B.M.m.n.n.n.n.m.b.b.b.b.b.b.b.b.b.b.b.b.h.h.h.h.h.h.h.h.z.z.z.z.z.x.x.x.x.z.z.z.z.z.c.c.c.c.x.v.N.(.).).-X=X8XrXrXeXeXeX8X0XyXyXyXiXpXpXpXFXFXFXFXFXFXGXGXIXIXPXJXdXl l u 9 3 4 3 3 3 3 3 3 3 3 3 3 4 4 4 4 4 4 4 4 4 4 4 4 4 4 4 4 4 4 4 4 4 4 4 4 4 4 4 4 4 4 3 3 3 3 3 3 3 3 3 3 3 3 3 3 3 3 3 3 3 3 3 3 3 3 3 3 3 3 3 3 3 3 3 3 3 3 3 3 3 3 3 3 3 3 3 3 3 3 3 3 7 7 7 6 6 4 4 4 4 4 4 4 4 4 4 4 4 4 4 4 4 4 4 4 4 4 4 4 4 4 4 4 3 3 > > > > > > : , > , 5 q u u Y Y E kXCXuXaXyXqXqXqXqXqXqXqXqX.X|.7X7XqX7X7X7X7X|.|. X[.1.1.4.4.4.8.8.8.6.4.4.4.4.4.4.[.4.5.5.5.5.{.{.{.{.5.5.5.5.6.6.7.,.,.,.,.,.q.q.q.q.q.q.0.0.0.0.0.0.p.p.p.p.p.p.e.e.e.e.e.e.t.t.t.t.r.r.r.r.r.r.gXgXgXfXfXT.R.R.R.R.~.~.~.~.~.P.P.P.P.I.P.P.!.!.!.!.!.!.!.D.D.D.D.D.D.K.L.J.J.J.H.H.G.G.@X@X@X#X#X#X+X+X&X%X%X%X%X%X%X%X",
"$X&X1X4X4X,X4X<X:X:X:X:X:X:X:X:X:X:X4X4X:X:X:X:X4X4X:X:X:X:X>X>X#X#X+X+X+X#X#X#X$X+XOXOXOXOX(.(.V.V.V.V.B.B.B.M.m.m.n.n.m.m.b.b.b.b.b.b.b.b.b.b.b.b.h.h.h.j.h.h.h.h.h.h.z.z.z.z.x.x.z.z.z.z.z.z.z.z.c.c.x.M.N.(.(.).).-XwXrXrXrXeXeX8X8X9X7X0XyXyXaXaXpXFXFXFXFXFXGXGXGXDXIXJXdXl u u 9 3 4 3 3 3 3 3 3 3 3 3 3 4 4 4 4 4 4 4 4 4 4 4 4 4 4 4 4 4 4 4 4 4 4 4 4 4 4 4 4 4 4 3 3 3 3 3 3 3 3 3 3 3 3 3 3 3 3 3 3 3 3 3 3 3 3 3 3 3 3 3 3 3 3 3 3 3 3 3 3 3 3 3 3 3 3 3 3 3 3 3 3 7 6 7 6 4 4 4 4 4 4 4 4 4 4 4 4 4 4 4 4 4 4 4 4 4 4 4 4 4 4 4 4 3 3 > > > > > > : , > , 9 u u l Y E sXCXHXaXyXtXqXqXqXqXqXqXqXqX|.|.|.7X7X7X7X7X7X7X|. X[.1.1.4.4.4.8.8.8.6.4.4.4.4.4.[.[.{.{.{.{.{.{.{.{.{.5.5.5.5.5.6.6.8.8.,.,.q.q.q.q.q.q.q.0.0.0.0.0.0.p.p.0.0.p.p.p.e.e.e.e.e.t.t.t.t.t.r.r.t.r.r.gXgXgXgXfXfXT.R.R.R.R.R.~.~.~.~.~.~.P.P.I.I.P.I.!.!.!.!.!.!.D.D.D.D.D.D.K.K.L.J.J.H.H.G.@X@X@X#X#X#X#X+X#X#X#X%X&X%X%X%X",
"$X&X,X4X4X4X4X<X:X:X:X:X:X:X:X:X:X:X4X4X:X:X:X:X4X4X:X:X:X:X>X>X#X#X+X+X+X+X#X#X$X+XOXOXOXOX(.(.F.F.V.V.B.B.M.M.m.m.n.n.m.m.b.b.b.b.b.b.b.b.b.b.b.h.h.h.h.j.h.h.h.h.h.h.h.z.z.z.z.x.z.z.z.z.z.z.z.z.z.c.x.M.N.N.(.).).-XwXrXrXrXeXeXeX8X9X9X8X8XyXyXaXpXpXFXFXFXFXGXDXDXDXIXJXgXu l u 9 3 4 3 > 3 3 3 3 3 3 3 3 4 4 4 4 4 4 4 4 4 4 4 4 4 4 4 4 4 4 4 4 4 4 4 4 4 4 4 4 4 4 3 3 3 3 3 3 3 3 3 3 3 3 3 3 3 3 3 3 3 3 3 3 3 3 3 3 3 3 3 3 3 3 3 3 3 3 3 3 3 3 3 3 3 3 3 3 3 3 3 3 6 6 6 4 4 4 4 4 4 4 4 4 4 4 4 4 4 4 4 4 4 4 4 4 4 4 4 4 4 4 4 4 3 3 > > > > > > : , > 5 9 u u Y U sXkXCXHXaXyXrXrXqXqXqXqXqXqXqX|.|.|.|.7X7X7X7X7X7X|. X[.1.1.4.4.4.8.8.8.6.4.4.4.4.[.[.[.[.{.{.{.{.{.{.{.5.5.6.5.5.5.6.8.8.8.,.,.,.q.q.q.q.q.q.0.q.0.0.p.p.0.0.0.0.0.0.p.e.e.e.e.e.t.t.t.t.t.t.t.t.t.r.r.gXgXgXfXfXT.R.R.R.R.R.~.~.~.~.~.~.~.P.I.I.I.I.!.!.!.!.!.!.D.D.D.D.D.D.D.D.K.J.J.J.H.G.G.@X@X@X#X#X+X+X#X#X#X%X%X%X%X%X",
"$X&X>X:X4X4X4X:X4X4X:X:X:X:X:X:X:X:X:X:X:X:X:X:X4X4X:X:X:X>X>X>X%X#X#X#X#X+X+X+X$X+X$XOXOXOXOX(.OX(.V.V.V.V.B.B.B.B.m.n.m.m.m.n.n.n.b.b.b.b.b.b.b.z.h.h.h.h.h.h.h.h.h.h.h.z.z.z.b.b.z.z.z.z.z.z.z.z.z.z.x.M.M.N.(.).).-X9XeXrXrX8XeX9XeXeX8X8X8XrXtXiXiXpXFXFXHXGXGXGXGXDXIXJXgXl l q 9 9 4 > 3 3 3 3 3 3 3 3 4 4 4 4 4 4 4 4 4 4 4 4 4 4 4 4 4 6 6 6 6 6 6 6 4 4 4 4 4 4 4 3 3 3 3 3 3 3 3 3 3 3 3 3 3 3 3 3 3 3 3 3 3 3 3 3 3 3 3 3 3 3 3 3 3 3 3 3 3 3 3 3 3 3 3 3 3 3 3 3 3 3 3 3 3 3 3 3 3 4 4 4 4 4 4 4 4 4 4 4 4 4 4 4 4 4 4 4 4 4 3 3 3 3 3 3 > , , , , > 8 9 q q u Y R E kXZXHXpXyXyXrXrXqXqXqXqXqXqXqXqX|.|.|.7X7X7X7X7X7X|. X[.1.1.1.8.8.2.8.4.4.4.4.4.4.[.[.[.[.{.{.[.[.[.{.{.4.4.5.5.6.6.6.8.8.6.7.7.7.7.q.q.q.q.q.q.q.0.p.p.0.0.0.p.p.0.0.0.0.p.e.p.e.e.t.u.u.t.t.t.t.t.t.r.r.gXgXgXgXfXfXfXfXR.R.R.R.R.~.~.~.~.~.I.I.I.I.P.!.!.!.!.!.!.!.!.D.D.D.D.D.K.K.K.J.J.J.H.G.G.OXOXOXOX$X$X$X$X&X#X#X%X%X",
"$X&X>X:X4X4X4X:X4X4X:X:X:X:X:X:X:X:X:X:X:X:X:X:X4X4X:X:X:X>X>X>X>X#X#X#X#X#X+X+X+X+X+X+XOXOXOXOXOX(.V.V.V.V.B.B.B.B.m.n.m.m.m.m.n.n.n.b.b.b.b.b.b.z.h.h.h.h.h.h.h.h.h.h.h.z.z.z.b.b.z.z.z.z.z.z.z.z.z.z.x.M.M.N.).).).-X=X8XrXrXeXeX9XeX8X8X8X8XrXyXiXiXpXFXFXFXGXGXGXGXDXPXJXjXl l u 9 9 4 > 3 3 3 3 3 3 3 3 4 4 4 4 4 4 4 4 4 4 4 4 4 4 4 4 4 6 6 6 6 6 6 4 4 4 4 4 4 4 4 3 3 3 3 3 3 3 3 3 3 3 3 3 3 3 3 3 3 3 3 3 3 3 3 3 3 3 3 3 3 3 3 3 3 3 3 3 3 3 3 3 3 3 3 3 3 3 3 3 3 3 3 3 3 3 3 3 3 4 4 4 4 4 4 4 4 4 4 4 4 4 4 4 4 4 4 4 4 4 4 3 3 3 3 3 > , , , , 5 5 9 q u N U R ].kXZXHXpXyX8XrXrXqXqXqX7XqXqXqXqX|. X X7X7X7X7X7X7X|. X[.1.1.1.8.;.2.4.4.4.4.4.4.[.[.[.[.[.[.[.{.{.[.{.[.4.4.4.5.6.6.6.6.6.6.7.7.7.7.7.q.q.q.q.q.q.q.0.0.0.0.0.0.0.0.0.0.0.p.p.p.e.e.e.u.u.t.t.t.t.t.t.r.r.gXgXgXgXgXfXfXfXT.R.R.R.R.R.~.~.~.~.~.I.I.I.P.P.!.!.!.!.!.!.!.!.D.D.D.D.D.D.K.K.J.J.J.H.H.F.OXOXOX$X#X#X+X+X#X#X#X#X",
"$X&X,X:X4X4X4X:X4X4X4X:X:X:X:X:X:X:X:X:X:X:X:X:X4X4X:X:X:X>X>X>X>X%X#X#X#X#X#X+XOXOXOXOXOXOXOXOXOX(.V.V.V.V.B.B.B.B.M.m.m.m.m.m.m.m.b.b.b.b.b.b.b.h.h.h.h.h.h.h.h.h.h.h.h.z.z.z.b.b.b.z.z.z.z.z.z.z.z.z.x.x.M.N.(.).).`.-X9XeXrXeXeX9X8X8X8X8X8X8XyXtXiXpXpXFXFXGXGXGXGXDXPXJXjXY Y u 9 4 4 3 3 > 3 3 3 3 3 3 4 4 4 4 4 4 4 4 4 4 4 4 4 4 4 4 4 4 4 6 6 6 6 4 4 4 4 4 4 4 4 3 3 3 3 3 3 3 3 3 3 3 3 3 3 3 3 3 3 3 3 3 3 3 3 3 3 3 3 3 3 3 3 3 3 3 3 3 3 3 3 3 3 3 3 3 3 3 3 3 3 3 3 3 3 3 3 3 3 4 4 4 4 4 4 4 4 4 4 4 4 4 4 4 4 4 4 4 4 4 3 3 3 3 3 3 > , , , , 8 5 q u u Y U E kXZXHXFXiXyX8XrXrXrXqX7X7XqXqXqXqXqX X|.7X7X7X7X7X7X|. X[.4.1.1.8.;.8.6.4.4.4.4.[.[.[.[.[.[.[.[.[.[.[.4.[.{.5.6.6.6.6.6.6.5.5.5.6.6.7.7.7.7.q.q.q.q.q.q.q.q.0.0.0.0.0.0.0.0.0.0.p.p.e.e.t.t.t.t.t.t.t.t.t.hXgXgXgXgXgXgXgXfXfXfXR.R.R.R.R.~.~.E.~.~.P.P.I.P.P.P.P.P.!.!.!.!.!.!.D.D.D.D.D.D.K.K.J.J.J.H.F.@X@X@X+X+X#X#X#X+X+X+X",
"$X&X,X:X4X4X4X:X:X4X:X:X:X:X:X:X:X:X:X:X:X:X:X:X,X4X>X>X:X>X>X>X>X>X#X#X#X#X+X+XOXOXOXOXOXOXOXOXOX(.(.V.V.V.B.B.B.B.B.B.m.m.m.m.m.m.m.b.b.b.b.b.b.h.h.h.h.h.h.h.h.h.h.h.h.z.z.z.b.b.z.z.z.z.z.z.z.z.z.z.x.x.M.M.N.(.).`.-X*XeXrXeXeX9X8X8X8X8X8X8XyXtXiXpXpXFXFXHXGXGXGXDXPXJXcXY Y u 9 3 4 3 3 > 3 3 3 3 3 3 4 4 4 4 4 4 4 4 4 4 4 4 4 4 4 4 4 4 4 4 6 6 6 6 4 4 4 4 4 4 4 3 3 4 4 3 3 3 3 3 3 3 3 3 3 3 3 3 3 3 3 3 3 3 3 3 3 3 3 3 3 3 3 3 3 3 3 3 3 3 3 3 3 3 3 3 3 3 3 3 3 3 3 3 3 3 3 3 3 4 4 4 4 4 4 4 4 4 4 4 4 4 4 4 4 4 4 4 4 3 3 3 3 3 3 3 > , , , , 8 8 q u Y Y R A.BXZXFXpXiXyX8XrXrX8X8X7X7X7XqXqXqXqX|.|.|.7X7X7X7X7X|. X[.4.1.1.8.;.8.4.4.4.[.[.[.[.[.[.[.[.[.[.4.4.[./.[.XX6.6.6.6.6.6.5.5.5.5.5.5.5.6.7.7.7.7.q.q.q.q.q.q.q.q.q.0.0.0.0.0.0.0.p.p.p.e.e.e.e.t.t.t.t.t.t.t.t.t.gXgXgXgXgXgXfXfXfXfXR.R.R.R.~.E.~.~.~.I.I.I.I.P.I.I.I.P.!.!.!.!.D.D.D.D.D.D.D.K.L.L.J.J.H.G.G.@X@X@X@X#X$X#X#X#X",
"$X&X1X:X4X4X4X:X:X:X:X:X:X:X:X:X:X:X:X:X:X:X:X:X,X,X>X>X>X>X>X>X>X;X#X#X$X$X+XOXOXOXOXOXOXOXOXOXOXOX(.V.F.V.V.V.B.B.B.B.m.m.m.m.m.m.b.b.b.b.b.b.b.h.h.h.h.h.h.h.h.h.h.h.h.h.z.z.b.b.z.z.z.z.h.z.z.h.z.z.x.x.x.M.N.(.).).`.-XeXrXeXeX8X8XeX8X8X8X8XyXtXiXpXFXFXFXHXGXGXGXPXPXUXcX} Y u 9 3 3 3 3 > 3 3 3 3 3 3 4 4 4 4 4 4 4 4 4 4 4 4 4 4 4 4 4 4 4 6 6 6 6 4 4 4 4 4 4 4 4 3 3 4 4 4 4 4 4 4 4 3 3 3 3 3 3 3 3 3 3 3 3 3 3 3 3 3 3 3 3 3 3 3 3 3 3 3 3 3 3 3 3 3 3 3 3 3 3 3 3 3 3 3 3 3 3 3 3 4 4 4 4 4 4 4 4 4 4 4 4 4 4 3 3 4 3 3 3 3 3 3 3 3 3 3 > , , , 8 8 8 u l Y Y E sXZXHXFXpXiXyX8XrX8X8X8X8X7X7X7XqXqXqX|.}.}.7X9X7X7X7X X X[.4.4.1.2.2.1.4.4.4.[.[.[.[.[.[./.1.[.[.[.XX].].].7.7.6.6.6.6.5.5.5.5.5.5.5.5.5.6.7.7.7.q.q.q.q.q.q.q.q.q.q.q.0.0.0.0.0.p.p.p.p.e.e.e.e.e.t.t.t.t.t.t.t.r.r.gXgXgXgXgXgXfXfXfXR.R.R.R.R.~.~.~.~.I.I.I.I.I.I.I.P.!.!.!.!.!.D.D.D.D.D.D.D.K.L.J.J.J.H.G.G.@X@X@X@X$X$X$X$X",
"$X&X1X:X4X4X4X:X:X:X:X:X:X:X:X:X:X:X:X:X:X:X:X:X4X,X>X>X>X>X>X>X>X>X#X#X#X$XOXOXOXOXOXOXOXOXOXOXOXOXOX(.F.F.V.V.B.B.B.B.B.B.m.m.m.m.m.b.b.b.b.b.b.h.h.h.h.h.h.h.h.h.h.h.h.h.z.b.b.b.b.z.z.z.h.h.z.h.z.z.z.x.x.M.N.N.).).`.-XwXrXrXeX8X8X8X8X8X8X8XrXtXiXpXFXFXFXHXGXGXGXPXPXUXcX .l u 9 4 3 3 3 3 3 3 3 3 3 3 4 4 4 4 4 4 4 4 4 4 4 4 4 4 4 4 4 4 4 6 6 6 6 4 4 4 4 4 4 4 4 3 3 4 4 4 4 4 4 4 4 3 3 3 3 3 3 3 3 3 3 3 3 3 3 3 3 3 3 3 3 3 3 3 3 3 3 3 3 3 3 3 3 3 3 3 3 3 3 3 3 3 3 3 3 3 3 3 3 4 4 4 4 4 4 4 4 4 4 4 4 4 4 3 3 3 3 3 3 3 3 3 3 3 3 3 > , , 8 9 r q u Y Y U ].kXCXHXpXaXiXyX8XrX8X8X8X8X8X7X7X|.qXqX7X}.}.7X7X8X7X7X X X[.[.4.1.2.2.1.4.[.[.[.[.[.[.[.4.1.1.1.'.].].kXkXsX].3.3.6.6.6.4.4.5.{.{.{.{.5.5.5.6.6.7.7.7.7.q.q.q.q.q.q.q.q.q.0.0.0.0.0.p.p.p.p.e.e.e.e.e.e.t.t.t.t.t.t.r.r.r.gXgXgXgXfXfXfXT.R.R.R.R.R.~.~.~.~.P.I.I.I.I.I.P.P.!.!.!.!.!.!.!.!.D.D.D.D.K.K.J.J.J.J.H.G.G.@X@X@X@X$X$X",
"$X&X>X:X4X4X4X:X:X:X:X:X:X:X:X:X:X:X:X:X:X:X:X:X4X4X>X>X>X>X>X>X>X;X#X#X#X$XOXOXOXOXOXOX$XOXOXOXOXOXOXOXOXF.V.V.B.B.B.B.B.m.m.m.m.m.m.b.b.b.b.b.b.b.h.h.h.h.h.h.h.h.h.h.h.h.z.b.b.b.z.z.h.h.h.h.z.h.h.z.z.x.x.n.M.N.).).`.-XwXeXrXeXeX8X8X8X8XrXrXrXtXiXpXFXFXFXHXGXGXGXPXPXUXVX#.l q u 9 4 3 3 3 3 3 3 3 3 3 4 4 4 4 4 4 4 4 4 4 4 4 4 4 4 4 4 4 4 4 6 4 4 4 4 4 4 4 4 4 4 3 3 4 4 4 4 4 4 4 4 3 3 3 3 3 3 3 3 3 3 3 3 3 3 3 3 3 3 3 3 3 3 3 3 3 3 3 3 3 3 3 3 3 3 3 3 3 3 3 3 3 3 3 3 3 3 3 3 4 4 4 4 4 4 4 4 4 4 4 4 4 4 3 3 3 3 3 3 3 3 > > > > > , > , 9 9 t u u Y } E kXCXHXFXpXaXyXrX8XrX8X8X8X8X8X7X7X|.qXqXqX}.}.7X8X9X7X7X}. X[.[.4.1.2.2.1.4.[.[. X X[.[.[.[.1.2.3.3.y.r.dXdXr.y.3.3.7.6.6.4.4.4.{.{.{.{.{.5.5.5.6.6.7.7.7.7.7.,.q.q.q.q.q.q.0.0.0.0.0.0.p.p.p.p.p.p.e.e.e.t.t.t.t.t.t.t.r.r.r.r.gXgXgXgXfXfXR.R.R.R.R.R.R.~.~.~.E.P.I.P.P.P.P.!.!.!.!.!.!.!.!.!.D.D.D.D.D.K.L.J.J.J.H.H.G.G.@X@X$XOX",
"$X&X,X:X4X4X4X:X4X:X:X:X:X:X:X:X:X:X:X:X:X:X:X:X4X4X>X>X>X>X>X>X>X;X#X#X#X$XOXOXOXOXOXOX$XOXOXOXOXOXOXOXOXF.V.V.B.B.B.B.B.B.m.m.m.m.m.m.b.b.b.b.b.b.h.h.h.h.h.h.h.h.h.h.h.h.z.b.b.b.b.z.h.h.h.h.z.h.z.z.z.z.x.x.v.N.).).`.-X9XeXrXeXeXwXwX8X8XrXrXrXtXiXpXpXFXFXHXGXGXGXDXPXUXVX@.l q ~ 9 4 4 3 3 3 3 3 3 3 3 4 4 4 4 4 4 4 4 4 4 4 4 4 4 4 4 4 4 4 4 6 4 4 4 4 4 4 4 4 4 4 3 3 4 4 4 4 4 4 4 4 3 3 3 3 3 3 3 3 3 3 3 3 3 3 3 3 3 3 3 3 3 3 3 3 3 3 3 3 3 3 3 3 3 3 3 3 3 3 3 3 3 3 3 3 3 3 3 3 4 4 4 4 4 4 4 4 4 4 4 4 4 4 3 3 3 3 3 3 3 3 > > > > > > > 5 9 9 u u u } ..U.kXDXFXpXpXyXtXrX8XrX8X8X8X8X9X9X7X|.qXqXyX}.}.7X7X9X7X7X X X[.[.1.1.2.2.1.[.[.[. X X[.[.[.XXXX3.T  .O.X.X.o.X.T 3.3.7.6.6.4.4.4.4.5.{.{.{.{.5.5.5.6.6.6.7.7.7.7.,.,.q.q.q.q.0.0.0.0.0.0.p.p.p.p.p.p.e.e.u.t.t.u.t.t.t.t.r.r.r.r.r.r.gXlXlXlXR.R.R.R.R.R.R.~.~.~.~.E.P.P.P.P.P.!.!.!.!.!.!.!.!.!.P.D.D.D.D.D.K.K.L.J.H.H.H.G.@X@XOXOX",
"$X&X>X:X4X4X4X4X:X:X:X:X:X:X:X:X:X:X:X:X:X:X:X:X4X:X>X>X>X:X:X4X>X#X#X#X#X@X@X@XOXOX@XOXOXOXOXOXOXOXOXOXOXF.V.V.F.V.B.B.B.B.m.m.m.m.m.m.m.b.b.b.b.h.h.h.h.h.h.h.h.h.h.h.h.h.z.b.z.b.z.z.z.h.h.h.h.h.z.z.z.z.x.x.x.M.N.).`.-X9XwXeXeX8X8X9X8XeXrXrXrXtXiXpXpXFXFXFXFXGXDXPXPXPXJXxXY u ~ 9 7 3 4 3 3 3 3 3 3 3 3 4 4 4 4 4 4 4 4 4 4 4 4 4 4 4 4 4 4 4 4 6 6 6 6 4 4 4 4 4 4 4 4 4 4 4 4 3 3 4 4 3 3 3 3 3 3 4 4 3 3 3 3 3 3 3 3 3 3 3 3 3 3 3 3 3 3 3 3 3 3 3 3 3 3 3 3 3 3 3 3 3 3 3 3 3 3 3 3 3 3 3 4 4 4 4 4 4 4 4 3 3 3 3 3 3 3 3 3 3 3 3 3 > > > > > , 8 q q u } } R sXZXCXpXpXiXtXrX8X8X8X8X8X8X9X9X7X9X}.}.7XtX7X_.7X9X9X9X7X}. X[.[.4.1.2.1.[.[. X X X X[.[.1.1.2.T T #.o.o.o.| ` u ( w.y.7.6.4.4.4.4.{.5.{.{.{.{.5.5.5.5.5.6.6.7.7.7.q.,.,.q.q.q.q.q.q.0.0.0.0.p.p.p.p.p.e.e.e.e.u.u.u.t.t.t.t.t.r.r.r.gXgXgXgXfXfXfXT.T.R.R.R.R.R.~.E.~.E.I.I.I.P.P.!.P.P.!.!.!.!.P.P.D.D.D.D.D.K.K.K.J.J.J.J.H.F.@X@X",
"$X&X>X:X4X4X4X4X:X:X:X:X:X:X:X:X:X:X:X:X:X:X:X:X4X:X>X>X>X:X:X:X>X#X#X#X#X@X@X@X@XOX@XOXOXOXOXOXOXOXOXOXOXF.V.V.F.V.B.B.B.B.m.m.m.m.m.m.m.n.b.b.b.h.h.h.h.h.h.h.h.h.h.h.h.h.z.b.b.b.z.z.z.z.h.h.h.h.z.z.z.z.z.x.x.M.N.(.`.-X9XwXeXeX8X8X9X8XrXrXrXrXtXiXpXpXFXFXFXFXGXGXPXPXPXJXcXU u ~ q 7 4 4 3 3 3 3 3 3 3 3 4 4 4 4 4 4 4 4 4 4 4 4 4 4 4 4 4 4 4 4 6 6 6 4 4 4 4 4 4 4 4 4 4 4 4 4 3 3 4 3 3 3 3 3 3 3 4 4 3 3 3 3 3 3 3 3 3 3 3 3 3 3 3 3 3 3 3 3 3 3 3 3 3 3 3 3 3 3 3 3 3 3 3 3 3 3 3 3 3 3 3 4 4 4 4 4 4 4 4 4 3 3 3 3 3 3 3 3 3 3 3 3 > > > > , , 8 q u u } } R kXZXCXpXpXiXyXrX8X8X8X8X8X8X9X9X7X9X}.}.7XqX7X_.7X9X9X9X7X}. X[.[.4.1.2.1.[.[. X X X X[.[.1.2.f k Y } ' ' | | ` u l T 3.3.2.4.4.4.4.{.{.{.{.{.{.5.5.5.5.5.5.6.6.7.7.7.,.,.q.q.q.q.q.q.0.0.0.0.0.p.p.p.p.p.e.e.e.e.u.u.t.t.t.u.t.u.r.r.gXlXgXgXfXfXfXfXR.R.R.R.R.R.R.E.~.~.~.I.I.P.P.P.P.P.P.!.!.!.!.!.D.D.D.D.D.D.D.K.J.J.J.J.H.F.OXOX",
"$X&X>X:X4X4X4X4X:X:X:X:X:X:X:X:X:X:X:X:X:X:X:X:X4X:X>X>X>X>X>X>X;X#X#X#X#X@XOXOX@XOXOX@XOXOXOXOXOXOXOXOXOXOXV.V.F.V.B.B.B.B.B.m.m.m.m.m.m.m.b.b.b.h.h.h.h.h.h.h.h.h.h.h.h.h.h.b.b.b.b.b.b.b.h.h.h.h.h.z.z.z.z.z.x.M.N.).).-X=XwXeXrXrX8X9X8X8XrXrXrXtXiXpXFXFXFXFXGXGXDXDXPXPXKXKXO.l ~ ~ 7 4 4 3 3 3 3 3 3 3 3 4 4 4 4 4 4 4 4 4 4 4 4 4 4 4 4 4 4 4 4 6 6 4 4 4 4 4 4 4 4 4 4 4 4 4 4 4 4 4 4 4 4 3 3 3 3 3 3 3 3 3 3 3 3 3 3 3 3 3 3 3 3 3 3 3 3 3 3 3 3 3 3 3 3 3 3 3 3 3 3 3 3 3 3 3 3 3 3 3 3 4 4 4 4 4 4 4 4 4 4 4 4 3 3 3 3 3 3 3 3 3 3 > > > , , 1 9 u u u } ..+.kXDXHXpXaXiXyXrX8X8X8X8X8X9X9X9X9X9X}.}.}.qXqX}.}.}.9X7X}.}. X[.[.4.1.1.4.[.[. X X X X[.[.1.2.s k u u t ! ~ ~ ! 9 q l >.3.2.4.4.4.4.{.{.{.{.{.{.{.5.5.5.5.5.5.6.6.7.7.,.,.q.q.q.q.q.q.0.0.0.0.p.p.0.0.p.p.p.e.e.e.e.e.t.u.t.u.u.t.u.u.lXlXgXgXgXfXfXfXfXfXR.R.R.R.R.R.~.~.~.I.P.P.I.I.I.I.P.!.!.!.!.!.!.P.P.D.D.D.D.D.K.K.J.J.J.H.H.F.",
"$X&X>X:X4X4X4X4X:X:X:X:X:X:X:X:X:X:X:X:X:X:X:X:X4X:X>X>X>X>X>X>X;X#X#X#X@X@XOXOX@XOX@X@X@XOXOXOXOXOXOXOXOXOXF.V.F.F.V.B.B.B.B.B.m.B.B.m.m.m.b.b.b.h.h.h.h.h.h.h.h.h.h.h.h.h.h.b.b.b.b.b.b.b.h.h.b.b.h.z.z.z.z.z.x.x.M.(.).-X=X=XeX8XrX8X9X8XeXrXrXtXtXiXpXFXFXFXFXGXGXGXDXPXPXPXKX@.l ~ ~ 7 4 4 3 3 3 3 3 3 3 4 4 4 4 4 4 4 4 4 4 4 4 4 4 4 4 4 6 6 4 4 4 6 4 4 4 4 4 4 4 4 4 4 4 4 4 4 4 4 4 4 4 3 3 3 3 3 3 3 3 3 3 3 3 3 3 3 3 3 3 3 3 3 3 3 3 3 3 3 3 3 3 3 3 3 3 3 3 3 3 3 3 3 3 3 3 3 3 3 3 3 4 4 4 4 4 4 4 4 4 4 4 4 4 4 3 3 3 3 3 3 3 3 > > > > , 8 q u u Y } O.sXZXGXHXpXaXiXyX8X8X8X8X8X8X9X9X9X9X9X7X}.|.qXqX}.}.}.9X7X}. X X[.[.4.1.1.4.[.[. X X X X[.[.1.2.d & 1 9 ! ~ ! ! ! 9 q ( 3.3.6.4.4.[.[.{.{.{.{.{.{.{.{.5.5.5.5.5.5.6.6.6.7.7.,.q.q.q.q.q.q.0.0.0.0.0.0.0.0.0.p.p.e.e.e.e.e.e.t.t.u.t.t.t.t.r.r.gXgXgXgXfXfXfXfXfXfXR.R.R.R.~.~.~.~.P.I.I.I.I.I.P.P.!.!.!.P.!.P.D.D.D.D.D.D.D.K.J.J.J.H.H.",
"$X&X<X:X4X4X4X4X:X:X:X:X:X:X:X:X:X:X:X:X:X:X:X4X4X:X>X>X>X>X>X>X#X#X@X@X@X@XOXOX@X@X@X@X@X@XOXOXOXOXOXOXOXOXOXF.F.F.V.B.B.B.B.B.m.B.B.m.m.m.b.b.b.h.h.h.h.h.h.h.h.h.h.h.h.h.b.b.b.b.b.h.h.h.h.h.b.b.b.h.z.z.z.z.z.x.M.N.(.`.-X=X9X8XeX8X9X8XeXrXrXtXiXiXpXFXFXFXGXGXGXGXDXPXPXUXKXgXY u ~ 9 6 4 3 3 3 3 3 3 3 4 4 4 4 4 4 4 4 4 4 4 4 4 4 4 4 4 6 6 6 6 4 4 4 4 4 4 4 4 6 6 6 6 4 4 4 4 4 4 4 4 4 4 3 3 3 3 3 3 3 3 3 3 3 3 3 3 3 3 3 3 3 3 3 3 3 3 3 3 3 3 3 3 3 3 3 3 3 3 3 3 3 3 3 3 3 3 3 3 3 3 4 4 4 4 4 4 3 3 4 4 4 4 3 3 3 3 3 3 3 3 3 3 3 > > , 1 9 u u u Y ..+.kXZXHXCXpXaXiXyXrXrX8X8X8X9X9X9X9X9X9X9X}.}.qXqX7X X}.7X}.}. X X[.4.1.1.1.4.[.[. X X X X[.[./.2.d & , 9 ` ' ~ t ! 5 q ( w.3.6.4.4.{.[.{.[.[..X{.{.{.{.{.{.{.{.5.5.5.6.6.7.7.7.,.q.q.q.q.q.q.0.0.0.0.0.0.0.0.0.p.p.p.e.e.e.e.e.e.t.t.t.t.t.t.r.r.r.gXgXgXfXfXfXfXfXfXfXfXR.R.~.~.E.I.I.I.I.I.I.I.!.!.!.!.P.!.!.P.D.D.D.D.D.D.D.K.J.J.J.J.",
"$X&X<X:X4X4X4X4X:X:X:X:X:X:X:X:X:X:X:X:X:X:X:X4X4X:X:X>X>X>X>X>X#X@X@X@X@X@XOX@X@X@X@X@X@X@XOXOXOXOXOXOXOXOXOXF.F.F.F.B.H.H.B.B.B.B.B.m.m.m.m.b.b.h.h.h.h.h.h.h.h.h.h.h.h.h.b.b.b.b.h.h.h.h.h.h.b.h.h.h.h.z.z.z.z.x.M.N.(.).`.-X*X9X8X9X9X8X8XrXrXtXiXiXpXFXFXFXGXGXGXGXGXPXPXUXKXcX .~ ~ 9 9 4 3 3 3 3 3 3 3 4 4 4 4 4 4 4 4 4 4 4 4 4 4 4 4 4 6 6 6 6 4 4 4 4 4 4 4 4 6 6 6 6 4 4 4 4 4 4 4 4 4 4 3 3 3 3 3 4 3 3 3 3 3 3 3 3 3 3 3 3 3 3 3 3 3 3 3 3 3 3 3 3 3 3 3 3 3 3 3 3 3 3 3 3 3 3 3 3 3 3 4 4 4 4 4 4 3 3 3 4 4 4 3 3 3 3 3 3 3 3 3 3 3 > , , 1 q u N Y U R sXZXDXHXuXpXaXyXyXrXeXeX8X8X9X9X9X9X9X9X9X}.}.|.qX7X}.}.}.}.}.}. X[.1.1.1.1.4.[.[. X}. X X[./.1.2.f & 2 q ! ~ 9 5 5 > 2 h y.7.6.4.4.[.[.{. X.X.X.X{.{.{.{.{.{.{.{.5.5.5.6.6.6.7.7.,.,.q.q.q.q.q.0.0.0.0.0.0.0.0.0.p.p.p.p.e.e.e.e.e.t.t.t.t.t.t.t.r.r.gXgXgXgXgXfXfXfXfXfXR.R.R.~.~.E.E.I.I.I.I.I.I.I.P.!.P.P.!.!.D.D.D.D.D.D.D.D.K.L.J.J.",
"$X&X<X:X4X4X4X:X:X:X:X:X:X:X:X:X:X:X:X:X:X:X:X:X:X:X>X>X>X>X>X>X@XOXOX@X@X@X@X@X@X@X@X@X@X@X@X@XOXOXOXOXOXOXOXOXF.F.F.F.H.H.B.H.B.B.B.B.m.m.m.m.b.h.h.h.h.h.h.h.h.h.h.h.h.h.b.b.b.b.h.h.h.h.h.h.h.h.h.h.h.h.h.h.z.x.M.C.).).).`.-X9X9X9X9X9X8XrXrXyXiXiXpXFXFXHXGXGXGXGXGXIXPXPXKXJX$.} ~ 9 9 4 3 3 3 3 3 3 3 3 4 4 4 4 4 4 4 4 4 4 4 4 4 4 4 4 4 4 4 4 4 4 6 6 6 6 4 4 6 6 6 6 4 4 4 4 4 4 4 4 4 3 3 3 3 4 4 4 3 3 3 3 3 3 3 3 3 3 3 3 3 3 3 3 3 3 3 3 3 3 3 3 3 3 3 3 3 3 3 3 3 3 3 3 3 3 3 3 3 3 4 4 4 4 4 4 3 3 3 3 3 3 3 3 3 3 3 3 3 3 3 3 3 > > , 1 q u ` Y U E sXZXDXCXuXaXaXyXyXeXeX9X9X9X9X9X9X9X9X9X9X}.}. XqXqX}.}.}.}.}.}. X[.1.1.1.1.4.[.[. X}. X X[./.1.1.H d & 2 5 5 5 5 , 2 q ( y.7.6.4.4.{.[.[. X X X.X.X{.{.{.{.{.{.{.{.5.5.5.5.6.6.7.,.,.,.q.q.q.q.q.0.0.0.0.0.0.0.0.0.p.p.p.p.p.e.e.e.e.t.t.t.t.t.t.t.r.r.r.gXgXgXgXgXgXgXdXfXR.R.R.~.~.~.~.I.P.I.I.I.I.I.I.I.P.P.P.!.!.P.P.D.D.D.D.D.K.K.K.",
"$X&X<X:X4X4X4X:X:X:X:X:X:X:X:X:X:X:X:X:X:X:X:X:X:X:X>X>X>X>X>X>X@XOXOX@X@X@X@X@X@X@X@X@X@X@XOXOXOXOXOXOXOXOXOXOXF.F.F.F.H.H.H.B.B.B.B.B.m.m.m.m.b.h.h.h.h.h.h.h.h.h.h.h.h.h.b.b.b.h.h.h.h.h.h.h.h.h.h.h.h.h.h.h.z.x.M.C.).).).).-X*X9X9X9X9XeXrXrXyXiXiXpXFXHXFXGXGXGXGXGXIXPXPXUXKXgX} ~ q Q 4 3 3 3 3 3 3 3 3 4 4 4 4 4 4 4 4 4 4 4 4 4 4 4 4 4 4 4 4 6 6 6 6 6 6 4 4 4 6 6 6 6 6 6 6 6 6 6 4 4 4 3 3 3 4 4 4 3 3 3 3 3 3 3 3 3 3 3 3 3 3 3 3 3 3 3 3 3 3 3 3 3 3 3 3 3 3 3 3 3 3 3 3 3 3 3 3 3 3 4 4 4 4 4 4 3 3 3 3 3 3 3 3 3 3 3 3 3 3 3 3 3 > , 1 9 t u N Y U E kXDXDXuXuXaXaXyX8X8XeX9X9X9X9X9X9X9X9X9X-X}.}. XqXqX X X}._.}.}. X[.1.1.1.1.4.[.[.}.}. X X/.[.[.1.2.d & @ > , 2 2 2 2 l 9.y.7.6.4.4.[.[.[. X X.X X.X.X{.{.{.{.{.{.{.5.5.5.5.5.6.6.7.,.,.,.q.q.q.q.0.0.0.0.0.0.0.0.0.0.p.p.p.p.p.e.e.e.u.u.t.t.t.t.t.t.t.r.gXgXgXgXfXfXgXdXT.R.R.R.R.~.~.~.~.~.~.P.P.I.I.I.I.I.P.!.!.!.!.!.!.D.D.D.D.D.K.K.",
"$X&X1X4X4X4X,X>X:X:X:X:X:X:X>X>X,X,X>X>X,X1X1X1X:X:X:X:X<X2X2X>XF.F.OXOXOX@X@XOX@X@X@X@X@X$X$X$XOXOXOXOXOXOXOXOXF.F.F.F.F.B.B.B.B.B.B.m.m.m.m.m.b.b.h.h.h.h.h.h.h.h.h.h.h.h.h.h.b.b.b.h.h.h.h.k.h.j.j.h.h.j.h.h.z.n.M.N.N.N.).).`.`.=X9X9X8X8XrXyXyXiXpXpXFXFXFXFXGXGXGXIXIXPXPXKXKXcX} u ~ 9 7 3 > > 5 5 3 3 3 4 4 4 4 4 4 4 4 4 6 6 6 6 6 4 4 6 6 6 6 4 6 6 6 6 6 6 6 6 6 6 6 4 4 4 4 4 4 4 4 4 4 4 4 4 4 4 4 4 4 4 4 4 4 4 4 4 4 4 4 4 4 4 4 4 4 3 3 3 3 4 4 3 3 3 3 3 3 3 3 3 3 3 3 3 3 3 3 3 3 3 3 3 3 3 3 3 3 4 4 4 4 3 3 3 3 3 3 3 3 3 3 > , , 5 q u u N U U sXZXZXCXCXuXuXaXyXwXwXwX9X9X9X9X9X9X9X9X-X9X_.`. XqXqX X X X X X X[.[.1.1.1.1././.}.}.}. X X[.[.4.1.2.2.z 0 0 & 0 0 & g 9.9.:.>.6.4.4.{.{.[..X.X.X.X.X.X.X{.{.{.{.{.{.{.{.{.5.5.5.5.6.7.7.7.q.q.q.q.q.q.q.q.0.0.0.0.0.0.0.0.p.p.p.p.p.e.e.e.e.e.t.t.t.t.t.t.t.gXgXgXgXgXgXgXfXfXfXR.R.R.R.~.E.E.E.E.I.I.I.I.P.I.I.P.!.!.!.!.!.!.D.D.D.D.D.D.",
"$X&X:X4X4X4X,X>X:X:X:X:X:X:X:X:X4X4X4X:X,X>X:X>X:X4X3X3X3X3X4X>XV.V.F.F.OXOXOXOX@X@X@X@X@X@X$X$XOXOXOXOXOXOXOXOXF.F.F.F.F.B.B.B.B.B.B.m.m.m.m.m.b.b.h.h.h.h.h.h.h.h.h.h.h.h.h.h.h.h.h.h.h.h.h.j.j.k.k.j.j.j.h.h.z.b.M.M.v.N.).).`.-X-X9X9X8X8XyXyXyXiXpXpXFXFXHXGXGXGXIXIXIXIXIXUXKXcX$.u ~ Q 9 5 3 > 3 3 3 3 4 4 4 4 4 4 4 4 4 6 6 6 6 6 6 4 4 6 6 6 6 6 6 6 6 6 6 6 6 6 6 6 6 4 4 4 4 4 4 4 4 4 4 4 4 4 4 4 4 4 4 4 4 4 4 4 4 4 4 4 4 4 4 4 4 4 4 3 3 3 4 4 4 3 3 3 3 3 3 3 3 3 3 3 3 3 3 3 3 3 3 3 3 3 3 3 3 3 3 3 3 3 3 3 3 3 3 3 3 3 3 3 3 > > , 1 q u u N U U sXZXZXCXCXuXuXaXyXwXwXwX9X9X9X9X9X9X=X-X-X-X}.`. XqX.X|.[. X X X[.[.1.1.1.1././.`.}.}.}. X X[.[.4.1.2.3.3.z g 0 0 0 0 j e.9.:.;.8.4.4.{.[.[. X.X.X.X.X.X.X.X.X.X{.{.{.{.{.{.5.5.5.5.6.6.7.7.,.,.q.q.q.q.q.q.0.0.0.0.0.0.0.0.p.p.p.p.p.p.e.e.e.u.e.t.t.t.t.t.t.t.gXgXgXgXgXgXgXfXfXR.R.R.R.R.E.E.E.E.~.~.I.I.I.I.I.I.!.!.!.!.!.!.!.D.D.D.D.D.",
"$X&X:X4X4X4X,X>X:X:X:X:X:X:X4X4X4X4X4X:X:X:X>X:X,X4X,X,X,X;X$XF.B.B.V.F.F.OXOXOX@X@X@X@X@X@X$X@XOXOXOXOXOXOXOXOXF.F.F.F.F.B.B.B.B.B.B.m.m.m.m.m.b.b.h.h.h.h.h.h.h.h.h.h.h.h.h.h.h.h.h.h.h.j.j.j.k.j.j.j.j.j.j.k.h.z.n.M.v.v.).).).`.-X9X8X8XyXyXyXiXaXaXpXHXFXFXGXGXIXIXIXIXIXUXUXKXKXgX~ ~ ~ Q 5 3 > 3 3 3 3 4 4 4 4 4 4 4 4 6 4 4 6 6 6 6 6 4 6 6 6 6 6 6 6 6 6 6 6 6 6 6 6 6 4 4 4 4 4 4 4 6 4 4 4 4 4 4 4 4 4 4 4 4 4 4 4 4 4 4 4 4 4 4 4 4 4 4 3 3 3 3 4 4 3 3 3 3 3 3 3 3 3 3 3 3 3 3 3 3 3 3 3 3 3 3 3 3 3 3 3 3 3 3 3 3 3 3 3 3 3 > > > > > , 1 q u u N U U sXZXZXCXuXuXuXaX0XwXwXwX*X9X=X*X*X*X=X-X-X-X}.`._.|..X|.[././.[.[.[.1.1.1.1././._.}.}. X X[.[.4.4.1.1.2.3.3.z g g g j e.p.p.>.;.;.4.4.[.[..X X.X X X.X.X.X.X.X.X.X.X{.{.{.{.{.{.{.5.5.6.6.7.7.,.,.q.q.q.q.q.q.q.q.0.0.0.0.0.0.0.p.p.p.p.p.e.e.e.e.u.t.t.t.t.t.t.t.gXgXgXgXgXgXgXfXfXR.R.R.R.R.~.~.~.~.~.~.I.P.P.I.I.P.!.!.!.!.!.!.P.D.D.D.D.",
"$X&X:X4X4X4X,X>X:X:X:X:X4X4X4X4X:X:X:X:X:X:X:X,X#X#XOXF.V.B.B.M.B.B.B.V.F.F.F.F.@X@X@X@X@X@X@X@XOXOXOXOXOXOXOXOXF.F.F.F.F.F.B.B.B.B.B.m.m.m.m.m.b.b.h.h.h.h.h.h.h.h.h.h.h.h.h.h.h.h.h.h.h.j.j.j.k.k.j.j.j.j.j.j.h.z.x.M.v.N.N.).).`.=X0XyXyXiXiXiXiXaXpXHXHXFXFXGXGXIXIXIXIXIXUXUXUXKXxX} q ~ ! 9 5 > 3 3 3 3 4 4 4 4 4 4 4 4 6 4 4 4 4 6 6 6 4 6 6 6 6 6 6 6 6 6 6 6 6 6 6 6 6 6 4 4 4 4 4 4 6 4 4 4 4 4 4 4 4 4 4 4 4 4 4 4 4 4 4 4 4 4 4 4 4 3 4 3 3 3 3 4 4 3 3 3 3 3 3 3 3 3 3 3 3 3 3 3 3 3 3 3 3 3 3 3 3 3 3 3 3 3 3 3 3 > > > > > > > > > > , 2 q u u N U R jXJXZXCXuXuXuXaX0XwX1X*X*X*X-X=X=X=X=X-X-X-X}.`./. XqX.X[./././.[.4.1.1.1.1.`._._.}.}. X[.[.[.4.4.1.1.2.3.;.z z z j 9.e.p.p.>.;.;.4.{.[.[..X X X X|.|..X.X.X.X.X.X.X.X.X{.{.{.{.{.{.5.5.6.6.6.7.7.q.q.q.q.q.q.q.q.q.0.0.0.0.0.0.0.0.p.p.p.p.e.e.e.e.e.t.t.t.t.t.t.r.gXgXgXgXgXgXgXfXfXR.R.R.R.R.R.R.~.~.~.~.P.P.P.I.I.I.P.P.P.P.!.P.P.D.D.D.",
"$X&X1X4X4X4X,X:X:X:X:X:X4X4X4X4X>X:X:X>X>X%X>X>XF.V.B.M.n.m.B.B.B.B.B.B.F.F.F.F.OXOX@X@X@X@XOX@XOXOXOXOXOXOXOXOXF.F.F.F.F.F.H.B.B.B.B.B.m.m.m.m.b.b.h.h.h.h.h.h.h.h.h.h.h.h.h.h.h.h.h.h.j.j.j.j.k.k.k.j.j.j.j.k.h.z.n.M.v.v.N.).).-X=XyXiXiXiXpXpXpXpXpXHXFXFXGXGXGXIXIXIXIXIXIXUXUXUXcX} q ~ ~ 9 5 3 3 3 3 3 4 4 4 4 4 4 4 4 6 4 4 6 6 6 6 4 4 6 6 6 6 6 6 6 6 6 6 6 6 6 6 6 6 6 6 4 4 4 4 6 6 4 4 4 4 4 4 4 4 4 4 4 4 4 4 4 4 4 4 4 4 4 4 4 4 3 3 3 3 3 3 3 3 3 3 3 3 3 3 3 3 3 3 3 3 3 3 3 3 3 3 3 3 3 3 3 3 3 3 3 3 3 3 3 3 > > > > > > > > > > 5 q u u N } U +.kXJXZXCXuXuXuXaX0X=X=X*X*X*X-X*X*X*X-X-X-X-X_././. X.X.X/././././.1.1.1.1./._.}. X X X[.[.[.[./.4.4.1.4.2.2.a z z >.9.9.>.0.,.;.;.4.4.[.[..X X X.X|.|..X X.X|.|..X.X.X.X.X.X{.{.{.{.5.5.5.5.6.6.7.7.7.q.,.,.q.q.q.q.q.q.0.0.0.0.0.0.0.p.p.p.p.p.e.e.e.e.e.t.t.t.t.t.t.r.gXgXgXgXgXfXfXfXfXT.R.R.R.R.R.~.~.E.~.~.I.I.I.I.I.I.I.P.P.P.P.P.P.P.",
"$X&X1X4X4X4X,X>X:X:X:X:X:X:X4X4X>X>X>X%X#X+X+X#XM.M.M.M.m.n.m.m.B.B.B.B.F.F.F.F.OXOX@X@X@X@XOXOXOXOXOXOXOXOXOXOXF.F.F.F.F.F.F.B.B.B.B.B.m.m.m.m.b.b.h.h.h.h.h.h.h.h.h.h.h.h.h.h.h.h.h.h.j.j.j.j.k.k.k.k.j.j.j.k.h.z.n.M.v.v.N.).).-X0XaXpXpXpXFXpXpXpXpXFXHXHXFXGXGXIXIXIXIXIXIXUXUXUXKX$.u u t 7 4 3 3 3 3 3 4 4 4 4 4 4 4 4 6 4 4 6 6 4 6 4 4 6 6 6 6 6 6 6 6 6 6 6 6 6 6 6 6 6 6 4 4 4 4 6 6 4 4 4 4 4 4 4 4 4 4 4 4 4 4 4 4 4 4 4 4 4 4 4 4 3 3 3 3 3 3 3 3 3 3 3 3 3 3 3 3 3 3 3 3 3 3 3 3 3 3 3 3 3 3 3 3 3 3 3 3 3 3 3 3 > > > > > > > > , 5 q u u N } } R sXcXJXZXCXCXuXuXuX0X5X=X*X*X*X-X-X-X-X-X-X-X_._././.[.XXXX/././././.1.1.1././._.}. X[.[.[.[.[.[./.[.[./.1.1.2.f a z >.9.>.:.>.7.8.;.2.4.[.[.[..X X.X|.|.|.|. X|.|.|.|.|..X.X.X{.{.{.{.{.{.5.5.5.6.6.7.7.7.,.,.q.q.q.q.q.q.q.0.0.0.0.0.0.0.0.0.p.p.p.e.e.e.e.e.t.t.t.t.t.t.r.r.gXgXgXgXgXfXfXfXlXW.W.R.R.R.~.E.~.~.I.I.I.I.I.I.I.I.P.P.P.P.P.P.",
"$X&X1X4X4X4X,X>X:X:X:X:X:X:X:X:X%X&X%X+XOX(.OXOXM.M.M.B.m.n.n.n.B.B.B.B.F.F.F.F.F.OXOX@X@X@XOXOXOXOXOXOXOXOXOXF.F.F.F.F.F.F.B.B.B.B.B.B.m.m.m.m.b.b.h.h.h.h.h.h.h.j.h.h.h.h.h.h.h.h.h.j.j.j.j.j.k.k.k.j.j.j.j.j.h.z.n.M.v.v.N.).).`.0XaXpXFXFXFXFXFXFXHXFXHXHXHXGXGXGXIXIXIXIXIXPXUXKXKXlX` u t 7 7 4 3 3 3 3 4 4 4 4 4 4 4 4 6 4 4 4 6 4 4 4 4 7 7 7 7 6 6 6 6 6 6 6 6 6 6 6 6 6 6 6 4 4 4 6 6 6 6 4 4 6 6 6 6 4 4 4 4 4 4 4 4 4 4 4 4 4 4 4 4 4 3 3 3 3 3 3 3 3 3 3 3 3 3 3 3 3 3 3 3 3 3 3 3 3 3 3 3 3 3 3 3 3 3 3 3 3 3 3 3 > > > > > > > > , 2 q u u N } ..E sXVXZXZXCXCXuXuX6X5X5X=X=X*X*X-X-X%X%X%X-X-X-X`.`./.[.XXXX1././././.1.1.1././._. X X[.[.[.[.[.[./. X X/./.1.<.f f a >.>.:.:.>.,.8.8.2.1.4.[.[. X X|.|.|.|.|.|. X X|.|.|..X.X.X{.{.{.{.{.{.{.{.5.5.5.6.7.7.,.,.,.,.q.q.q.q.q.q.0.0.0.0.0.0.0.0.p.p.p.p.e.e.e.e.t.t.t.t.t.t.t.r.gXgXgXgXgXgXgXfXfXfXT.R.R.R.R.E.~.~.~.~.E.E.I.I.I.I.I.P.P.P.P.P.",
"$X&X1X4X4X4X,X>X:X:X:X:X:X>X>X>X%X#X+XOX(.V.(.OXM.M.n.n.n.n.n.B.B.B.B.B.F.F.F.F.F.OXOX@X@X@XOXOX@X@XOXOXOXOXOXF.F.F.F.F.F.F.F.B.B.B.B.B.m.m.m.m.b.b.h.h.h.h.h.h.h.h.h.h.h.h.h.h.h.h.h.h.j.j.j.j.k.k.k.k.j.j.j.k.h.z.n.M.v.v.N.N.).5X0XaXpXFXFXHXHXHXHXHXHXHXHXHXGXGXGXGXIXIXIXIXPXUXKXKXxX} t t 7 4 4 3 3 3 3 4 4 4 4 4 4 4 4 6 4 4 6 6 4 4 4 4 6 7 7 7 6 6 6 6 6 6 6 6 6 6 6 6 6 6 4 4 4 4 6 6 6 6 6 6 6 6 6 6 4 4 4 4 4 4 4 4 4 4 4 4 4 4 4 4 4 3 3 3 3 3 3 3 3 3 3 3 3 3 3 3 3 3 3 3 3 3 3 3 3 3 3 3 3 3 3 3 3 3 3 3 3 3 3 3 > > > > > > > > , 2 2 q u N Y ..E kXJXZXBXCXCXuXuX6X5X5X=X=X*X*X%X%X%X%X%X-X-X-X`.`./.[.XXXX1.1./././.1.1.1././._. X[.[.[.[.[.[./.`.}.}._././.<.f s f a >.>.>.>.>.8.8.;.1.4.{.[. X X|.|.|.|.|.|. X X|.|.|.|..X.X.X.X{.{.{.{.{.{.{.{.5.5.6.7.7.,.,.,.q.q.q.q.q.q.0.0.0.0.0.0.0.0.p.p.p.p.p.e.e.e.u.t.t.t.t.t.t.r.lXhXgXgXgXgXgXgXfXT.T.R.R.R.R.R.~.~.~.~.~.~.E.I.I.I.I.I.P.P.P.P.",
"$X&X,X:X4X,X4X>X4X:X>X>X>X>X#X#XV.V.M.M.M.V.$X$XV.M.n.M.n.m.m.m.B.B.B.B.F.F.F.F.OXOXOX@X@X@X@X@X@X@X@X@X@X@XOXOXF.F.F.F.F.F.B.B.B.B.B.B.B.m.m.m.n.b.h.h.h.h.h.h.h.h.h.h.h.h.h.h.h.h.j.h.h.j.j.j.k.k.k.j.j.j.k.k.h.h.b.M.B.N.N.N.).6XuXCXHXGXFXFXFXFXHXHXFXHXHXHXFXGXGXGXGXGXIXIXPXPXUXUXKXT.u t ! 9 3 5 5 3 3 4 4 4 4 4 4 4 4 4 4 4 4 6 6 6 6 6 6 6 6 6 6 6 6 6 6 6 6 6 6 6 4 4 4 6 6 6 4 4 4 4 6 6 6 6 6 6 6 6 6 6 6 4 4 4 4 4 4 4 4 4 4 4 4 4 4 4 4 4 4 4 4 4 3 3 3 3 3 3 3 3 3 3 3 3 3 3 3 3 3 3 3 3 3 3 3 3 3 3 3 > > > > > > > > > > > > > > 2 q q u N Y ..sXcXZXZXZXCXCXuX6X6X0X=X=X%X%X%X%X%X%X%X%X%X-X-X).`./.[.oXXX1.1./.1.1.1././././._.`././.[.[.[.`.9X_._._._.`./.^.<.G f f f ;.2.2.4.4.2.2.1.4.[.[. X X X X X X|.|.|.|.|.|.|.|.|.|.|.|..X.X{.{.{.{.{.{.5.5.5.6.6.6.7.7.7.q.,.,.q.q.q.q.0.0.0.0.0.0.0.p.p.p.p.f.f.u.e.e.e.t.t.t.u.u.u.u.hXgXgXgXgXgXgXgXfXfXR.R.R.R.R.R.R.R.R.E.E.E.I.I.I.I.I.P.P.I.",
"$X>X1X:X4X4X4X:X>X>X>X>X;X#XOXF.M.M.M.M.B.V.$X5XV.M.n.n.n.n.m.m.B.B.B.B.F.F.F.F.OXOXOX@X@X@X@X@X@X@X@X@X@XOX@XOXOXF.F.F.F.F.B.B.B.B.B.B.B.m.m.m.n.b.b.h.h.h.h.h.h.h.h.h.h.h.h.h.h.h.h.h.h.j.j.j.k.k.k.j.j.j.k.k.h.h.b.m.B.B.C.C.'.6XuXHXGXGXGXGXFXFXFXFXFXFXFXHXHXFXGXGXGXGXGXIXPXIXUXUXKXcX} u ! 9 5 3 3 3 3 4 4 4 4 4 4 4 4 4 4 4 4 6 6 6 6 6 6 6 6 6 6 6 6 6 6 6 6 6 6 6 4 4 4 6 6 6 4 4 4 4 6 6 6 6 6 6 6 6 6 6 6 4 4 4 4 4 4 4 4 4 4 4 4 4 4 4 4 4 4 4 4 4 3 3 3 3 3 3 3 3 3 3 3 3 3 3 3 3 3 3 3 3 3 3 3 3 3 3 3 > > > > > > > > > > > > > > 5 q u u Y U O.sXVXZXZXZXCXCXuX6X6X0X5X&X%X%X%X%X+X%X%X+X+X+X-X`.`./.[.oXXX1.1.1.1.1.1././././.`./././././._._._._._._._.`.`././.<.2.;.;.2.1.1.4.4.1.2.1.4.[.[. X X X X|.|.|.|.|.|.|.|.|.|.|.|..X.X.X.X.X{.{.{.{.{.{.5.5.5.6.6.7.7.7.7.7.,.q.q.q.q.q.0.0.0.0.0.0.0.0.0.p.p.f.e.e.e.e.e.t.u.u.u.u.u.t.gXgXgXgXgXgXgXfXfXR.R.R.R.R.R.R.R.R.R.R.R.~.~.E.I.I.I.I.I.",
"$X&X<X<X:X4X:X>X>X>X#X#XOXV.B.B.M.M.M.B.V.5X5XaX5XV.B.B.M.m.B.m.B.B.B.B.F.F.F.F.OXOXOX@X@X@X@X@X@X@X@X@X@XOXOXOXOXOXF.F.F.F.H.B.H.B.B.B.B.B.m.m.n.b.b.h.h.h.h.h.h.h.h.h.h.h.h.h.h.h.h.h.h.k.j.k.k.k.j.j.j.j.j.j.j.h.b.n.B.C.C.C.].6XHXDXGXIXGXGXGXGXFXFXFXFXHXHXHXHXHXDXDXGXGXGXIXIXIXUXUXKXlXu ~ 9 4 3 3 3 3 4 4 4 4 4 4 4 4 4 4 4 4 6 6 6 6 6 6 6 6 6 6 6 6 6 6 6 6 6 6 6 6 6 4 4 6 6 4 4 4 4 6 6 6 6 6 6 6 6 6 6 6 4 4 4 4 4 4 4 4 4 4 4 4 4 4 4 4 4 4 4 4 4 3 3 3 3 3 3 3 3 3 3 3 3 3 3 3 3 3 3 3 3 3 3 3 3 3 3 > > > > > > > > > > > > > > > 9 q u Y Y ..#.jXVXZXZXZXCXCXuXuXuX5X5X&X%X%X>X+X+X+X+X+X+X+X+X`.`./.[.oXXX1.1.1.1.1.1.1././././././././._._._._._._._._.`.`.`.`./.1.1.1.1./.[.[.4.1.1.1.4.[.[.}. X X|.|.|.|.|.|.|.|.|.|..X|.|..X|..X.X.X.X{.{.{.{.{.5.5.5.5.5.6.6.7.7.7.7.q.q.q.q.q.q.q.0.0.0.0.0.0.0.p.e.e.e.u.u.e.e.u.t.u.u.u.u.t.t.r.gXgXgXgXgXgXfXfXfXR.R.R.xXxXxXxXR.R.R.R.R.~.~.P.I.I.I.",
"$X%X:X<X:X:X>X>X>X#XOXV.M.n.m.m.m.B.B.F.5X5XiXpXyX5XOXV.B.B.B.B.B.B.B.V.F.F.F.F.OXOXOX@X@X@X@X@X@X@X@X@XOXOXOXOXOXOXF.F.F.H.F.H.H.B.B.B.B.m.m.m.n.b.b.h.h.h.h.h.h.h.h.h.h.h.h.h.h.h.h.h.h.h.k.k.k.k.j.j.j.j.j.j.j.h.b.m.m.Z.Z.Z.6XBXDXDXIXIXIXGXGXGXFXHXHXHXHXHXFXHXHXHXDXGXGXGXGXDXPXPXUXUXcX} ~ 9 5 3 3 3 3 4 4 4 4 4 4 4 4 4 4 4 4 6 6 6 6 6 6 6 6 6 6 6 6 6 6 6 6 6 6 6 6 6 4 4 6 6 4 4 4 6 6 6 6 6 6 6 6 6 6 6 6 4 4 4 4 4 4 4 4 4 4 4 4 4 4 4 4 4 4 4 4 4 3 3 3 3 3 3 3 3 3 3 3 3 3 3 3 3 3 3 3 3 3 3 3 3 3 > > > > > > > > > > > > > > > , 9 u u Y U ..@.jXVXZXZXZXCXCXCXuXuX6X5X-X+X%X>X+X+X+X+X+X+X+X).`.`./.[.oXoX2.2.1.1.1.1.1./././././././.`._._.-X-X-X_._.`.`.`.`._.`.`././.`. X X[.[.1.1.1.4.[.[. X X}.|.|.|.|.|.|.|.|.|.|..X|.|.|.|..X.X.X.X.X.X{.{.{.{.5.5.5.5.5.5.6.7.7.7.7.q.q.q.q.q.q.q.0.0.0.0.0.0.p.p.e.e.e.e.e.e.e.e.u.u.u.u.t.t.t.t.r.r.gXgXgXgXfXfXfXlXfXxXxXxXxXxXxXxXxXR.R.~.~.~.I.I.",
"$X&X<X<X:X,X>X%X@XF.M.n.z.b.b.n.m.B.C.F.5X5XpXpXyX5XOXV.B.B.B.B.B.B.B.V.F.F.F.F.OXOX@X@X@X@X@X@X@X@X@X@X@XOXOXOXOXOXF.F.F.F.H.H.H.B.B.B.B.m.m.m.m.b.b.h.h.h.h.h.h.h.h.h.h.h.h.h.h.h.h.h.h.h.k.k.k.k.j.j.j.j.j.k.j.h.h.b.Z.Z.S.S.6XBXDXPXUXIXIXIXGXGXGXFXHXHXHXHXFXHXHXHXGXGXGXGXGXDXIXIXJXUXKXT.` t 5 3 3 3 3 4 4 4 4 4 4 4 4 4 4 4 4 6 6 6 6 6 6 6 6 6 6 6 6 6 6 6 6 6 6 6 6 6 4 4 4 4 6 6 6 6 6 6 6 6 6 6 6 6 6 6 6 4 4 4 4 4 4 4 4 4 4 4 4 4 4 4 4 4 4 4 4 4 3 3 3 3 3 3 3 3 3 3 3 3 3 3 3 3 3 3 3 3 3 3 3 3 > > > > > > > > > > > > > > > , 1 q u N Y U O.dXcXJXZXZXZXBXCXCXkXoX].'.'.`.%X%X+X+X+X+X+X+X(.).).)./.[.oX7.2.2.2.2.1.1.1./././././.`.`._.-X-X-X-X-X-X_.`.`.`._.-X_._._.-X9X7X9X X[./.1.1.1.[. X}.}.}.7X7X7X7X7X7X7X|.|.|.|.|.|.|..X.X.X.X.X.X.X{.{.{.{.{.{.5.5.5.5.5.6.7.7.,.,.,.q.q.q.q.q.q.0.0.0.0.p.f.f.e.e.e.e.e.e.e.e.u.u.u.u.u.t.t.t.t.t.r.r.gXgXgXfXfXfXxXxXxXxXxXxXxXxXxXxXxXR.R.~.~.E.",
"$X&X<X:X,X>X#XOXB.M.x.z.z.b.b.z.z.n.n.B.C.5X6XaX5X(.N.M.n.n.m.m.B.B.V.F.F.F.F.F.OXOX@X@X@X@X@X@X@X@X@X@X@X@XOXOXOXOXF.F.F.F.H.H.H.B.B.B.B.B.m.m.m.n.b.h.h.h.h.h.j.h.h.h.h.h.h.h.h.h.h.h.h.h.j.j.k.k.j.j.j.j.k.k.k.k.k.Z.S.S.S.S.BXBXPXPXUXIXIXIXGXGXGXFXFXFXHXHXHXHXFXFXGXGXGXGXGXGXIXIXJXUXKXxX` t 5 3 4 3 3 4 4 4 4 4 4 4 4 4 4 4 4 6 6 6 6 6 6 6 6 6 6 6 6 6 6 6 6 6 6 6 6 6 4 4 4 4 6 6 6 6 6 6 6 6 6 6 4 4 6 6 6 4 4 4 4 4 4 4 4 4 4 4 4 4 4 4 4 4 4 4 4 4 3 3 3 3 3 3 3 3 3 3 3 3 3 3 3 3 3 3 3 3 3 3 3 3 > > > > > > > > > > > > > > , , 8 t u N Y Y +.jXJXJXZXZXZXkXZXkXkXkX].].'.'.-X-X+X+X+X+X+X+X(.).).^./.'.oX7.3.;.2.2.2.1.1./././././.`._.-X-X-X-X-X-X-X-X-X_.-X-X=X-X-X=X=X=X=X9X X X/.1.1./.[. X}.7X7X7X7X7X7X7X7X7X7X|.|.|.|.|.|..X.X.X.X.X.X.X{.{.{.{.{.{.{.{.5.5.5.5.6.6.7.,.,.,.q.q.q.q.q.q.0.0.p.f.f.u.e.e.e.e.e.e.e.e.e.e.e.u.i.t.t.t.t.t.t.r.r.gXgXgXgXlXxXxXxXxXxXxXxXxXxXxXxXxXxXR.~.~.",
"$X%X%X>X#X$XF.B.n.z.z.z.z.z.z.z.z.z.x.x.M.C.5X5XV.M.x.M.n.n.n.n.B.B.V.F.F.F.F.F.OXOX@X@X@X@X@X@X@X@X@X@X@X@X@XOXOXOX@XF.F.F.H.H.H.B.B.B.B.B.m.m.m.b.b.h.h.h.h.h.j.j.h.h.h.h.h.h.h.h.h.h.h.h.j.j.j.k.k.k.k.k.k.k.k.k.k.D.S.S.S.K.R.BXDXPXPXIXIXIXGXGXGXFXFXFXFXFXFXFXFXFXFXGXGXGXGXGXIXIXJXUXKXxX` t 5 3 4 4 3 4 4 4 4 4 4 4 4 4 4 4 4 6 6 6 6 6 6 6 6 6 6 6 6 6 4 4 6 6 6 6 6 6 6 6 4 6 6 6 4 4 6 6 4 4 4 4 4 4 6 6 6 4 4 4 4 4 4 4 4 4 4 4 4 4 4 4 4 4 4 4 4 4 3 3 3 3 3 3 3 3 3 3 3 3 3 3 3 3 3 3 3 3 3 3 3 3 > > > > > > > > > > > > > , , , 8 u u Y Y U @.cXJXJXZXZXZXZXbXkXkXkXkX].].'.`.`.+X+X+X+X+X(.(.).).^./.4.7.7.>.>.;.;.2.2.1.1.1.1././.`.-X-X-X-X-X-X-X-X=X-X-X-X=X=X=X=X=X=X*X9X9X}. X/.1.1./. X}.7X7X7X9X7X7X7X7X7X7X7X7X|.|.|.|.|.|..X.X.X.X.X.X.X{..X{.{.{.{.{.5.5.5.5.5.6.6.7.,.,.,.q.q.q.q.q.0.p.p.f.u.u.t.e.e.e.e.e.e.e.e.e.e.e.i.t.t.t.t.t.t.t.r.gXgXgXzXzXxXxXxXxXxXxXxXxXxXxXxXxXVXxXR.R.",
"+X%X%X%X#XF.B.n.z.z.z.z.h.z.z.z.c.z.z.x.x.N.(.5XN.v.M.M.n.x.n.m.B.B.V.F.F.F.F.F.OXOX@X@X@X@X@X@X@X@X@X@X@X@X@X@XOXOX@XOXF.F.H.H.H.B.B.B.B.B.m.m.m.b.b.h.h.h.h.h.j.j.j.j.h.h.h.h.j.h.h.h.h.h.j.j.j.j.k.k.k.k.k.k.k.l.l.l.D.S.S.K.K.BXBXDXPXPXIXGXGXGXFXHXFXFXFXFXHXFXFXFXFXGXFXFXGXGXIXPXJXUXKXlX` t 3 3 4 4 3 4 4 4 4 4 4 4 4 4 4 4 4 6 6 6 6 6 6 6 6 6 6 6 6 6 4 4 6 6 6 6 6 6 6 6 6 6 4 4 4 4 4 4 4 4 4 4 4 4 6 6 6 4 4 4 4 4 4 4 4 4 4 4 4 4 4 4 4 4 4 4 4 4 3 3 3 3 3 3 3 3 3 3 3 3 3 3 3 3 3 3 3 3 3 3 3 3 > > > > > > > > > > > > , , , > 8 u u Y Y U dXJXJXJXJXJXJXZXbXhXhXhXkX].].'.`.`.+X+X+X+X+X(.(.).).^./.4.7.7.>.>.;.;.2.2.1.1.1.<./.`._.-X-X-X-X-X*X=X=X=X=X=X=X=X=X*X*X1XwX9X9X9X}. X/.1.1./. X}.9X7X7X9X7X9X9X9X7X7X7X7X|.|.|.|.|.|..X.X.X.X.X.X.X.X.X.X{.{.{.{.{.{.{.{.5.5.6.6.,.,.,.,.,.q.q.q.p.p.p.s.u.u.t.e.e.e.e.e.e.e.e.e.e.e.e.t.t.t.t.t.t.t.t.r.gXhXzXzXxXxXxXxXxXxXxXxXcXxXxXxXVXVXVXVX",
"+X$X$XF.B.n.n.x.z.z.z.j.z.z.z.z.h.z.z.z.x.n.C.C.M.M.n.n.n.n.M.B.B.V.F.F.F.F.F.F.OX@X@X@X@X@X@XOX@X@X@X@X@X@X@X@X@X@X@XF.F.F.H.H.B.B.B.B.B.B.B.m.m.b.b.h.h.h.j.j.j.j.j.j.h.h.z.z.z.z.h.h.j.j.j.j.b b v k.k.l.l.l.l.l.l.l.l.D.D.K.~.BXBXBXDXDXDXGXFXFXFXHXFXpXpXpXFXFXHXFXFXFXFXGXGXGXGXIXPXUXKXlX` 9 4 4 3 3 4 4 3 3 4 4 4 4 3 3 4 4 4 4 4 6 6 6 6 6 6 6 6 6 6 6 6 6 6 6 6 6 6 6 6 6 6 6 6 4 4 4 4 4 4 4 4 4 4 4 6 6 6 6 6 6 6 6 4 4 4 4 4 3 3 3 4 4 4 4 4 4 4 4 3 3 3 3 3 3 3 3 3 3 3 3 3 3 > > > > 3 3 3 3 3 > 3 > > > > > , , > > > , , , , , q u u } Y ..gXKXJXJXJXmXmXmXmXnXhXt.y.y.y.].'.`.).).+X+X+XOX(.).^.^./.3.7.,.>.:.:.;.;.2.2.1.1./././.`.`._.-X-X-X-X-X-X=X*X*X*X*X*X1X1X1X1X<X*X*X}. X/.1././. X X9X9X9X9X9X9X9X9X9X9X7X7X|.|.|.|.|.|.|..X.X.X.X.X.X.X|..X.X.X{.{.{.{.{.5.5.5.5.6.6.7.7.7.,.q.q.a.a.p.s.u.zXi.r.i.i.u.u.f.e.e.e.e.e.e.e.e.e.e.e.u.t.t.t.t.hXhXzXzXzXzXzXzXzXcXcXcXcXcXcXcXVXVXVXVX",
"(.OXF.B.n.z.z.z.z.z.z.h.h.z.z.z.z.z.z.z.x.n.M.V.M.M.n.n.n.n.M.B.V.V.F.F.F.F.F.F.@X@X@X@X@X@X@X@X@X@X@X@X@X@X@X@X@X@X@XOXF.F.F.H.H.H.B.B.B.B.B.m.m.b.b.b.h.h.h.j.j.j.j.j.j.z.z.z.z.z.z.z.c.j.j.j.j.j.j.k.k.l.l.l.l.l.l.l.l.l.D.K.~.BXBXBXDXDXDXHXFXHXHXpXpXpXpXpXpXHXHXFXFXFXFXGXGXGXGXIXPXUXKXlX` 9 4 6 4 3 4 4 3 3 4 4 4 4 3 3 4 4 4 4 4 6 6 6 6 6 6 6 6 6 6 6 6 6 6 6 6 6 6 6 6 6 6 6 6 4 4 4 4 4 4 4 4 4 4 4 6 6 6 6 6 6 6 6 4 4 4 4 4 3 3 3 4 4 4 4 4 4 4 4 3 3 3 3 3 3 3 3 3 3 3 3 3 3 > > > > 3 3 3 3 3 > 3 > > > > > > , > > , , , , , , q u u } Y O.xXKXKXJXJXZXmXmXmXnXhXt.e.y.y.3.'.'.).).(.OXOX+X(.(.^.^.1.3.7.,.>.:.:.;.;.2.2.1.1././.`.`.`.`.-X-X-X-X-X*X*X*X*X*X*X1X1X1X1X1X<X*X*X9X_./.1././.}.}.9X9X9X9X9X9X9X9X9X9X7X7X|.|.|.|.|.|.|.|..X.X.X.X.X.X|..X.X.X{.{.{.{.{.5.5.5.5.5.6.6.7.7.7.q.a.a.a.s.u.zXzXr.r.r.u.u.u.f.e.e.e.e.e.e.p.p.e.e.u.u.t.t.t.t.hXzXzXzXzXzXzXzXcXcXcXcXcXcXcXcXVXVXVXcX",
"V.V.B.n.z.z.z.z.z.z.h.h.h.h.h.h.z.z.z.z.x.x.M.C.M.M.n.n.M.M.B.B.F.F.F.F.OXOX@X@XOX@X@X@X@X@X@X@X@X@X@X@X@X@X@X@X@X@X@XF.F.F.F.F.H.H.B.B.B.B.B.m.m.m.b.b.h.h.j.j.j.j.j.j.j.c.z.z.x.x.c.c.z.c.h.j.j.j.j.k.l.l.l.l.S.S.l.l.l.l.D.E.~.R.BXBXBXDXHXCXuXuXuXuXaXpXpXpXpXpXHXHXFXFXFXGXGXGXGXIXPXUXKXlX} t 4 4 3 3 3 4 3 3 3 3 4 4 4 3 4 4 4 4 4 6 6 6 6 6 6 6 6 6 6 6 6 6 6 6 6 6 6 6 6 6 6 6 6 4 4 4 6 6 4 4 4 4 4 4 6 6 6 6 6 6 6 6 4 4 4 4 4 4 3 3 4 4 4 4 4 4 4 4 3 3 3 3 3 3 3 3 3 3 3 3 3 3 > > > 3 3 3 3 3 3 > 3 > > > > > , , > > , , , , , , q u N } Y #.cXKXKXJXJXZXbXbXbXbXhXa.e.e.y.3.3.'.).).(.(.OXOX(.(.^.^.1.3.7.>.>.:.:.:.;.2.2.1.1./.).).`.`.`.-X%X%X%X&X%X*X*X<X<X<X1X1X2X2X2X1X*X*X9X_./.1./.`.}.}.9X9X9X9X9X9X9X9X9X9X7X7X7X|.|.|.|.|.|.|.|.|..X.X.X.X.X|..X.X.X{.{.{.{.5.5.5.5.5.6.6.6.7.7.7.a.a.a.t.zXvXlX$.$.r.u.u.u.f.f.p.p.f.f.p.f.p.f.e.e.u.u.u.u.u.zXzXzXzXzXzXzXcXcXcXcXcXcXcXcXcXVXVXcXxX",
"M.n.n.z.z.z.z.z.z.z.h.h.h.h.h.h.z.z.z.z.z.n.M.C.n.n.n.n.M.M.B.V.F.F.F.OXOXOX@X@XOX@X@X@X@X@X@X@X@X@X@X@X@X@X@X@X@X@X@XOXF.F.F.F.H.H.B.B.B.B.B.B.m.m.b.b.h.h.j.j.j.j.b j.j.c.z.x.x.c.c.c.c.z.z.z.c.c.Z.Z.S.S.S.S.S.S.S.S.l.D.E.E.E.R.BXBXBXHXCXuXaXaXaXaXaXaXaXaXpXpXHXHXFXFXFXGXGXGXGXIXPXUXKXlX` t 4 4 4 3 4 4 3 3 3 3 3 4 4 3 4 4 4 4 4 6 6 6 6 6 6 6 6 6 6 6 6 6 6 6 6 6 6 6 6 6 6 6 6 4 4 4 6 4 4 4 4 4 4 6 6 6 6 6 6 6 6 6 4 4 4 4 4 4 4 4 4 4 4 4 4 4 4 4 3 3 3 3 3 3 3 3 3 3 3 3 3 3 > > > 3 3 3 3 3 3 > 3 > > > > > , , > , , , , , 5 5 q u N } } @.cXKXJXJXZXbXbXbXbXbXbXa.p.y.w.3.3.3.).).(.(.(.+X(.).^.^.1.2.,.>.>.:.>.>.2.2.1.1././.).).).).+X%X%X&X%X%X%X>X>X1X>X:X1X1X:X4X2X<X*X=X-X`./.1./._.}.7X9X9X9X9X9X9X9X9X9X9X9X7X7X7X|.|.|.|.|.|.|.|.|.|..X.X.X.X.X.X.X.X{.{.{.{.5.5.5.5.5.5.6.6.7.7.a.a.hXzXcXvXlX$.$.lXu.u.u.u.f.f.f.f.p.f.f.p.f.p.f.f.u.u.u.u.zXzXzXzXzXzXcXcXcXcXcXcXcXcXcXcXVXcXcXxX",
"z.z.z.h.h.h.z.h.z.h.h.h.h.h.h.h.h.z.z.z.z.x.M.C.n.n.n.n.M.B.B.V.F.F.F.OXOXOX@X@XOX@X@X@X@X@X@X@X@X@X@X@X@X@X@X@X@X@X@XOX@XF.F.F.H.F.B.B.B.B.B.m.m.m.b.b.h.h.j.j.j.b b b j.z.x.x.x.c.c.c.z.c.c.z.Z.Z.Z.S.S.A.A.A.A.A.E.S.D.S.S.E.K.BXBXBXHXHXuXuXaXaXyXyXyXyXyXyXiXpXpXFXFXFXFXGXGXGXGXIXPXUXKXlX` 9 4 6 4 3 4 4 3 3 3 3 3 4 3 3 4 4 4 4 4 6 6 6 6 6 6 6 6 6 6 6 6 6 6 6 6 6 6 6 6 6 6 6 6 4 4 4 6 6 4 4 4 4 6 6 6 6 6 6 6 6 6 6 6 6 4 4 4 4 4 4 4 4 4 4 4 4 4 4 3 3 3 3 3 3 3 3 3 3 3 3 3 3 3 > > 3 3 3 3 3 3 > > > > > > > , , , , , , , , 1 1 y u N Y U dXcXKXJXZXZXbXbXkXbXbXbXa.a.q.w.3.3.3.'.).).).(.(.).).`./.<.2.3.>.:.:.>.;.2.<.<.^.^.).(.(.+X+X+X%X%X&X%X>X>X>X,X:X:X:X,X:X:X4X1X<X*X*X_.`./.1./._.}.7X9X9X9X9X9X9X9X9X9X9X9X9X7X7X7X7X|.|.|.|.|.|.|.|..X|.|.|.|..X.X.X{.{.{.{.{.{.5.5.5.5.5.6.7.7.a.a.hXzXvXvXW.$.*.lXu.u.u.u.u.f.f.f.p.p.p.p.p.p.f.f.u.u.u.u.u.zXzXzXzXzXcXcXcXcXcXcXcXcXcXcXcXcXcXxX",
"j.j.h.h.h.z.z.h.z.z.h.h.h.h.h.h.z.z.z.z.z.n.M.M.n.n.n.m.M.B.B.F.F.F.OXOXOX@X@X@XOX@X@X@X@X@X@X@X@X@X@X@X@X@X@X@X@X@X@XOX@X@XF.F.H.F.B.B.B.B.B.B.B.m.n.b.b.h.j.j.j.j.b b b j.z.n.x.x.x.x.c.x.c.Z.Z.Z.S.A.A.A.A.A.U.U.E.S.S.S.S.S.K.K.6X6XuXuXaXaX0X0X0X0X0X8XyXyXtXiXpXFXFXFXFXFXGXGXGXIXPXUXKXlX` 9 4 6 4 3 4 4 3 3 3 3 3 3 3 3 4 4 4 4 4 6 6 6 6 6 6 6 6 6 6 6 6 6 6 6 6 6 6 6 6 6 6 6 6 4 4 4 6 6 4 4 4 4 6 6 6 6 6 6 6 6 6 6 6 6 6 4 4 4 4 4 4 4 4 4 4 4 4 4 3 3 3 3 3 3 3 3 3 3 3 3 3 3 > > > 3 3 3 3 3 3 > > > > > > > , , , , , , , , 1 2 q u N Y U dXJXJXZXZXCXCXkXkXbXbXbXbX7.,.3.3.3.3.'.'.^.^.).+X-X`.`.^.<.2.3.>.>.>.>.2.<.<.^.^.).).+X+X+X+X+X#X&X&X>X>X>X>X,X:X:X:X,X,X4X4X:X<X*X=X_././././.}.}.}.9X9X9X9X9X9X9X9X9X9X9X9X7X7X7X7X|.|.|.|.|.|.|.|..X|.|.|.|..X.X.X.X{.{.{.{.{.{.{.5.5.5.5.5.7.bXbXhXhXvXvXW.*.lXvXu.u.u.u.u.u.f.f.p.p.p.p.p.p.f.f.f.f.u.s.u.u.zXzXzXzXcXmXcXcXcXcXcXcXcXcXcXcXcXxX",
"b j.h.h.h.z.z.z.h.z.z.z.z.z.h.h.z.z.z.z.z.n.n.M.n.n.n.m.B.B.V.F.F.OXOXOX@X@X@X@X@X@X@X@X@X@X@X@X@X@X@X@X@X@X@X@X@X@X@XOX@X@XF.F.F.F.B.B.B.B.B.B.B.m.n.b.b.h.h.j.j.j.b b b j.z.n.x.x.x.x.x.x.x.Z.Z.S.A.A.A.A.A.A.U.U.E.S.S.S.S.S.S.K.6X6X6XaX0X0X8X8X8X8X8X8X8X8XyXiXpXpXFXFXFXFXGXGXGXPXPXUXKXgX` 9 4 7 4 3 4 4 3 3 4 4 3 4 3 3 4 4 4 4 6 6 6 6 6 6 6 6 6 6 6 6 6 6 6 6 6 6 6 6 6 6 6 6 6 4 4 4 6 6 4 4 4 6 6 6 6 6 6 6 6 6 6 6 6 6 6 6 4 4 4 4 4 4 4 4 4 4 4 4 3 3 3 3 3 3 3 3 3 3 3 3 3 3 > > > 3 3 3 3 3 3 > > > > > > > , , , , , , , , 2 q u u Y Y R kXJXPXZXZXCXCXuXoXCXCXbXbX7.7.3.3.3.3.'.'.^.^.`.=X-X`.^.^.<.3.7.>.>.>.2.2.<.^.^.).(.OXOXOX$X#X#X#X#X#X>X>X>X>X>X,X:X:X,X,X1X1X1X*X*X-X_./.1./.[. X}.}.9X9X9X9X9X9X9X9X9X9X9X9X9X7X7X7X|.|.|.|.|.|.|.|.|.|.|.|.|..X.X.X.X.X{.{.{.{.{.{.5.5.5.5.5.7.bXhXhXgXxXxXW.W.vXvXu.u.u.u.u.u.u.f.f.p.p.p.p.f.f.f.f.f.f.s.s.s.nXnXzXnXmXmXcXcXcXcXcXcXcXcXcXcXcXcX",
"j.j.h.h.h.z.z.z.h.z.z.z.z.z.h.h.z.z.z.z.z.n.n.n.M.n.m.m.B.B.F.F.OXOXOX@X@X@X@X@X@X@X@X@X@X@X@X@X@X@X@X@X@X@X@X@X@X@X@XOX@XG.F.F.F.F.B.B.B.B.B.B.B.m.n.b.b.h.h.j.j.j.j.b b j.z.n.x.x.x.x.x.v.Z.Z.Z.S.A.A.A.U.A.A.U.U.E.E.S.S.S.S.S.K.6X6X6XaX0X0X8X8X8X8XqXrXrXrX8XtXpXpXFXFXFXFXGXGXGXPXPXUXKXgX` t 7 7 4 3 4 4 3 3 4 4 4 4 3 3 4 4 4 4 4 6 6 6 6 6 6 6 6 6 6 6 6 6 6 6 6 6 6 6 6 6 6 6 6 4 4 4 6 6 4 4 4 4 6 6 6 6 6 6 6 6 6 6 6 6 6 6 4 4 4 4 4 4 4 4 4 4 4 4 3 3 3 3 3 3 3 3 3 3 3 3 3 3 > > > 3 3 3 3 3 3 > > > > > > > , , , , , , , , 1 q u N Y U E kXZXZXCXCXCXoXuXuXCXCXbXbX3.3.3.3.3.].'.'.^.).-X0X-X).^.^.<.3.7.>.>.>.2.<.^.).).(.(.OX@X@X@X#X#X#X#X#X>X>X>X>X,X,X:X>X,X,X1X1X1X*X-X-X`./.1./.[. X}.}.9X9X9X9X9X9X9X9X9X9X9X9X9X7X7X7X|.|.|.|.|.|.|.|.|.|.|.|.|.|..X.X.X.X.X{.{.{.{.{.{.5.5.5.5.oXbXhXgXdXxXQ.W.W.vXvXzXi.i.u.u.u.u.f.f.p.f.p.p.f.f.f.f.f.f.s.s.s.s.nXnXnXnXmXcXcXmXcXcXcXcXcXcXcXcXcX",
"b j.h.h.h.h.z.z.z.z.z.z.z.z.z.z.z.z.b.b.n.n.n.m.B.M.m.m.B.C.F.F.OXOX@X#X#X+X@X@XOXOXOXOXOXOXOXOXOXOXOXOX@X@X@X@X@X@X@X@X@XF.F.F.G.H.H.B.B.B.m.m.m.m.m.m.b.b.h.h.j.j.j.b b b c.x.x.v.v.v.v.v.Z.'.].3.3.3.y.@.+.+.U.U.E.S.S.S.S.Z.Z.Z.'.5X5X0X0X0X9X9X9X8X8X8XqXqXrXtXiXpXpXFXFXFXFXGXDXPXPXUXKXxX| ~ Q 7 6 4 6 6 4 4 4 4 4 4 4 4 4 4 4 4 4 4 4 4 6 6 6 6 6 6 6 6 6 6 6 6 6 6 6 6 7 7 6 6 6 6 6 6 6 6 6 6 4 4 4 4 6 6 6 6 6 4 4 4 4 4 4 4 4 4 4 4 4 4 4 4 4 4 4 3 3 3 3 3 3 3 3 3 3 3 3 3 3 3 > > > 3 3 3 3 3 3 > > > > > > , , , , , , 2 , , 1 q u u U U E kXGXGXCXCXuXuXoXoXuXuXoXoX].3.3.3.3.3.'././.|.0X`.^.v.).L <.3.3.>.3.2.<.^.^.).(.OXF.F.G.G.@X@X;X;X;X;X;X;X,X,X,X>X>X>X:X4X4X>X>X*X-X`./.1.1.1.[. X X X_._.9X9X9X9X9X9XwX9X9X9X9X7X7X7X7X7X7X|.|.|.|.|.|.|..X.X.X.X.X.X.X.X.X.X{.{.{.{.{.{.{.{.5.XXbXhX@.W.Q.Q.Q.Q.vXvXlXlXlXlXzXu.u.f.f.f.0.0.0.f.f.p.f.f.f.f.s.s.s.s.nXnXnXnXmXcXcXcXcXcXcXcXcXcXcXcX",
"b j.h.h.h.h.h.z.z.z.z.z.z.z.z.z.z.z.b.b.n.n.n.n.n.n.m.m.B.B.F.OXOXOXOX#X#X#XOXOXOXOXOXOXOXOXOXOXOXOXOXOX@X@X@X@X@X@X@X@X@XF.F.F.F.H.H.B.B.B.m.m.B.m.m.m.b.b.h.h.j.j.j.b b j.z.x.v.v.N.v.v.Z.'.'.3.3.3.3.y.y.@.+.+.U.A.S.S.S.Z.Z.Z.Z.).).=X0X9X8X9X8X8X8X8X8X8XqXrXtXiXpXpXFXFXFXFXGXDXPXPXUXKXxXo.~ Q Q 6 4 6 6 4 4 4 4 4 4 4 4 4 4 4 4 4 4 4 4 6 6 6 6 6 6 6 6 6 6 6 6 6 6 6 6 7 7 6 6 6 6 6 6 6 6 6 6 4 4 4 4 6 6 6 6 6 4 4 4 4 4 4 4 4 4 4 4 4 4 4 4 4 4 3 3 3 3 3 3 3 3 3 3 3 3 3 3 3 3 > > > 3 3 3 3 3 3 > > > > > > , , , , , , 2 , , 1 q u u U U +.BXGXGXCXCXuXuXoXoXoXoXoXXX4.4.4.1.2.2.1./. X|.}.^.^.^.^.<.2.3.3.3.2.<.^.^.N.V.F.F.G.G.G.G.G.@X@X;X;X;X;X;X>X;X>X>X>X>X>X>X>X,X%X-X_._./.1.1.4.XXXXXX X|.7X9X9X*X9X9X9XeXwX9X9X9X9X7X7X7X7X7X|.|.|.|.|.|.|.|..X.X.X.X.X.X.X.X.X.X{.{.{.{.{.{.{.{.XXkXsX#.T.Q.Q.Q.Q.Q.W.lXlXlXlXlXu.u.u.e.f.f.0.f.f.f.f.f.f.f.s.s.s.s.s.nXnXnXnXmXmXcXmXcXmXcXcXcXcXcXcX",
"b j.j.h.h.h.z.z.z.z.z.z.z.z.z.z.b.b.b.n.n.n.n.n.n.n.n.m.B.V.F.OXOXOXOX&X,X&X$XOXOXOXOXOXOX@XOXOXOXOXOXOXOXOX@X@X@X@X@X@X@XOXF.F.F.F.H.B.B.B.m.m.m.m.m.m.m.b.z.h.j.j.j.b b b c.x.v.N.N.v.v.'.'.].3.3.3.y.y.y.#.+.E A.A.S.S.Z.Z.Z.v.N.).).-X9X9X9X9X9X8X8X8X8X8X8XqXyXiXpXpXFXFXHXFXGXDXPXPXUXUXcX$.' ! Q 6 4 6 6 4 4 4 4 4 4 4 4 3 4 4 4 4 4 4 4 6 6 6 6 6 6 6 6 6 6 6 6 6 6 6 6 6 6 6 6 6 6 6 6 4 4 6 6 4 4 6 4 6 6 6 6 6 4 4 4 4 4 4 4 4 4 4 4 4 4 4 4 4 3 3 3 3 3 3 3 3 3 3 3 3 3 3 3 3 3 > > > 3 3 3 3 3 3 > > > > > , , , , , , , , , , 2 t u u Y R sXZXGXFXAXCXuXaXaXaXoXoXXXXX[./.4.4.4.2.1.[.XX X/.^.v.^.<.<.2.3.3.2.<.^.N.N.V.F.G.G.G.G.G.G.G.G.@X;X;X;X;X;X;X;X;X>X>X>X:X>X%X&X%X`.`./.1.1.1.oXoXoXaXaXaX0X0X-X*XwXeXwXeXwX9X9X9X9X9X9X7X7X7X7X|.|.|.|.|.|.|..X.X.X.X.X.X.X.X.X.X.X{.{.{.{.{.{.5.oXkXsXX.o.W.Q.Q.Q.Q.&.W.Q.Q.lXlXlXu.u.u.f.f.f.f.f.f.f.f.f.f.f.s.s.s.nXnXnXnXnXmXmXmXmXmXmXmXmXcXcXcXcX",
"b j.j.h.h.h.z.z.z.z.z.z.z.z.z.z.b.b.b.n.n.n.n.n.n.n.m.m.B.V.F.OX+X+X+X1XwX3X&XOXOXOXOXOXOX@XOXOXOXOXOXOXOXOXOXOX@X@X@X@X@XOXF.F.F.F.F.B.B.B.m.m.n.m.m.m.n.b.z.z.h.j.j.b b b c.c.v.v.v.v.L <.3.3.3.3.3.y.y.y.#.#.E E A.S.Z.Z.Z.Z.v.N.).).-X9X9X9X9X9X8X8X9X8X8X8XqXyXiXpXpXpXHXHXFXGXDXPXPXUXUXcX*.| ^ Q 6 4 6 6 4 4 4 4 4 4 4 4 3 4 4 4 4 4 4 4 6 6 6 6 6 6 6 6 6 6 6 6 6 6 6 6 6 7 6 6 6 6 6 6 4 4 4 4 4 4 6 6 6 6 6 6 6 4 4 4 4 4 4 4 4 4 4 4 4 4 4 4 3 3 3 3 3 3 3 3 3 3 3 3 3 3 3 3 3 3 > > > 3 3 3 3 3 3 > > > > > , , , , , , , , , 1 2 q u B Y R sXZXGXHXAXuXaXaX0X0XXXXXXX X[./.4.4.4.4.4.[.[./.^.^.^.v.L <.2.3.2.2.^.^.N.V.F.G.G.G.G.G.G.G.G.G.G.;X;X;X;X;X;X;X>X>X>X>X4X>X#X#X%X`.`.'.'.3.oXbXbXAXAXAXpXaX0X-X*XwXeXwXeXeXeXwX9X9X9X9X7X7X7X7X7X|.|.|.|.|.|.|..X.X.X.X.X.X.X.X.X.X.X{.{.{.{.{.{.oXkXU.X.o.&.Q.Q.Q.{ ' Q.Q.Q.Q.vXlXzXu.s.f.f.f.f.f.f.f.f.f.f.f.s.s.s.nXnXnXnXnXnXmXmXmXmXmXmXmXcXcXcXcX",
"b j.j.h.h.h.z.z.z.z.z.z.z.z.b.b.b.b.n.n.n.n.n.n.m.n.m.B.B.F.OX$X+X+X%XeXtXtX1X+XOXOXOXOXOX@X@X@XOXOXOXOXOXOXOXOXOXOXOX@X@X@XF.F.F.F.F.B.B.m.m.m.n.m.m.n.n.b.z.z.h.j.j.b b b c.x.v.v.^.^.<.2.3.3.3.3.3.w.w.w.w.w.E E A.S.Z.Z.x.v.v.).).`.9X0X8X8X8X8XyX8X8X8X8XyXyXyXaXpXpXFXHXHXFXGXDXPXPXUXUXVXW.| ^ Q 6 4 6 4 4 4 4 4 4 4 4 4 3 3 4 4 4 4 4 4 6 6 6 6 6 6 6 6 6 6 6 6 6 6 6 6 6 6 6 6 6 6 6 6 4 4 4 4 6 6 6 6 6 6 6 6 6 4 4 4 4 4 4 4 4 4 4 4 4 4 4 3 3 3 3 3 3 3 3 3 3 3 3 3 3 3 3 3 3 3 > > > 3 3 3 3 3 3 > > > > > , , , , , , , , , 1 w u u Y U E kXZXGXCXpXpXaXaX0XqX.X.XXX X[./.[.1.1.4.4.4.1.<.^.^.^.v.L ^.'.2.2.2.^.^.V.V.F.G.G.G.G.G.G.G.G.G.;X;X;X;X;X;X;X;X;X;X>X;X;X,X#X#X%XyXaXoXoXoXbXbXbXbXbXbXAXuXoX}.9XeXeXwX9XwX8X8X8X8XwX9X9X9X7X7X7X|.|.|.|.|.|.|.|.|..X.X|.|..X.X.X.X.X.X.X{.{.{.[.XX].U.o.o.{ &.Q.{ { { &.Q.Q.Q.Q.vXzXu.s.f.f.0.f.f.f.f.f.f.f.f.s.s.s.nXnXnXnXnXmXmXmXmXnXnXnXcXcXcXcXcX",
"b j.h.h.h.b.z.z.z.z.z.z.b.b.b.b.n.n.n.n.n.n.n.n.n.m.B.V.OXOX$X$X%X%X*XeXrXrX1X#XOXOXOXOXOX@X@X@XOXOXOXOXOXOXOXOXOXOXOXOX@X@XF.F.F.F.F.F.B.B.m.m.B.m.m.n.b.b.z.z.z.h.j.b b J c.c.^.^.'.^.2.3.3.3.3.3.3.w.w.w.w.w.E E S.Z.Z.x.x.v.v.).).`.0XyXyXyXyXyXyXyXyXyXyXtXyXaXaXpXpXFXFXFXFXGXDXPXPXPXUXKXW.| ! Q 6 6 6 4 4 4 4 4 4 4 4 4 3 3 4 4 4 4 4 4 6 6 6 6 6 6 6 6 6 6 6 6 6 6 6 6 7 7 6 6 6 6 6 6 4 4 4 4 6 6 6 6 6 6 6 6 6 4 4 4 4 4 4 4 4 4 4 4 4 4 3 3 3 3 3 3 3 3 3 3 3 3 3 3 3 3 3 3 3 3 > > > 3 3 3 3 3 3 > > > > > , , , , , , , 1 , 1 w u u Y R +.kXZXHXCXpXaXaXaX0XqXqX.XXX[./././.1.1.4.4.1.1././.`.^.v.<./.'.2.2.<.^.N.V.F.F.G.G.G.G.G.G.G.G.G.G.;X;X;X;X;X;X;X;X;X;X;X#X&X+X+X=XiXpXAXbXbXbXnXnXnXbXbXbXbXoXXX_.9XwXwX9X9X9X8X8XwXwX9X9X9X7X7X7X7X|.|.|.|.|.|.|.|.|.|.|.|..X|..X.X.X.X.X{.{.{.[.XX].U.o.o.{ { { { { { { Q.Q.Q.Q.vXzXu.s.f.f.0.p.f.f.f.f.f.f.f.d.s.s.nXnXnXnXnXnXnXnXnXnXnXnXnXmXcXcXcX",
"j.j.h.z.b.b.b.n.x.x.b.b.b.b.b.b.b.b.n.n.n.n.n.n.B.B.F.OX#X#X#X#X+X#X%XeXeXwX%X+XOXOXOXOX@X@X@X@XOXOXOXOXOXOXOXOXOXOX@X@X@X@XF.F.F.F.F.F.B.B.m.n.B.B.m.n.b.b.z.z.z.z.c.c.J J J v.^.'.'.'.2.3.3.3.3.3.3.3.3.y.y.y.E E S.Z.Z.v.v.v.v.).).`.0XiXiXaXiXiXaXaXiXaXiXiXaXaXuXpXHXFXFXFXGXGXDXPXPXPXUXKXlX| ! Q 7 4 4 4 4 4 4 4 4 4 4 4 3 4 4 4 4 4 4 4 6 6 6 6 6 6 6 6 6 6 6 6 6 6 6 6 7 7 6 6 6 6 6 6 6 6 4 4 4 4 4 4 6 6 6 6 6 4 4 4 4 4 4 4 4 4 4 4 4 3 3 3 3 3 3 3 3 3 3 3 3 3 3 3 3 3 3 3 3 3 > > > 3 3 3 3 3 > > > > > > > , , , , , , , 1 1 r u u Y R U.kXZXCXCXaXaXaXaX0XXX.X.XXX X[././.1.1.4.1.1.1././.`.^.^.<./.1.2.2.<.^.V.F.F.G.G.G.G.G.G.G.G.G.G.G.G.@X@X@X;X;X;X#X#X;X>X#X+X).).0XaXAXbXbXbXnXnXnXnXnXbXbXbXoXXX_.9XwX9X9X9X9X9X9X9X9X9X9X7X7X7X7X7X|.|.|.|.|.|.|.|.|.|.|.|.|.|..X.X.X.X.X{.{.{.[.XX].U.X.o.{ { { ] ] { { &.Q.Q.W.lXu.u.f.f.f.0.f.f.f.f.f.f.f.d.d.d.s.nXnXnXnXnXnXnXnXnXnXnXnXnXmXmXcXcX",
"j.h.z.b.b.b.n.n.n.n.n.b.b.b.b.b.b.b.n.n.n.n.n.n.V.F.$X&X,X&X#X+X$X+X%X<XwX<X#XOX+XOXOXOX@X@X@X@XOXOXOXOXOXOXOXOXOXOXOX@X@X@XF.F.F.F.F.F.H.B.m.m.C.B.m.b.b.b.x.x.x.c.c.c.c.J c.v.^.'.'.'.2.3.3.3.3.3.3.3.3.3.y.y.E E A.Z.Z.v.v.v.^.).)._.0XiXaXaXpXpXpXpXpXpXpXpXpXpXuXHXHXFXFXFXGXGXGXIXPXPXUXKXlX| ^ Q 7 6 4 3 4 4 4 4 4 4 4 4 4 4 4 4 4 4 4 4 6 6 6 6 6 6 6 6 6 6 6 6 6 6 6 6 7 7 6 6 6 6 6 6 6 6 6 4 4 4 4 4 6 6 6 6 6 4 4 4 4 4 4 4 4 4 4 4 3 3 3 3 3 3 3 3 3 3 3 3 3 3 3 3 3 3 3 3 3 3 > > > 3 3 3 3 3 > > > > > > > , , , , , , , 1 1 r u t Y R U.kXZXCXCXaXaXaX0X0XXXXXXXXX[.[.[.[.[.1.4.1.1.<.^.`.`.^.<.2.1.1.2.<.^.(.G.F.G.G.G.G.G.G.G.G.G.G.G.G.G.G.G.@X@X@X@X@X@X;X4X-X).).`.0XuXAXbXbXnXnXnXnXnXnXs.hXbXoXXX`.-X9X9X9X9X-X-X-X9X9X9X9X9X7X7X7X7X}.}.|.|.|.|.|.|.|.|.|.|.|.|..X.X.X.X.X{.{.{.[.XX].A.X.o.{ { { ' { { { &.&.&.W.lXu.s.f.f.f.0.f.f.f.f.f.f.d.d.d.d.s.nXnXnXNXnXnXnXnXnXnXnXnXnXmXmXmXcX",
"j.z.z.z.z.b.n.n.n.n.b.b.b.b.b.z.b.z.z.b.n.n.m.m.F.@X>X%X%X>X&X#X$X&X%X%X%X%X+XOXOXOXOXOXOXOX@X@X@XOXOXOXOXOXOX@XOXOXF.F.F.F.F.F.F.F.F.F.F.B.B.M.F.F.z.n.b.z.z.x.c.c.c.c.J J L L <.<.'.2.2.3.3.3.3.3.3.w.y.y.3.3.E E Z.Z.v.v.v.^.).).`.-XaXiXpXpXpXpXFXFXFXFXFXHXHXHXHXHXHXHXHXFXGXGXGXDXPXPXKXKXlX| ^ Q 6 6 4 4 4 4 4 4 4 4 4 4 4 4 4 4 4 4 4 4 4 6 6 7 7 6 6 4 6 6 6 6 6 6 6 6 6 6 6 6 6 6 6 6 6 6 6 6 6 6 6 6 6 6 6 4 4 4 4 4 4 4 4 4 4 4 4 4 3 3 3 3 3 3 3 3 3 3 3 3 3 3 3 3 3 3 3 3 3 3 3 3 > 3 3 3 3 3 3 > > > > > > , , , 1 1 1 1 1 w t u u N R sXkXCXHXCXaXaXaX0X0X0X.X.X.X X X/./.[.1.1.1.1.<.^.^.^./.1.2.1.1.1.<.^.V.F.F.G.G.G.G.G.G.G.G.G.G.G.G.G.G.G.G.;XG.@X;XOX5XiXyX^.^.<.aXAXbXMXnXnXnXnXnXnXs.u.nXhXkXoXXX}._._.-X9X9X9X9X_.-X9X}.9X9X9X9X7X X X|.7X7X|.|.|.|.|.|.|.|.|..X.X.X.X.X X[.{.[.[.].U.X.o.{ ] ] { { { { { { &.W.zXzXu.f.f.f.f.f.f.f.f.d.d.f.f.d.d.d.d.NXNXNXnXNXnXNXNXnXnXnXnXnXnXzXzX",
"j.z.z.z.z.b.n.z.b.b.b.b.b.b.b.b.z.z.z.n.n.n.m.B.OX#X,X>X>X>X&X#X&X&X%X%X%X#X+XOXOXOXOXOXOXOX@X@X@X@XOXOXOXOXOX@XF.OXF.F.OXF.F.F.F.F.F.F.F.B.B.B.OXF.z.n.n.n.x.n.x.x.c.c.J J L L <.<.'.2.2.3.3.3.3.3.3.y.y.y.y.3.A.A.Z.Z.v.v.v.^.).).`.0XaXiXaXpXpXFXFXFXFXFXFXFXHXHXHXHXHXHXFXFXGXGXGXIXIXUXKXKXlX| ^ Q 6 6 4 4 4 4 4 4 4 4 4 4 4 4 4 4 4 4 4 4 4 6 6 7 7 6 6 4 6 6 6 6 6 6 6 6 6 6 6 6 6 6 6 6 6 6 4 6 6 6 6 6 6 6 6 4 4 4 4 4 4 4 4 4 4 4 4 4 3 3 3 3 3 3 3 3 3 3 3 3 3 3 3 3 3 3 3 3 3 3 3 3 > 3 3 3 3 3 3 > > > > > > , , , 1 1 1 1 1 w t u u N O.kXZXCXCXCXaXaX0X0X0X0X|..X X X X/.[.[.1.1.1.1.<.^.^././.1.2.2.1.2.<.^.V.F.F.G.G.G.G.G.G.G.G.G.G.G.G.G.G.G.G.G.G.@X@XOX5XpXpX0X^.<.AXAXbXMXNXnXnXnXnXnXs.s.u.hXbXoX'./.`._.0X0XyXyX0X0X_._._.7X7X9X}.}.|.|.|.7X7X|.|.|.|.|.|.|.|.|..X.X.X.X.X X[.[.[.[.].U.X.o.] ] ] { { { { { { &.W.zXu.s.f.f.f.f.f.f.f.f.d.d.d.d.d.d.d.d.NXNXNXnXnXnXnXnXnXnXnXnXnXnXzXzX",
"j.z.z.z.z.b.b.z.b.b.b.b.b.b.b.b.b.b.b.b.n.n.B.B.@X;X,X>X>X>X>X#X#X#X%X%X%X+X+XOXOXOXOXOXOXOX@X@X@X@XOXOXOXOXOXOXG.@X@X@X@X@X@XOXF.F.F.F.F.F.B.B.OXOXx.n.b.n.x.x.x.x.x.c.c.L L L <.<.'.2.2.3.3.3.3.3.y.y.y.y.y.3.A.A.Z.Z.v.v.v.^.).`.`.0XaXaXaXpXpXFXFXFXFXFXFXFXFXHXHXHXHXFXFXFXGXGXGXIXIXUXKXKXlX| ^ Q 6 6 4 4 4 4 4 4 4 4 4 4 4 4 4 4 4 4 4 4 4 6 6 7 7 6 6 4 6 6 6 6 6 6 6 6 6 6 6 6 6 6 6 6 4 4 4 6 6 6 6 6 6 6 6 4 4 4 4 4 4 4 4 4 4 4 4 4 3 3 3 3 3 3 3 3 3 3 3 3 3 3 3 3 3 3 3 3 3 3 3 3 > 3 3 3 3 3 3 > > > > > , , , , 1 1 1 1 1 r y u B Y +.kXZXAXCXCXuXaX0X8XqX7X|. X X X[.[.[.[.1.1.1.1.<.^.^././.1.2.2.2.2.<.N.V.F.F.G.G.G.G.G.G.G.G.G.G.G.G.G.G.G.G.G.@XG.@XOX5XpXFXuX'.2.bXbXMXmXNXNXnXnXnXnXnXs.t.nXbXoX'./.'.0XpXpXFXFXpXpXaXaXaXpXiX0X}.}. X|.|.|.|.|.|.|.|.|.|.|.|.|.|..X|.|..X[.[.[.[.[.].].X.o.' ' ' ' { { { { { &.W.zXs.s.f.f.f.f.f.f.f.f.d.d.d.d.d.d.d.d.nXNXnXnXnXnXnXnXnXnXnXnXnXnXnXnX",
"c.c.z.z.z.b.b.b.b.b.b.b.b.b.b.z.b.b.b.b.b.n.B.F.#X>X1X:X:X:X>X%X#X#X#X#X#X+X+XOXOXOXOXOXOXOX@X@X@X@XOXOXOXOXOXOX@X@X@XOX@X@X@X@XG.F.F.F.F.H.F.F.+X$Xn.n.x.n.x.x.x.x.x.c.c.L L L <.^.'.'.'.].].3.3.3.3.y.y.y.E E A.S.Z.Z.v.v.^.).`.`.`.=XaXaXaXpXpXFXFXFXFXGXGXFXFXFXFXFXFXFXGXFXGXGXGXIXIXUXKXKXlX| ^ Q 7 6 4 4 4 4 4 4 4 4 4 4 4 4 4 4 4 4 4 4 4 6 6 7 7 6 6 4 6 6 6 6 6 6 6 6 6 6 6 6 6 6 6 6 4 4 4 6 6 6 6 6 6 6 6 4 4 4 4 4 4 4 4 4 4 4 4 4 3 3 3 3 3 3 3 3 3 3 3 3 3 3 3 3 3 3 3 3 3 3 3 3 > 3 3 3 3 3 3 > > > > > , , , , 1 1 1 1 w r y u B Y U.ZXZXCXCXuXaXaX0XqXqX7X|. X X X[.[.[.[.1.1.<.<.<.<.^.^.1.1.2.2.2.2.<.).V.F.F.F.G.G.G.G.G.G.G.G.G.G.G.G.G.G.G.G.@XG.G.OX5XpXGXGXoX3.].bXMXNXNXNXNXNXnXnXs.s.u.nXbXoX].].oXFXAXFXGXGXGXFXFXSXGXGXFXpX0X_. X|.|.|.|.|.|.|.|.|.|.|.|.|.|.|.|.|..X[.[.[.[.[.].].+.X.' ' ' ' { { { { { &.lXzXs.f.f.f.f.f.f.f.f.f.d.d.d.d.d.d.d.d.nXnXnXnXnXnXnXnXnXnXnXnXnXnXnXnX",
"c.c.z.z.b.b.b.b.b.b.b.b.b.z.z.z.b.b.b.b.n.m.F.$X>X,X:X<X:X:X>X%X%X#X#X#X+X#X+XOXOXOXOXOXOXOX@X@X@X@X@X@X@X@X@X@X@X@XOXOX@X@X;X;X@X@XF.F.F.F.F.F.$X$XM.M.n.M.n.n.x.x.x.c.v.v.L L <.^.'.'.<.].].3.3.3.3.E E E A.A.S.Z.Z.v.v.N.).).`.`.`.-X0XaXaXaXpXpXFXFXGXGXGXGXGXFXFXFXGXGXGXGXGXGXGXDXIXPXKXKXlX| ^ Q 7 6 4 4 4 4 4 4 4 4 4 4 4 4 4 4 4 4 4 4 4 6 6 7 7 6 6 4 6 6 6 6 6 6 6 6 6 6 6 6 6 6 6 6 4 4 6 6 6 6 6 6 6 6 6 4 4 4 4 4 4 4 4 4 4 4 4 4 3 3 3 3 3 3 3 3 3 3 3 3 3 3 3 3 3 3 3 3 3 3 3 3 > 3 3 3 3 3 3 > > > > > , , , , , , 1 8 w r u u N U sXZXSXCXCXuXaXyXqXqXqX|. X X[.[.[.[.[./.1.1.<.<.<.<.<.<.1.1.2.8.2.2.<.).OXOXG.G.G.G.G.G.G.G.G.G.G.G.G.G.G.G.G.G.@XG.@X(.).aXFXGXAX3.3.bXMXMXNXNXNXNXnXnXs.u.s.nXhXkXoXbXAXSXSXSXSXSXSXLXLXLXIXSXSXAXoX[.[.|. X|.|.|.|.|.|.|.|.|.|.|.|.|.|.|..X[.[.[.4.[.].].+.} ` ^ ' ' { { { { ' &.lXnXs.f.f.f.f.f.f.d.d.d.d.d.d.d.d.d.d.s.d.nXnXnXnXnXnXnXnXnXnXnXnXnXnXnX",
"b c.z.z.b.b.b.z.b.b.b.b.b.b.b.b.b.b.b.m.B.F.@X;X>X:X<X<X<X:X>X%X%X%X#X#X+X#X+XOXOXOXOXOXOXOX@X@X@X@X@X@X@X@X@X@X@X@X@X@X@X;X;X,X@X@XF.F.F.F.F.F.$X5XM.M.M.M.M.M.M.x.x.x.v.v.L L L ^.'.'.^.'.].E A.A.A.A.A.A.S.S.Z.K c.c.v.N.).).).`.`.`.0X0X0XaXaXpXFXFXGXGXGXGXGXFXFXGXFXFXGXGXGXGXGXGXIXPXKXKXlX| ^ Q 7 6 4 4 4 4 4 4 4 4 4 4 4 4 4 4 4 4 4 4 4 6 6 7 7 6 6 4 6 6 6 6 6 6 6 6 6 6 6 6 6 6 6 6 4 4 6 6 6 6 6 6 6 6 6 4 4 4 4 4 4 4 4 4 4 4 4 3 3 3 3 3 3 3 3 3 3 3 3 3 3 3 3 3 3 3 3 3 3 3 3 3 > 3 3 3 4 3 3 3 > > > > , , , , , 1 1 1 w y u u B R kXZXAXCXuXuXaX0XqXqXqX|. X X[.[.[.[.[./.1.1.1.<.<.<.<.<.2.2.2.8.2.2.^.N.V.OXG.G.G.G.G.G.G.G.G.G.G.G.G.G.G.G.G.G.@XG.G.OX).aXFXGXSX3.3.bXbXMXNXNXNXNXnXnXs.u.s.u.hXbXbXbXMXLXLXLXMXLXLXLXLXLXLXLXLXSXuXXX X X X X|.|.|.|.|.7X|.|.|.|.|.|.|.|..X[.[.[.4.[.'.].E U ~ ~ ' ' ' { { ' | *.zXnXs.d.f.f.d.d.d.d.d.d.d.d.d.d.d.d.d.s.d.d.s.s.s.s.s.s.nXnXnXnXnXnXnXnX",
"c.x.x.z.z.b.z.z.b.b.b.n.n.n.m.m.B.B.B.F.@X@X;X,X:X:X<X1X1X<X>X%X%X%X#X#X#X#X$XOXOXOXOXOXOXOX@X@X@X@X@X@X@X@X@X@X@X@X@X@X@X@X#X;X@X@XF.F.F.OXOX$X5X5X(.V.M.M.M.N.M.M.v.x.v.L L L L ^.^.^.P P W W A.A.A.A.S.S.S.Z.Z.J J c.v.v.N.).).).).`.0X0X0X0X0XaXpXFXGXGXGXGXGXFXGXGXGXGXGXFXFXGXGXGXIXLXKXKXlX| ^ Q 7 6 4 4 4 4 4 4 4 4 4 4 4 4 4 4 4 4 4 4 6 6 6 7 7 6 6 4 6 6 6 6 6 6 6 6 6 6 6 6 6 6 6 6 4 6 6 6 6 6 6 6 6 6 6 4 4 4 4 4 4 4 4 4 4 4 3 3 3 3 3 3 3 3 3 3 3 3 3 3 3 3 3 3 3 3 3 3 3 3 3 3 > 3 3 3 3 3 3 3 > > > > > , , , , , 1 1 w y u B B +.kXZXCXCXuXuXaX0X7X7X|.|. X[.[.[.[.[.[././.1.1.2.2.2.2.2.2.2.2.2.2.1.<.N.V.OXG.G.G.G.G.G.G.G.G.G.G.G.G.G.G.G.G.G.@XG.@X(.^.aXFXGXSXbX3.bXMXMXMXNXNXNXNXnXs.u.s.s.s.nXmXMXMXMXMXMXMXMXMXMXMXMXMXMXMXLXAXaXXX[.}.}. X|.|.7X7X7X7X7X|.|.|.|.|.|..X[.[.[.4.4.'.3.T T ~ ~ ` ' ' ' ' ' o.lXzXnXs.d.d.d.d.d.d.d.d.d.d.d.d.d.d.d.d.s.d.d.d.s.d.d.s.s.s.s.s.nXnXnXnXs.",
"'.C.n.z.z.b.n.n.b.n.n.m.B.B.C.C.F.F.OX#X;X>X>X:X2X1X<X2X2X1X>X>X%X%X#X#X&X#X$XOXOXOXOXOXOXOX@X@X@X@X@X@X@X@X@X@XOXOXOXOXOXOXOXOXOXOXF.F.OXOX$X$X5XaX5X$XV.V.N.N.N.M.v.v.v.L L L L v.^.v.L Z.W W S.S.S.S.W Z K n c.c.c.c.v.v.N.N.).).).`.0X0X9X7X0XaXpXFXFXGXGXGXFXGXGXGXGXGXGXFXGXGXGXGXIXLXKXKXlX| ^ Q 7 6 4 4 4 4 4 4 4 4 4 4 4 4 4 4 4 4 4 4 6 6 6 7 7 6 6 4 6 6 6 6 6 6 6 6 6 6 6 6 6 6 6 6 4 4 4 6 6 6 6 6 6 6 6 4 4 4 4 4 4 4 4 4 4 4 3 4 3 3 3 3 3 3 3 3 3 3 3 3 3 3 3 3 3 3 3 3 3 3 3 3 > 3 3 3 3 3 3 3 > > > > > , , , , 1 1 1 w y u N B U.ZXZXCXCXuXuXaX0X7X|.|.|. X[.[.[.[.[././././.1.2.2.2.2.2.2.2.2.2.2.1.^.N.V.OXG.G.G.G.G.G.G.G.G.G.G.G.G.G.G.G.G.G.;XG.F.(.^.aXFXGXAXSXbXbXMXLXMXNXNXNXNXnXs.u.s.s.s.nXnXMXMXNXNXNXMXMXMXMXMXMXNXMXMXMXSXAXaX[.}.}. X|.|.7X7X7X7X7X7X7X|.|.|.|..X[.[.[.4.4.'.2.T T l ~ ` | ' ' ' ' *.vXNXnXs.d.d.d.d.d.d.d.d.d.d.d.d.d.d.d.d.d.d.d.d.d.d.d.s.s.s.s.s.s.nXnXnXs.",
"aX5XB.z.b.b.b.n.m.B.F.F.@X#X#X#X&X&X&X>X>X>X>X>X4X2X2X2X<X:X>X>X%X%X#X#X#X#X#X$XOXOXOXOX@XOX@X@XOXOXOXOXOX@XOXOXOX$X#X+XOXOXOXOXOXV.V.V.OX$X5X5XaXpX6X5X).C.C.N.M.v.v.v.v.v.J J J L v.v.v.Z.Z.S.S.S.S.S.Z.n b b j.c.c.c.x.v.v.v.).^.).`.9X9X9X9X9X0XaXpXFXFXGXGXFXFXFXFXFXFXGXGXGXGXGXGXIXPXUXKXlX| ' ^ Q 6 4 4 4 4 4 4 4 4 4 4 4 4 4 4 4 4 4 4 6 6 6 6 6 6 6 6 4 4 4 4 4 4 4 4 6 6 6 6 6 6 6 6 6 6 6 6 6 6 6 6 6 6 6 6 6 4 4 4 4 4 4 4 3 3 3 3 3 3 3 3 3 3 3 3 3 3 3 3 3 3 3 3 3 3 3 3 3 3 > > > 3 3 3 3 3 3 > > > > > , , , , , 1 2 9 u u u B Y kXZXAXAXpXaXaXyX0X7X|.|.|. X X[.[.[.[.[./././.1.<.2.2.2.;.2.2.2.2.1./.^.).(.V.F.F.G.G.G.G.G.G.G.G.G.G.G.G.G.G.G.G.G.F.V.).).'.uXSXSXbXbXbXMXMXMXNXNXNXNXnXnXs.s.s.s.s.nXNXNXNXNXNXNXNXNXNXNXMXMXMXMXMXLXLXAXoX[.[. X7X7X7X7XqX|.|.|.7X|.|.|.|..X[.[.4.4.4.1.1.W T l ( ( ` ' ' _ ' W.vXzXNXd.d.d.d.d.d.d.d.d.d.d.d.d.d.d.d.d.d.d.d.d.d.d.s.s.s.s.s.s.s.s.s.s.s.",
"5X$Xn.z.m.B.C.C.OX@X$X;X;X>X>X>X>X>X>X,X,X1X<X:X:X<X2X2X1X:X>X>X%X%X#X#X#X#X#X#XOXOXOXOXOXOX@X@XOXOXOXOXOXOXOXF.#X>X<X%X+X(.V.V.V.V.V.OX+X&X5XaXFXFXuX5X5XC.N.M.v.v.x.v.v.v.v.v.J L v.v.v.c.Z.Z.Z.Z.Z.k.n b b b j.j.c.c.c.v.v.v.N.N.).`.9X9X9X9X9X0XiXpXFXFXFXFXFXFXFXFXFXFXFXGXGXGXGXGXDXIXUXKXlX| ' ^ Q 6 4 4 4 4 4 4 4 4 4 4 4 4 4 4 4 4 4 4 6 6 6 6 6 6 6 6 4 4 4 4 4 4 4 4 6 6 6 6 6 6 6 6 6 6 6 6 6 6 6 6 6 6 6 6 6 4 4 4 4 4 4 4 4 4 3 3 3 3 3 3 3 3 3 3 3 3 3 3 3 3 3 3 3 3 3 3 3 3 > > > 3 3 3 3 3 3 > > > > > , , , , , 1 2 9 u u B B R kXZXAXAXaXaXaXqXqX7X|.|.|.|. X[.[.[.[.[./././.1.<.2.;.;.;.2.2.2.2.4././.^.(.(.F.F.G.G.G.G.G.G.G.G.G.G.G.G.G.G.G.G.G.F.V.).^.^.'.oXAXSXbXbXMXMXMXMXNXNXNXnXnXs.s.s.s.s.nXNXNXNXNXNXNXNXNXNXNXMXMXMXMXMXMXLXSXAXXX X X7X7X7X7X|.|.7X7X7X7X|.|.|. X[.[.4.4.4.1.2.W z l h ( | ' ' _ ! o.vXzXNXs.d.d.d.d.d.d.d.d.d.d.d.d.d.d.d.d.d.d.d.d.d.d.d.s.s.s.s.s.s.s.s.s.s.",
"M.M.n.n.B.F.$X$X&X>X>X,X,X:X>X>X,X,X,X,X,X,X2X2X<X<X2X2X1X<X>X>X%X#X#X#X#X#X#X#XOXOXOXOXOX@XOXOXOXOXOXOXOXOXOXOX%X2XeXeX<X%X+X+XOX(.(.+X%X=XaXpXFXGXHX6X5X$X(.N.N.N.v.v.v.v.c.L c.v.v.v.c.c.c.c.k.k.k.n n b b b b j.c.c.c.x.v.v.v.v.).`.9X9X9X9X9X8XyXiXpXFXpXpXFXFXpXpXFXFXFXFXGXGXGXGXDXPXUXKXlX| ' ^ Q 7 4 4 4 4 4 4 4 4 4 4 4 4 4 4 4 4 4 4 6 6 6 6 6 6 6 6 4 4 4 4 4 4 4 4 6 6 6 6 6 6 6 6 6 6 6 6 6 6 6 6 6 6 6 6 6 4 4 4 4 4 4 4 4 4 3 3 3 3 3 3 3 3 3 3 3 3 3 3 3 3 3 3 3 3 3 3 3 3 > > > 3 3 3 3 3 3 > > > > > , , , , , 1 1 9 u u B Y E kXSXAXuXaXaX0XqXqX|.|.|.|..X X[.[.[.[.[./././.1.<.2.;.;.8.;.2.1.2.1.[./.^.(.(.F.F.G.G.G.G.G.G.G.G.G.G.G.G.G.G.H.F.F.(.).^.^.<.L '.CXSXSXMXMXmXMXMXNXNXNXnXnXs.s.s.s.s.nXNXNXNXNXNXNXNXNXNXNXMXMXMXMXMXMXMXSXAXaXXX/. X7X7X}.}.|.7X7X7X7X|.|.|.[.[.[.4.4.4.1.1.H z h h ( ( ' ' ! 9 ` vXNXNXnXnXnXnXd.d.d.d.d.d.d.d.d.d.d.d.d.d.d.d.d.d.d.d.d.d.s.s.s.s.s.s.s.s.",
"c.M.M.V.@X$X#X&X%X%X>X:X<X<X1X1X,X,X,X1X1X3X1X3X2X2X2X2X2X1X1X,X%X#X#X#X#X#X#X#XOXOX+X$X$XOXOXOXOXOXOX@X@X@X$X@X%XwXrXrXwX1X=X=X,X&X=X1XwXyXpXFXGXGXFXHXuX6X5X5X5X5X5X5X).N.v.v.x.v.M.M.x.c.z.z.k.j.j.j.j.j.j.j.b j.j.c.c.x.v.v.v.v.).`.9X9X9X9X8XyXtXiXpXpXpXaXaXaXaXaXpXpXFXFXFXGXGXGXDXPXUXKXlX| ' ^ Q 7 4 4 4 4 4 4 4 4 4 4 4 4 4 4 4 4 4 4 4 4 4 6 6 4 4 4 4 4 4 4 4 4 4 4 6 6 6 6 6 6 6 6 6 6 6 6 6 6 6 6 6 6 6 6 6 4 4 4 4 4 4 4 4 4 3 3 3 3 3 3 3 3 3 3 3 3 3 3 3 3 3 3 3 3 3 3 3 3 > > > > 3 3 3 3 > > > > > > , , , , , 1 1 q u N N U sXkXSXpXaXaX0XqXqXqX|.|.|.|.|. X[.[.[.[.[.[././.1.<.;.;.;.;.;.;.2.2.1.[./.^.^.).OXOXG.G.G.G.G.G.G.G.G.G.G.G.G.G.F.F.(.).).^.^.<.L <.oXSXSXSXmXhXnXmXNXNXnXnXnXu.u.u.u.u.s.nXnXnXNXNXNXNXNXNXNXNXNXNXMXMXMXMXMXSXaX[./. X|.7X}.}.|.|.7X7X7X|.|.|.[.[.1.1.4.4.4.2.;.z h h ( ~ ~ Q 9 9 | vXKXNXzXnXnXnXs.s.s.d.d.d.d.d.d.d.d.d.d.d.d.d.d.d.d.d.d.d.d.d.s.s.s.s.s.s.",
"M.C.$X$X>X%X%X<X%X>X<X1X1X1X,X,X1X1X1X1X1X1X1X1X2X1X<X2X2X2X1X<X%X%X%X#X+X+X+X$XOXOXOXOXOXOXOXOXOX@X@X@X$X$X$X@X&X<X1X*X%X&X+X+X&X&X&X=X1XyXaXFXGXGXHXuX6X5X5X(.(.(.).).).N.v.v.x.M.M.M.x.z.z.h.j.j.b b j.j.j.j.j.j.j.c.x.x.v.v.v.v.).`.9X9X9X9X8XyXiXiXiXiXaX0X0X0X0XaXaXpXFXFXFXGXGXGXGXIXUXKXlX| ' ^ Q Q 6 4 4 4 4 4 4 4 4 4 4 4 4 4 4 4 4 4 4 4 4 4 6 6 4 4 4 4 4 4 4 4 4 4 6 6 6 6 6 6 6 6 6 6 6 6 6 6 6 6 6 6 6 6 6 4 4 4 4 4 4 4 4 4 3 3 3 3 3 3 3 3 3 3 3 3 3 3 3 3 3 3 3 3 3 3 3 3 > > > > 3 3 3 3 > > , , , , , > > , , 1 1 q ~ N Y R sXZXAXpXaXaXqXqXqXqX|.|.|.|.|. X[.[.[.[.[. X`./.1.<.;.;.;.;.;.;.2.2.1.[./.^.^.).(.(.OXF.G.G.G.G.G.G.G.G.G.G.G.G.(.(.).).^.^.^.<.v.L '.uXAXSXZXhXhXmXMXNXnXnXnXu.u.u.u.u.s.s.nXs.nXNXNXNXNXNXNXNXNXNXNXNXMXMXMXbXoX[./. X X}.|.|.}.|.7X7X7X|.|.|..X[.1.1.1.4.2.2.a z j / ( ~ Q Q ! ` *.vXvXlXlXr.r.r.r.u.u.s.s.d.d.d.d.d.d.d.d.d.d.d.d.d.d.d.d.d.d.d.d.d.s.s.s.s.",
").$X&X,X4X>X%X<X<X<X<X1X1X1X1X,X1X1X1X1X1X1X1X1X1X<X<X<X2XwX<X<X%X%X%X#X#X+X+X+XOXOX+XOXOXOXOXOX@X@X@XOXOXOXOXOXOX+X+X+XOXOXOX(.(.(.(.(.+X&X0XaXHXFXuX6X'.C.N.v.v.x.x.c.c.c.c.c.c.x.M.x.x.z.z.h.j.b b j.j.j.j.j.j.j.h.z.x.x.v.v.v.v.).-X9X9X9X9X8XtXtXtXyX0X0X0X0X0X0X0XaXpXFXFXFXFXGXGXGXIXUXKXlX| ' ' Q Q 7 6 4 4 4 4 4 4 4 4 4 4 4 4 4 4 4 4 4 4 4 4 4 4 4 4 4 4 4 4 4 4 4 4 6 6 6 6 6 6 6 6 6 6 6 6 6 6 6 6 6 6 6 6 6 4 4 4 4 4 4 4 4 4 3 3 3 3 3 3 3 3 3 3 3 3 3 3 3 3 3 3 3 3 3 3 3 3 > > > > > 3 3 3 > > , , , , , > , , , 1 1 u u N Y O.kXZXAXpXaXyXqXqXqXqX|.|.|.|.|. X[.[.[.[. X X_.`.1.<.2.;.;.;.;.2.2.<.1.[.[././.^.).).(.V.F.F.F.G.G.G.G.G.G.G.F.F.(.).^.^.^.^.^.^.N.v.v.'.uXFXSXZXhXmXmXNXnXnXnXu.u.u.u.u.u.s.s.s.nXnXNXNXNXNXNXNXNXNXNXNXNXMXbXbX1.1./.[.[.}. X|.}.}.7XqXqXqX|.|.[.1.1.2.2.2.;.f a z j / / ~ ~ ~ ' o.Q.Q.Q.*.&.o.o.o.$.*.r.zXu.s.d.d.d.d.d.d.a.a.d.d.d.d.d.d.d.d.d.d.d.d.s.s.s.s.",
").&X&X>X<X:X>X1X1X<X<X<X<X<X<X*X<X<X1X1X1X1X1X1X1X<X<X<XwXeXwXwX%X%X%X%X#X+X+X+X+X+X+XOXOXOXOX$X@X$X@XOXOXOXOXOXOXOXOXOXOXOXOX(.V.V.(.OX+X#X5X0XaXpX6X5X).N.N.M.v.v.x.c.x.c.c.c.c.x.M.x.z.z.z.h.j.j.b j.j.j.j.h.j.j.z.z.x.x.v.v.v.N.).=X9X9X9X8X8XtXtXrX8X9X8X9X8X8X8X0XyXaXFXFXFXHXGXGXGXIXUXKXlXo.=.' ^ Q 7 6 4 4 4 4 4 4 4 4 4 4 4 4 4 4 4 4 4 4 4 4 4 4 4 4 4 4 4 4 4 4 4 4 6 6 6 6 6 6 6 6 6 6 6 6 6 6 6 6 6 6 6 6 6 4 4 4 4 4 4 4 4 4 3 3 3 3 3 3 3 3 3 3 3 3 3 3 3 3 3 3 3 3 3 3 3 3 > > > > > 3 3 3 > > , , , , > 5 , , , 1 2 u u N Y @.kXZXAXaXaXyXqXqXqXqX|.|.|.|.|.|.[.[.[.[. X X_.`.1.1.2.;.;.;.;.2.2.2.1.[.[.[./.^.^.^.).(.V.V.F.F.F.G.G.G.G.F.F.V.).^.^.^.<.<.^.v.N.N.N.C.5XuXZXSXmXmXmXnXnXnXu.u.t.t.e.e.e.e.e.e.u.s.s.nXnXNXNXNXNXNXNXNXNXMXbXbX3.'.XXXX X X}. X}.}.7XqXqXqX7X|.[.1.2.2.;.;.i i z z j / h ( ( | =.*.*.&.&.&.&.&.&.&.&.&.*.*.lXzXs.s.d.d.d.a.a.a.d.d.d.d.d.d.d.d.d.d.d.d.s.s.s.s.",
"-X=X*X:X2X2X1X1X1X1X<X<X<X<X<X<X1X1X1X1X1X1X1X1X1X1X<X<XeXeXeXeX&X%X%X%X#X+X+X+X&X&X+X+XOXOXOXOX@X@X$X@X@X#X#X#XOX@X#X+XOX$XOXOXV.C.C.V.OXOX).`.0XaX5X).N.M.N.M.x.x.x.x.x.c.c.c.c.x.x.x.c.c.j.j.j.j.j.j.j.j.j.h.j.j.z.z.x.x.x.v.x.N.).=X9X9X9X8XrXrXrX8X9X9X8X8X8X8X8XyXyXpXFXFXFXFXGXGXDXPXUXKXvX&.=.' ^ Q 7 7 4 4 4 4 4 4 4 4 4 4 4 4 4 4 4 4 4 4 4 4 4 4 4 4 4 4 4 4 4 4 4 4 6 6 6 6 6 6 6 6 6 6 6 6 6 6 6 6 6 6 6 6 6 4 4 4 4 4 4 4 4 4 3 3 3 3 3 3 3 3 3 3 3 3 3 3 3 3 3 3 3 3 3 3 3 3 > > > > > 3 3 3 > > 5 5 , , > 5 , , , 1 2 u u u U U.BXZXAXaXaXyXqXqXqX.X|.|.7X|.|.|.[.[.[.[. X X_.`.<.1.2.;.;.;.2.2.2.2.1.4.[.[./.<.^.^.^.).V.V.V.F.F.G.G.G.G.F.V.V.^.^.^.^.<.<.v.v.M.OXV.x.N.'.oXZXmXmXnXnXzXu.t.t.e.e.w.w.w.w.w.w.e.e.u.s.nXnXNXNXNXNXNXNXNXMXMXbXbXAXpXaX0X0X}._.}.7X7XqXrXqXqX|.[.1.2.;.f i i a >.z j h h ( ( | *.*.&.{ Q.{ &.&.&.&.&.&.&.*.W.lXu.s.s.d.d.a.a.a.d.d.d.d.a.d.d.d.d.d.d.d.s.s.s.s.",
"-X%X<X<X<X2X3X1X<X<X<X<X<X2X2X2X2X2X2X2X2X2X2X2X<X*X*XwXrXrXrXrX9X-X-X-X-X+X%X*XeXeX=X+XOX$X@X@XOXOXOXOX#X%X,X3X+XOXOXOXOXOXOXOX(.(.(.(.(.(.(.(.0X0X).).v.v.v.M.M.x.x.x.x.x.c.c.c.x.n.x.j.j.j.j.j.j.j.j.j.j.j.j.j.h.z.z.x.x.x.v.x.N.-X=X9X9X9X8XrXrXrX8X8X8X8X8X8X8X8X8XyXpXFXFXFXFXFXGXGXPXPXKXxX*.=.' ^ Q 7 7 6 4 4 3 3 4 6 7 4 4 3 3 4 4 4 4 4 4 4 4 4 4 4 4 6 6 6 4 4 4 6 6 6 6 6 6 6 6 6 6 6 6 6 6 6 6 6 6 6 6 6 6 6 6 4 4 4 4 3 3 3 3 3 3 3 3 3 3 3 3 3 3 3 3 3 3 3 3 3 3 3 3 3 3 > > > > > 3 > > > > > > , , , , , , , , 1 8 t u u N ..dXZXZXCXuXaX0XqX.XqX.X.X|.|.|.}.}.[.[.[.[. X X_./.<.1.2.2.;.;.2.2.<.1.4.[.4.1.2.2.<.G G L L v.N.N.V.F.F.H.F.V.(.^.^.<.<.<.<.<.<.^.N.(.C.N.v.v.].CXJXmXhXt.t.i.i.w.r.w.%.( ( ( ( %.9.e.i.i.u.nXnXNXNXNXnXnXNXNXNXNXMXMXSXSXAXuX0X X}._.7XrXrXrX7X}.[.1.;.f i i a :.>.>.j h h ( ( | =.=.&.&.{ { { { { { { { &.Q.W.W.i.i.u.s.d.d.a.a.d.d.a.a.a.d.d.d.d.d.d.d.d.d.nXs.",
"-X%X1X<X<X2X3X1X<X<X<X<X2X2X2X1X2X2X2X2X2X2X2X2X1X<X<XwXrXtXrXrXwX*X-X+X+X+X&XwXtXtXwX+XOXOXOX@X$XOXOXOX#X%X,X,X+XOXOXOXOXOXOXOXOXOX(.(.(.(.(.(.5X5X(.N.v.v.x.M.M.M.x.x.x.x.c.c.z.x.n.x.j.j.j.j.k.k.j.j.j.j.j.j.j.j.h.z.x.x.x.x.v.).-X9X9X9X9X8XrXrXrX8X8X8X8X8X8X8X8X8XtXpXFXFXFXFXFXGXGXPXPXKXvX*.=.{ ^ Q Q 7 6 4 3 3 3 4 6 7 4 4 4 4 4 4 4 4 4 4 4 4 4 4 4 4 6 6 6 6 4 4 4 4 6 6 6 6 6 6 6 6 6 6 6 6 6 6 6 6 6 6 6 6 6 4 4 4 4 4 4 3 3 3 3 3 3 3 3 3 3 3 3 3 3 3 3 3 3 3 3 3 3 3 3 3 > > > > > > > > > > > > , , , , , , , 1 1 8 t u u Y +.gXZXCXCXuXaX0XqX.X.X.X.X|.|.|. X X X[.[.[.[. X`./.<.1.2.2.;.;.2.2.<.1.4.4.4.2.;.f G G G G L L v.N.(.V.V.V.V.N.^.^.<.<.2.2.2.2.<.<.v.^.N.N.v.L '.kXZXmXnXt.r.w.%.%.( ( ( ( ( ( ( ( / 9.9.i.u.s.nXnXs.s.nXnXnXNXNXNXMXMXMXSXSXAXaXaX X}.|.qXqXqX7X X[.1.;.f i i a :.>.z j h h ( ( ( =.=.o.{ { { { { { { { { { &.Q.W.*.*.r.e.p.a.a.a.a.a.a.a.a.d.d.d.d.d.d.d.d.d.nXs.",
"%X%X1X<X<X3X2X2X1X1X1X2X2X2X1X1X2X2X2X2X2X2X2X2X2X<X<XwXrXtXrXrXwX*X-X+X+X+X&XwXrXrX1X+XOXOXOX#XOXOXOXOXOX#X#X#XOXOXOXOXOXOXOXOXOXOXOX(.(.N.N.N.5X5XN.N.v.M.M.M.M.x.x.x.x.x.z.c.z.z.n.b.j.j.k.k.k.k.j.j.j.j.j.j.j.j.h.z.x.x.x.x.v.).=X9X9X9X8XrXrXrXrX8X9X8X8X8X8X8X8X8XtXpXFXFXFXFXFXGXGXPXPXJXvX*.=.=.' ^ Q Q 6 4 4 3 3 4 6 7 4 4 4 4 4 4 3 3 4 4 4 4 4 4 4 4 6 6 4 4 4 4 4 4 6 6 6 6 6 6 6 6 6 6 6 6 6 6 6 6 6 6 6 6 6 4 4 4 4 4 4 3 4 3 3 3 3 3 3 3 3 3 3 3 3 3 3 3 3 3 3 3 3 3 3 3 > > > > > > > > > > 3 3 > > > > , , , , 1 r u u N Y y.kXZXCXuXuXaXXX.X.X.X.X.X|. X|. X X X X[.[.[.[././.<.1.1.2.;.2.2.1.1.1.1.1.2.;.f i f f f G G G L v.).).N.N.v.v.<.<.2.2.2.2.;.2.2.2.<.<.L v.v.L P 3.kXbXmXt.w.( ( ( ( ( / / / / / / / / ( i.i.u.u.u.u.s.s.nXnXnXNXnXNXNXMXMXMXSXAXpXXX X X7X7X7X7X X[.<.f f i i a z z z g h h h ( ( | | | ' [ ] ] ] { { { { { { Q.Q.&.*.r.t.e.p.a.a.a.a.a.a.a.d.d.d.d.d.d.d.d.d.d.d.",
"%X=X1X1X2X3X3X2X1X1X2X2X2X1X1X1X2X2X2X2X2X2X2X2X1X<X<XwXeXrXrXrX*X*X%X&X+X+X+X%X*X*X%X+X+X$X@X@XOXOXOXOXOXOXOXOXOXOXOXOXOXOXOXOXV.(.OX(.V.V.N.N.&X$XM.M.M.M.M.M.x.x.x.x.x.x.z.z.h.b.b.b.k.k.k.k.k.k.k.j.j.j.j.j.h.j.h.z.x.M.x.x.N.).=X9X9X9X8XtXtXtXrX8X9X8X8X8X8X8X8XrXtXiXFXFXFXFXFXGXGXPXPXJXvX*.=.=.' ^ Q Q 6 6 4 3 3 4 6 7 4 4 5 4 4 3 3 3 4 4 4 4 4 4 4 4 6 4 4 4 4 4 4 4 6 6 6 6 6 6 6 6 6 6 6 6 6 6 6 6 6 6 6 6 4 4 4 4 4 4 4 3 4 3 3 3 3 3 3 3 3 3 3 3 3 3 3 3 3 3 3 3 3 3 3 3 > > > > > > > > > > 3 5 > > > , , , , , 1 t u u N U sXkXZXCXuXuXaXXX.X.X.X.X.X.X.X X X X X X[.[.[.[././.<.1.1.2.;.2.2.1.1.1.1.1.;.f i i f f f f f G G L ^.v.v.v.L <.2.2.;.;.;.8.8.8.8.2.2.2.G <.].'.P W 3.sXhXt. .h h h ( / / / / / / / / / / 9.i.i.e.e.i.u.s.s.nXnXnXNXNXNXNXNXMXMXSXAXXX X X|.7X}.|. X[.<.f i i i a z a g g g h h ( ( | | | ' [ ] ] ] ] ] { { { { { Q.&.*.*.i.u.p.a.a.a.a.a.a.a.d.d.d.d.d.d.d.d.d.d.d.",
"%X=X1X1X2X2X3X2X2X2X2X2X2X2X2X2X3X3X2X2X3X2X2X2X1X<X<X<XwXeXeXeX*X-X-X&X&X+X+X+X+X%X+X+X$X$XOXOXOX@X@X$X$X$XOXOXOXOXOXOXOXOXOXF.V.V.V.V.V.V.V.N.$X$XM.M.M.C.M.M.x.x.x.z.b.b.h.h.k.k.L.L.k.k.k.k.k.k.k.k.j.j.j.j.h.h.z.z.n.n.x.x.).`.9X9X9X9XrXtXtXtXrX9X9X8X8X8X8X8X8XrXtXiXFXFXFXFXFXGXGXPXPXJXcX*.=.=.{ ^ Q Q 7 6 4 3 3 4 4 4 4 7 9 9 4 3 3 4 4 4 4 4 4 4 4 4 4 4 4 4 4 4 4 4 6 6 6 6 6 6 6 6 6 6 6 6 6 6 6 6 6 6 6 6 4 4 4 4 4 4 4 4 4 3 3 3 3 3 3 3 3 3 3 3 3 3 3 3 3 3 3 3 3 3 3 > 3 > > > > > > 3 > > 3 5 > > , , , , , , 1 u u u Y E sXkXCXCXuXoXoXXXXX.X.X.X.X[.[.[.[.[.[.[. X[.[.[././.<.1.2.2.2.2.2.1.1.1.1.2.;.f i a ;.a a ;.;.f G G L L L L <.2.2.;.;.;.>.,.,.,.>.>.;.;.3.oXbXbX].].3.y.r.r.%.( q q q q h / / / / / / / / / ( ( 9.e.e.u.s.s.nXnXnXNXnXnXnXnXNXMXbXAXXX[.[. X}.}. X X/.<.f i i a a g g g g g h h h l | | | ' ' { { { ] ] { { { { { { { &.*.r.i.p.p.a.a.a.a.a.a.d.d.d.d.d.d.d.d.d.d.d.",
"%X=X1X3X2X2X2X3X2X2X2X2X2X2X2X3X2X3X3X2X3X2X2X2X2X1X<X<XwXwXwXwX*X%X%X+X+X+X+X+X+X&X$XOX$X$XOX$XOXOXOX$X$X$XOXOXOXOXOXOXOXOXF.F.V.V.V.V.V.V.V.B.$X$XM.N.M.C.B.M.x.x.b.b.b.k.k.k.k.k.D.D.k.k.k.k.k.k.k.k.j.j.j.j.h.h.z.b.n.x.x.v.).-X9X9X9X8XtXtXtXtX8X9X9X8X8X8X7X8X8XrXtXiXpXFXFXFXFXGXGXPXPXJXcXlX=.=.{ ^ ^ Q 7 6 4 3 3 3 4 4 4 9 9 9 7 4 4 5 4 4 4 4 4 4 4 4 4 4 4 4 6 4 4 4 6 6 6 6 6 6 6 6 6 6 6 6 6 6 6 6 6 6 4 4 4 4 4 3 4 4 4 4 4 4 3 3 3 3 3 3 3 3 3 3 3 3 3 3 3 3 3 3 3 3 3 3 > > > > > 3 > 3 > > 3 5 , , , , , , 1 , r u u u Y E kXZXCXCXuXuXuXoXXX.X.X.X[.[.[.[.[.[.[.[.[.[.[.[././.1.1.1.2.2.2.2.1.1.1.1.2.;.f i a ;.a :.:.;.;.f f G G G G ;.;.;.;.>.>.>.>.,.,.>.>.:.3.a.bXbXbXbXhXy.y.y.y.%.( q 0 q q q q / / / / / / / / / / 9.e.e.i.s.s.s.s.s.nXs.s.nXnXNXMXbXbXXX/./. X X X X[.1.2.f i i a p g g g g g h h h h ( ( } ` ' { { { { { { ] { { { ] ' ' | %.e.e.p.p.q.a.a.a.a.d.d.d.d.d.d.d.d.d.d.d.",
"&X1X1X3X2X3X2X3X2X2X2X2X3X3X3X3X3X3X2X3X2X2X1X1X2X2X<X<X1XwXwX*X=X%X+X+X+X&X$X#X+X+XOXOXOXOXOX$XOXOXOXOXOXOXOXOXOXOXOXOXOXOXF.F.V.V.V.V.V.V.B.B.+X$XM.C.M.C.M.M.n.n.b.Z.L.L.l.l.l.l.D.D.D.k.k.k.k.k.k.k.k.h.j.j.h.b.b.b.n.x.v.v.).-X9X9X9X8XtXtXiXtX8X9X9X8X8X8X7X8XrXrXtXiXpXFXGXFXFXGXGXPXPXKXVXlX*.=.=.' ^ Q Q 7 6 3 3 3 4 4 4 9 9 9 7 4 4 5 4 4 4 4 4 4 4 4 4 4 6 6 6 6 4 4 6 6 6 6 6 6 6 6 6 6 6 6 6 6 6 6 4 4 4 4 4 4 4 3 4 4 4 4 3 3 3 3 3 3 3 3 3 3 3 3 3 3 3 3 3 3 3 3 3 3 3 3 > > > > 3 3 3 3 > > > 3 , , , , , , 1 1 r u N B Y E kXZXCXCXCXuXuXoXXXXX.X[.[.[.[.[.[.[././././.[.[./.1.1.1.1.2.8.;.2.1.1.1.1.1.2.f i a a a :.:.:.:.f f s s f f ;.;.>.>.>.>.>.>.>.>.>.>.>.a.nXMXbXbXhXhXhXy.w.w.( h 0 2 2 q q q q / / / / / / / ( %.9.i.i.u.s.s.s.s.s.s.s.s.nXnXNXMXMXbXXX/./. X X X/.1.<.G i i i i p p g g g g g h h h l ( ~ ~ ' ' { { ] ] ] ] ] ] _ _ ' ' | %.w.e.0.q.q.q.a.a.a.d.d.d.d.d.d.d.d.d.d.d.",
"&X1X1X3X3X3X3X3X2X2X2X3X3X3X3X3X3X3X2X3X2X2X1X1X2X1X<X<X1XwXwX*X%X%X#X+X+X#X#XOX+X+X+X+X#XOXOX+X$X@XOXOXOXOX@X@XOXOXOXOXOXOXF.F.V.V.V.V.V.V.B.B.+X$XN.C.M.C.M.M.n.n.Z.Z.L.D.D.D.l.l.D.D.D.l.l.l.k.k.k.k.h.h.h.j.h.b.m.n.n.x.v.v.).-X9X9X9XyXtXiXiXtX8X9X9X8X8X8X7X8XrXrXtXiXpXFXFXFXFXGXGXPXPXJXKXvX*.=.=.{ ^ Q Q 7 6 4 3 3 3 4 3 7 9 9 4 3 4 4 4 4 4 4 4 4 4 4 6 6 6 6 6 6 4 4 6 6 6 6 6 6 6 6 6 6 6 6 6 6 6 6 4 4 4 4 4 4 4 3 3 4 4 3 3 3 3 3 3 3 3 3 3 3 3 3 3 3 3 3 3 3 3 3 3 3 3 3 > > > > 3 3 3 3 > > > > , , , , , , 1 1 t u ` N U sXkXZXZXCXCXuXuXoXXX X X[.[.[.[.[.[.[./././././././.1.1.1.1.8.8.8.2.1.1.1.1.1.2.f i f a :.:.:.:.:.a i i i i a :.>.>.>.>.>.>.>.>.>.>.>.q.d.NXNXMXMXnXnXhXt.w. .( q 2 2 2 2 > , 2 q / / / / / / ( 9.e.e.i.u.s.s.s.s.s.s.s.s.nXnXNXMXMXbXoX/./.`././.<.<.f s i i i i i p p g g g g g h h h l ( ~ ~ ' ' ' ' ' { { { { { ' { | | %.w.p.p.a.q.q.a.a.a.d.d.d.d.d.d.d.d.d.d.d.",
"-X=X1X1X<X2X3X3X3X3X3X3X3X3X3X3X2X2X2X3X3X3X3X3X2X<X<X<X2X2X<X<X<X%X#X#X#X#X#X#X$X$X$X@XOXOXOXOXOXOXOXOX@XOXOXOXOXOXOXOXOXOXOXF.F.F.F.V.V.V.B.B.+XV.C.C.C.M.M.n.Z.Z.S.D.D.D.l.l.D.D.!.!.D.D.D.l.D.k.k.k.h.h.h.b.b.b.b.n.x.x.v.N.-X=X9X9X8XtXiXiXiXyX8X8X9X8X8X9X7X8X8XrXtXiXpXFXFXFXFXGXGXGXPXPXKXvXQ.=.=.' ^ Q Q 7 4 4 4 4 3 > 3 4 4 4 7 6 4 5 4 4 4 4 4 4 4 4 4 4 4 4 4 4 4 4 4 4 4 4 4 4 4 4 4 4 4 4 4 4 4 4 4 4 4 4 4 4 4 4 3 3 3 3 3 3 3 3 3 3 3 3 3 3 3 3 3 3 3 3 3 3 3 3 > > 3 3 3 3 > > 3 3 3 3 > > > > , , , , , , 1 8 t t N } R sXZXZXZXCXCXCXCXCXoXXX[.[.[.[.[.[.[.[./././././.1.1.1.4.4.1.2.2.;.2.1.1.1././.<.G f f f a :.:.:.:.a p i i i i a :.>.>.>.>.>.>.>.9.0.p.d.d.d.nXNXNXNXnXnXt.y. .( q 0 2 : : : 2 2 q q q q q q h / 9.e.e.i.i.s.s.s.s.s.nXs.NXNXNXNXMXMXLXoX'.1.[./.<.G s s s s s i i i p p p p p p p 0 0 g h h ( ( ( | ' | | o.o.o.o.| | | %.%.w.e.p.q.q.q.q.a.a.d.d.d.d.d.d.d.d.d.d.d.d.",
"-X=X1X1X<X3X3X3X3X3X3X3X3X3X3X3X2X2X3X3X3X3X3X3X2X<X<X<X1X2X<X<X>X%X#X#X#X#X#X#X$X$X@XOXOXOXOXOXOXOXOX$X@X@XOXOXOXOXOXOXOXOXOXOXF.F.F.V.V.V.B.B.OXV.B.C.C.M.M.n.Z.Z.D.D.D.D.D.P.D.D.!.!.D.D.D.l.D.k.k.k.h.h.h.h.b.b.n.n.x.x.v.(.-X=X9X9X8XtXiXiXtXrX8X8X9X8X8X9X8X8X8XrXrXiXpXFXFXFXFXFXGXDXPXJXKXxXQ.=.=.' ^ Q Q 7 4 4 4 4 3 > 3 3 4 4 7 7 4 5 4 4 4 4 4 4 4 4 4 4 4 4 4 4 4 4 4 4 4 4 4 4 4 4 4 4 4 4 4 4 4 4 4 4 4 4 4 4 4 4 3 3 3 3 3 3 3 3 3 3 3 3 3 3 3 3 3 3 3 3 3 3 3 3 > > 3 3 3 3 > > 3 3 3 3 > > > , , , , , , , 1 8 t u ` ..+.jXJXZXDXZXDXDXZXCXuXoX[.[.[.[.[.[.[.[.[.[./././.1.1.1.4.1.1.2.2.2.2.1.1.1.1./.<.<.f i a :.:.:.:.:.a p i i i p a >.>.>.>.>.>.0.p.a.d.d.d.d.d.nXnXNXNXnXnXu.t.w.( l 0 : : : : : : 2 q q q q h / / 9.e.e.i.u.s.s.s.s.NXNXNXNXNXNXNXMXMXLXAXXX1.1.<.G G s s G 2.2.G i i i p p i i i i & & 0 g h h ( ( ( | | o.o.o.o.o.o.%.%.r.e.e.p.q.q.q.q.a.a.a.d.d.d.d.d.d.d.d.d.d.d.d.",
"=X=X1X1X<X2X3X3X3X3X3X3X2X3X2X2X3X3X3X3X3X3X3X3X2X1X<X1X2X2X1X<X>X%X#X#X#X#X#X#X$X$X$X+XOXOXOXOX$X$X@X@X@XOX$X$XOXOXOXOXOXOXOXF.F.V.V.V.V.V.B.B.OXF.B.B.C.C.M.C.Z.S.D.D.D.D.P.!.!.!.!.!.D.l.l.l.l.k.k.k.k.h.h.h.b.b.m.n.x.x.N.(.=X=X9X9XrXtXiXiXtX8X9X9X9X8X8X9X8X8X8XrXeXyXaXpXFXFXFXFXGXGXPXJXVXxXQ.=.=.{ ^ Q Q 7 4 4 4 4 3 > 3 4 4 4 7 9 4 5 4 4 4 4 4 4 4 4 4 4 4 4 4 4 4 4 3 3 4 4 4 4 4 4 4 4 4 4 4 4 4 4 4 4 4 4 4 4 4 4 3 3 3 3 3 3 3 3 3 3 3 3 3 3 3 3 3 3 3 3 3 3 3 3 > > > > 3 3 3 > 3 3 3 3 > > , , , , , , , , 1 8 t B ` ..@.cXJXJXPXZXDXDXDXGXAXuX X[.[.[.[.[.[.[.[.[.[.[././.1.1.1.1.1.2.2.2.2.1.1.1./././.<.2.f a :.:.:.:.:.a a i i i p z >.>.>.>.>.3.y.nXNXNXnXs.nXNXnXnXnXnXnXnXzXu.r.%.( q 2 # # : : : : 2 2 > q q ( ( e.i.i.s.s.s.s.s.s.nXNXNXNXNXNXMXMXMXLXAXoX1.<.<.G G <.<.1.'./.2.2.f s i i i i i i i i g g h h ( ( ( %.%.%.*.*.r.r.r.r.t.t.e.a.q.7.,.q.a.a.a.a.d.d.d.d.d.d.d.d.d.d.d.d.",
"=X=X1X1X<X3X3X3X3X3X3X3X2X2X2X2X3X3X3X3X3X3X3X2X2X1X1X1X1X1X<X<X>X%X#X#X#X#X#X#X$X$X@X@X@X@X@X@XOXOXOXOXOXOX@X$X$XOXOXOXOXOXOXF.V.V.V.V.V.V.V.B.@XF.B.B.C.C.C.Z.K.K.D.P.P.P.P.!.!.!.!.!.D.l.l.l.k.k.k.k.h.h.h.h.b.b.n.n.x.M.N.+X=X9X9X8XtXtXiXiXrX8X9X9X9X8X8X7X8X8X8XrXeXyXaXpXFXFXFXGXGXGXPXPXVXvXQ.*.=.=.-.^ Q 7 4 3 4 4 3 > 3 4 3 4 9 9 5 5 4 4 4 4 4 4 4 4 4 4 4 4 4 4 4 4 4 3 4 4 4 4 4 4 4 4 4 4 4 4 4 4 4 4 4 4 4 4 4 4 3 3 3 3 3 3 3 3 3 3 3 3 3 3 3 3 3 3 3 3 3 3 > > > > > 3 3 3 3 > > 3 3 3 > , , 5 , , , , , , 1 8 t N } X.Y.VXKXJXJXJXPXPXPXGXFXuXXX X[.[.[./.[.[.[.[.[.[.[./.1.<.1.1.1.2.2.;.2.2.<.1.1./.'.<.2.f a a :.:.:.:.:.a p p p g z T T T T T T y.hXmXmXnXnXnXnXnXnXNXnXnXnXnXnXu.i.r.( q # # : : : : 2 2 , q q ( %.i.i.s.s.nXNXNXMXMXMXMXMXMXMXMXMXMXMXMXoX3.2.2.<.<.<.1././././././.1.2.f s s i i i i i g h h ( ( ( %.%.%.%.r.r.r.t.t.t.a.a.a.7.7.7.,.,.a.a.a.a.d.d.d.d.d.d.d.d.d.NXd.d.",
"=X*X1X1X<X2X3X3X3X3X2X2X3X3X3X3X3X3X3X3X3X3X2X2X2X2X1X1X1X1X<X<X,X%X#X#X#X#X@X#X@X@X@X$X@X@X@X@XOXOXOXOXOXOXOX@XOXOXOXOXOXOXF.F.F.F.V.V.V.V.V.V.@XF.B.B.C.C.C.K.K.K.~.~.P.P.P.!.!.!.!.!.l.l.l.k.k.k.k.k.k.h.h.h.b.n.n.n.x.M.(.-XwX9X9X8XtXtXiXtXrX9X9X8X9X8X8X8X7X8X8XrXrXyXiXpXFXFXFXFXGXGXPXPXKXvXQ.*.=.=.' ^ Q 7 4 3 3 4 3 3 3 3 3 4 9 9 5 4 4 4 4 4 4 4 4 4 4 4 4 4 4 4 4 3 4 4 4 4 4 4 4 4 4 4 4 4 4 4 4 4 3 3 3 3 3 3 4 4 3 3 3 3 3 3 3 3 3 3 3 3 3 3 3 3 3 3 3 3 3 3 > > 3 3 3 3 > > 3 3 > > > > 5 5 5 5 , , , , 1 1 8 r u ` } X.fXVXKXKXKXJXJXJXJXDXHXuX0XXX[.[.[././.[.[.[. X[.[./.1.<.2.1.1.2.;.;.2.2.2.<.<.'.'.2.2.;.a a :.:.:.:.:.a a p g z T T T T T T E y.gXzXzXnXnXnXnXnXnXNXnXnXnXNXNXnXnXu.%.h 2 2 # # : : 2 : , q q ( w.i.i.t.t.s.nXMXMXMXLXLXLXLXLXMXMXMXbXbX3.2.2.2.<.<./.[. X/./././.[.[./.1.1.2.f f i i i g h j ( ( ( %.%.%.%.r.r.t.t.t.a.7.7.7.7.7.7.7.7.a.a.a.a.d.d.d.d.d.d.d.d.d.d.d.d.",
"=X*X1X1X<X2X3X3X3X3X2X2X3X3X3X3X3X3X3X3X3X3X2X2X2X2X2X2X2X<X<X<X>X>X#X#X;X#X@X@X@X@X$X$X@X@X@X@X$X$XOXOXOXOXOXOXOXOXOXOXOXOXF.F.F.F.V.V.V.V.V.V.F.F.B.B.C.5X6XK.K.~.~.~.~.~.P.I.!.!.!.D.l.k.k.k.k.k.k.k.h.h.h.h.b.n.n.n.n.V.+X=X9X9X9X8XtXtXtXyX8X9X9X8X9X8X8X8X8X8XrXrXrXyXiXpXpXFXFXFXGXGXDXPXKXvXvX*.=.{ ' ^ Q Q 4 3 3 3 3 3 3 3 3 4 Q Q 5 4 4 4 4 4 4 4 4 4 4 4 4 4 4 4 4 3 4 4 4 4 4 4 4 4 4 4 4 4 4 4 4 4 3 3 3 3 3 3 3 3 3 3 3 3 3 3 3 3 3 3 3 3 3 3 3 3 3 3 3 3 3 3 > > 3 3 3 3 > > 3 3 > > > > 5 5 5 5 1 , , 1 1 1 8 t B } X.@.xXKXKXKXKXKXJXKXPXPXGXuX0XXX X X X[.[.[.[. X X X X[./.1.2.2.1.2.;.;.;.2.3.].].].].3.3.3.z z :.>.>.>.>.j a g g l  . .O.+.X.#.Y.fXxXcXcXzXnXnXnXnXnXnXnXnXnXNXNXnXnXu.%.( q 2 # @ # : : : 2 q h ( i.i.t.y.y.y.y.kXkXoXoXoXoXoXoXoXbXbXoX3.2.2.2.1././. X X X/././././.[.[.[.[./.1.2.;.f i a g l ( ( %.%.%.%.r.r.r.t.t.y.y.7.7.7.7.6.7.7.a.a.a.a.d.d.d.d.d.d.d.d.d.nXNXd.d.",
"=X*X1X1X<X2XwX3X3X3X3X2X3X3X3X3X3X2X2X3X3X3X3X2X2X2X2X2X1X<X<X<X,X>X#X#X;X@X@X@X@X@X@X@X@X@X@X@X#X$X$XOXOXOXOX$XOXOXOXOXOXOXF.F.F.F.F.V.V.V.V.V.F.V.V.C.5X6X6X6XBXR.R.R.R.~.P.I.!.!.!.D.l.k.k.k.k.k.k.k.h.h.h.h.b.n.n.n.M.(.&X=X9X9X9X8XtXtXtXyX8X9X9X9X9X9X8X8X7X8X8XrXrXyXiXpXpXFXFXFXFXGXDXPXKXcXvX*.=.=.' ^ Q Q 4 > 3 3 4 3 3 3 3 5 Q Q 7 4 4 4 4 4 4 4 4 4 3 3 4 4 3 3 3 3 3 3 3 4 4 4 4 4 3 3 3 3 4 3 3 3 3 3 3 3 3 3 3 3 3 3 3 3 3 3 3 3 3 3 3 3 3 3 3 3 3 3 3 3 3 3 > 3 3 3 > > > > 3 3 3 3 > > , 5 , , 1 , , 1 1 8 r t N } X.Y.VXKXKXKXKXKXKXUXPXPXGXCXXXXX X.X X X X[.[. X X X X[./.1.2.2.2.;.;.;.;.3.].kXkXkXsXsXy.y.z z >.9.>.>.>.j j h h ( } X.o.o.o.T.R.xXVXcXjXgXhXzXnXnXnXnXnXnXNXnXnXnXu.u.r.w.( ( l q q u q q h ( ( w.i.u.t.t.y.3.3.3.2.'.'.'././.1.1.2.2.2.2.2.<.1.[.[./. X}. X X/./././././././.[.[.[.1.;.f f a z l (  .%.%.%.$.r.r.r.t.y.y.a.7.7.7.7.7.7.a.a.a.a.d.d.d.d.d.nXNXNXd.NXNXNXd.",
"=X*X1X1X<X2X3X3X3X3X3X3X3X3X3X3X2X2X2X3X3X3X3X2X2X2X2X2X1X<X<X<X,X%X#X#X;X@X@X@X@X@X@X@X@X@X@X@X#X#X$X$X$XOX$X$XOXOXOXOXOXOXF.F.F.F.F.F.V.V.V.V.V.F.F.$X5X6XBXBXBXjXR.R.R.~.~.I.!.!.D.D.l.k.k.k.k.k.k.h.h.h.h.h.n.n.n.n.M.$X=XwX9X9X9X8XtXtXtXyX8X9X9X9X9X9X8X8X7X8XrXeXrXyXiXpXpXFXFXFXGXGXDXPXKXcXvX*.=.=.{ ^ Q Q 4 > > 3 4 3 3 3 3 7 Q Q 7 3 4 4 4 4 4 4 4 4 4 4 4 3 3 3 3 3 3 3 3 4 4 5 7 7 3 3 3 3 4 3 3 3 3 3 3 3 3 3 3 3 3 3 3 3 3 3 3 3 3 3 3 3 3 3 3 3 3 3 3 3 3 3 > 3 3 3 3 > > > 3 3 3 3 3 5 , , , , 1 , , 1 8 8 t t N } X.Y.VXKXKXKXKXKXKXUXPXPXGXCX0XXX X X XXX X X/.[. X X X[.[.1.2.2.2.;.;.;.;.>.y.kXkXjXkXsXy.3.g z >.9.>.>.>.>.j l ( ~ ` [ [ I.E.~.R.VXVXjXdXsXhXhXnXnXs.s.s.nXnXnXu.u.u.u.u.u.i.i.i.r.r.r.r.r.i.i.i.i.u.s.nXnXhXy.3.2.<././.`./.[.[.1.1.1.2.2.<.<.1.[.[._.}._. X`./.^././././././. X[.[.[.1.2.f f z z l  . .%.$.*.*.lXlXt.t.t.y.y.7.7.7.7.a.a.a.a.a.d.d.d.d.nXnXNXNXnXnXNXNXd.",
"&X=XwX3X2X2X3XwX3X3X2X2X3X3X3X3X3X3X3X3X2X3X3X3X3X3X2X2X3X1X:X:X>X>X;X;X#X#X#X@X@X@X@X@X@X@X@X@X>X;X#X#X@XOXOX@X$X$XOXOXOXOXOXOX(.V.V.V.V.C.V.M.(.OX$X5X6XBXBXBXjXjXjXjXjXR.~.P.l.l.D.D.k.k.k.k.k.k.k.k.h.h.h.z.n.n.n.M.(.%X*X9X=X9X9X8XtXiXiXtX8X9X9X9X7X9X7X8X8X8X8XrXrXyXiXpXFXFXFXFXFXGXPXPXKXcXlX*.*.=.{ ^ Q Q 6 4 3 3 3 5 3 3 3 5 9 9 5 3 4 7 4 4 5 5 3 3 5 > > 3 5 3 3 4 3 3 3 3 4 7 9 9 3 3 3 3 3 3 3 3 > > > > 3 3 3 3 3 3 3 3 3 3 3 3 3 3 3 3 3 3 3 3 3 3 3 3 3 > > > > > > > > > > > , , , , , , , , , 1 , 1 1 r t u N X.X.fXKXKXKXKXKXKXKXKXPXGXAXuXqX7X7X|. X X X X[./././././.[./.2.2.;.;.;.:.a a z y.hXgX$.r. .h 0 j 9.9.9.9./ / / ( ~ ^ ^ _ ] ] E.Q.R.xXR.U.A.A.].kXhXnXzXhXu.s.s.nXu.u.u.u.u.nXnXnXnXnXs.u.u.u.nXnXnXnXnXnXnXnXnXhX].'.'._._.`.`.`.[./.1.<.<.<././.`._.}.}.}.}. X`.^.^././././.`. X X X X[.[./.2.2.3.z k l Y  .%.$.*.*.lXlXr.r.t.y.y.e.a.a.a.d.d.d.d.bXbXbXd.d.nXnXd.d.d.NXd.nX",
"&X=XwX3X2X2X3XwX3X2X2X2X3X3X3X3X3X3X3X3X2X3X3X3X2X2X2X2X3X1X:X:X>X>X;X#X#X#X#X@X@X@X@X@X@X@X@X@X;X;X#X#X@XOXOX@X$XOXOXOXOXOXOXOXOXOXF.V.V.V.V.V.(.$X5X6X6XBXBXBXjXjXjXxXxXxXR.P.l.l.D.D.k.k.k.k.k.k.k.k.h.h.z.z.n.n.n.C.(.=XwX9XwXeX8XrXtXiXiXtX8X7X9X7X9X9X7X8X8X8X8XrXrXyXiXpXFXFXFXFXFXGXPXPXKXVXvXQ.*.=.{ ^ Q Q 7 4 3 3 3 3 3 3 3 3 5 5 3 3 3 3 4 ! | | 9 > > > > 3 3 > > 3 3 3 3 3 3 4 5 9 3 3 3 3 3 3 3 3 > > > > 3 3 3 3 3 3 3 3 3 3 3 3 3 3 3 3 3 3 3 3 3 3 3 3 3 > > > > > > > > > > > , , , , , , , 1 1 1 1 1 8 t u ` } X.#.xXKXKXKXKXKXKXKXPXGXFXuXaX7X7X7X|.|. X X X X[././././.1.1.2.;.;.;.;.:.a a g l  . . .} l 0 h j 9.9.9.9.9./ / ( ~ ^ ^ _ ] ] E.~.R.R.E.S.Z.Z.'.].kXbXmXnXhXs.nXnXnXt.u.s.nXnXnXNXNXNXNXNXNXNXNXNXNXNXNXNXNXNXnXbXbXoX'.`.`.`._.`./.1.1.1.1.1././.`._.-X9X}.}. X`.^././././.`. X X X X X X[.[.1.2.2.3.H k Y } } | o.*.*.*.lXlXr.r.r.y.t.t.s.nXnXnXbXbXbXbXbXMXbXbXd.d.d.d.d.d.",
"&X=X2X3X2X3X3XwX3X3X3X2X3X3X3X3X3X3X3X3X2X2X3X3X2X2X2X2X3X2X<X:X>X>X;X#X#X#X#X#X@X@X@X@X@X@X@X@X#X#X#X#X@X$XOXOXOXOXOXOXOXOXOXOXF.F.F.V.V.V.V.OX$X5X6XuXHXHXZXBXjXjXcXcXxXxXR.P.l.l.l.k.k.k.k.k.k.k.k.j.h.h.z.b.n.n.M.V.$X=XwXwXwXeXrXrXtXiXiXtX8X9X9X9X9X7X7X8X8X8X8XrXrXyXiXpXpXFXFXFXFXGXDXPXKXVXvXQ.*.=.{ ^ ^ Q 7 4 3 3 3 3 > > > > 3 3 3 > 3 3 4 9 ~ ! 9 9 9 5 4 3 3 > > 3 3 3 3 > 3 3 3 3 3 3 3 3 > > > > > > > > 3 3 3 3 3 3 3 3 3 3 3 3 3 3 3 3 3 3 3 3 3 3 3 3 3 > > > > > > > , > > > , , , , , , , , 1 1 1 1 r t N ` X.X.Y.VXKXKXUXKXKXKXPXSXCXuX0X0X7X7X7X7X|.|. X X X X X/./.1.<.2.2.;.;.;.:.a a g h h l l l 0 0 0 j ( 9./ / 9./ / h ( ~ ^ ^ ! _ [ E.E.E.E.S.Z.Z.Z.v.^.].kXbXbXbXbXbXbXt.y.w.t.nXnXNXNXNXNXNXNXNXNXNXNXNXNXNXNXNXNXNXbXbXoX'././.`. X/./.1.1.1././.`.`._.-X-X-X_.}._./.^././././.`. X X X X X X X X[.1.2.2.2.H I U } | o.&.&.&.&.*.*.*.*.*.r.r.u.s.nXnXbXbXbXbXbXMXbXbXbXd.d.d.d.d.",
"&X=XwX3X2X3X3XwX3X3X3X3X3X3X3X3X2X2X3X3X3X3X3X3X2X2X2X3X3X2X<X<X:X>X;X#X#X#X#X#X@X#X#X#X#X#X#X#X#X#X#X#X#X$X$XOXOXOXOXOXOXOXOXOXF.OXOXV.V.(.(.+X5X6XuXHXHXDXZXZXcXjXcXcXxXjXR.l.l.l.k.k.k.j.j.k.k.k.k.j.h.h.z.b.b.n.C.OX&XwXwX*XwXeXrXtXiXiXiXtX8X7X9X7X7X7X7X8X7X8X8XrXrXyXiXpXpXFXFXFXGXGXDXPXKXVXvXQ.*.=.{ { ^ Q Q 6 3 3 3 3 > > > > > > > > > 3 3 3 3 4 ~ =.~ ! 7 4 3 5 3 > > > > > > > > > > > > > > > > > > > > > > > 3 3 3 3 3 3 3 3 3 4 3 3 3 3 3 3 3 3 3 3 3 3 3 > > > > > > > > > > > , , , , , , , 1 1 1 1 1 r t ` ` X.X.fXKXKXKXKXKXKXKXPXZXuX0X0X7X8X8X7X7X7X7X|. X X X X X/.1.<.2.2.2.;.;.:.a j j h h h h q 0 0 0 j / / / / / / / h h ~ ^ ^ ^ ` [ X.E.A.S.Z.Z.N.N.N.^.^.].oXCXbXbXbXy.3.z a 3.nXMXMXMXMXNXNXNXNXNXNXNXNXNXNXNXNXNXnXnXbXoX'./././././.1.1.1./././._._.-X-X-X-X_.`.`././././././._. X X|. X|.|. X X X/././.1.2.W R X.X.o.' { { { &.*.*.*.*.*.*.r.i.nXnXbXbXbXbXbXbXbXbXbXbXbXbXd.d.",
"&X=XwX2X2X2X3XwX3X3X3X3X3X3X3X3X2X2X2X2X3X3X3X3X2X2X3X2X3X2X<X<X:X>X;X;X#X#X#X#X#X#X#X#X#X#X#X#X@X#X#X#X#X$XOXOXOXOXOXOXOXOXOXOXOXOXOX(.(.(.$X5X6XuXHXHXHXDXZXZXcXcXcXcXcXjXR.l.l.k.k.k.k.j.j.k.k.k.j.j.h.h.b.n.x.n.C.$X=XwXwX*XwXeXtXtXiXiXiXtX8X7X7X7X9X7X7X8X7X8X8XrXrXyXiXpXpXFXFXFXGXGXDXPXKXVXvXQ.*.&.{ { ' ^ Q 4 3 3 3 3 > > > > > > > > , > > > 3 5 ! | ~ ~ Q 5 3 > > > > > > > > > > > > > > > > > > > > > > > > > > 3 3 3 3 3 3 3 3 4 3 3 3 3 3 3 3 3 3 3 3 3 3 3 > > > > > > > > > > , , , , , 1 1 1 1 1 1 1 r t ` X.X.X.xXKXKXKXKXKXKXJXZXCXuX0X7X7X8X8X8X7X7X7X7X7X X|.|. X X/.1.1.2.2.;.;.:.a g g h j j h 0 0 0 g h h h h / / / / h h ~ ~ ~ ~ ~ } ..R S.Z.Z.N.N.(.(.).v.^.'.].].].3.3.H i i 3.bXMXMXMXMXNXNXNXNXNXNXNXNXNXNXNXNXNXnXnXbXoX3.2.1./.<.<.<./././.`.`.-X-X-X=X-X-X_.`.^././././././.}. X X|.}.}.7X7X|. X X X/./.'.].A.X.X.o.' { { { { &.&.&.*.*.*.*.r.t.hXbXbXbXbXbXbXbXbXbXbXbXMXnXd.",
"&X=XwX2X2X2X3XwX3X3X3X3X3X3X3X3X2X2X3X3X2X2X3X3X3X3X3X2X3X2X<X<X:X>X;X#X#X#X#X#X@X@X#X#X#X#X#X#X@X#X#X#X$X$X$XOXOXOXOXOXOXOXOXOXOXOX(.(.).`.5X6XuXHXFXFXGXZXZXZXbXcXcXcXcXjXR.S.l.k.k.k.k.j.j.k.k.k.j.h.h.b.b.n.n.M.(.&X=XwX9X=XeXrXtXiXiXpXiXiX7X7X7X9X9X9X7X7X7X8X8X8XrXyXiXpXpXFXFXFXGXGXDXPXKXVXvXQ.Q.&.=.{ ' ^ Q 4 3 3 > 3 > > > > > > > > > > > > 3 > > 3 9 ! ~ ! 5 > > > , > > > > > > > > > > > > > > > > > > > > > > > 3 3 3 3 3 3 3 3 3 3 3 3 3 3 3 3 3 3 3 3 3 3 > > > > > > > > > > , , , , 1 1 1 1 1 1 1 1 r u ` X.X.T.VXKXKXUXKXKXKXJXZXuX0X0X7X8X8X8X8X7X7X7X7X7X|.|.|.}. X[.[.[.1.1.2.;.;.a a g j j j 0 & 0 0 g h 0 h h / / / / h h h h h h (  .O.E A.Z.).).).).(.).v.v.v.Z.Z.P P 2.H s f H kXSXLXLXLXMXNXNXNXNXNXNXNXNXNXNXNXNXnXnXbXhX3.3.2.2.<.<.^././.`.`.`.-X=X=X=X=X-X_.`.^.^././.^./._.}. X|.7X7X7X7X7X}.}.7X X X/.'.].].U.+.X.o.{ { { { { { { &.*.W.*.r.t.hXbXbXbXbXbXbXbXbXbXbXbXbXbXnX",
"&X=XwX2X2X2X3XwX2X2X3X2X3X3X3X3X3X3X3X3X2X2X2X2X3X3X3X3X3X2X:X:X4X>X;X#X#X#X#X#X#X@X@X#X#X#X#X#X#X#X#X#X@X$X$X@XOXOXOXOXOXOXOXOX(.(.).).`.5XuXuXHXFXFXFXSXSXZXZXbXbXmXmXcXjXR.S.l.k.k.k.k.j.k.k.k.k.j.h.h.b.n.m.n.C.$X&XwXwX9XwXeXrXtXiXiXpXiXiX7X7X7X9X7X9X7X8X7X8X8XrXrXtXaXpXpXFXFXGXGXGXDXPXKXVXvXQ.Q.&.=.{ { ^ Q 4 4 3 3 > > > > > > > > > : > > > 3 > > 5 3 9 ~ 9 5 > > > > , , , > > > > > > > > > > > > > > > > > > > > 3 3 3 3 3 3 3 3 3 3 3 3 3 3 3 3 3 3 3 3 > > > > > > , , > > > > , , 1 1 1 1 1 1 1 1 1 r t B ` X.X.T.KXKXKXUXKXKXKXPXCXuX0X7XqXqX8X8X8X7X7X7X7X7X|.|.}.}.}. X[.[.[.[.1.2.;.a a g j z h 0 & 0 h h h h h h / / / / j h h h j j w.y.sX].].'.^.).).).).).^.^.).v.v.L <.<.G G 2.H '.CXIXIXLXLXMXMXNXNXNXNXNXNXNXNXMXMXMXbXhXhXy.3.3.2.<.<./.`._._.`.-X-X-X-X-X=X-X`.`.`./.`./.^./.}.}.}.7X7X9X7X7X7X}.7X7X7X|.|. XXX'.].].U.E.o.{ { ] { { { { &.*.W.lXhXhXbXbXoXoXoXoXoXoXbXbXbXbXbXa.",
"&X=XwX2X2X2X3XwX3X2X2X2X3X3X3X3X3X3X3X3X2X2X2X3X3X3X3X2X3X2X:X:X4X>X;X;X#X#X#X#X#X#X@X#X#X#X#X#X#X#X#X#X@X$X$X$X$XOXOXOXOXOXOXOX).).).`.0XaXuXHXFXFXGXAXZXSXSXSXbXbXmXcXhXjXU.S.l.k.k.k.k.k.k.k.k.k.k.h.b.b.n.m.B.C.$X1XwX9X9XwXwXeXtXiXpXpXpXiX7X7X9X9X9X7X9X8XqX8X8XrXrXtXiXpXpXFXFXGXGXGXDXPXKXVXvXQ.Q.&.=.=.{ ^ Q 4 4 3 3 > , , > > > > > > > 5 > , 3 5 > > 5 9 9 5 > > > > , , , , : , , , > > > > > > > > > > > > > > > > 3 3 3 3 3 3 3 3 3 3 3 3 3 3 3 3 3 3 3 3 > > > > > > , , > > > > , , 1 1 1 1 1 1 1 1 1 r t B ` X.X.xXKXKXKXUXVXKXPXDXCXaX0XqXqXqX8X8X8X7X7X7X7X7X X}.7X7X|. X[.[.[.[.1.2.;.a a a j g 0 & 0 h / 9./ j j j / / / j j j j j / 9.y.t.hX].3.^.^.^.).).).).`.`.).).^.^.^.^.L G <.G L uXGXGXLXLXMXMXMXNXNXNXNXNXNXMXMXMXbXhXt.t.y.3.3.2.<./.'._._.-X-X&X`.`.`.-X-X`.).).`.`.`.^.^._.0X}.9X9X9X7X7X7X7X}.7X}.7XqXqX|. XXX].].A.U.E.W.{ { { { { { { &.*.lXhXhXbXbXoXoXoXoXoXoXoX7.a.a.bXbX",
"&X1X<X<X1X3X2XwX3X3X3XwX3X3X3X3X2X2X2X2X2X2X2X2X2X2X3X3X3X1X1X:X:X>X;X#X#X#X#X#X@X@X@X@X@X@X#X#X@X#X#X#X#X#X+X+X+X+XOXOX$X+X(.(.`.`.`.0XuXCXAXZXSXSXSXSXAXAXAXSXbXbXmXmXcXjXU.l.l.k.k.k.k.k.k.k.k.k.k.h.b.b.b.m.B.@X,X<X*XwXwXwX9XeXtXtXiXpXpXpXtX0X9X9X7X7X7X8X8X8X8X8XyXiXiXpXpXFXGXGXGXGXDXPXVXVXvXlXQ.Q.&.{ { ' ! 7 4 3 5 5 , , > , , : , , > > > > > > > > > > > > > > > > , , : : , : : : : : : : : : : : : : : : : , > > > > > 3 3 3 3 3 4 4 4 4 4 4 4 4 3 3 3 3 > > > > > > > > , , , , , , , 1 1 1 1 8 8 8 8 r u ` } X...cXKXKXKXKXKXJXPXDXuXyXqXqXqXrXqX8X7X7X7X7X7X}.|.|.}.}.}. X X X X[.1.2.f i a a g & & g ( 9.9.9.9.9./ / / / j j j j >.:.>.w.e.y.3.3.2.<.^.^././././.`.`.).^.^.^.^.<.<.<.^.^.^.^.CXGXGXIXIXbXbXbXMXMXMXnXMXMXmXbXbXkXy.sXy.3.3.3.3.'.`.-X-X+X+X$X+X+X(.).).).).).`.`.^./.`._._._.7X7X7X7X7X7X7X}.}.7X7XqXqXqX|. X`.'.].].Y.T.Q.&.&.&.{ { { &.W.W.gXkXkXoXXXXX{.{.XXoXoXoXoXoXbXbX",
"&X1X<X<X1X3X2X2X3X3X3XwXwX3X3X3X2X2X2X2X2X2X2X2X2X2X3X3X3X1X1X:X:X>X;X#X#X#X#X#X@X@X@X@X@X@X#X#X#X#X#X$X#X#X+X+X+X+XOXOX+X+X(.).`.-X0XaXuXFXSXSXSXSXSXSXAXAXSXSXbXZXmXmXcXjXU.l.l.k.k.L.k.k.k.k.k.k.k.h.m.m.m.H.B.$X,X1X1XwXwXwXeXeXtXtXiXpXpXpXiXiX0X7X7X7X7X8XrXrXrXyXtXiXpXpXpXFXGXGXGXGXPXPXVXVXvXvXQ.Q.&.{ { ' ! 7 4 3 5 5 , , , , : : , , > > > , > > > > > > > > > > > > , : : : : : : : : : : : : : : : : : : : : , > > > > > > 3 3 3 3 3 3 3 3 3 3 3 3 3 3 3 3 > > > > > > > > , > , , , , 1 1 1 1 1 8 8 8 r t B ` X.X.@.VXKXKXKXKXPXDXDXCXaXyXqXqXqXqXqXqX7X7X7X7X7X7X|.}.}.}.}.}. X X[.[./.2.f i i p p & g  .e.e.g.g.9.9.9./ j j j h g j j >.9.y.y.y.3.3.2.<./././././././.^.^.^.^.^.^.<.<.<.^.^.^.^.'.'.].].].].].].bXMXbXbXbXbXkXkX3.3.3.3.y.y.3.3.3.'.`._.-X).(.+X(.(.).).).).).).`.).^./.`._.}.9X7X7X7X7X7X7X}.}. X X|.|.|.|. X X[./.'.].sXT.T.Q.Q.Q.&.{ &.&.W.W.gXkX].oXXX{.{.{.{.{.{.5.oXoXoXbX",
"&X<X<X<X2X3X3XwX3X3X3XwXwX3X3X3X2X2X2X2X3X3X2X2X2X2X3X3X3X1X1X<X:X>X;X#X#X#X#X@X#X#X@X@X@X@X@X@X#X#X#X#X#X#X#X+X+XOXOX+X+X+X+X-X_.0XaXuXFXGXGXSXSXSXSXSXAXAXSXSXSXZXmXmXcXjXU.S.l.k.k.L.k.k.k.k.k.k.k.h.m.m.m.H.OX&X1XwXwXwXwXwXeXeXrXtXiXiXpXFXpXpXiXyX0X0X0XyXyXtXtXiXiXpXpXFXFXFXGXDXGXGXPXPXVXVXvXvXQ.Q.&.{ { ' ! 7 4 5 5 5 , > , , : : : : , , : : , , , , , > > > > > > > , , : : : : : : : : : : : : : : : : : : : , > , > > > > > 3 3 3 3 3 3 3 3 3 3 3 3 3 3 3 > > > > > > > > > , , 5 , 1 1 1 1 1 8 8 8 8 r t ` ....O.dXJXUXJXJXPXPXDXCXuXaX0XqXqXqXqXqXqX7X7X7X7X7X7X|.}.}.}.}.}.}.}. X X[.2.f i i i & & g e.i.g.g.g.g.g.9./ j h h g g g z >.y.y.y.y.3.3.2.1.1.1.1.1.1././.^.^.^././.^.<.<.^.).).).).).).N.v.^.v.L ^.].CXbXbXCXoX].2.2.2.3.3.3.3.3.3.'.'.).).).).(.(.(.(.(.).v.v.^.).^.^.^.`.`._.}.9X-X}.}.}.}.}.}.}. X X X X.X X X[.[.[./.'.].U.T.R.Q.Q.Q.Q.Q.Q.Q.W.jXkXoXoX{.{.{.{.{.{.5.5.5.5.oXoX",
"&X1X<X2X2X3X3XwX3X3X3X3XwX3X3X3X2X2X2X2X3X2X2X2X2X3X3X3X3X1X1X<X:X>X;X#X#X@X#X@X#X#X@X@X@X@X@X@X#X#X#X$X$X$X#X+X+X$X$X+X+X`.-X=X0XaXHXFXGXGXSXSXSXSXSXSXAXSXSXSXSXLXJXmXcXjXU.S.l.k.L.L.k.k.k.k.k.k.k.b.m.m.m.H.$X,XwXwXwXwXwXwXwXeXeXeXyXiXpXpXpXpXpXiXaXyXiXiXiXiXiXpXpXpXFXFXFXFXGXGXGXGXPXJXVXVXVXvXQ.Q.&.{ { ' ! Q 5 5 5 5 , , , : : : : : , , : : : : : : : : , , , , , > , : : : : : : : : : : : : : : : : : : : : : , > > > > > > 3 3 3 3 3 3 3 3 3 3 3 3 3 3 3 > > > > > > , , , , , 5 1 1 1 1 1 1 1 8 8 r t B } ..O.E gXJXPXJXPXPXGXCXuXaX0X7XqXqXqXqXqXqX7X7X7X7X7X7X7X}.}.7X9X}.}. X X X/.2.f i i % & p T e.f.g.g.g.g.g.g.9.9.9.j h g z 3.3.3.3.3.3.2.2.2.<.1.1.1.1.<.1.<.<.^./././.^.^.^.).(.OX(.(.+X(.(.N.(.N.v.^.'.'.].].].'.^.L <.<.2.2.3.3.].].'.'.).).).).N.N.N.N.N.v.v.v.^.^.^.^.^./.`._._._._._._.}.}.}.}.}. X X X X X[.[.[.[.[.[./.'.].sXU.R.R.Q.Q.Q.Q.Q.Q.jXkX].oXXX{.{.{.{.{.5.5.5.5.{.XX",
"&X1X2X<X2X3X3XwX3X3X3X3XwX3X3X3X3X3X3X3X2X2X2X2X3X3X3X3X3X<X<X<X:X>X;X#X#X#X#X#X#X#X#X#X#X#X@X@X#X#X#X#X#X$X+X#X$X$X+X+X`.`.-X0XuXuXFXGXGXSXSXSXSXSXSXSXSXSXSXSXSXLXmXmXcXjXU.S.l.k.L.L.k.k.k.k.k.k.k.b.m.m.B.F.,X3XwXeXwXwXeXeXwXwXwXwX8XyXiXpXpXpXpXpXpXpXpXpXpXpXpXFXFXFXFXFXFXGXGXDXGXDXPXJXVXVXVXvXQ.Q.*.&.{ ' ^ ! 9 5 5 > : : : : : : : : : : : : : : : : : : : : : , , , : , : : : : : : : : : : : : : : : : : : : : : , , , > > > > > > 3 3 3 3 3 3 3 3 3 3 3 > > > > > > , , , , , , 8 1 1 1 1 1 1 1 1 1 r u N U R E E jXJXPXPXDXDXFXuXaX0X7X7XqXqXqXqXqX7X|.|.7X7X7X7X}.}.}.7X9X7X}.}. X X/.<.f i i i p z w.e.g.g.g.g.g.g.g.0.0.0.9.>.j >.y.3.3.2.2.<.<.<.<.2.2.2.1.<.<.<.<.<./././.^.^.^.).(.OXOXOXOXOXOX(.(.OX(.N.).^.^.^.v.^.^.v.<.^.<.<.G 2.3.].].'.'.).).).N.N.N.N.v.v.v.v.v.v.v.v.^.^./.`.`.`._._._._._.}.}.}.}././.[.[.[.[.[.[.[.[.[.[./.'.].].fXR.R.Q.Q.Q.Q.Q.fXkX].oXXX{.{.{.{.{.{.{.{.{.{.{.",
"&X1X2X<X2X3X3XwX3X3X3X3XwX3X3X3X3X3X3X3X2X2X2X2X3X3X3X3X2X2X1X<X:X>X;X#X#X#X#X#X#X#X@X@X#X#X#X#X#X#X#X#X#X$X$X#X$X$X+X+X-X-X0XaXCXFXGXGXGXGXSXSXSXSXSXSXSXSXSXSXSXSXMXmXcXjXA.S.l.k.L.L.k.k.k.k.k.k.k.b.m.m.F.;X3XwXeXeXwXwXwXeXeXwXwX9X9X9XyXiXpXpXpXFXFXFXFXFXFXFXFXFXFXFXGXGXFXGXGXGXGXDXPXJXcXVXVXvXQ.Q.Q.&.{ ' ^ ! 9 5 5 , : : : : : : : : : : : : : : : : : : : : : : , , : : : : : : : : : : : : : : : : : : # # : : : , , > , > > > > > 3 3 3 3 3 3 3 3 3 3 3 > > > > > , , , , , , , 8 1 1 1 1 1 1 1 1 r t B N U R E E cXJXPXDXDXHXFXaXyX0X7XqXqXqXqX.X.X.X|.|.|.|.7X7X|.}.}.}.}.}. X}.[.[./.<.G i i i a >.y.9.9.g.g.g.g.g.0.9.9.0.9.>.z 3.3.3.<.^././.<.<.<.;.2.2.<.<.<.<.<./././.^.<.^.).OXOXOXF.OX@XOXOXOXOX$X(.N.(.).).^.v.v.N.^.^.^.<.<.<.<.<.'.'.'.).).).).v.v.v.v.v.v.v.v.v.v.L v.v.^.^./.`.`.`.`.`.`.`./././././././././././././.[.[.[.[.'.'.].].kXsXjXxXR.R.R.jXkX].oXXX[.{.{.{.{.{.{.{.{.{.{.",
"&X1X2X2X3X3X3XwX3X3X3X3XwX3X3X3X3X3X3X3X3X3X3X3X2X2X3X3X2X2X1X<X:X>X;X#X#X#X#X#X#X#X#X#X#X#X#X#X#X#X#X#X#X$X+X+X$X+X+X+X-X5XaXuXGXGXGXGXGXSXGXSXSXSXSXSXSXSXSXSXSXSXJXmXcXkXA.S.l.k.k.L.k.k.L.L.L.L.b.b.m.H.F.,X3XwXeXeXwXwXwXeXeXeXeXeX9X9X9XyXiXiXpXpXFXFXFXFXFXFXFXGXGXGXGXGXGXGXGXGXGXDXPXVXcXVXVXvXQ.Q.Q.&.{ ' ^ ! 9 8 , > : : : : : : : : : : : : : : : : # : : : : : : : : : : : : : : : # # # # : : : : : # # # : : : : , , > > > > > > 3 3 3 3 3 3 3 3 3 3 3 > > > > > , , , , , , 1 8 1 1 1 1 1 1 1 8 r t B N U ..+.U.ZXPXZXFXFXuXaXaXqXqXqXqXqXqXqX.X.X.X.X.X|.|.}.|.|.|.}.}.}.}. X X[./.1.1.2.i i i >.y.p.0.0.0.g.g.g.0.0.9.>.>.>.>.:.3.3.2.^./././.<.G G f ;.2.<.<.^.^.^././.^.<.<.^.).OX@XOXOX@X@X@X@X@X@X$X(.N.(.`.`.).^.).).^.^.^.^.<.<.<.^.^.^.^.).).).N.v.v.v.v.v.v.v.v.v.L L v.v.^.^.^.^.^.).^.^.^.^.^././././././././././././.[.[.[.[. XXXXX].].].kXjXjXjXjXjXkX].oXXX[..X{.{.{.{.{.{.{.{.{.",
"&X1X2X2X3X3XwXwX3X3X3XwXwX3X3X3X3X3X3X3X3X3X3X3X2X2X3X3X3X2X1X<X:X>X;X#X#X#X#X#X;X;X#X#X#X#X;X#X#X#X#X#X#X$X+X+X$X+X+X+X-X0XuXHXDXGXGXGXSXSXGXSXSXSXSXSXSXSXSXSXSXSXmXmXcXkXA.S.k.k.k.L.k.k.L.L.K.J.m.b.J.H.@X4X3XwXeXeXwXwXwXeXeXeXeXeX9X9X-X9XyXtXiXpXFXFXFXFXGXGXGXGXGXGXGXGXGXGXGXDXDXDXPXVXcXVXKXvXQ.Q.Q.&.{ ' ^ ! 9 8 5 > : : : : : : : : : : : # : : : : # # # : : : : : : : : : : : : : : # # # : : : : # # # # # : : : , , , > > > > > 3 > > 3 3 3 > > 3 3 3 > > > > > , , , , , , 1 8 1 8 1 1 1 1 1 8 r t B N ..O.U.sXZXGXSXFXFXaXaXyXqXqXqXqXqXqX.X.X.X.X.X.X|.|.|.|.|.|.}.}.}. X X X[./.1.1.2.f i f >.3.w.9.0.0.9.9.9.0.0.>.:.>.>.>.;.;.2.1././././.<.G G f ;.2.<.^.^.^.^././.<.<.<.^.(.@XG.@XOX@X@X@X@X@XG.@XOX(.+X-X`.^.^.).^.^.^.^.^.^.^.^.^.^.).^.).).).v.v.v.v.v.v.v.v.L L L L L v.v.^.^.^.^.^.).).).`.`.`.`.`.`._. X X X X X X[.[.[. X X.X X[.'.'.].].kXkXjXjXjXkX].XX[.[.[.{.{.{.{.{.{.{.{.{.",
"=X1X1X2XwXwX3X3X3X3X3X3X3X3X3X3X3X3X3X3X3X3X3X3X3X3X3X2X1X<X1X,X4X>X#X#X;X#X#X#X#X#X#X#X#X#X#X#X#X#X#X$X+X+X+X+X+X+X+X-X5XuXHXFXGXGXGXSXSXSXSXSXGXSXSXSXSXSXSXSXLXLXJXZXkXkXA.S.k.k.k.L.k.k.L.J.K.J.J.m.m.@X4X3XwXwXwXwXwXwXwXeXwXwXeX8X8X9X9X9X8X8X0XyXiXpXFXGXGXGXFXGXGXGXGXGXGXGXDXDXPXPXPXZXcXVXVXvXW.Q.Q.*.=.' ' ! Q 5 5 , , : : : # # : : : # # # # # # @ # # # # # : : : : : : : : : # # # # # # # # # # : : : : : : : : : , , > > > > > > > > > > > > > > > > > , , , , , , , , , , 1 1 1 1 1 1 1 1 1 w w t B N R R +.sXDXGXFXAXpXaXtXyXqXqXqXqXqX.X.X.X.X.X{..X.X.X X X X X}.}. X X[.[.[./.[.[.1.2.f f 3.3.>.>.>.0.0.9.q.9.>.>.:.:.>.,.;.2.1././.`.^.<.G G f f ;.2.^.^.).^.^./.^.<.<.^.(.OXOX@XOXOXOX@XOX$XF.F.$X(.).`.7X`.^.^.v.^.^.^.<.<.^.^.^.).(.).(.N.N.v.v.v.v.c.v.v.x.c.c.L L L L L v.v.v.^.^.).).).).`._._._._.}. X X X X X X X X X X X|.|. X|. X X XXX'.].].].].].'.XX X X X.X{.{.{.{..X{.{.{.",
"%X1X1X2XwXwX2X3X3X3X3X3X3X3X3X3X3X3X3X3X3X3X3X3X3X3X2X2X1X<X1X,X4X>X#X#X;X#X#X#X#X#X#X#X#X#X#X#X#X#X#X$X+X+X+X+X+X-X-X5XaXuXFXGXGXGXGXSXSXSXSXSXGXGXSXSXSXSXSXSXLXLXLXZXkXkXA.S.k.k.k.L.k.k.L.J.K.J.L.m.H.;X4X3XwXwXwXwXwXwXwXwXwXwXeX9X9X9X8X8X9X9X9X0XyXaXFXFXGXGXGXGXGXGXGXGXGXGXDXDXPXPXJXZXcXcXVXvXW.Q.Q.*.&.{ ' ^ Q 9 8 , : : : # # # : # # # # # # # @ @ # # # # # # : : : : : : : : # # # # # # # # # # : : : : : : : : : : , , > > > > > > > > > > > > > > > > , > , , , , , , , 1 1 1 1 1 1 1 1 1 w w r t B N R E U.sXZXDXFXAXpXaXyXrXqXqXqXqX.X.X.X.X.X.X{.[.[.[. X X X X X X X X[.[././.[.[.1.2.2.2.2.2.;.;.:.:.>.9.>.>.>.>.:.;.>.3.2.2.1./././.<.L s f f ;.;.2.<.^.).^.^.^.<.^.^.^.(.OXOX@XOXOXOX@XOX$XOXOXOX(.).-X7X`.^.^.^.^.^.^.L L ^.^.N.N.N.N.N.N.v.v.v.v.v.v.c.c.J J J J L L L L v.v.^.^.^.^.).).`.`._._._._._.}.}.}.}.}.}. X X X X|.|.|. X|. X X7X0XXXXX'.'.].'.XX X X X X.X{.{.{.{..X{.{.{.",
"&X1X1X1XwXwX2X2X3X3X3X3X3X3X3X3X3X3X3X3X3X3X3X3X2X2X2X2X1X<X:X,X4X>X#X#X;X#X#X#X#X#X#X#X#X#X#X#X#X#X$X$X+X+X+X+X+X&X5X0XaXCXAXGXGXIXIXIXLXLXSXSXSXGXGXSXSXSXSXSXLXLXLXZXkXkXA.S.k.k.k.k.k.k.L.J.J.J.L.m.G.;X3X3XwXwXwXwXwXwXeXeXeXeXeXeX9X8X8X8X8X9X9X9X0XyXpXFXFXGXGXGXGXGXGXGXGXGXDXDXPXPXJXZXVXcXVXvXQ.Q.Q.*.&.&.' ' ! 9 8 , : : : # # # # # # # # # # @ @ @ # # # # # # # : : : : : : : # # # # # # # # # # : : : : # # # : : : : , , > > > > > > > > > > > > > > > , , , , , , , , , , 1 1 1 1 1 1 1 1 w r t B N N R E U.kXZXZXAXAXaXiXtXqXqXqXqXqX.X.X.X.X.X{.[.[.[.[.[.[.[.[. X X[.[./.1.1.[.[.[.[.1.2.2.2.2.2.;.;.;.:.>.>.>.>.>.;.;.;.3.1.1.1././.^.<.G f f f ;.2.2.<.^.^.^.^.<.<.^.^.^.(.OXOXOXOXOXOX@XOX@XOXOX(.).).0X7X`.^.^.^.^.^.<.L L ^.v.N.v.N.N.v.v.v.v.v.v.c.c.v.v.c.J J J L L J L v.v.N.).^.).(.).).).`._._._._.9X9X9X}.}.}.}.}. X}.|.|.|. X X X7X7X7X7X|. X X'._. X X X X X X.X.X.X.X.X.X{.{.",
"%X1X1X1XwXwX<X2X3X3X3X3X3X3X3X3X3X3X3X3X3X3X3X3X2X2X2X2X2X<X:X,X4X>X#X#X;X#X#X#X#X#X#X#X#X#X#X#X#X#X$X$X+X+X+X+X+X-X0XaXuXCXSXSXIXIXIXIXLXLXLXSXSXGXGXSXSXSXIXSXLXLXLXJXkXsXS.Z.k.k.k.k.k.k.L.L.L.L.m.H.;X4X3X3XwXwXwXwXeXwXeXeXeXeXeXeX9X8X8X8X8X8X9X9X7XyXiXpXFXFXGXGXGXGXGXGXGXGXDXDXPXPXZXBXVXcXVXVXlXQ.Q.Q.&.&.' ' ! 9 8 : : : : # # # # # # # # # @ @ @ @ # # # # # # : : : : : : : : : : # # # # # # # # : : : : # # # # : : : : , , , > > > > > > > > > > > > > , , , , , , , , , , 1 1 1 1 1 1 1 1 w r t B N U R E sXkXZXZXAXuXaXiXrXqXqXqXqXqX.X.X.X.X.X{.{.4.4.4.[.[.[.[.[.[.[.[.1.1./.[.[.[.[.4.4.1.1.1.2.2.;.;.;.;.;.;.>.>.;.;.;.2.1.1.1././.<.G G f f a ;.3.2.<.^.^.^.<.L <.^.).).(.(.OXOXOXOXOX@XOXOXOXOX(.).`.0X}./.^.^.^.^.<.L L ^.^.v.N.v.v.v.v.v.L L J J J J c.c.c.c.c.c.c.c.x.x.v.M.M.N.(.(.(.(.(.).-X-X-X-X-X-X-X-X9X9X7X}.}.}.}.}.}. X X|.7XqXqXqXqX7X|.|. X X X X|.|..X X.X.X.X.X.X.X.X{.",
"=X1X1X1X2X2X<X2X2X2X2X2X2X2X2X2X2X2X2X2X3X3X2X2X2X2X2X2X1X<X:X,X4X>X#X#X;X#X#X#X#X#X#X#X#X#X#X#X#X#X$X+X+X+X+X%X-X=X0XaXCXSXSXIXIXIXIXIXIXIXGXGXSXSXGXSXSXIXIXIXLXLXJXZXkX].S.k.k.k.k.k.k.k.k.k.L.b.m.G.,X3XwXwXwXwXwXwXwXeXeXeXrXeXeXeXeXeXeXeX8X8X9X9X9X8XyXaXpXFXFXGXGXGXGXGXGXGXGXGXDXDXZXBXVXcXVXVXxXQ.Q.Q.&.| ' ` ! 9 8 : : : : # # # # # # # # # @ @ @ @ # # # # # # # : : : : : : : : : # # # # # # # # # # # # # # # # : : : : : : , , , , , > > > > > , , , , , , , , , , , , , , 1 1 1 1 1 1 1 w r r t B N U R E sXkXZXSXAXaXaXyXrXqXqXqXqXqX.X.X.X.X{.{.{.4.4.4.4.4.4.4.[.[.4.1.1.1.[.[. X[.[.[.4.1.4.1.4.4.4.1.2.2.;.;.;.;.;.;.;.2.1.1.1.1.2.;.f f z a z z z H 2.<.^.L L <.^.^.^.).).+XOX@XOXOXOX@XOXOXOXOX(.).`. X/.^.<.^.^.<.<.L L v.v.v.v.v.v.v.L J J J J c.c.c.x.x.c.c.c.c.x.x.n.n.M.B.B.B.V.V.N.V.(.(.+X-X=X=X-X-X-X-X9X8X8X9X}.}.}.}.}.}.|.7XrXrXrXrXqX7X|.|. X|.|.|.|.|..X X.X.X.X.X.X.X.X.X",
"=X1X1X1X2X2X<X2X2X2X2X2X2X2X2X2X2X2X2X2X2X3X2X2X2X2X2X2X1X<X:X,X4X>X#X#X;X#X#X;X#X#X#X#X#X#X#X#X#X#X$X+X+X+X%X&X-X9X0XuXCXSXLXIXIXLXIXIXLXIXIXGXGXSXSXSXSXIXIXIXLXLXJXZXkXA.Z.j.k.k.k.k.k.k.k.k.k.b.J.;X3X3XwXwXwXwXwXwXwXeXeXeXrXrXeXeXeXeXeXeX9X8X8X8X9X8XyXyXaXpXHXFXGXGXIXIXGXGXGXIXPXPXZXBXVXxXVXVXvXW.Q.Q.&.| ' ` ! 9 5 , : : # # # # # # # # # @ @ @ @ @ # # # # # # # : : : : : : : : : # # # # # # # # # # # # # # # # # : : : : : : : , , , , > > > > , , , , , , , , , , , , , , 1 1 1 1 1 1 1 r r r t B N U R E sXkXZXSXAXaXaXyXrXqXqXqXqXqX.X.X.X.X{.{.{.4.4.4.4.4.4.4.4.4.1.1.1.1.[.[. X[.[.[.4.4.4.4.4.4.[.[.1.1.;.;.;.;.;.;.;.2.1.1.2.2.2.f i a z z g g k I W P <.L <.^.^.^.^.).).(.OXOXOXOXOX@XOXOXOXOX).)._. X/.<.<.^.<.<.<.G L L v.v.c.c.L L L J J J c.c.c.c.n.x.c.c.c.c.c.c.x.n.m.m.m.m.M.M.M.N.(.(.).).`.-X-X-X-X-X8XtXtX8X7X7X7X}.}.}.7XqXrXrXrXrXqX7X}.|.|.|.|.|.|.|. X X.X.X X X X X[.[.",
"%X1X1X1X2X2X<X2X2X2X2X2X2X2X2X2X2X2X2X2X2X2X2X2X2X2X2X2X1X<X:X,X4X>X#X#X;X#X#X#X#X#X#X#X#X#X#X#X#X$X#X+X+X+X%X&X-X0XaXuXAXSXLXIXLXLXLXLXLXLXIXGXGXIXSXSXSXIXIXIXLXLXJXcXsXA.Z.j.j.j.k.k.k.k.k.k.k.b.G.4X3XwX2XwXwXwXwXeXwXwXeXrXrXrXeXeXeXeXeXeXeXeXeX8X8X8XyXyXaXaXpXHXGXGXGXGXIXIXIXIXIXPXJXVXVXjXcXVXvXQ.Q.Q.&.o.' ` ! 9 5 , : : # # # # # # # @ @ @ @ @ @ @ # # # # # # # # : : : : : : : # # # # # # # # # # # # # # # # # # # # : : : : : , , , , > > > > > > > > , , , , , , , , , , 1 1 1 1 1 1 w r r r t B ` ..O.U.kXZXZXAXAXaXaXyXqXqXqXqXqXqX.X.X.X.X.X{.[.4.4.4.1.1.1.1.1.1.1.1.1.1.[.[. X X[.[.4.4.1.4.4.4.[.[.[./.1.;.;.;.;.;.;.2.1.1.2.2.;.f a a g h h 0 0 k W W L L ^.^.^.^.).).).(.OXOXOXOXOX@XOXF.OX(.).`.`./.1.<.<.1.<.<.G G L L v.v.c.J J L J J J c.c.c.z.z.z.c.J c.Z.Z.c.J c.x.n.n.x.x.M.C.C.N.N.).5X5X-X`.`._._._.8XtXrXqX7X7X7X7X}.}.7X7XtXrXrXrXqX7X X X|.|.|.|..X X.X.X.X.X X[.[.[.[.[.",
"%X1X1X<X2X2X<X2X2X2X2X2X2X2X2X2X2X2X2X2X2X2X2X2X2X2X2X2X1X<X:X,X4X>X#X#X;X#X#X#X#X#X#X#X#X#X#X#X$X$X+X+X+X+X%X=X-X0XaXAXSXGXIXIXLXLXLXLXLXLXIXGXIXIXIXSXSXIXIXIXLXLXJXcXsXA.Z.j.j.k.k.k.k.k.k.k.k.m.;X3XtXwX<XwXwXwXwXeXwXwXeXrXrXeX8X9XeXeXeXwXeXeXeX8X8X8XyXyXaXaXpXHXHXGXGXGXGXGXIXIXPXPXZXVXVXjXcXVXvXQ.Q.Q.&.o.' ` ! 9 5 , : : # # # # # @ # @ @ @ @ @ @ @ # # # # # # # # : : : : : : : # # # # # # # # # # # # # # # # # # # # : : : : : : , , , > > > > > > > > , , , , , , , , , , 1 1 1 1 1 r w r r r B ` X.X.+.sXkXZXZXAXuXaXaXyXqXqXqXqXqXqX.X.X.X.X.X[.[.4.4.2.2.2.1.1.1.1.1.2.1.1.[.[.[. X/./.1.4.1.4.4.4./.[.[./.4.2.;.;.;.;.;.2.1.2.2.2.f f a g h h q 2 2 k T W L <.^.^.^.).).).).(.OXOXOXOXOX@XOXV.(.(.).`./.1.1.<.<.1.<.G G G L L L J J J J J J J J c.c.z.z.h.h.c.c.'.6X6X].Z.c.x.x.c.c.x.C.5X(.v.v.).aXpXiX=X`.`._._.}.8XqX7X}.}.}.7X}.}.}.7XtXrXrXrXqX|. X|.|.|.|.|..X.X.X.X.X.X X[.[.[.[.[.",
"%X1X1X<X3X3X<X2X2X2X2X2X3X2X2X2X2X2X2X2X2X2X2X2X3X3X2X2X2X<X<X:X:X>X#X#X#X#X#X#X#X#X#X#X#X#X#X#X#X#X+X+X+X+X-X=X-X0XuXFXGXGXIXIXIXIXIXIXIXLXLXLXSXSXSXLXLXIXLXLXLXLXZXkX].Z.b j.k.k.k.k.k.k.k.k.h.J.4X3XwXwXwXwXwXwXwXwXwXwXwXwXwXwXwXeXeX8XeXeX8X8XeXeXeX8XyXyXaXaXpXpXHXHXHXFXGXGXGXPXPXZXVXcXjXjXcXVXxXW.Q.Q.&.o.' ` ! 8 5 , : : # @ @ @ @ @ @ @ @ @ @ @ @ @ @ @ # # # : : : : : : : : : # # # # # # # @ @ @ # # @ @ @ # # # # # # : : : : : : : : , > > > > > > > > > , , , , , , 1 1 1 1 1 1 w w w w w t S ` X.X.R U.sXBXZXAXAXuXaXiXyXqXqXqXqXqXqX|.|.|..X|. X[.4.3.3.3.3.3.3.2.1.1.2.1.4.4.[.[././.4.4.4.8.4.4.4.[.[.[. X[.1.2.;.;.;.;.2.2.2.;.f f z g g h ( q 2 2 l I I <.^.'./.^.^.).(.(.(.OXOXOXOXOXOX(.).).^./././.<.<.<.2.2.G G G G J J J J c.c.c.J J c.z.z.h.h.z.z.b Z.6XBXBXBXCXCX6XZ.J b c.'.uXFXuX6X].uXFXGXFXuX'.^.`.7X7X}._.}.}.}.}.}.}.}.}.}.qXqXqXqX|.}. X|.|.|.|.|.|.|.|.|. X.X.X.X.X X[.[.",
"%X1X1X<X3X3X<X2X2X2X2X2X3X3X2X2X2X2X2X2X3X2X2X2X3X3X2X2X3X<X<X:X>X>X#X#X#X#X#X#X#X#X#X#X#X#X#X#X#X#X+X+X+X+X-X=X0XaXpXFXGXGXIXIXIXIXIXIXIXIXLXLXLXSXSXLXIXIXLXLXLXJXZXkXA.K b j.k.h.k.k.k.k.k.k.m.G.4X3XwXwXwXwXwXwXwXwXwXwXwXwXwXwXwXeXeX8XeX8X8X8XeXeXeX8XyXtXaXaXpXpXuXHXHXFXGXGXDXDXDXZXcXjXjXjXcXVXxXW.W.W.&.o.' ~ ! 8 5 , : : # @ @ @ @ @ @ @ @ @ @ @ @ @ # # # # # : : : : : : : : : # # # # # # @ @ @ @ @ @ @ @ @ @ @ @ # # # # : : : : : : : , > > > > > > > > > , , , , , , 1 1 1 1 1 w w w w w w t S B X.O.A.U.kXZXZXAXAXuXaXiXyXqXqXqXqXqXqX7X|.|.|. X X[.'.3.y.y.w.y.3.3.3.2.2.2.1.1.'.'.'.'.1.2.2.8.2.4.4.[.[.[.[./.1.2.2.;.;.;.2.2.;.f f a a g g ( ( q q u l I H ^.'.'.^.^.^.).).).(.OXOXOXOXOX+X(.).^.^././.<.<.<.<.2.2.G G G D J J J c.c.c.c.c.c.z.h.h.h.z.z.b Z.].BXBXZXZXZXZXCX].J K ].CXGXGXGXFXAXSXGXGXGXCXoX'.0X0X7X}._._.}.}.}.}.}.}.}.}.7X7X7X7X}.}.}.|.|.|.|.|.|.|.|.|. X X X.X.X.X X[.",
"%X1X1X<X3X3X<X2X2X2X2X2X2X2X2X2X2X2X3X3X3X3X2X2X3X3X2X2X3X<X<X:X:X>X#X#X#X#X#X#X#X#X#X#X#X#X#X#X#X+X+X+X+X-X-X=X0XaXFXGXGXGXLXLXLXLXLXLXLXLXLXLXIXLXLXIXIXIXIXLXLXZXZXkXS.K b j.j.h.h.k.k.k.k.b.H.;X3X3XwXwXwXwXwXwXwXwXwXwXwXwXwXwXwXeXeX8XeX8X8X8XeXeXeXeXyXtXaXaXpXpXuXCXHXHXDXGXDXDXZXZXjXjXjXjXxXvXxXW.W.W.&.o.' ~ ! 9 , , : # # @ @ @ @ @ @ @ @ @ @ @ @ @ # @ # # # : : : : : : : : : # # # # # # @ @ @ @ @ @ @ @ @ @ @ @ # # # # # : : : : : : : > > > > > > > > > , , , , , , 1 1 1 1 1 w w w w w w S S A R E A.sXBXZXCXAXAXaXaXyXyXqXqXqXqX8X7X7X7X|.|. X X'.].sXr.r. . . .3.3.2.2.3.3.3.3.].].].3.3.3.>.2.2.4.1.1.1./.1.1.1.1.1.2.2.;.2.;.f f a p g h ( ~ q q l k F P '.'.^.^.^./.^.).).).(.OX+XOX(.(.).^.^./.1.<.<.<.2.2.2.G G G D D c.c.c.z.z.z.z.z.x.z.h.h.h.j.b J ].kXZXbXhXhXhXbXZX].F W kXIXIXLXLXLXLXLXLXLXLXLXAXAXpXiXyX7X}.}.}.}.}.}.}.}.}.}.}.}.}.}.}.}.}. X|.|.|.|.|.|.|.|. X.X X.X X.X[.[.",
"%X1X1X<X3X3X<X2X2X2X2X2X2X2X2X2X2X2X2X3X3X3X2X2X3X3X2X2X2X<X<X<X>X>X#X#X#X#X#X#X#X#X$X$X$X$X$X$X$X+X+X-X-X-X=X=XaXuXHXGXGXSXLXLXLXLXLXLXLXLXLXLXIXIXIXIXIXIXIXIXZXZXkX].Z.K b j.h.h.h.k.k.k.h.m.;X,X3XwXwXwXwXwXwXwXwXwXwXwXwXwXeXeXwXeXeX8XeX8X8X8XeXeXeXeXyXtXaXaXpXpXpXCXHXHXDXDXDXDXZXBXjXjXjXjXxXvXlXW.W.*.&.| ' ~ ! 9 , , : # @ @ @ @ @ @ @ @ @ @ @ @ @ @ # @ # # # : : : : : : : : : # # # # # @ @ @ @ @ @ @ @ @ @ @ @ @ @ @ # # # # # # : : : : , , > > > > > , , , , , , , , 1 1 1 1 1 w w w w w e S B A R A.A.sXBXHXHXAXpXaXiXyXqXqXqX8X8X8X8X7X7X7X7X X X'.].sX$.$.| | } T 3.3.3.3.3.y.y.@.@.@.y.w.3.>.>.;.2.1.1.1.1.1.1.1././.1.<.2.2.;.f i p g h h ( ( q l T I H 2././.^.^./././.^.).).).(.+X(.).).^.^./.1.1.<.<.<.2.2.G G G D J J c.z.b.b.b.b.b.b.b.b.b.b.j.b J Z.kXZXbXhXhXhXhXnXhXy.T sXmXLXLXmXMXMXMXMXMXMXMXMXLXSXFXpX0X}.}.}.}.}.}.}.}.}.}.}.}.}.}.}.}.}.|.|.|.|.|.|.|.|.|.|. X.X X X X X[.[.",
"&X1X1X<X3X3X<X2X2X2X2X2X3X3X3X3X2X2X2X3X2X2X2X2X3X3X2X2X2X<X:X<X>X>X;X#X#X#X#X#X$X$X$X$X$X$X#X$X$X+X+X-X-X-X=X0XaXuXHXGXSXSXZXJXLXLXLXLXLXLXLXLXIXIXIXIXIXIXDXSXZXZXkXA.Z.j.j.h.h.h.h.k.k.k.b.H.,X3X3XwXwXwXwXwXwXwXwXwXwXwXwXwXeXeXwXeXeXeX8XeX8X8XeXeXeX8XyXtXaXaXpXpXpXHXHXHXHXDXDXZXZXBXjXjXjXfXxXvXxXW.W.*.o.| ' ~ ! 8 , , : # # @ @ @ @ @ @ @ @ @ @ @ @ @ @ @ # # # : : : : : : : : : # # # @ @ @ @ @ @ @ @ @ @ @ @ @ @ @ @ @ @ # # # # # : : : , , , , , > > , , , , , , , , 1 1 1 1 1 1 w w w w w e S B A R A.A.].CXFXFXFXpXaXiXyXyX8X8X8X8X8X7X7X7X7X7X}. X'.].sX$.| ` | } l T T 3.y.y.$.$.o.o.|  . .w.>.>.>.;.;.2.2.2.1.1.1./.[./.1.2.;.;.f i a z ( ( ( %.( ( T W 2.1././././.1.1././.).).).).(.).).).^.^.1.1.2.2.2.2.2.2.G D D J J J x.b.n.m.m.m.b.b.b.b.b.h.c.K Z.].kXbXhXhXt.t.u.nXhXr.y.hXmXMXMXMXMXMXMXMXMXMXMXMXMXLXSXpXXX_.}.}.}.}.}.}.}.}.}.}.9X9X}.}.7X}.}.}.|.|.|.|.|.|.|.|. X X X X X X X[.",
"&X1X1X<X3X3X<X2X2X2X2X2X3X3X3X3X2X2X3X3X2X2X2X2X3X3X2X2X2X<X:X:X>X>X#X#X#X#X#X#X#X$X$X$X#X#X#X$X+X+X+X-X-X-X=X0XaXuXHXGXDXZXZXJXPXPXLXLXLXLXLXLXIXIXPXPXIXPXDXZXZXBX].S.Z.c.h.h.h.h.h.k.k.h.m.@X3X3XwXwXwXwXwXwXwXwXwXwXwXwXwXwXeXeXwXwXeXeX8XeX8X8XeXeXeX8XyXtXaXaXpXpXpXHXHXHXHXHXZXZXBXjXjXjXjXfXxXvXlXW.W.*.o.| ` ~ t 8 , , # # # @ O O O @ @ @ @ @ @ @ @ @ @ @ # # # : : : : : : : : : # # @ @ @ @ @ @ @ @ @ @ @ @ @ @ @ @ @ @ @ @ @ # # # : : : , , , , , , , , , , , , , 1 1 1 1 1 1 1 1 w w w w w S S B R R A.A.].CXFXFXFXpXaXiXyX0X0X0X0X7X9X9X7X7X7X}.}. X'.].U.o.' ` ' ~ ( T T  .r.y.&.o.' ' ' |  . .9.>.>.>.;.;.;.2.2.1.1./.[.[.1.1.f ;.f i a z j h (  . .l z 2.2.1.1././.1.2.1.1././.^.).).).).).^./.1.1.2.2.2.2.2.2.G G D J J c.c.n.b.b.b.m.m.b.b.b.b.h.z.S.].kXZXhXmXzXu.u.u.u.nXhXt.y.hXmXmXMXNXMXMXMXNXNXMXMXMXMXLXSXuX`./.}. X}.}.}.}.}.}.}.}.9X9X9X7X}.}.}.}. X X|.|. X|.|..X X X X X X X X[.",
"&X1X1X<X3X3X<X2X2X2X2X2X2X2X2X2X2X2X2X2X2X2X2X2X3X3X2X2X2X<X:X:X>X>X#X#X#X#X#X#X$X$X#X#X#X#X#X#X+X+X%X-X-X-X=X0XaXuXHXDXZXZXZXZXZXPXPXPXIXIXIXIXIXPXPXPXDXDXDXZXZXBX].Z.c.h.h.h.h.h.k.k.k.b.H.,X1X1XwXwXeXeXwXwXwXwXwXwXwXwXwXwXwXwXwXwXeXeXeXeX8X8XeXeXeX8XyXiXaXaXaXpXpXHXHXHXHXCXZXZXkXjXjXjXfXT.xXvXlXW.W.*.o.| ` ~ t 8 , : # # @ O O O O O @ @ @ @ @ @ @ @ @ @ @ # # : : : : : : : : : # # # @ @ @ @ @ O O @ @ @ @ @ @ @ @ @ @ @ @ @ # # # : : : : , , , , , , , , , , , , 1 1 1 1 1 1 1 1 w w w w w S B A R A.A.A.].CXFXFXpXpXaXaXyX0X0X0X0X0X0X0X0X7X}.}.}.XX].A.X.' ' ' ' ~ u (  . .%.} &.' ' ' ' | %. .9.>.>.:.:.:.;.;.8.1.4.4.[.[.1.<.f f f a a a g 0 g z z z z 2.2.4.4.4.4.1.2.2.1.1././.).).).).^.^./.1.1.2.;.;.2.2.L G G J J c.x.x.z.b.b.b.b.b.b.b.b.b.j.c.6XBXkXmXhXnXu.u.s.s.t.s.t.t.y.t.nXnXNXNXnXNXNXNXNXNXMXMXMXLXSXoX/./. X X9X}.}.}.}.}.}._.9X9X7X7X}.}.}.}. X X X X X X X|. X X X X X X X X",
"&X1X1X<X3X3X<X2X2X2X2X2X2X2X2X2X2X2X2X2X2X2X2X2X3X3X2X2X2X<X:X:X>X>X#X#X#X#X#X#X#X$X#X#X+X+X#X+X+X+X%X-X-X-X=X0XaXuXHXDXZXZXZXZXZXZXPXPXPXPXPXIXIXPXDXDXDXDXZXZXBXkXS.Z.c.h.h.h.h.k.k.k.b.m.F.4X1X1X3XwXeXeXwXwXwXwXwXwXwXwXwXwXwXwXwXwXeXeXeXeX8XeXeXeXeX8XyXiXaXaXaXpXpXHXHXHXHXCXZXBXkXjXjXjXfXT.xXvXlXW.W.$.o.| ` ~ t 8 , : # # @ O O O O O @ @ @ @ @ @ @ @ @ # # # # : : : : : : : : : # # @ @ @ @ @ @ O O O O O O O O O O @ @ @ @ @ @ # # : : : : , , , , , , , , , , , , 1 1 1 1 1 1 1 1 w w w w w S B A R A.A.].kXCXFXFXpXpXaXaXaX0X0X0XaX0X0X0X0X0X}._._.'.].U.X.' ' ' ' ^ ~ (  .%.%.} { { { { ' | %. .j >.>.:.:.:.>.;.8.8.4.4.4.[.1.<.f f f ;.a a p p g g z z ;.2.2.4.6.6.4.2.2.2.1.1././.^.).).).^.^.1.1.2.;.;.;.2.2.L L L J c.c.z.n.z.z.b.b.b.b.b.b.j.z.j.c.6XBXkXhXt.t.t.u.s.s.u.s.t.t.e.u.nXnXNXNXNXNXNXNXNXNXNXNXMXLXCX].<./._.`.}.}.}.}.}.}.}._._.9X9X7X}.}.}.}. X X X X X X X X.X X X X X X X X",
"&X=X<X<X3X3X<XwX1X1X1X1X1X1X<X<X<X<X2X2X3X1X1X2X3X2X1X<X<X1X1X<X&X#X#X$X$X$X$X#X$X$X$X+X+X+X+X+X+X+X-X-X-X=X0X0XuXuXCXCXCXZXZXDXDXPXPXDXDXPXPXPXDXDXDXDXZXDXDXZXBX6XZ.c.c.h.h.h.h.h.h.h.b.F.,X2X<X<XwXeXeXeXwX9XwXwXwXwXwXwXwXwXwX9X9X9XeXeXeX8X8X8XeXrXrXrXyXiXaXaXaXaXuXHXHXHXHXCXCXkXkXjXjXfXT.T.lXxXlXT.$.$.o.| ` ~ t 8 , : # # # # # # # # @ @ @ @ @ @ @ @ @ # # # # # # # # # # # # # # # @ @ @ @ @ @ @ @ @ @ @ @ @ @ @ @ O @ @ @ @ @ @ # # : : : , , , , , , , , , , , , 1 1 1 1 1 1 1 1 < w w w t B A R R U.A.A.].CXFXAXpXpXaXaXaXaXuXuXoX].].].].].'.'.].].].U.X.' ' ^ ' ^ ~  .%.%.| ~ { { { { ' ' |  .( j j j >.>.>.>.;.8.4.4.4.4.2.f f i f ;.a p p p p z a a ;.;.2.7.7.7.,.8.;.2.1./.^.^.^.^.^.^.^./.1.2.2.;.;.;.G G G L L c.c.x.x.x.x.x.x.z.c.c.z.h.z.b J Z.].kXhXhXt.u.s.s.s.s.s.t.u.e.e.u.nXNXNXNXNXNXNXNXNXNXNXNXnXbX].3.2.[.[./. X}.}.}.}.}.}.}.}.}.}.}.}.}.}.}. X|. X X X X X X X X X X X X X[.",
"&X1X<X<X3X3X<XwX2X2X1X1X1X1X1X2X<X<X<X1X2X1X1X2X2X2X1X<X<X<X1X,X&X#X#X+X$X$X$X$X$X$X+X+X+X+X+X+X+X-X-X-X-X=X0X0XuXuXCXCXCXZXDXDXDXDXDXDXDXDXDXDXDXZXZXZXZXDXBXBX6XS.Z.c.z.h.h.h.h.h.h.h.m.@X,X3X<XwXwXeXeXeXwXwXwXwXwXwXwXwXwXwXwX9X9X9XeXeX8X8X8X8XeXrXrXrXyXiXaXiXaXaXuXHXHXHXCXCXBXkXkXjXjXfXT.Y.T.xXW.$.$.$.o.| ` ~ t 8 , : # # # # # # # @ @ @ @ @ @ @ @ @ @ @ # # # # # # # # # # # # # # @ @ @ @ @ @ @ @ @ @ @ @ @ @ @ @ O @ @ @ @ @ @ # # : : : , , , , , , , , , , , , 1 1 1 1 1 1 1 w < w w w t B A R A.U.A.].].CXFXAXpXpXaXaXaXaXaXuXoX].].].].].].].].].].U.X.' ' ^ ^ Q ~ %.%.%.~ ~ { { { { ' ' |  . .( / / / >.>.>.;.2.4.1.1.1.2.;.;.;.;.;.a i p p z z a ;.;.>.8.7.7.,.,.>.;.2.1.1./.^.^.^.^.^./.1.1.2.2.2.2.2.G G G L L J c.c.c.c.c.c.c.c.J J c.z.c.b c.].CXkXhXhXt.u.s.u.u.s.s.u.u.e.e.u.nXnXnXNXNXNXNXNXNXNXnXnXt.hXbXbXoXoXXX/.`._.}.}.}.}.}.}.}.}.}.}.}.}.}.}.|. X X X X X X X X X X X X X X[.",
"&X=X<X<X3X3X<XwX2X2X2X2X1X2X2X<XwX<X<X<X2X1X1X3X2X1X<X<X<X1X1X>X&X#X#X$X$X$X$X$X+X+X+X+X+X+X+X+X+X+X-X-X-X-X=X5X6XuXuXBXCXCXDXDXDXDXDXDXDXDXDXDXZXZXZXBXBXBXBXBX6XZ.c.c.z.z.h.h.h.h.h.m.H.;X4XwX1XwXwXwXeXwXwXwXwXwXwXwXwXwXwX9XeX9XwXeXeXeX8X8X8X8X8XeXrXrXyXiXiXpXpXpXpXHXHXHXCXCXkXkXkXjXfXfXT.Y.T.lXW.$.$.o.o.` ` ! t 8 , : # # # @ # # @ @ @ @ @ @ @ @ @ @ @ @ @ # # # # # # # # # # # # # @ @ @ @ @ @ @ @ @ @ @ @ @ @ @ @ O @ @ @ @ @ @ @ # : : : , , , , , , , , , , , , 1 1 1 1 1 1 1 1 < w w w S B A R E.U.A.].kXCXFXAXpXaXaXaX0XaXoXoXkX].kXsX].].].].].].sXU.X.` ^ ^ ^ 7 ~ | %.| ^ ^ ^ _ _ ] ] ' o.X. . . .( (  .>.3.2.2.1.2.2.2.;.;.;.;.;.;.a i a a >.a a ;.>.>.,.7.,.,.,.>.8.2.2.1.1.1.1.<.^.<.1.1.1.<.<.2.2.G f f D D J J J L L v.v.v.v.^.'.'.Z.v.c.b Z.6XZXkXhXhXs.s.s.u.t.u.s.u.t.e.y.t.u.nXnXnXnXnXnXnXnXnXt.t.t.t.hXbXSXAXoXXX/./.}.}.9X_.}.7X}.}.}.}.}.}.}.}.}.}. X X X X X X X X X X X X X[.",
"&X=X<X<X3X3X<X<X2X2X2X2X2X2X2X2X2X<X<X<X1X1X1X1X1X<X<X<X1X1X1X>X#X#X#X$X$X$X$X$X+X+X+X+X+X+X+X+X+X-X-X-X-X-X5X5X6X6X6XBXBXBXDXDXDXDXDXDXDXDXDXDXBXBXBXBXBXBXBX6XZ.Z.c.c.z.z.h.h.h.h.h.H.;X,X2XwXwXwXwXwXwXwXwXwXwXwXwXwXwXwXwX9XeX9XwXeXeXeX8X8X8X8X8X8XrXrXyXiXiXpXpXpXpXHXHXHXCXCXkXkXjXjXfXY.T.T.T.lXW.$.$.$.| ` ~ t 9 1 , : @ # @ @ @ @ @ @ @ @ @ @ @ @ @ @ @ @ @ @ # # # # # # # # # # @ @ @ @ @ @ @ @ @ @ @ @ @ @ @ @ @ @ O @ @ @ @ @ @ @ # : : : , , , , , , , , , , , , 1 1 1 1 1 1 1 w < w w w S A A R A.A.A.].kXCXAXCXaXaXaXaX0XXXoXoXCXkXkXsXy.y.+.E ].].sX@.X.~ ! Q Q 6 Q | | ~ Q Q ^ ^ _ _ ] ' o.o.%.%.%.%.%. .3.3.2.2.1.2.;.;.;.;.;.;.a a a i a >.>.a ;.>.>.>.,.,.,.,.,.>.>.8.2.1.1.1.1.1.1.1.<.1.<.<.G 2.2.G f f D G G P P <.2.3.'.'.'.'.3.3.'.Z.J b J ].ZXkXt.hXs.s.s.s.s.s.s.s.t.e.w.t.u.zXnXnXnXnXnXnXnXt.t.y.t.t.hXbXMXSXAXoX/./._.}.}.-X-X9X9X9X9X}.}.}.}.}.}.}. X X X X X X X X X X X X X[.",
"&X1X<X<X3X3X<X<X2X2X2X2X2X2X1X1X<X<X<X<X<X<X>X1X<X<X<X<X1X<X,X%X#X#X#X+X+X+X$X$X+X+X+X+X+X+X+X).+X-X-X-X-X-X5X5X6X6X6XBXBXBXBXDXDXDXDXDXDXDXDXDXBXBXBXBXBX6X6X6XZ.x.c.z.z.z.h.h.h.h.b.G.,X4X<XwXwXwXwXwXwXwXwXwXwXwXwXwXwXwXwX9XeXwX9X9XeX8XeX8X8X8X8X8XrXyXyXiXaXpXpXpXpXHXHXCXCXBXkXkXjXfXT.T.T.T.fXlXW.T.$.o.| ` ~ t 9 1 : : @ @ @ @ @ @ @ @ @ @ @ @ @ @ @ @ @ @ @ @ # # # # # # # # # @ @ @ @ @ @ @ @ @ @ @ @ @ @ @ @ @ @ @ O @ @ @ @ @ @ @ # : : : , , , , , , , , , , , , 1 1 1 1 1 1 w w < w w w S A R R A.A.A.].].CXAXAXaXaXaXaXXXXXoXoXuXkXkXsXr.#.O...E +.@.$.| ~ Q Q 7 4 9 ` | Q Q Q ^ ^ ^ _ _ [ &.&.o.o.o.o.|  . .3.2.2.1.2.;.;.;.;.;.;.i a a i a >.;.a ;.>.>.>.,.,.,.,.,.>.>.8.2.1.1.1.1.1.1.1.1.<.^.<.<.2.2.f f f H H 2.2.3.3.3.3.3.3.3.3.3.2.2.L J x J ].ZXkXt.t.s.s.s.s.s.s.s.s.t.y.w.e.u.u.u.zXu.nXnXnXu.t.y.y.e.t.t.nXMXMXbXbXXXXX/._._.9X9X-X9X}.}.}.}.}.}.}.}.}. X X X X X X X X X X X X X X",
"&X=X<X<X3X3X<X<X2X2X2X1X1X1X1X1X1XwXwXeXwX<X<X1X<X<X<X<X1X,X&X%X#X#X#X$X+X+X+X$X+X+X+X+X+X+X).).`.+X-X-X+X-X5X5X6X6X6XBXBXBXBXBXBXBXBXBXBXBXBXBXBXBXBX6X6X6X6X5Xn.x.z.z.z.h.h.j.h.z.B.;X4X:X<X2XwXwX*X*X*X*XwXwXwXwXwXwXwXwXwX9XwXwXwXeXeX8XeX8X8X8X8X8XrXyXiXiXaXaXpXpXuXHXHXCXCXkXkXsXjXfXT.T.T.T.T.lXT.$.o.o.| ` ~ t 8 1 : : @ @ @ @ @ @ O O @ @ @ @ @ @ @ @ @ @ @ @ @ # # # # # # # @ @ @ @ @ @ @ @ @ @ @ @ @ @ @ @ @ @ @ @ O @ @ @ @ @ @ @ # : : : , , , , , , , , , , , , 1 1 1 1 1 w w w < w w w S A R A.A.A.A.].kXCXAXAXoXoXaXaXXXXX0XXXuXoXkXkXdX@.O.} U ..X.$.o.~ Q 7 6 4 9 ~ ~ Q 7 Q ^ ^ ^ _ _ ] { &.{ &.&.&.o.X. .3.2.1.1.2.;.;.;.;.i i i a a a a :.a a ;.,.>.>.,.,.,.,.>.>.8.8.2.1.1.1.1.1././.^.^.^.<.<.2.H f f H 2.2.2.3.3.3.>.>.;.>.;.;.;.;.H G J b J Z.BXZXhXhXs.nXnXnXnXnXnXnXt.y.w.e.t.u.u.u.u.s.nXu.t.e.y.y.e.t.t.nXnXMXbXbXoXoX[.`._.9X}._.9X9X}.}.}.}.}.}.}.}.}. X X X X X X X X X X X X X",
"&X=X<X<X3X3X<X<X1X1X<X<X<X<X<X<X1XwXrXtXeX1X1X1X<X*X<X<X<X<X%X%X#X#X+X+X+X+X+X+X+X+X+X+X+X(.).).).).+X+X+X+X5X5X6X6XBXBXBXBXBXBXBXBXBXBXBXBXBXBX6X6X6X6X6X6X5XC.x.x.z.z.h.h.h.h.h.n.F.,X3X1X1X1XwXwX*X*X*XwXwXwXwXwXwXwXwXwXwXwXwXwX9XeXeXeXeX8X8X8X8X8XrXyXiXpXaXaXpXpXuXHXHXCXBXkXkXsXfXfXT.T.Y.Y.T.lXT.$.o.o.| ` ~ t 8 , : # @ @ @ @ @ @ @ O @ @ @ @ @ @ @ @ @ @ @ @ @ @ @ # # # # @ @ @ @ @ @ @ @ @ @ @ @ @ @ @ @ @ @ @ @ @ O @ @ @ @ @ @ @ # : : : , , , , , , , , , 1 , , 1 1 1 1 1 w w w < w w r S A X.U.A.A.A.].kXCXAXAXoXoXaXaXXXXX0X0XXXoXoXkXhXr.#.} } N ` } | ~ Q 7 4 3 4 9 9 6 6 Q Q ^ ! _ _ ] { { { { { { | | T 3.2.2.1.2.;.2.;.;.;.;.;.a a a ;.;.f ;.>.>.>.>.,.>.>.,.,.>.8.8.4.4././././././.^.^.^.<.<.2.H H f ;.;.;.;.;.;.:.:.:.:.:.:.:.;.;.H G J J b Z.].ZXhXhXnXnXNXNXNXNXNXnXu.y.w.w.e.e.t.t.u.u.t.e.y.y.y.e.e.t.u.nXnXnXnXMXbXoXXX`._._._._.-X_._.}.7X9X}.}.}.}. X X X X X X X X X X X X X X",
"&X=X<X<X3X3X<X<X<X<X<X<X<X<X<X<X<XwXtXrXwX<X%X,X*X*X<X<X<X&X%X%X#X#X+X+X+X+X+X+X+X+X+X+X(.(.).).).).).+X).+X5X5X6X6XBXBXBXBXBXBXBXBXBXBXBXBXBXBX6X6X6X6X6X5X5XC.n.n.b.z.h.h.h.b.z.B.$X,X3X2X1XwXwXwXwX<XwXwXwXwXwXwXwXwXwXwXwXwXeXwX9XeXeXeX8X8X8X8X8X8XrXyXiXpXaXaXpXpXHXHXCXCXBXkXsXsXdXR.T.T.Y.Y.T.lXT.T.o.o.| ` ~ t 8 , : # O O O O O O O O @ @ @ @ @ @ @ @ @ @ @ @ @ @ @ @ # @ # @ @ @ @ @ @ @ @ @ @ @ @ @ @ @ @ @ @ @ @ @ O @ @ @ @ @ @ @ # : : : , , , , , , , 1 1 1 , 1 1 1 1 1 1 w w w w w w r S A X.U.A.A.A.].kXCXAXAXoXoXaXaXXXqX0X0XXXXXoXkXkXdX$.X.} u 9 q ~ ~ 9 7 3 3 3 3 4 4 6 7 Q Q ! ! _ _ ] ] { { { { ' | T W 2.1.1.2.2.2.2.2.;.;.;.;.a ;.;.;.f ;.>.>.:.>.,.>.>.,.>.>.8.8.4.4././././././.^.^.^.<.<.H H H ;.;.;.;.;.;.:.:.:.:.:.:.:.:.:.;.H D J J x b ].kXkXhXnXnXNXNXNXNXNXNXu.e.w.w.w.w.y.y.e.y.w.w.w.y.e.e.e.t.nXNXNXnXnXbXbXoXXX/._._._._.-X-X_.}.9X9X9X}.}.}. X X X X X X X X X X X X X X",
"$X&X<X:X1X,X1X*X<X<X<X<X<X<X1X1X<X<X<X<X*X*X*X*X*X*X<X1X1X,X&X%X#X#X#X#X+X+X+X+X+X+X+X+X+X).).).).).).).(.+X$X5X6X6XBXBXBXBXBXBXBXBXBXBXBX6X6X6X6X6X5X5X5X5XC.C.n.z.z.z.z.z.h.h.z.C.&X1X<X1X1X1XwXwX1X1X1X1XwXwXwXwXwXwXwXwXwXwX9X9X9X9X9X8X8X8X8XeXeXeXrXtXiXaXaXpXpXuXHXHXCXCXkXkXkXsXY.T.T.T.Y.T.T.lXT.$.o.o.| ` ! t 8 , # @ O O O O O O O O @ @ @ @ @ @ @ @ @ @ @ @ @ @ @ @ @ @ @ @ @ @ @ @ @ @ @ @ @ @ @ @ @ @ @ @ @ @ @ @ O O @ @ @ @ @ @ : : : : , , , , , , 1 1 1 1 1 1 1 1 1 1 1 w w w w w e e S B X.E.A.A.A.].kXAXAXbXoXoXoXoXXX0X7X7X|.XXoX].kXsX#.} } ` ~ Q 7 9 6 3 3 > > , , > 3 4 7 Q Q ! _ _ ] ] { ' ' ' | } T 3.2.2.2.;.2.2.2.1.2.2.2.;.;.;.;.;.;.;.>.>.>.>.>.,.>.,.,.8.8.8.4.1././.`.`.`.).).^.^.<.2.f a :.>.>.:.:.:.:.:.:.:.:.:.:.:.:.;.;.H D J J J b K ].kXbXhXnXNXNXNXmXNXNXu.w.w.w.9.( 9.9.9.9.w.w.w.w.e.t.t.u.nXnXnXnXnXmXbXAXoX[./._._._.9X-X-X9X}.9X}.}.}.}.}.}.}.}. X X X X X X X X X X",
"+X&X<X<X1X,X1X*X<X<X<X<X<X1X1X1X<X<X<X<X<X*X*X*X*X*X<X<X1X,X%X%X+X+X+X+X+X+X+X+X+X+X+X+X).).).).).).(.(.(.(.$X5X6X6X6XBXBXBXBXBXBXBXBXBXBX6X6X6X6X5X$X$XC.C.C.M.b.z.z.z.z.h.h.h.b.F.&X1X<X<X1X1X1XwX1X1X1X1XwXwX9XwXwXwXwXwXwX9X9X9X9X9X9X8X8X8X8XeX8XeXyXyXaXaXaXpXpXuXHXCXCXCXkXkXkXsXY.T.T.T.Y.T.T.lXT.$.o.o.' ` t 9 8 , # @ O O O O O O O O @ @ @ @ @ @ @ @ @ @ @ @ @ @ @ @ @ @ @ @ @ @ @ @ @ @ @ @ @ @ @ @ @ @ @ @ @ @ @ @ @ O @ @ @ @ @ # : : : : , , , , , , 1 1 1 1 1 1 1 1 1 1 1 w w w w w e e t B A A.A.A.A.].kXAXAXbXoXoXoXoXXX0X7X7X|.|.XXoX].y...} } ` ~ Q 7 4 7 7 9 9 q ~ q q 3 3 6 7 Q ! _ _ ] ] { ' ' ' ` } T 3.2.2.2.;.2.1.1.4.1.1.2.;.;.;.;.;.;.;.;.:.:.>.>.>.>.>.,.8.8.8.1.1././.`.`.`.).).^.^.<.2.f a :.:.:.:.:.:.:.:.:.:.:.a :.:.a ;.;.H D J J J b J Z.].kXbXbXnXNXNXNXNXnXt.w.( ( ( / / / ( 9.9.w.w.w.y.e.t.u.nXnXnXnXNXmXbXbXoX'./._._._.9X-X-X9X-X}.}.}.}.}.}.}.}.}. X X X X X X X X X X",
"+X&X<X<X1X,X1X*X<X<X<X<X<X1X1X1X1X<X<X<X<X*X*X*X*X*X<X<X<X&X%X%X+X+X+X+X+X+X+X+X+X+X+X+X).).).).).(.(.(.(.(.$X5X6X6X6XBXBXBXBXBX6X6X6X6X6X6X6X6X5XC.F.F.V.C.C.n.z.z.h.h.h.h.h.h.n.F.&X1X<X1X1X1X<X<X1X1X1X1X1X1X*X9XwXwXwXwXwX9X9X9X9X9X8X8X8X8X8X8X8X8XyXyXaXaXpXpXpXuXCXCXCXkXkXkXsXsXY.T.T.T.Y.T.T.lXT.T.o.o.` ` r 8 1 , # @ O O O O O O O O @ @ @ @ @ @ @ @ @ @ @ @ @ @ @ @ @ @ @ @ @ @ @ @ @ @ @ @ @ @ @ @ @ @ @ @ @ @ @ @ @ @ @ @ @ @ # # : : : : , , , , , , , 1 1 1 1 1 1 1 1 1 1 1 w w w w w w e S A R A.U.A.].CXAXAXCXoXoXoXoX0X0X7X7X7X7X|.XX].3.U l ~ ~ ~ ^ 7 4 4 9 9 ~ ( %.%.( Q 9 4 6 Q ! _ _ ] ] { { ' ` `  .w.3.3.2.2.2.1.1.[.[.1.4.1.2.;.;.;.i ;.;.;.:.:.>.>.>.>.>.>.8.2.2.1./.`.`._.-X+X`.).^.^.<.G f :.:.:.:.:.:.:.:.:.:.:.:.:.:.a a a f G D J J J c.b J Z.].kXbXnXmXNXKXNXzXw.j j / / / / / / 9.9.w.w.w.y.e.e.u.nXnXnXnXnXnXMXbXoX'./.`._._.-X-X-X-X-X-X}.}.9X}.}.}.}.}.}. X X X X X X X X X",
"+X&X<X<X,X,X1X*X<X<X<X<X<X1X1X1X1X<X<X<X<X*X*X*X*X*X%X=X&X%X%X+X+X+X+X+X+X+X+X+X+X+X+X+X(.).(.).(.(.(.(.N.(.$X5X6X6X6XBXBX6X6XK.6X6XK.K.K.6X5X5X$XV.F.F.B.B.B.n.z.z.h.h.h.h.h.z.M.OX&X1X*X1X1X1X<X<X<X1X1X1XwXwX9X*XwXeXeXwX9X9X9X9X9X9X8X8X8X8X8X8X8X8XyXyXaXaXpXpXuXuXCXCXBXkXkXkXsXY.Y.T.T.T.Y.T.T.lXT.T.o.o.` ` r 8 1 , : @ O O O O O O O O @ @ @ @ @ @ @ @ @ @ @ @ @ @ @ @ @ @ @ @ @ @ @ @ @ @ @ @ @ @ @ @ @ @ @ @ @ @ @ @ @ @ @ @ @ @ # # : : : : < , , , , , , 1 < < < < 1 1 1 1 1 1 w w w w w e w S A A U.U.A.].CXCXAXCXoXoXoXoXXX0X7X7X7X7X|.XXoX].O.} u u ~ ^ ^ 9 7 6 q ~ ( %.%.%.( ~ 6 7 7 Q _ _ { { { { | | | %.w.3.3.2.G 2./.[.[.[.[.[.1.2.;.;.i i ;.;.;.>.>.>.:.:.:.>.>.8.2.1./.`.`.-X-X-X-X+X).^.^.<.f a :.:.:.:.:.:.:.:.:.:.:.a a a a a ;.f H D D J c.c.c.J J '.].kXkXmXmXMXNXu.j h h ( 9.9.9./ / / / 9.9.w.w.e.e.u.nXnXnXnXnXnXmXbXoX'./.`._._.-X-X-X-X-X9X9X}.9X}.}.}.}.}.}.}. X X X X X X X X",
"+X&X=X<X1X,X1X*X*X*X*X<X<X<X1X1X1X<X<X*X<X*X*X=X*X*X*X%X&X%X#X+X+X+X+X+X+X+X+X+X+X+X+X(.(.(.(.).(.N.N.N.N.C.5X6XK.K.BXBXBXBXK.K.K.K.K.K.K.K.C.C.C.V.V.V.B.B.B.b.z.z.z.h.h.h.z.z.B.$X&X1X*X1X1X<X<X<X1X1X1XwXwXwX*X*X9X8XeX8X9X9X9X9X9X9X8X8X8X8X8X8X8X8XyXyXaXuXpXuXuXHXCXCXBXkXkXjXjXR.T.T.T.U.@.T.T.W.T.T.o.o.` ~ r 1 1 < # @ O O O O O O O O @ @ @ @ @ @ @ @ @ @ @ @ @ @ @ @ @ @ @ @ @ @ @ @ @ @ @ @ @ @ @ @ @ @ @ @ @ @ @ @ # @ # # @ @ # # : : : : < < , , , < , < 1 1 1 1 < < < < < < 1 w w w e e w S A A E.U.A.].uXCXAXuXoXoXoXoXoX0X0X7X7X7X|.XXoX].y.#.l q q ^ ( ~ Q 6 ~ ( ( %.%.%.( ~ Q 7 7 Q ! { { { { { | | %.%.w.3.3.f G <.[. X X X[.[./.1.2.;.i i ;.;.;.>.:.:.:.:.:.>.8.2.1././.`.`.-X-X%X-X`.).^.<.G f :.:.:.:.:.:.:.:.:.:.:.:.a a :.:.:.;.;.2.H D J J c.c.c.J L P ].3.sXhXmXNXy.h g h ( 9.9.9.9./ / / / 9.9.w.w.e.u.nXnXnXnXnXnXmXMXbX'.^.`._.`.-X-X-X-X9X9X9X9X9X9X9X}.}.}.}.}. X X X X X X X X",
"-X&X=X<X,X,X1X*X*X*X*X*X*X*X*X*X1X1X1X*X<X*X*X=X*X*X%X%X&X%X+X+X+X+X+X+X+X+X+X+X+X+X(.(.(.(.(.(.N.N.M.M.N.C.K.6XK.K.R.R.BXBXK.K.K.K.K.K.K.C.C.C.C.M.B.B.B.B.m.b.z.z.z.h.h.h.z.x.V.$X&X1X*X*X1X*X*X*X*XwX*XwX9X9X*X-X*X8X8X8X9X9X9X9X9X9X9X9X8X8X8X8X8X8XyXaXaXuXaXaXuXCXCXCXkXkXkXjXjXR.T.T.T.U.@.T.T.W.T.T.o.| ` t 8 1 1 : # @ O O O O O O O O @ @ @ @ @ @ @ @ @ @ @ @ @ @ @ @ @ @ @ @ @ @ @ @ @ @ @ @ @ @ @ @ @ @ @ @ @ @ @ @ # # # # @ @ # # : : : : < < , , , < , < 1 1 1 1 < < < < < < < w w e e e w S A A E.U.A.].uXCXCXuXoXoXoXoXoXoXXXXX X X XXXoX].y.r. .( q ~ ( ( ~ 9 q q ( ( ( ( ( ~ 4 6 7 ! ' { { { { ' ' | %.%.w.w.3.f G 1./.`. X X[.[./.1.2.f f ;.;.;.;.;.;.;.:.:.:.>.8.2.1./././.`._.-X-X`.`.).^.<.f a :.:.:.:.:.:.:.:.:.:.:.a a :.:.:.:.>.>.3.3.H H J J c.c.c.J J P H W sXmXnXw.h g h / ( 9.9.9./ / / / / 9.w.w.e.u.s.nXnXnXnXnXnXMXbX]./.`._.`.-X-X-X-X-X-X9X-X-X-X-X}.}.}.}.}. X X}. X X X X X",
"+X&X*X<X1X1X=X*X*X*X*X*X*X*X*X*X1X1X1X*X<X*X=X=X=X=X&X%X&X%X+X+X+X+X+X+X+X+X+X+X(.(.(.(.N.N.N.N.N.M.M.M.C.C.6X6XK.S.E.R.BX6XK.K.K.K.K.Z.C.C.B.B.M.n.M.B.B.B.n.z.h.h.h.h.j.j.z.x.V.$X1X<X*X*X*X*X9X9X9X9X=X=X=X9X=X-X=X8XyX8X9X9X9X9X9X9X9X9X8X8X8X7X8X8XyXaXaXuXuXuXuXCXCXBXkXkXjXjXjXR.Y.T.T.U.#.T.R.T.T.o.o.` ! t 1 1 < : # @ O O O O O O O O @ @ @ @ @ @ @ @ @ @ @ @ @ @ @ @ @ @ @ @ @ @ @ @ @ @ @ @ @ @ @ @ @ @ @ @ @ @ @ @ # # # # @ # # # : : : : , , , , , < < < < < < < < < < < < < < w w e e e w S S A E.A.A.].uXCXCXuXoXoXoXoXoXoXoXXXXXXXXX'.].3.y.y.y.w.( ( ~ ~ q q > 5 q q q ~ ~ 9 4 7 ^ ' ' { ' ' ' ' ^ | %.%. .w.z f 2./././.[. X[.[./.1.2.f f ;.;.;.;.a a a ;.;.:.;.;.2.1.1./././.`.`.`.`.`.^.^.G f a :.:.:.:.:.:.:.:.:.:.:.:.a :.:.:.>.>.>.>.>.3.2.G J J c.c.L J K F F T hXhXw.h h h j / / 9.9.9./ / / / / 9.w.e.e.u.u.nXnXnXnXnXnXbXoX'./.`.`.-X-X-X-X-X-X-X_.-X-X-X9X}.}.}.}.}.}.}. X X X X X",
"-X&X*X<X1X1X=X*X*X*X*X*X*X*X*X*X<X1X1X*X<X*X=X=X=X=X=X&X%X%X+X+X+X+X+X+X+X+X(.(.(.(.(.N.N.N.v.v.M.M.x.M.C.C.K.6XK.A.E.E.sXK.S.S.K.K.K.Z.C.B.M.M.n.x.n.M.m.m.n.h.j.h.h.h.j.j.z.x.V.$X=X*X*X=X*X*X*X9X9X9X9X9X9X9X9X-X9XyXyX8X9X9X9X9X9X9X9X8X8X8X7X7X8X8XyXaXaXuXuXuXuXCXCXBXkXkXkXjXjXR.Y.T.U.U.U.T.R.T.T.o.` ` t r 1 1 < : # @ O O O O O O O O @ @ @ @ @ @ @ @ @ @ @ @ @ @ @ @ @ @ @ @ @ @ @ @ @ @ @ @ @ @ @ @ @ @ @ @ @ @ @ @ # # # # # # # # : : : : , , , , : : : < < < < < < < < < < < < w w e e w w S S A E.A.A.].uXCXCXuXoXoXoXoXoXoXoXXX'.'.'.].3.3.3.w.e.e.w.( q q q q q q q q q q q 9 Q ~ ^ ^ ^ ! ! ^ ' ' ' ^ ( %. .T d f 2.[././././.[././.1.2.f f ;.;.i i i a a ;.;.;.;.;.2.1.1.1.1././.`.`.`.^.^.<.G f z :.:.:.:.:.:.:.:.:.:.:.:.:.:.:.:.:.>.>.>.>.3.2.G L J J J J J P F d d T y.w.h h h h h j / / / / / j j j / 9.e.e.t.u.u.nXnXnXnXhXbXoXoX/./._.-X-X-X-X-X-X-X_.-X-X-X-X}.}.}.}.}.}.}.}. X X X X",
"`.=X*X*X%X=X=X*X*X*XwXeXwX*X*XwX=X*X*X*X*X*X*X=X=X=X&X&X+X+X+XOXOXOX+X+X(.(.V.V.(.N.N.v.v.v.v.M.v.v.v.v.Z.K.K.K.A.U.R.R.E.S.S.S.S.Z.Z.C.B.m.n.n.b.n.n.n.n.n.b.z.b.h.j.j.j.j.z.x.+X&X=X=X*X*X*X=X=X*X=X9X9X9X8X8X9X8XyXiXiXyX0X0X7X7X7X7X9X7X7X7X9X9X8X0XyXaXaXuXuXuXuXHXCXBXkXkXkXjXsXY.T.T.T.U.U.T.R.T.E.o.[ _ r 1 < : : # # # O O O O O O O + @ @ @ @ # @ @ @ O O O O @ @ @ @ @ @ @ @ # # # # @ # # # : # # @ @ @ @ @ # # @ @ # # # # # # # # # : : , , : , , < < : < < < < < < < < < w w w w e e e e e S S A l.A.A.].uXCXCXuXCXoXoXoXoXoX].].3.].3.3.3.3.3.>.9.9.9./ h 0 q q q q q 2 2 q q q q q q 5 5 5 9 8 t ~ ~ ( ( ( T z i f 2.'./.1.1./.1.1.4.2.;.f i i i ;.;.;.f ;.;.:.:.;.;.8.2.2.2.1.1.1.1././.<.<.G i a z :.:.:.:.:.z :.:.:.:.:.a a a ;.:.>.>.>.>.>.>.3.H G G J J J H D d & % p T T h h h h h h h j j j / j j / ( ( w.e.e.t.s.nXnXnXnXhXhXbXoX[.`._._._.-X-X-X-X-X-X-X-X-X_._.}.}.}.}.}.}.}.}.}.}._.",
").-X*X<X*X=X=X*X*X*XeXyXeX*X*X*X=X*X*X*X*X*X*X%X=X&X&X&X+X+X+XOX(.(.(.(.(.(.V.V.N.N.v.v.v.v.v.v.x.x.x.Z.S.K.R.jXsXjXR.R.E.S.S.Z.Z.Z.Z.n.m.n.n.b.b.b.b.b.b.n.b.z.h.j.j.j.j.j.z.M.+X&X=X=X*X*X=X*X*X=X*X9X9X8X8X8X8XyXaXpXpXaXaX0X7X7X7X7X7X7X7X7X9X7X7X0XyXaXaXuXuXuXuXCXCXkXkXkXkXjXjXY.T.T.T.U.T.T.R.T.o.X.` t r 1 < : : # # # O O O O O O O O O O O @ @ @ @ # # # # # @ # # # # # # # : : : : : : : : : : # # @ @ @ # # # # # # # # # # # # # : : : , : : , , < < : < < < < < < < < < w w w w e e e e e e S C R S.A.].6XCXCXuXuXoXoXoXoXoX].3.3.3.3.3.3.3.3.>.>.9.9.9.j j / ( h q q q q q q q q q 2 , : > > > q u ~ ( ( ( j z a 3.3.2.2.1.1.<.1.2.2.2.f f f f ;.3.3.;.a a :.:.:.:.;.;.8.8.2.2.;.2.2.2.<.2.2.f a z :.:.:.:.a :.:.a :.:.:.:.a z f f ;.;.>.>.>.>.>.>.;.f G G D G D - ; % % p z  .h h h h h h h h h h h j j / ( 9.w.e.t.t.s.nXnXnXnXt.hXoXoX/./._._._.-X-X-X-X-X-X-X_.-X_._._.}.}.}.}.}.}.}.}.}._.",
").-X*X*X*X=X*X-X=XwXeXyXeX*X*X*X=X*X*X*X*X*X%X%X%X%X%X+X+X(.(.(.(.(.(.(.(.V.N.M.M.M.v.v.v.v.v.v.c.c.Z.Z.S.].jXjXjXjXjXR.E.S.S.Z.Z.b.n.n.n.n.z.z.b.b.n.b.b.n.b.z.h.j.j.j.b j.x.V.+X&X=X=X-X*X=X=X=X=X*X9X9X8X8X8XyXaXpXHXFXpXaXaX0X0X7X7X7X7X7X9X9X9X7X0XyXaXaXuXuXuXuXCXCXkXkXkXkXjXjXT.T.T.T.U.T.R.R.T.X.X.` t r 1 < < : # # # O O O O O O @ @ @ @ # # # # # # < < < < : : : < < < 1 1 , 1 1 1 1 1 1 1 1 1 : : # # # # # # : : : # # # # # # : : : : , , , < : : : : < < < < < < < < < w w w w e e e e e e S S A S.S.A.].uXCXuXuXoXoXoXoX3.3.3.y.3.3.3.3.3.>.>.>.>.9.9.9.9.9.9.h 0 0 0 0 0 0 0 h h h q q q 2 2 h l ( ( ( j >.>.a :.;.;.;.2.2.2.2.2.;.f H 3.3.3.3.3.3.3.;.a :.:.:.:.:.;.;.;.;.;.;.;.;.;.;.;.f i a z :.j :.:.z :.:.:.:.:.a a a a f H f f ;.>.>.>.>.>.>.a f f f f d d d p & & j  .j h 0 0 0 0 0 0 0 h h h j / ( 9.e.e.t.t.s.nXs.s.s.t.t.oX'././.`._._.-X-X-X_.-X-X_.-X_._._._._._.}.}.}.}.}.}.}._.",
"`.=XwX*X*X*X*X*X=X*XwXwX9X*X*X=X=X=X*X*X*X*X%X-X%X%X+X+X(.(.(.V.N.V.(.V.V.V.M.M.M.M.x.x.x.x.x.x.c.Z.Z.S.].kXjXjXkXjXjXjXU.S.S.Z.b.n.n.b.x.z.z.z.z.z.z.z.z.b.z.h.j.j.j.b b j.x.(.+X&X=X-X-X*X=X=X=X=X=X9X9X9X7X7XaXaXpXHXHXuXuXuX0X0X0X7X7X7X7X7X9X7X7X0XaXaXuXuXuXuXuXCXCXkXkXkXkXjXfXT.T.T.U.U.T.T.R.T.X.X.` t r 1 < < : # # @ O O O @ # # # # : : < < < w w w 1 1 1 1 1 1 1 1 r r r r r r r r r r r r r r w 1 : : : # # # : < < : : : : : < : : : : , : : : : : : : < < < < < < < < < w w w w e e e e e e S S A R S.S.].uXuXuXoXoXoXoXoX3.3.3.y.y.y.y.3.3.>.>.>.j >.9.9.9.9.9.j g 0 0 0 0 0 g j (  . . .l l g j j j / 9.>.>.>.a a >.3.3.2.;.;.z z z z 3.t.hXhXhXhXkXy.3.:.:.:.>.:.:.:.:.;.;.;.;.;.;.7.3.>.a p g z j j j :.>.>.>.>.>.:.z a f f G H G G G 2.3.>.>.>.:.a a a a a z z T T z g h ( ( h 0 0 0 0 0 0 0 0 0 h h / 9.9.e.e.e.t.u.nXs.nXs.t.t.].'././.`._._._._._._._.-X_._._._._._.}._.}.}._.}.}.}._.`.",
"`.wXeXeX*X*X*X=X=X*X*X*X-X-X*X=X=X=X=X*X=X=X%X+X+X+X+X+X(.N.N.N.V.V.V.V.N.N.M.M.M.M.x.x.x.c.c.c.c.Z.Z.A.].kXkXgXsXjXjXjXU.S.S.Z.b.n.x.z.z.z.z.h.z.z.z.z.z.z.z.h.j.j.b b b j.M.OX&X&X=X-X-X=X=X*X=X=X=X9X9X9X7X8XaXaXpXHXHXCXuXuX0X0X0X7X7X7X7X7X7X7X7X0XaXaXaXuXuXuXuXCXuXkXkXkXjXjXdXY.U.U.U.U.T.T.T.T.o.X.` t r 1 < < : # @ @ O @ # # : : < 1 8 8 8 r r r r t r r r r r t t t t t t t t ! ! ! ! ! ! t t t r r 1 1 < < < < < < < < 1 1 1 1 1 < 1 1 < : : : < < < < < < < < < < < < < < < w w w e e e e e e S S A A S.S.].uXuXuXoXoXbXbXkXy.y.y.y.y.y.y.w.w.>.>.>.z j >.>.9.9.>.j j z h g g z T T  . .w.T z z z z j j j >.9.>.:.a >.y.bXbXy.3.>.z z z T y.hXmXhXhXhXhXhXy.3.>.:.>.>.>.:.:.:.:.:.:.:.>.a.d.y.z g g z 9.>.>.9.w.e.e.e.w.z a z H H G L c.J L P 3.3.>.>.:.a a a a a >.w.e.e.9.j h ( 9.j 0 0 0 0 0 0 0 0 0 h h / 9.9.e.e.e.t.s.nXnXnXs.t.t.3.1././.`.`.`._.-X_._._._._._._._._._._._._._.}.}.}.}._.`.",
"`.wXtXrXwX*X=X=X-X*X=X*X*X*X=X=X=X=X=X=X=X%X+X+X+X+X+X(.(.N.N.N.V.V.V.V.N.M.M.M.x.x.x.x.c.c.c.c.c.Z.S.].sXkXkXgXgXjXjXjXU.S.S.Z.x.b.z.z.z.h.h.h.h.h.z.z.z.z.h.h.j.j.b b b j.M.$X%X=X=X-X-X*X*X=X=X=X=X9X9X8X8XyXiXpXFXFXFXFXpXuXaXaX0X0X7X7X7X7X7X7X0X0XaXaXuXuXuXuXuXuXuXkXkXkXjXjXY.Y.U.U.U.U.T.T.T.T.o.` ` t t w < < : # @ # # # # < 1 1 8 8 t t t t t ! ! ! t t t t t t t ! _ _ _ _ _ _ _ _ _ _ _ _ ! ! t t r r r w w w w w w w r r t t r r 8 1 1 : : < : < < < < : < < < < < < < < < < w w e e e e e e S S V A S.S.].uXuXuXoXoXbXbXkXy.y.3.y.y.y.y.w.w.3.>.>.:.j :.:.>.>.>.:.>.9.>.z z >.y.T z z z z z z z z z j j >.>.>.j z w.t.hXhXnXhXy.w.w.w.y.hXhXhXhXhXhXhXhXhXy.>.>.>.>.>.>.:.:.:.:.:.:.>.e.s.s.w.g z w.e.e.y.e.t.t.t.t.y.z g d H H L v.v.x.L L 2.3.>.>.:.a a a a z 9.e.e.e.9./ j / 9.j g 0 0 0 0 0 0 0 0 h h / 9.9.e.e.t.t.u.nXnXnXhXt.t.3.1.1./.`.`._._.-X_._._._.-X-X_._.-X_._._._._._._._._._.`.",
").=XeXeXwX*X-X-X-X-X*X*X*X*X=X-X=X=X=X=X=X%X+X+X+X+X+X(.(.V.N.N.V.V.V.N.M.M.n.x.x.x.x.c.c.c.c.c.Z.S.].].sXkXgXsXdXfXjXR.A.S.Z.z.z.z.z.z.h.h.h.h.h.h.h.h.h.z.h.h.j.j.b b b z.V.&X%X=X=X=X-X*X*X=X=X-X-X9X9X8X8XyXyXaXFXFXFXFXpXuXaXaX0X0X7X7X7X7X8X7X0X0XaXaXuXuXuXuXuXuXuXBXkXkXjXjXY.Y.U.T.T.U.T.T.T.T.o.` _ t r w < < # # # # # # < 1 r r r t t ! ! ! ! ! ! ! t t ! ! _ _ _ _ _ _ _ _ _ _ _ _ _ _ _ _ _ _ _ _ _ _ t t r w r r r r t t t t t t t r 1 : : : : : < < : : < < < < < < < < < < < w e e e e e e S S V A R W S.].uXuXuXoXoXbXkXy.3.3.3.3.y.y.w.w.3.3.>.>.:.:.:.>.9.>.>.>.9.9.z z >.y.w.w.T T z z >.w.w.>.j j >.>.>.j e.s.nXt.r.t.t.t.hXt.hXzXzXzXhXhXgXhXhXhXhXt.y.w.z z :.:.:.:.:.:.:.:.>.w.t.t.w.l w.t.t.t.t.t.t.t.r.r.y. .z k F F L v.M.M.v.L P 3.3.>.:.:.a a g >.0.0.9.9.9.9./ 9.9./ h 0 0 0 0 0 0 0 0 h h / / ( w.e.t.t.u.u.s.nXt.t.y.3.2.1./.`.`._.-X-X_._._.-X-X-X-X-X-X-X_._._._._._._._._.`.",
").-X*X*X-X*X-X-X=X=X=X-X*X=X=X=X=X=X-X=X=X-X+X+X+X+X+X(.(.N.N.N.V.V.N.N.M.M.n.x.x.x.c.c.c.c.c.c.Z.S.].sXsXsXdXdXdXdXdXU.A.S.Z.z.z.z.z.z.h.h.h.h.h.h.h.h.h.z.h.h.j.b b b b c.(.=X=X=X=X=X=X*X*X-X-X-X-X-X9X7X7X8X0XaXpXFXFXHXuXuXuXaX0X0X|.|.7X7X8X8X0X0XaXaXuXuXuXuXuXuXuXBXkXkXjXsXY.Y.U.T.T.U.T.T.T.T.o.X.` ! r w < < # # # # < < < w r t t ! t t t t ! ! ! ! ! ! _ _ _ _ _ _ _ _ _ _ _ _ _ _ _ _ _ _ _ _ _ _ [ [ _ S t r r t r r r t t t t t t r 1 < : : < < < < : : < < # # < < < < < < < < e e e e e e S S V A Z K Z.].uXuXuXoXoXbXbXkX3.3.3.3.3.w.w.w.3.3.>.>.:.:.:.>.9.>.9.>.>.>.z g z y.t.y.w.w.w.w.w.e.y.w.w.9.9.9.j j e.t.t.hXt.r.t.t.hXhXhXzXzXhXgXhXgXgXlXgXhXhXr.w.z z a a a :.:.:.:.>.9.e.e.e.y.r.r.u.t.r.r.r.r.r.gXr.hXhXy.W F H L c.v.M.x.J L 3.3.>.:.:.a g j 9.0.9.9.9.9.9.9.9.9./ j h 0 0 0 0 0 0 0 h h j / ( w.y.t.t.u.u.t.s.t.t.y.3.2.1./.`.`.`.-X-X-X_.-X-X-X-X-X-X-X-X_.-X_._._._._._._.`.",
").-X-X-X*X=X*X*X=X=X=X=X=X-X-X=X*X*X*X*X-X+X(.(.(.(.(.(.N.N.N.N.M.N.N.M.x.x.M.x.c.x.x.c.c.c.c.Z.S.S.A.sXdXdXY.@.r.dXY.U.S.S.c.h.c.z.z.z.h.j.j.j.j.h.h.h.h.h.h.j.j.j.b b j.C.$X&X-X-X=X=X=X=X-X-X-X-X-X_._.7X7X7X0X0XaXHXHXCXuXuX0X0X}.}.9X7X7X9X7X7X0X0X0XaXuXuXuXuXuXuXkXkXkXkXjXsXU.U.U.U.T.T.T.T.T.T.X.X.` t r 1 < < < # # # w w t t t ! ! ! ! ! ! _ _ _ _ _ _ _ _ ] ] ] ] ] ] ] ] ] ] ] [ [ ] ] ] ] [ [ [ [ [ [ [ [ _ _ t t t r r t t t t t ! t t 1 < < < < < < < < < < < < < < < < < < < w w e e e e e S S V Z R W P ].uXuXuXoXoXoXoX3.3.3.3.3.w.w.w.w.3.>.>.>.:.:.:.>.>.>.>.9.>.>.g & z y.t.t.t.t.t.t.t.t.u.t.e.y.w.w.( j r.r.t.r.r.lXhXr.gXlXzXzXlXgXgXgXgXgXgXgXlXzXgXr. .j g z z z z >.>.3.y.t.t.r.r.r.gXgXgXr.r.r.r.r.r.r.lXzXcXsXW F Z.x.M.C.M.v.L P 2.3.:.a a p z w.0.9.9.9.9.0.9.9.9.9./ h h h h h h h h h h h j / / 9.e.e.t.t.t.t.t.t.3.3.1.<././.`.`.`._._._._.-X-X-X_._.-X-X_._._._._._._._._._.",
").-X-X-X-X=X-X*X=X=X=X=X=X-X-X-X*X*X*X*X%X+X(.).(.(.(.N.N.N.N.M.B.V.N.M.M.M.x.z.x.x.x.c.c.c.c.Z.S.S.A.U.dXdXY.Y.@.U.U.A.S.Z.c.z.z.z.z.h.j.j.j.h.j.h.h.j.h.h.h.j.j.j.b b c.(.&X%X-X-X=X=X=X=X-X-X-X-X-X_._.}.9X7X0X0XaXuXCXuXuXuX0X0X}.}.}.7X9X7X7X7X0X0X0XaXuXuXuXuXuXuXBXkXkXkXjXY.U.U.U.U.T.T.T.T.T.T.X.X.` t 1 1 < < # # < < w t t t t ! ! ! _ ! _ _ _ [ [ [ ] ] ] ] ] ] ] ] ] ] ] ] ] ] ] ] ] ] ] ] _ [ [ [ [ [ [ [ [ [ [ [ _ S t t t t ! _ _ _ t r 1 1 < < < < < < < < # < < < < < < < < < e e e e e e S S M Z Z W K ].uXuXuXoXoXoXoX].3.3.>.3.3.w.w.3.3.3.>.>.:.:.:.>.>.>.9.0.9.w.>.g T t.t.t.t.t.t.r.t.t.t.r.r.r.y.w. . .y.r.lXr.r.r.lXlXgXlXlXlXlXgXr.r.gXgXgXgXgXgXgXr.y.w.w.>.>.z z z z w.y.y.r.r.r.r.gXgXgXgXr.r.r.r.r.r.gXgXjXkXkX].Z.v.x.n.M.v.L L 2.3.:.:.a a z w.9.9.9.9.0.0.9.9.9.9./ j h h h j h h h h h j j j / 9.w.y.t.t.t.t.y.y.3.3.1.^./.`.`.`._._.`._._.-X_._._._.-X-X_._._._._._._._._._.",
").-X-X-X*X=X-X*X=X=X=X=X-X-X-X-X*X*X*X*X-X+X).(.(.(.N.N.N.M.N.N.C.M.M.x.x.M.x.x.x.c.J b c.c.Z.Z.S.A.A.U.+.#.+.+.+.E R Z Z n j.h.h.z.z.h.j.j.j.j.h.h.h.j.h.h.j.j.j.b b b x.$X&X%X-X-X=X-X=X-X-X-X-X-X-X_._.}.}.7X|.0X0XaXuXuXaX0X0X0X}.}.}.}.9X7X7X7X0X0X0XaXuXuXuXuXuXuXBXkXkXkXsXU.U.U.U.U.T.T.T.T.T.T.o.X.` t 1 < < # # < w t t t t ! ! ! ! ! _ _ _ ] ] ] ] ] ] ] ] ] ] ] ] ] ] ] ] ] ] ] ] ] ] ] ] ] _ [ [ [ [ o.o.o.o.o.o.o.[ ` ` ` ` _ _ ` ` ` ` t t t w 1 < < < < < < < # $ < < < < < < < e w e e e e e S M Z Z W K '.uXuXuXuXoXoXoXkX3.3.>.>.3.3.3.3.>.>.>.>.:.:.:.>.>.>.0.p.p.t.e.w.y.hXt.t.t.r.r.r.r.r.r.r.r.r.r.r.r.%.$.r.lXgXr.r.lXlXgXgXgXlXlXgXr.r.r.r.gXgXgXgXr.r.r.r.r.y.w.T z T T w.w. .$.$.$.r.dXgXgXgXgXgXlXlXgXgXgXgXgXkXkXkX6XZ.x.n.M.v.L L 2.3.>.:.a a >.w.w.e.9.9.0.9.9.9.9.9./ j h h j j j j j j h h h j j / 9.w.y.y.y.y.3.3.3.2.<.^./.`.`.`.`._.`.`.`._._._._._._._._._._._._._._._._._.",
").-X-X-X-X=X-X*X=X=X=X=X-X-X-X-X=X*X*X-X-X).(.(.(.(.N.N.M.M.M.M.M.M.M.v.v.x.x.x.c.J J J Z.S.S.A.U.U.U.U.+.+.O.O.R R Z Z Z n j.j.j.h.j.j.j.j.j.j.j.h.h.h.h.h.h.j.b b b j.C.$X=X-X-X-X-X-X-X-X-X-X-X-X_._._._.}.}.}.}.0XaXaX0X0X0X7X}.}.}.}.}.7X7X7X7X0X0X0XaXuXuXuXuXuXuXBXkXkXsXsXU.U.U.U.U.U.T.T.T.T.T.o.X.` t < < < # < r t t _ _ _ _ ! _ _ _ _ _ _ ] ] ] ] ] ] ] ] I.I.I.I.I.] ] ] ] ] ] ] ] ] ] ] ] [ [ [ [ [ o.E.o.E.E.o.o.o.o.[ [ ' [ [ ' ' ' ' ` ` B t r < < < < < < < # $ $ < < < < < < e e e e e e e S S Z Z W K Z.].uXuXoXoXoXoXoX3.3.3.>.3.3.3.3.>.>.>.>.:.:.:.>.>.>.0.f.s.u.t.t.hXhXt.r.r.r.r.r.r.r.r.r.$.$.$.$.$.$.$.r.lXlXlXlXlXlXgXgXgXlXlXlXr.r.$.r.r.gXgXr.r.r.r.r.r.r.y. .T T  . . . .$.$.$.$.dXgXgXgXgXlXlXlXgXgXlXlXgXjXkXkXBX].x.n.M.v.L L 2.3.>.>.:.:.3.y.y.y.w.w.e.9.9.9.9.9./ j h h j j j j / j j j j j j / 9.w.w.w.3.3.3.2.2.<.^.^.).`.`.`.`.`.`.`.`.`._._.`.`._._._._._._._._._._._.`.",
").-X-X-X=X=X=X9X=X=X=X=X-X-X*X-X-X*X=X-X+X(.(.(.(.N.N.M.M.M.M.M.M.M.v.v.v.c.J b b c.Z.].kXBXjXjXjXjXjXfXfXdXY.U.R A Z v v m b b b b b b b b j.j.b j.h.h.h.h.j.j.b b b z.V.&X=X-X-X-X-X-X-X-X-X-X-X-X_._._._._.}.}.}.}.0X0X0X}._.}.}.}.}.}.9X9X7X7X7X7X0X0XaXuXuXuXuXuXuXBXkXkXsXsXU.U.U.U.U.T.T.T.T.T.T.o.X.B t < < < < w t ` _ _ _ _ _ _ _ _ _ _ _ ] ] ] ] ] ] ] ] I.{ { &.{ I.{ { ] ] ] ] ] ] ] ] ] [ [ [ [ [ [ E.E.E.E.E.E.E.E.o.o.[ ' ' ' o.o.o.o.o.X.` B t < < < < < < < < $ $ $ < < < < < e e e e e e e e S A Z W K Z.].uXoXoXoXoXoXoX3.3.3.3.3.3.3.3.>.>.>.>.:.:.:.>.>.>.p.s.t.t.t.t.hXhXgXgXgXgXr.r.r.r.$.$.$.$.$.$.$.$.$.$.$.gXlXlXlXlXlXlXlXlXlXlXgXgX$.$.r.r.r.r.r.r.$.$.r.r.r.#. . . .#.X.X.o.o.o.$.T.gXlXlXgXgXlXlXdXgXlXlXxXjXjXkXBXS.x.x.n.x.L L <.3.3.>.:.>.y.y.y.y.y.y.e.9.:.9.9.9.j h j / / j / / / / / j j / / 9.9.w.w.3.3.3.H H <.^.^.).).`.`.`.`.`.`.`.`.`.`.`.`.`._._.`.`.`.`._._._._.`.`.",
")._.-X-X-X=X=X9X=X=X=X-X-X-X-X-X-X=X-X-X+X(.(.(.N.N.N.M.M.M.M.M.v.v.v.c.J J J c.S.S.BXBXBXBXjXjXxXxXxXxXxXjXfXgXU.U.l.Z Z n n n n n Z.Z.Z.Z.j.m b j.j.j.j.j.j.j.b b j.n.OX%X-X-X-X-X-X-X_._._._.-X_._._._._._._._._.}.7X7X}.}.}.}.}.}.}.}.9X9X7X7X7X7X0X0XaXuXuXuXuXuXuXBXkXsXsXsXU.U.U.U.X.U.T.T.T.T.T.o.X.B w < < < w t ` [ [ _ _ _ _ _ _ _ _ _ _ ] ] ] ] ] ] ] ] I.&.&.&.&.&.I.{ ] ] ] ] ] ] ] ] ] ] [ [ [ [ [ [ E.E.E.E.E.E.E.o.o.o.o.o.o.o.o.o.o.o.o.X.` N t w < < < < < < $ $ $ $ < < < < e e e e e e e e S A Z K K P '.].oXoXoXoXoXoXoX3.3.3.3.3.3.3.3.>.>.:.:.>.>.>.>.>.e.s.hXt.hXhXhXgXgXgXgXgXr.r.$.$.$.$.$.$.$.$.$.$.$.$.$.$.lXlXlXlXlXlXlXlXlXlXlXlXr.$.$.$.$.r.$.$.$.$.$.r.r.@.O...X.$.o.X.X.X.X.$.T.lXlXlXgXgXgXgXgXgXgXlXlXjXjXjXkXS.Z.n.M.x.L L <.2.3.>.a >.y.y.y.y.y.y.y.w.>.9.9./ j h j / / j / 9.9.9.9./ / / 9.9.w.w.w.3.3.3.H L <.^.^.).).).).`.`.`.`.`.`.`.`.`.`.`.`.`.`.`.`.`._.`._._.`.`.",
").-X-X-X-X=X-X*X=X=X*X*X-X-X-X-X-X=X-X+X(.(.(.(.N.N.M.M.M.v.v.v.x.x.c.Z.Z.S.S.6XBXBXBXjXjXjXjXjXjXjXjXjXxXjXjXfXxXjXR.R.U.U.U.R.E.R.jXBXBXBXS.k.j.j.j.j.j.j.j.b b b z.C.$X%X-X-X-X-X-X-X_._._._.-X_._._._._._._._._.}.}.7X}.}.}.}.}.}.}.}.}.9X9X}.}.7X0X0XaXuXuXuXuXuXuXkXkXsXsXsXU.U.U.X.X.T.T.T.T.T.T.o.` B w 1 1 w u ` [ [ [ _ _ _ _ _ _ _ _ _ _ _ ] ] ] ] ] ] ] { &.&.&.&.&.{ { ] ] ] ] ] ] ] ] ] ] ] [ [ [ [ [ [ [ [ o.E.E.o.o.o.o.o.o.o.o.o.o.o.$.T.o.X.} B u w < < < < < $ $ $ $ $ < < < < < e e e e e e S A Z K K P Z.].oXoXoXoXoXoXoXoX3.2.2.3.3.3.3.>.>.:.>.>.>.>.:.:.w.u.hXhXhXhXzXgXgXgXdX$.$.$.$.$.$.$.$.$.$.$.$.$.$.$.$.$.$.r.gXgXlXlXlXlXlXlXlXlXr.r.$.$.Y.dXr.$.$.$.$.$.@.@.O...X.$.o.X.X.X.X.$.$.lXlXlXgXdXdXgXgXgXgXr.dXgXgXgXkXS.Z.x.M.v.v.L <.2.3.>.a ;.3.y.kX].sXkXy.y.w.w.9.j j j j j j / ( w.w.w.9.9.9.9.9.w.w.w.y.y.3.3.2.<.<.^.^.).).^.).).`.`.`.`.`.`.`.`.`.`.`.`.`.`.`.`.`.`.`.`.`.`.",
"`.-X-X-X-X-X-X-X=X*X*X*X-X-X-X-X=X=X-X+X(.(.(.(.N.N.M.M.M.x.v.v.v.Z.Z.].BXBXBXBXBXjXjXjXjXjXjXjXjXjXjXjXjXjXjXjXjXjXjXjXjXjXjXBXBXjXjXjXjXBXBXK.k.k.j.j.j.h.j.b b b n.$X&X%X+X-X-X-X-X_._._._._._._._._._._._._._._._.}.}.}.}.}._._.}.}.}.}.7X7X}.}.7X0X0XaXuXuXuXuXuXuXuXkXsXsXU.U.U.U.X.o.T.T.T.T.T.T.X.` B w 1 1 t ` | ' [ [ [ _ _ _ _ _ _ _ _ _ _ ] ] ] ] ] ] ] I.{ { { { I.I.I.] ] ] ] ] ] ] ] ] ] ] [ [ [ [ [ [ [ [ [ E.E.o.o.o.o.o.o.o.o.o.o.o.T.W.$.o.X.} B e < < < < < $ $ $ < $ < < < < < e e e e e e S A Z K K K Z.].oX].oXoXoXoXoXoX3.2.2.3.3.3.3.3.>.>.>.>.>.:.:.:.w.t.hXhXhXgXgXgXgXgXr.$.$.$.$.$.$.$.$.$.$.$.$.$.$.$.$.$.$.$.r.r.lXlXlXlXlXlXlXlXr.r.$.$.T.gXr.$.$.$.$.$.$.#.O...X.$.$.X.} } X.$.$.lXlXlXdX$.r.r.gXgXgXgXr.dXgXgXsXS.c.x.M.v.L L <.2.3.>.a z 3.kXkX].kXkXhXt.y.y.w.( ( / / j / 9.( w.w.w.w.w.w.w.w.w.e.e.y.y.y.3.2.<.^.^.).`.`.^.).).`.`.`.`.`.`.`.`.`.`.`.`.`.`.`.`.`.`.`.`.`.`.",
"`._.-X-X`.-X-X`.-X-X-X-X-X-X-X-X-X-X-X+X).(.N.).C.v.v.x.x.x.Z.Z.6X6XBXBXBXBXjXjXjXjXjXjXjXxXxXxXjXjXjXjXjXxXxXxXjXjXjXjXjXjXjXjXjXjXjXjXjXjXjXjXS.S.n b b n b b b j.C.$X-X-X-X-X-X-X`._._._._._._._._._._._._._.`._._.}.}._._._._._.}.}.}.}.9X9X9X7X7X7X0X0XuXuXuXuX].].kXkXsXsXU.U.U.U.U.T.T.T.o.T.T.o.X.` t 1 < < t ` o.[ [ [ ] _ _ _ _ _ _ _ _ _ _ _ _ ] ] ] ] ] ] { ] { ] I.{ I.] ] ] ] ] ] ] ] ] ] [ [ [ ] [ [ [ [ [ [ o.o.o.o.o.o.o.o.o.o.o.o.$.T.W.$.$.X.} ` u w < < < < $ $ < < < < < < = < < e e e e e S V Z Z W K Z.].].].oX'.'.'.XXXXoX2.2.2.3.3.3.3.3.;.>.>.>.>.z :.w.t.hXhXgXgXgXgXgXgXr.$.$.$.$.$.$.$.$.$.$.$.$.$.$.$.$.$.$.$.$.$.$.gXlXlXlXlXlXlXlXgX$.$.$.$.$.$.$.$.$.$.$.$.o.| o.o.o.| } } o.$.$.W.lXlXT.$.$.gXT.T.lXlXgXgXdXdXsXE Z.Z.v.L L L 3.3.>.>.z 3.3.kXkXkXkXkXbXbXhXt.w.w.w.9.9./ / / ( ( w.w.y.y.w.w.w.y.y.y.y.y.y.3.'.'.^.^.^.^././././.`.`.`.`.`.`.`.`.`.`.`.`.`.`.`._.`.`.`.`.`.`.",
").`.-X_.`.`.-X_.-X-X-X9X-X-X-X-X`.-X+X(.(.N.N.v.M.x.x.x.v.Z.].6XBXBXBXBXBXjXjXjXjXjXjXjXjXxXxXxXjXjXjXxXxXxXxXxXjXjXfXfXfXfXfXfXjXjXR.R.jXjXjXjXjXU.S.Z.n n b b b Z.(.5X+X).).+X`.`.-X-X_._.`.`._._._._._.`.`.`.`.`.`.}.}._._._.`._.}.}.}.}.9X}.7X7X7X7X0X0XuXuXuXuX].].].sXsXsXU.U.U.U.U.T.T.T.o.$.T.o.X.` t w 1 w t ` [ [ [ [ ] ] _ _ _ _ _ _ _ _ _ _ _ _ _ _ ] ] ] ] ] ] ] I.{ I.I.] ] ] ] ] ] ] ] ] [ [ ] ] [ [ [ [ [ [ o.o.o.o.o.o.o.o.o.o.o.o.$.T.T.$.$.X.} } u e < < < < $ $ < < < < $ $ = < < e e e e e S V Z Z K K P ].uXoXoXoXoX'.'./.'.2.3.3.;.3.3.3.3.3.>.>.:.>.>.>.y.t.hXhXgXgXgXgXgXgXdX$.$.$.$.$.$.$.$.$.$.$.$.$.$.$.$.$.$.$.$.$.$.$.gXlXlXlXlXlXlXgX$.$.$.$.$.$.$.$.$.$.$.$.o.X.X.| | } ` } o.$.$.W.W.W.T.$.$.T.T.T.gXgXgXgXgXgXdXU.].6X'.v.L L 2.3.>.:.a 3.sXkXkXkXkXkXkXbXhXt.y.w.w.w.w.9.9.9.( ( w.w.e.e.e.e.e.e.y.e.y.y.y.].].'.^.^.^./././././.`.).`.`.`.`.`.`.`.`.`.`.`.`.`.`.`.`.`.`.`.`.",
").`._.`.).`._.9X9X9X8X8X8X9X-X_.`.`.).(.N.N.v.v.x.v.c.c.v.6X6XBXBXBXBXBXjXjXjXjXjXjXjXjXxXxXxXxXjXjXxXxXxXxXjXjXfXfXfXfXfXfXfXfXlXlXT.R.R.R.R.R.jXjXjXA.S.n m m b Z.5X5X).).).).).`.`._._.`.`.-X_._._._.`.`.`.`.`.`.`._.}._._._._._.}.}.}.}.9X9X9X7X7X0X0X0XuXuXuX6X].].].sXsXsXU.U.U.U.U.T.T.T.o.o.T.o.X.` t w w r t ` [ [ [ [ ] ] _ _ _ _ _ _ _ _ _ _ _ _ _ _ ] ] ] ] ] ] ] I.I.I.I.] ] ] ] ] ] ] ] I.] ] [ [ I.I.I.I.I.I.I.E.o.o.o.o.o.o.o.o.$.$.$.T.$.$.$.X.} } ` u 1 < < < $ < < < $ $ $ $ = < < e e e e e S V Z Z K K P ].uXoXoXoXoXoX'.'.'.3.3.3.;.3.3.3.3.3.3.>.a >.y.e.t.t.hXhXgXgXgXgXgXgXgX$.$.$.$.$.$.$.$.$.$.$.$.$.$.$.$.$.$.$.#.$. .$.$.gXlXlXlXlXlXgX$.$.$.$.$.$.$.$.$.$.$.$.X.X.X.} ` ` ` | o.$.$.$.T.$.$.$.$.T.T.T.T.$.$.T.gXgXfXdXkXkX].P P P 2.3.>.z z 3.hXbXkXkXkXkXkXkXhXhXy.y.y.w.w.9.9./ / ( w.w.e.e.e.e.e.e.e.t.t.t.kX].'.'.^.^.^.^.^./.`.`.).).`.`.`.`.`.`.`.`.`.`.`.`.`.`.`.`.`.`.`.`.",
"`.`._.`.`.`._.7XyXyXyXyXyX0X9X_.`.`.).(.N.N.v.v.c.v.c.J Z.6XBXBXBXBXjXjXjXjXjXxXjXjXxXxXxXxXxXxXjXxXxXxXlXfXfXfXfXfXfXfXfXfXfXfXlXfXT.T.T.T.R.R.T.R.jXjXU.S.v m Z.S.6X].'.'.'.'.).).).).).`.`.`._._._._._.`.`.`._.`.`._._.`._._.`._._.}.}.}.}.9X9X7X7X0X0XaXuXuXuX].].].].sXsXU.U.U.U.U.U.T.T.T.o.o.o.X.` ` t r r t _ [ [ [ [ [ ] ] _ _ _ _ _ _ _ _ _ _ _ _ _ _ _ _ ] ] ] ] ] I.] I.I.] ] ] I.] I.I.I.I.] ] ] ] I.I.I.I.I.I.I.E.o.o.o.o.o.o.o.o.$.$.$.$.$.$.$.o.} } ` u e < < < $ $ < < $ $ $ $ = < < e e e e e S V Z Z K K P ].].].oXoXoXoXoXXX'.'.3.3.;.;.3.3.2.;.f a a z t.hXt.hXhXhXgXxXfXgXgXgXr.$.$.$.$.#.X.X.X.X.X.$.$.$.$.$.$.$.$.X.X.X.}  .$.$.gXlXlXlXlXlX$.$.$.$.$.$.$.$.$.$.$.$.o.o.| } ` ` ` | o.$.$.$.$.$.$.$.$.$.$.$.$.$.$.T.gXfXgXgXkXkXA.P P P 3.3.>.z z 3.hXhXkXkXkXkXkXkXkXhXt.t.y.y.w.w.9.9./ / w.w.y.t.t.t.t.t.t.t.t.y.].].'.'.^.^.^.^.^././.`.).).).`.`.).`.`.`.`.`.`.`.`.`.`.`.`.`.`.`.`.",
"'._._._._._.0X0XaXaXaXaXaX0X0X0X0X`.).v.v.v.v.v.c.J J Z.].BXBXBXjXjXjXjXjXxXxXxXxXxXxXxXxXxXxXxXxXxXxXjXjXfXfXfXfXfXfXfXfXfXfXfXfXfXfXfXfXfXfXfXT.T.R.jXR.E.l.Z l.S.A.S.S.S.S.S.S.S.'.'.'.).).).`.`.`.`.`.`.`.`.`.`.`._._._._._.`._.}.}.}.}.}.}.7X7X7X0X0XaXuXuX6X].].].sXsXU.U.U.U.+.#.o.o.T.o.o.o.o.` ` ` t r t t _ [ _ [ [ ] _ _ _ _ _ _ _ _ _ _ _ _ _ _ _ _ _ _ _ ] ] ] ] I.] I.] ] ] ] ] ] I.I.I.I.I.I.] ] I.I.I.I.I.I.I.E.E.E.o.o.o.o.o.o.$.$.$.$.$.$.$.o.} } ` u r 1 < # < < $ $ < < < < $ = = e e e e e S A Z Z Z K P ].uXuXoXoXoXoXoXXXXX'.3.2.f f f f f f i i i a y.hXhXhXhXgXgXgXfXgXgXr.$.$.$.$.$.$.$.$.$.$.X.%.$.$.$.$.$.$.%.%.X. .} } X.$.$.lXlXlXlXlX$.$.$.$.$.$.$.$.$.$.$.o.o.o.o.| ` ` ` | o.$.$.$.$.$.$.$.$.$.$.$.$.$.$.gXgXlXgXgXkXsXE E 3.3.3.3.>.z z y.hXhXkXkXkXkXkXkXkXkXt.y.y.w.w.w.w.w.9.9.w.w.y.y.y.t.t.t.t.y.hX3.3.3.'.^.^.^.^.^.^.`./.).).).).).).).).`.`.`.`.`.`.`.`.`.`.`.`.`.`.`.",
"oX0X0X0X0X0X0X0XaXaXaXaXaXaXaXaXaX'.^.v.v.v.v.c.J J J ].BXBXjXjXjXjXjXxXxXxXxXxXlXlXxXxXjXjXjXjXxXxXxXfXfXfXfXfXfXfXfXfXfXfXgXgXfXfXfXfXfXfXfXfXT.T.T.R.R.E.E.E.E.E.E.E.A.E.E.E.U.U.].].].'.'.).`.`.`.`.`.`.`.`.`.`.`.`._.`.`.`.`._.}.}.}.}.}.}.}.7X0X0X0XuX6X6X6X].].].sXU.U.U.U.+.#.X.o.o.o.o.o.| X.` ` t r r t S _ [ _ _ [ [ _ _ _ _ _ _ _ _ _ _ _ _ _ _ _ _ _ _ _ ] ] ] ] ] ] I.] ] ] ] ] ] I.I.I.I.I.I.I.I.I.I.I.I.I.I.I.I.E.E.E.o.o.o.o.o.$.$.$.$.$.$.$.X.} } } u u w < # < $ $ $ < < < < $ = < e e e e e S A Z M Z K K ].].uXoXoXoXoXXXXXoX'.3.2.f a f i i i i i % p 3.hXhXhXhXgXgXfXgXdX$.$.$.$.$.$.$.$.$.$.$.%.X.X.X.X.$.$.%.%.| X.} } } } } } $.$.lXlXlX*.$.$.$.$.$.$.$.o.o.o.o.o.o.| | } ` ` } | o.o.$.$.$.$.o.$.$.$.$.$.$.$.T.lXlXgXdXdXsXsX3.3.3.E 3.3.3.3.3.y.hXhXkXkXkXkXkXkXhXhXhXt.t.y.w.w.w.w.9.9.3.w.y.y.y.y.y.y.y.].].].2.1.^.^.^.^.^.^.^./././.).).).).).).).).).).`.`.`.`.`.`.`.`.`.`.`.`.",
"oXoXaXaXuXuXuXuXuXuXuXuXuXuXuXuXuX'.v.L v.J J J J c.S.BXBXkXjXjXjXjXjXjXxXxXxXxXlXlXfXjXjXjXjXjXxXxXjXfXfXfXfXfXfXfXfXfXfXfXgXgXfXfXfXfXfXfXfXlXfXT.T.R.R.T.E.E.E.E.X.X.[ [ X.E.E.R.R.jXkX].].'.'.`.`.`.`.`.`.`.`.`.`.`.`.`.`._.`.`._.}.}.}.}.}.}.}.0X0X0XuX6X6X6X].].].U.U.U.U.#.+.X.o.o.o.o.o.o.| | ` ` _ r r S S _ _ _ _ [ _ _ _ _ _ _ _ _ ! ! ! _ _ _ _ _ _ _ _ _ _ ] ] ] ] I.I.] ] ] ] ] ] I.I.I.I.I.I.I.I.I.I.I.I.I.I.I.I.E.E.E.E.X.o.o.o.$.o.o.$.$.$.$.X.X.} } u u u 1 < < < $ $ < < < < $ = = e e e e e S A Z M Z K K S.].].oXoXoXoXoXXXXX2.2.;.a a a i i i i % p p k y.hXhXgXgXgXgXgXr.$.$.$.$.$.$.$.o.$.$.%.X.} } } } | X.X.} } } } } } } } } } $.$.$.$.$.$.$.$.o.$.*.o.o.o.o.o.o.o.| } ` ` ` ` } | o.o.o.o.o.o.o.X.X.$.$.$.$.W.lXgXdX$.@.@.r.#.+.+.E y.T w.w.y.hXhXhXbXkXbXkXkXhXhXhXhXt.t.y.y.w.w.w.9.>.3.w.y.y.sXsXkXkX].].].'.1.1././.^./.^.^././././.^.)././.`.`.`.`.).`.`.`.`.`.`.`.`.`.`.`.`.`.",
"oXuXuXuXuXuXuXuXuXuXuXuXuXuXuXuXoX'.J J L J J J J S.6XBXBXjXjXjXcXxXjXjXjXxXxXjXjXjXjXjXjXjXjXjXjXjXjXfXfXfXfXgXfXfXfXfXfXfXfXfXT.T.lXW.T.T.W.lXxXfXT.T.T.T.E.E.E.o.o.[ [ [ o.E.R.R.R.jXjXsX].].'.'.`.`.`.`.`.`.`.`.`.`.`.`.`._.`.`._.}.}.}.}.}.}.}.0X0X6X6X].].6X].].A.U.U.U.U.#.X.X.o.o.o.o.o.o.| | ` ` _ r r S t _ _ _ _ _ _ _ _ _ _ _ _ _ _ ! ! ! _ _ _ _ _ _ _ _ _ ] ] ] ] I.I.I.] ] ] ] I.I.I.I.I.I.I.I.I.I.I.I.I.I.I.I.I.E.E.E.E.X.X.o.o.$.o.o.$.$.$.$.X.} } } } u u w 1 < < $ $ $ < < < $ = e e e e e e S S Z M Z K K S.uXoXoXoXoXoXXX'.'.2.;.;.a a a a p i p % p & & w.hXhXhXgXgXgXgXr.r.$.$.$.$.$.o.%.o.%.%.| } } } } X.} } } } } } } } } } } } %.$.$.$.$.$.$.o.o.o.$.o.| | o.&.o.| | ` ~ ~ ~ ` } | o.o.o.o.o.o.X.| } X.o.$.$.T.gX$.$.$.$.#.#.O.O.#.#.#.T  .w.y.sXhXy.y.3.3.3.3.3.3.3.3.3.3.w.w.w.w.w.>.>.3.y.y.sXkXkXkX].].].].'./././././././.^././././.^.^././.).`.`.).`.`.`.`.`.`.`.`.`.`.`.`.`.`.",
"oXkXuXuXuXuXuXuXuXuXuXuXHXuX6XuX].J J v.J J J J S.6XBXBXjXcXcXjXfXfXgXgXxXxXxXlXjXjXfXfXfXjXjXjXfXfXfXfXfXfXfXfXfXfXfXfXfXfXfXfXfXfXfXfXfXfXfXfXfXfXfXT.T.T.T.T.o.o.o.o.o.o.W.W.W.W.R.R.fXjXkXkX].'.^.`._._.`.`.`.`.`.`.`.`.`.`.`._._._.}.}.7X9X_.}.0XoX].].].].].sXU.U.U.U.U.U.X.X.X.o.o.o.o.o.o.| ` ` ` _ t _ _ _ S _ _ _ _ _ _ _ _ _ _ _ ! _ _ _ _ ! ! ! _ _ _ _ _ _ _ ] ] ] ] ] ] ] ] ] I.I.I.I.I.I.I.I.I.I.I.I.I.I.I.I.I.I.E.E.E.E.X.X.X.o.o.$.o.$.$.$.$.X.%.} } } u u u 1 < < < < < < < < < < < = e e e e e A A Z Z c K Z.].].].oXoXoXoX'.2.2.;.H z a p p p p p p p & & &  .zXgXgXdXgXdX$.$.$.$.$.$.X.X.} X.X.$.%.| } } } | } } } } } } } } } } } } } o.$.$.$.$.o.o.| o.o.o.| | o.o.o.| | ` ` ~ ` ` | | } X.o.o.o.o.X.} } X.X.$.$.T.$.$.$.$.$.#.#.#.#.#.#.#. . . .T k g k z a p i i i i & p p g z 3.3.3.3.>.>.3.y.sXkXkXkX].].].'.'.'././././././././.1.1.<.1././././././.`.`.`.`.`.`.`.).`.`.`.`.`.`.`.`.",
"oXoXuXuXuXuXuXuXoXuXCXuXuXuXuX].L J J J J J J J ].BXBXjXjXjXjXjXlXfXgXgXxXxXxXlXjXjXfXfXfXfXjXjXfXfXfXfXfXfXfXfXfXfXfXfXfXfXfXfXfXfXfXfXfXfXfXfXfXfXT.T.T.T.T.T.W.W.&.o.o.o.W.Q.W.W.R.R.fXjXkXkX].].'.).`.`.`.`.`.`.`.`.`.`.`.`.`._._._.}.}.}.9X}.0X0XoX].].].].].sXU.U.U.U.U.U.X.X.X.o.o.o.o.o.o.| ` ` ` ! t t _ S S S _ _ _ _ _ _ _ _ ! ! ! ! _ _ _ _ ! ! _ _ _ _ _ _ _ ] ] ] ] I.] ] ] ] I.I.I.I.I.I.I.I.I.I.I.I.I.I.I.I.I.I.E.E.E.E.X.X.X.X.X.X.o.o.o.$.$.X.%.} } } u u u w < < < < < < < < < < < = = e e e e A A Z Z c K S.uX].].oXoXoX'.2.2.2.;.z z a a p p p p & & & & % l y.hXdXdXdXr.r.$.$.$.$.$.%.X.} X.o.o.| | } } } | } } } } } } } } } } } } } X.$.$.$.o.o.| | | o.o.| | | o.| | ` ` ` ~ ` ` } } } } } X.X.X.} } } X.$.$.$.$.$.$.$.$.#.#.#.#.#.#.#.#.#. . .l & & & p p p i p p p p p p p p g z z >.>.z >.3.y.kXkXoX].oX].'.'.'.^././././././.1.1.1.2.1.1.1./././././.).`.`.`.`.).).).`.`.`.`.`.).`.",
"oXkXuXuXuXuXuXuXuXuXCXuX].CXuX'.D L L J J J J S.kXBXkXjXjXjXjXjXlXlXfXgXjXjXfXfXjXjXfXfXfXjXjXjXfXfXfXfXfXfXfXfXfXfXfXfXfXfXfXfXfXfXfXfXfXfXfXfXfXfXT.T.T.T.T.T.W.W.W.o.o.W.W.Q.W.W.R.fXjXjXjXkXkXkX].'.^.`.`.`.`.`.`.`.`.`.`.`._._._._.}.}.}.}.}.0X0XoX6X].].].].sXU.U.U.U.U.E.X.X.X.X.o.o.o.o.| | ` ` ` t t t S S S S t _ _ _ _ _ _ _ _ _ ! ! _ _ _ _ ! ! ! _ _ _ _ _ _ ] ] ] ] I.I.I.I.I.I.I.I.I.I.I.I.I.I.I.I.I.I.I.I.l.l.l.E.E.E.E.E.X.X.X.X.X.X.X.X.X.%.%. . . .} ~ u u w < < < < < < < e < < < < = e e e S A A M Z c K A.uXoXoX].oX'.'.2.2.2.;.z z z a p p p p p & & & % & k hXgXgXr.$.r.$.$.$.$.$.$.X.X.X.| | | | } } } } } } } ` ` } } } } } } ` } } o.o.o.o.o.| | | o.o.| ` | | | ` ` ~ ~ ~ ` ` } } } } } } } } } } X.$.$.$.$.$.$.$.$.$.$.#.#. . .#.#.#. . . .l g & % i p p p p p p p p p p p p p g z >.3.3.3.kX].].oXoXoX].'.'.'.^././././.1.1.2.3.3.3.3.2.2.<.<./.^.^.^.^.^.^.).).).`.).`.`.).).).).",
"oXoXuXuXuXuXoXoXuX].].uXuXuX].J L L L J J J S.BXkXkXjXjXjXjXgXjXfXfXjXjXjXjXfXfXfXfXfXfXfXfXjXjXfXfXfXfXfXfXfXfXfXfXfXfXfXfXfXfXfXfXfXfXfXfXfXfXfXfXT.T.T.T.T.T.o.o.T.o.T.T.W.W.W.W.T.fXfXfXjXjXjXkX].].'.).`.`.`.`.`.`.`.`.`.`._._._._.}.}.}.}.}.0X0XoX6X].].].].sXU.U.U.U.U.E.X.X.X.X.o.o.o.o.| ' ` ` _ t t t S S S t t _ _ _ _ _ _ _ _ ! ! ! _ _ _ _ ! ! ! ! _ _ _ _ _ ] ] ] ] I.I.I.I.I.I.I.I.I.I.I.I.I.I.I.l.l.l.l.l.l.l.l.E.E.E.E.E.X.X.X.X.X.X.X.%.$.%.X. .} } } ~ u u w w w < $ < e e e < < < < = e e e S A A M Z c K ].oXoX].].].].'.2.3.3.H z z z a p p p p p p & & & & & #.gXgXr.$.$.$.$.$.$.$.o.X.| | | | } } } } } } } } } ~ ~ ~ ` ` ~ ~ ~ ~ ~ ` } o.o.o.o.| | | o.| ` ` ` ' ` ` ~ u u u ~ ` ` ` ` } } } ` ` } X.$.$.$.$.$.$.$.$.$.$.$.$.X.X. .O. . . . . .T l k p p p p p p p p p p p p p p p p p z 3.3.y.].].].oXoXoX'.'.'.'././././.1.1.2.3.3.3.3.3.3.2.2.<.<.^.^.^.^.^.^.^.).`.).).).).).).).).",
"oXuXCXuXuXoXoXoXoX].].uXuX].L J v.L J J x K kXBXjXjXjXjXjXgXgXgXjXjXjXjXgXgXgXgXjXjXfXfXfXfXfXfXfXfXfXfXfXfXfXfXfXfXfXfXfXfXfXfXfXfXfXfXfXfXfXfXfXT.T.T.T.T.$.$.T.T.T.T.T.T.T.W.W.W.T.fXfXfXjXjXjXjXkX].].^.).`.`.`.`.`.`.`.`.`._._._._._.}._.}.}.0X0X6X6X].].].].A.U.U.U.+.X.X.X.X.X.X.o.o.o.| | ' ` ` ! t t t S S t _ _ _ _ ! _ _ _ _ _ _ _ _ ! ! ! ! ! ! ! ! _ _ _ _ _ _ ] ] ] I.I.I.] I.I.I.I.I.I.I.I.I.I.I.P.P.P.P.l.l.l.l.I.I.E.E.E.E.X.X.X.X.X.o.$.$.$.}  .}  .} ` u u w e e < < = e = = < < < = = e e e S A A M Z c K ].oX].].].].].'.3.3.3.z z z a a p p p p p p & & & & X 0 gXgX$.$.#.$.$.$.o.o.o.| | | } } } } } } } } } } } ~ u u u ~ ~ ~ ~ ~ u ~ ` | | | | | ` | | ' ` ~ ` ` ` ~ ~ t t u ~ ` ` ` ` ` ` ` ` } | $.W.lXT.$.$.$.$.$.$.$.$.o.X.} }  . .} }  . . .T l k p & p p p p p p p p p p p p p p p a T 3.3.].].oXoXoX'.'.'.'././././.1.2.3.3.9.9.9.w.>.>.2.2.2.<.<.<.^.^.^.^.).`.`.`.`.`.).).).).",
"oXoXuXuXuXoX].].].].].6X].L D L v.L J J K ].BXsXjXjXjXjXjXfXgXgXjXjXjXjXgXgXgXgXjXfXfXfXfXfXfXfXfXfXfXfXfXfXfXfXfXfXfXfXfXfXfXfXfXfXfXfXfXfXfXfXT.T.T.T.T.$.$.$.T.T.T.T.T.T.T.W.W.R.fXfXfXfXfXjXjXfXkXkX].'.^.`.`.`.`.`.`.`.`.`._._._._._._._._.}.0X0X6X6X].].].A.A.U.U.U.+.X.X.X.X.X.o.X.| | | ' ' ` ` ! t t t t t t t t _ _ _ _ _ _ ! _ _ _ _ ! ! ! ! ! ! ! ! _ _ _ _ _ _ ] ] ] ] I.I.] I.I.I.I.I.I.I.I.I.I.I.P.P.P.P.l.l.l.l.l.I.E.E.E.X.X.X.X.X.X.X.$.$.$.}  .}  .} } l u q e e < < = e = = e = = = $ = e e S A A M Z c K ].].].].].].'.3.3.3.3.z z z a a p p p p p & & & & & + & r.r.$.$.X.$.$.$.X.o.| | | } } } } } } } } } } } ` ~ u u u u t u u u t u ~ ` ` | | ` ` ' | ' ~ ~ ~ ` ` ~ t r t t u u u ` ` ` ` ` } X.$.$.W.T.$.$.o.$.$.$.$.$.$.X. . .}  . .} } }  . . . .T p p p p p p p p p p p p p p p p p p d H 3.].].].oXoX'.'.'./././././.2.2.3.>.9.9.9.9.>.>.;.2.2.2.3.3.2.<.<.^.^./.)./.`.`.).).).).",
"].oXuXoXoX].].].].].].].Z.J D L L J J Z.].BXBXsXgXjXjXjXjXjXfXfXgXjXjXjXjXjXjXjXfXfXfXfXfXfXfXfXfXfXfXfXfXfXfXfXfXfXfXfXfXfXfXfXfXfXfXfXfXfXfXfXT.T.T.T.T.$.$.$.T.T.T.T.T.T.T.T.W.fXfXfXfXfXfXfXjXjXkXkX].'.^.`.`.`.`.`.`.`.`.`._._._.}._._._._._.0X0X].].].].].A.A.U.U.+.+.X.X.X.X.X.X.X.| | | ' ' ` ` ! t t t t t t t t _ _ ! _ _ ! ! ! ! ! ! ! ! ! ! ! ! ! ! _ _ _ _ _ _ _ ] ] ] ] ] ] ] I.I.I.I.I.I.I.I.l.l.P.P.E.E.l.l.l.l.l.l.P.I.I.X.X.X.X.X.X.X.$.$.$. .} }  .} } } Y u e e < < e e = = = = = = = = e e e A A M Z c P ].].].].].].'.'.2.3.3.>.z z a a a p p p p p & & & & & Y r.r.$.$.$.$.$.o.X.| | | | } } } } } } } ` ` ` ~ ~ ~ ~ u u u t t t t r t t ` ` ` ` ` ~ ` ' ` ~ ~ ~ ~ ~ ~ ! r t u u u u ~ ~ u ` } X.$.$.$.$.$.$.$.$.o.$.$.$.X.X. .} }  . . .} } }  . .y.w.w.g p p p p p p p p p p p p p p p p p d 3.3.].].'.'.'.'.'.'././././.1.2.2.3.9.9.9.9.9.9.>.>.>.3.3.3.3.3.3.2.<.<.^.).).)./.).).).).",
"].].oX].].].].].uX].].'.J D J J J J J S.BXBXkXjXgXjXjXgXgXjXjXjXgXjXjXjXjXjXjXjXfXfXfXfXfXfXfXfXfXfXfXfXfXfXfXfXfXfXfXfXfXfXfXfXdXfXfXfXfXfXfXfXT.T.T.T.T.T.$.$.T.T.T.T.T.T.T.W.lXfXfXfXfXfXfXfXjXjXkXkX].'.^.`.`.`.`.`.`.`.`.`._._._.}._._._._._.0X0X].].].].].A.A.U.U.U.+.X.X.X.X.X.X.X.| | | ' ` ` ` t t r t t t t t t _ ! ! ! ! ! ! ! ! ! ! ! ! ! ! ! ! ! ! ! _ _ _ _ _ ] ] ] ] ] ] ] I.I.I.I.I.I.I.I.I.l.l.D.P.E.E.E.l.l.l.l.l.P.I.I.[ X.X.X.X.X.} } X.#. .} }  .} } } } u y e < < < e e = = = = = = = = e e A A M Z F P ].].].].].].].'.3.3.2.;.z z a a a p p p p p & & & & k hXgXgX$.$.$.$.$.X.o.| | | | } } } } } } ` ~ ~ ~ ~ ~ ~ ~ u q r 8 8 8 8 8 8 r ~ ~ ` ` ~ ~ ~ ' ~ ~ ! ~ ~ ~ ! t 8 t u ~ u u u ~ ` ` X.$.W.W.$.X.X.$.$.$.$.$.$.$. .} } } } }  . . . .} }  . .w.w.g p & p p p p p p p p p p p p p p z 3.3.].].].'.'.'.'.'.'././././.1.2.3.3.9.9.9.9.9.9.>.>.>.>.>.w.3.3.3.2.2.<.<.^.^.).).).).).^.",
"].oXoX].].].].].6X'.v.J J J J J J J Z.].kXsXjXfXfXfXfXfXfXfXfXfXfXfXfXjXjXjXjXfXfXgXgXgXgXfXfXfXfXfXfXfXgXgXfXfXfXfXfXfXfXfXdXdXdXdXdXdXfXfXfXfXT.T.Y.Y.T.T.T.T.T.T.T.T.T.T.W.lXfXfXfXfXfXfXfXfXfXfXjXkX].'.^.`.`.`.`.`.`.`._._._._._._.}.}.}._.'.'.0XoX].].].].A.A.U.U.+.X.X.X.X.X.X.| ' ' ` ` ` ` ` ~ t r r r t t S S t t t _ t t t t ! ! ! ! t t ! _ _ _ _ _ ! ! _ _ _ _ ] ] ] ] I.I.] ] I.I.I.I.] I.I.I.I.I.P.E.E.l.l.l.l.l.I.I.I.X.X.[ X.X.X.X.X.X.X.} }  .( ( } } } } } } u e = = = = = = = = = = e e e e S B A M M K P ].].oXoXoX].].3.3.3.3.3.z z z a a p p p p p & p p k T y.r.dX$.$.$.o.o.o.| | | } } } } } ` ` ` ` ` u u u u ` ` u t 1 1 , , , , 5 8 t ! ~ ~ ! ! ` ` ! ! ! ! ` ~ ! t r 9 t t ~ u u u u X.$.T.T.$.$.} X.$.$.$.$.$.$.| X.X.X.X.} } } %. .}  . . . .y.w.p p i i p p p p p p p p p p p p z 3.sX].].].].'.'.'.'.'././././.1.1.3.3.>.9.9.9.9.9.9.>.9.9.9.9.9.9.9.>.3.H 2.<.^.^.^.^.^.^.).).",
"].].].oXoX].].].'.'.L J J J J J J J Z.].kXsXfXfXfXfXfXfXfXfXfXfXgXgXfXjXjXjXjXfXfXfXgXgXgXfXfXfXfXfXfXfXgXgXfXdXfXfXfXfXdXdXdXdXdXdXdXdXfXfXfXfXT.T.Y.Y.T.T.T.T.T.T.T.T.T.T.fXfXfXfXfXfXfXfXfXfXfXfXjXkX].'.^.`.`.`.`.`.`.`._._.`._._._.}.}.}._.'.'.].].].].].].A.A.A.U.+.X.X.X.X.X.X.| ' ` ` ` ` ` ~ ~ t r r r t t t t t t t ! t t t t ! ! ! ! ! ! ! ! _ ! _ _ ! ! _ _ _ _ ] ] ] ] ] I.I.I.I.I.I.I.] I.I.I.l.I.I.l.l.l.l.l.l.l.l.I.I.[ X.X.X.X.X.X.X.X.} } } } ( ( } } } } } } B y = = = = = = = = = = e e e e e B A M Z K P ].].oXoXoX].].3.2.3.3.3.;.z a a a a a p p p g g k z T y.r.r.$.$.$.o.o.o.| | } } } } } } ` ` ~ ~ ~ ~ ~ u u ~ ~ u t 8 1 , 1 , , , 8 9 ! ! ~ ! ! ! ! ! ! ! ! ~ ~ t 9 8 8 8 r t t u ~ } $.$.$.$.$.o.X.$.$.$.$.$.$.o.| } } X. .} } } } } }  . . .w.w.T d p i i p p i i p p p p p p a a 3.3.3.].].].].'.'.'.'.'././././.1.2.3.3.>.9.9.9.9.9.9.9.9.9.9.9.9.9.9.>.z H H 2.^.^.^.^.^.^.).^.",
"oX].].uXuXoX].].^.L J J J b J J x J S.kXkXfXfXfXfXfXfXfXgXgXgXgXgXgXgXgXgXjXfXfXfXfXfXfXgXfXfXfXfXgXgXgXgXdXdXdXfXfXdXdXdXdXdXdXdXdXdXdXfXfXfXfXT.T.Y.Y.T.T.T.T.T.T.T.T.T.T.fXfXfXfXfXfXfXfXfXfXfXfXjXkX].'.'.`./.`.`.`.`._.`._.`.`._._.}.}.}.}.'.'.].].].].].A.A.A.U.+.+.X.X.X.X.X.} | ' ' ` ` ` ` ~ ! t r r r r r t t t t ! t ! ! t t t t ! ! t ! t ! t t ! ! ! ! _ _ _ _ ] ] ] ] ] I.I.I.I.I.I.I.I.I.I.l.l.I.l.l.l.l.l.l.l.l.l.l.l.A A A [ [ X.X.X.X.} } } } ( ( ( } } l l l U u e e e = = = = = = = = e e e e B A Z Z K P ].].oXoXoX].].3.2.2.2.2.;.;.f a a a a a a z z z z z T y.r.r.$.$.X.| o.o.| | ` ` | | | ` ` ` ` ` ` ~ ~ ~ t t t u t 8 1 , , , , , , 8 9 ! ! ! ! ! ! t t ! ! ~ ! 9 8 8 8 8 8 8 t ~ ` o.$.$.o.X.X.o.o.o.$.o.X.X.X.} } } X. . .} } } }  . . .%. .y.w.T d d d f p p i i p i i i i i i p d H H H 2.'.'.'.'.'.'.'./.^././.1.2.3.3.9.9.9.9.9.9.9.9.9.9.9.9.9.9.9.9.>.>.2.2.^.^.^.^.^.^.^.^.",
"].oXuXoXuXuX].'.L J J J J b J J x K A.kXjXdXdXfXgXgXgXgXgXgXgXgXgXgXgXgXgXgXfXgXfXfXfXfXgXfXfXfXfXgXgXgXdXdXdXdXdXdXdXdXdXdXdXdXdXdXdXdXdXdXfXfXT.T.Y.Y.T.T.T.T.T.T.T.T.dXfXfXfXfXfXfXfXfXfXfXfXfXfXjXkX].].'.'././././.`.`._.`._._._._.}.}._._.].].].].].].A.A.A.A.U.+.X.X.X.X.X.X.} ' ' ` ` ` ` ` ~ ! t r r r r r t t t t ! ! ! ! ! t ! ! ! ! t ! t t t t t ! ! ! _ _ _ _ _ ] ] ] ] ] I.I.I.I.I.] I.I.I.l.l.l.P.l.l.l.l.l.l.l.l.l.A A C A A [ X.X.X.X.} } } } ( ( ( ( } l l } } N y e e e = = = = = = = e e e S A A Z Z K P ].].oXoXoX].].'.2.2.2.2.2.2.;.f f a a a a z 3.3.z z T y.r.r.$.$.X.| | | | | ` ` ` ' ' ' ' ` ` ` ` ~ ~ ~ t r t t t 8 1 , , , , , , 5 8 9 ! ! ! ! t 9 9 ! ! ! ! 9 5 8 8 8 8 t ~ ` | o.o.o.| } | o.$.$.$.X.X.} } } } } X. . . . .} %. . .$.#. .+.E T H H H f f f f f f f i i i i i i f H H 2.<.'.'.'.'.'.'.'./.^.^.^.2.3.3.w.9.9.9.9.9.9.9.9./ / 9.9.9.9.9.9.9.>.3.2.^.^.^.^.^.^.^.^.",
"].].uXuX6X6X'.v.J J J J J J J b x Z.].kXsXdXdXfXdXdXgXgXgXgXgXgXgXgXgXfXfXfXfXgXfXfXfXgXgXfXfXfXgXgXgXgXdXdXdXdXdXdXdXdXdXdXdXdXdXdXdXdXT.fXdXdXT.Y.Y.T.Y.T.T.Y.Y.Y.Y.Y.dXfXfXfXfXfXfXfXfXfXfXfXfXfXjXjXsX].'.'.'./././.`.`.`.`._._._._._.`.'.'.].].].].].A.A.A.A.A.+.+.O.X.X.X.X.X.} ' ' ' ` ` ` ~ ~ ! 9 8 8 r r r t t t ! ! ! ! ! ! ! ! ! ! ! t t t t t t t ! ! ! _ _ _ _ _ _ ] ] ] ] ] I.I.I.I.I.I.I.I.C l.I.I.l.l.l.l.l.l.l.l.l.C C C A A [ ` X.X.X.} } } } ( ( ( ( l l l l } N u e e e = = = = = = = = = = S A R Z Z c P ].].].oX].].].'.'.3.2.2.2.2.2.;.f f f a p z 3.3.>.T 3.y.r.r.$.o.| | ` ` ` ' ' ' ` ' ' ' ' ` ` ` ` ` ` ~ t 8 8 9 r 1 , , , , , , , 5 8 9 9 9 9 9 9 9 9 9 ! ! 9 8 5 5 5 8 t ~ ` ` | ' ` ` ` | o.$.$.o.| | } } } } } X.X.X.%.} %.%.%. . .$.@.O.T W W H H G G f f f f f f f f f f H H 3.3.2.'.'.'.'.'.'.'.'.'.'.^.^.^.2.3.3.w.9.9.9.9.9.9./ / / 9.9.9.9.9.9.9.9.9.>.>.<.^.^.^.^.).^.^.",
"].].uXuX6X'.v.J J J J J b J b b x S.kXsXdXdXdXdXdXdXdXdXdXgXgXgXgXgXgXfXgXgXgXgXgXfXfXfXfXgXgXgXgXgXgXdXdXdXdXdXdXdXdXdXdXdXdXdXdXY.dXY.Y.Y.T.T.T.Y.Y.Y.T.T.Y.T.Y.Y.Y.dXdXdXdXfXfXfXfXgXgXgXgXfXfXfXfXdXsX].].].'.'.'././.`.`.`.`.`._._.`.'.'.'.].].].].].A.A.A.E E +.O...X.X.X.X.X.| ` ' ' ` ` ` ~ ~ ! 9 8 8 8 r r r t t ! ! ! ! ! t t t t ! ! t t t t t t ! ! ! _ _ _ _ _ _ _ ] ] ] ] ] ] I.I.I.I.] ] I.[ I.I.l.I.l.l.l.l.l.l.l.l.C C C C A A ` X.} } } } } } ( ( ( ( l l l l N B y e e = = = = = = = = = = = S A R Z Z c P ].].].].].].].'.'.'.'.2.2.2.2.2.2.;.;.a p a >.3.>.3.y.r.r.r.$.o.| ` ` ~ ~ ` ' ' ` _ _ _ _ ! ! _ _ ` ` ~ t 9 8 9 8 , , , , , , , , 5 8 8 8 9 9 9 9 9 9 9 t 9 8 5 5 5 8 9 ~ ` ` ` ` ` ` ` | o.o.$.o.o.| | } } } } %.X.X. .%.X.X.%. . . .#.r.E W H H G G G G s f f f s f f G 2.2.2.2.2.2.'.'.'./.'.'.'././.'.'.^.^.<.2.3.3.w.9.9.9.9.9./ / / / 9.9.9.9.9.9.9.9.9.>.3.<.<.^.^.^.).^.^.",
"].].uX6X'.v.J J J J J b b b b b x S.kXsXdXdXY.dXdXdXdXdXdXdXdXdXgXgXgXgXfXfXgXgXdXdXdXdXdXdXdXfXgXgXgXdXdXdXdXdXdXdXdXdXdXdXdXdXY.Y.Y.T.T.T.T.Y.Y.Y.Y.Y.Y.Y.Y.Y.Y.Y.dXdXdXdXdXdXfXfXfXgXgXgXgXfXgXfXfXdXsXsX].].'.'.'././.`.`.`.`.`._._.`.'.'.].].].].].].A.A.A.E E E ....X.X.X.X.X.| ' ' ` ` ` ` ~ ! ! 9 5 5 8 r r r t t t t t ! ! ! t t ! ! ! t t ! ! ! ! ! ! _ _ _ _ _ _ _ _ ] ] ] ] ] ] I.I.I.I.I.] I.I.I.I.I.P.P.l.P.P.I.l.l.l.l.C C A A A A ` } } } } } } ( l ( ( l l l l B B e e = = = m m = = = = = = = e A A.R Z c K ].].].].].].].'.'.'.'.'.'./.2.2.2.2.2.f i i z 3.>.3.y.r.r.r.$.o.| ` ` t t ! ! _ ! ^ ! ! ! ! ^ ^ ^ ! _ ! ! 9 9 8 8 , , , , , , : , 1 5 5 8 8 9 9 9 9 9 9 9 8 5 5 8 8 9 ! ~ ` ` ` ` ` ` ' | o.o.o.o.| } } } } } }  .} } }  .} }  . . .l Y T T F d H G G G G s s f f G G G 2.2.2.<.<.<.<.^.^.^./.'.'.'.^.^.^.^.^.^.^.<.3.3.w.9.9.9.9./ / / / 9.9.9.9.9.9.9.9.9.9.>.3.<.<.^.^.^.).^.^.",
"].oX6X'.v.J J J J b b b b b x b x S.kXsXY.dXY.dXdXdXdXdXdXdXdXdXgXdXgXgXfXfXgXgXdXdXdXdXdXdXdXdXgXgXgXdXdXdXdXdXdXdXdXdXdXdXdXdXY.Y.Y.Y.T.T.T.Y.Y.Y.Y.Y.Y.Y.Y.Y.Y.Y.dXdXdXdXdXdXfXfXfXgXgXgXfXfXdXgXgXdXsXsX].].'.'.'./././.`.`.`.`._._.`.'.'.].].].].].].A.A.A.E E R ....X.X.X.X.X.} ` ' ' ` ` ` ~ ~ ! 9 5 5 8 r r r t t t t t ! ! ! t t ! ! ! t t ! ! ! ! ! ! _ _ _ _ _ _ _ _ ] ] ] ] ] ] I.I.I.I.] ] I.I.I.I.I.I.I.l.P.P.I.l.l.l.l.C C A A [ A A ` } } } } } l l ( ( l l q u N B e = = = m m = = = = = = e e e A E.R Z F K ].].].].].].].'.'.'.'.'././.1.1.2.2.2.f i i a >.3.3.y.y.r.r.$.$.| ` ` t r 9 ! ! ! ! ! ! ! ! ! ! ! ! ! ! t 9 8 8 5 5 , , , , : : : , , 5 8 8 9 8 8 9 9 8 8 5 5 , 8 9 t ~ ` ` ` ~ ~ ` ' | o.| | | | } } } } } } }  .} } } } } } } } Y y & k d s s s G G G G s f f f G G <.<.<.<.<.<.^.^.^.^././.^.^.'.^.^.^.^.^.^.'.<.3.3.w.9.9.9.9./ / / / 9.9.9.9./ / / / 9.9.>.z <.<.^.^.^.).^.^.",
"].].'.v.J b b J b b b b b x x b n A.U.dXdXU.dXY.dXdXdXdXdXdXdXdXdXdXgXgXgXgXdXgXdXdXdXdXdXdXdXdXdXdXdXdXdXdXdXdXdXdXdXdXdXdXdXdXY.Y.Y.Y.Y.Y.Y.Y.Y.Y.Y.Y.Y.Y.Y.Y.dXdXdXdXdXdXdXfXgXfXfXfXfXdXdXdXdXdXdXsXsXsXsXsX].].].'.'./././._._.`.`.'.'.].].].].].A.A.A.A.A.R R ....X.} } } } } | ` ` ` ` ` ` ` ! t 9 5 , , 1 8 r t t t t t t t t t t t t t ! ! ! ! t t ! ! _ _ _ _ _ _ _ _ _ ] ] ] ] I.~.~.I.I.[ [ ] [ [ [ I.I.I.P.I.l.l.C l.l.C C C C A A A X.X.X.} Y } } Y l l ( l l q q u y e = = = m m m = = = = = = = e e ..R Z F K A.].oX].].].].'././././././.1.<.<.2.2.;.a i a >.3.3.y.r.r.$.$.$.o.| ` ~ t 9 t ! ! ^ ! ! ! ! ! ! ! ! ! Q 9 9 8 5 8 1 , , , , : : : : , 5 5 9 9 9 8 r r 8 8 8 1 8 8 9 ! ~ ~ ! ~ ~ ~ ' ' ' ' ` ` ` ` ~ ~ } } } } } } } } } } } } X.$. .T d ; - - s s s G G f s f G G G <.<.<.^.^.^.^.^.^.^.^.^.^.^.^.^.^.^.L L <.<.<.2.3.3.w.9.9.9.9./ / / / 9.9.9.9.9./ 9.9.9.9.>.z <.<.<.^.^.^.^.^.",
"].Z.L J J J b b b b b b b b x b K A.sXdXdXY.dXY.dXdXdXdXdXdXdXdXdXdXdXgXgXdXdXdXdXdXdXdXdXdXdXdXdXdXdXdXdXdXdXdXY.dXdXdXdXdXdXdXY.Y.Y.Y.Y.Y.Y.Y.Y.Y.Y.Y.Y.Y.Y.Y.Y.dXdXdXdXdXdXfXfXfXfXfXfXdXdXdXdXdXdXdXsXsXsXsX].].].].'.'.`.`.`.`.`.'.'.].].].].].].A.A.A.A.A.R R ..X.X.} } } } } } ` ` ` ` ` ` ~ ! t 9 5 , , 1 8 r t t t t t t t t t t t t t ! ! ! ! t t ! ! _ _ _ _ _ _ _ _ ] ] ] ] I.I.~.~.I.I.[ [ ] [ [ [ I.I.I.I.I.l.l.C l.l.C C C C A A X.X.X.X.X.} } } l l l ( ( ( l u u y e = = = = = m = = = = = = = = e A R I c F Z.].oX].].].].'./././././././.<.<.2.2.;.a i a z z T w.y.r.$.$.$.o.o.| ` ! t t ! ! ! ! ! ! ! ! ! ! ! ! Q 9 9 8 8 8 8 , , , , : : : , , 5 5 8 8 8 8 t r 8 8 , , 8 9 ! ! ~ ! ! ~ ' ' ' ' ' ' ` ` ~ ~ ~ ` } } } } } } } } } } } }  .O.#.T I d s s s s s s f s s f G G G <.<.<.^.^.^.^.^.^.^.^.^.^.^.^.^.^.<.L G G <.<.3.3.3.w.9.9.9.9./ / / / 9.9.9.9./ / 9.9.9.9.j z <.<.<.^.^.^.^.^.",
"Z.J J b J J b b b x x b b b x b S.sXsXdXdXY.dXY.dXdXdXdXdXdXdXdXdXdXdXdXdXdXdXdXY.dXdXY.dXdXdXdXdXdXdXdXdXdXdXdXY.Y.Y.dXdXdXdXY.Y.Y.Y.Y.Y.Y.Y.Y.Y.Y.Y.Y.Y.Y.Y.Y.Y.dXdXdXdXdXdXdXdXdXdXdXdXdXdXdXdXdXdXdXdXdXsXsXsXsX].].].'.'.'.'.'.'.'.'.].].].].].].A.A.A.A.A.R R R ..} } } } } } | ` ` ` ` ` ~ ~ ~ 9 9 8 , , 1 8 r t t t t t t t t t t t t t ! ! ! ! ! ! t ! _ _ _ _ _ _ _ _ ] ] ] ] ] I.I.I.I.I.[ [ ] [ I.l.l.l.l.l.l.l.l.l.C C C C C C A A A A A X.X.X.} Y l ( l ( %.%.l q y y e = = = = = = = = = = = < < = = M M M c c P ].].].].].].'./././././././.<.<.2.2.;.f a a a z T T w.$.$.$.$.o.o.| ` ` ! ! ! t Q Q ! ! ! ! ! ! ! Q Q 9 9 8 5 5 , , , , : : : : , 1 8 9 9 9 9 8 t r 8 , , , 9 t ! ! ! ! ! ^ ' ' ' ' ` ` ~ ~ ~ ~ ~ ~ ` } } } } } } } } } } }  .O.T T I F F s s s s s s s s f G G G L <.^.^.^.^.^.^.^.^.^.^.^.^.^.^.^.<.<.G D G 2.3.3.3.>.9.9./ / / / / / / 9.9.9./ 9.9.9./ j z z L <.<.^.^.^.^.^.",
"J J J b b b b b b x x b b b b b S.kXsXY.dXY.dXY.dXdXdXdXdXdXdXdXdXdXdXdXdXdXdXdXY.Y.Y.Y.Y.dXdXdXY.Y.Y.Y.Y.Y.Y.Y.Y.Y.Y.Y.Y.Y.Y.Y.Y.Y.Y.Y.Y.Y.Y.Y.Y.Y.Y.Y.Y.Y.Y.Y.Y.Y.Y.dXdXdXdXdXdXdXdXdXdXdXdXdXdXdXdXdXdXdXdXdXdXsXsX].].].'.'.'.'.'.'.].].].].].].A.A.A.A.R R R R R ..} } } ` } | } ` ` ` ` ` ~ ~ ! 9 9 5 , , 1 8 r t t t t t t t t t t t t t ! ! ! ! ! t t t ! ! _ _ _ _ _ _ _ _ ] _ ] ] I.I.I.I.[ [ I.I.l.l.l.l.l.l.l.l.l.l.C C C C C C A A A A X.X.X.#...} l } l ( w.%.l q y y e = = = = = = = = = = = < < = e M M M c F K ].].oX].].'.'./././././././.<.<.2.2.;.f f i a z T T  .#.$.$.$.o.o.| | ' ` ` ` ` ! ! 9 9 ! ! ! ! 9 9 9 9 8 8 5 5 , , , , : : : : : 1 8 r r 9 8 8 t r 1 , , 8 t ! ! ! ! ! ! ! ' ' ~ ~ ! ! ! ! ! ! ~ ~ ` ` ` ` ` ` } } } } } }  . .I I F F F D D G s s s s s s G G L L ^.^.^.^.^.^.^.^.^.^.^.^.^.^.^.<.<.<.G s s H 2.H z z j j / / / / / / / / 9.9./ / / / / j j z P <.<.^.^.^.^.^.",
"x b b b b b b b b x x b b b b b A.kXsXU.Y.U.dXY.Y.Y.Y.dXdXdXdXdXdXdXdXdXdXdXdXdXY.Y.Y.Y.Y.Y.Y.Y.Y.Y.Y.Y.Y.Y.Y.Y.Y.Y.Y.Y.Y.Y.Y.Y.Y.Y.Y.Y.Y.Y.Y.Y.Y.Y.Y.Y.Y.Y.Y.Y.Y.Y.Y.Y.Y.Y.dXdXdXdXdXdXdXdXY.dXY.Y.Y.dXdXdXdXdXY.dXsXsX].].'.'.'.'.'.'.'.].].].].].A.A.A.R R R R R ..} } } } } ` | ` ` ` ` ` ` ~ ~ ! 9 8 8 1 1 1 8 r t t t t t t t t t t t t t t t ! ! t t t t t t t ! _ _ _ _ _ _ _ _ _ _ [ I.I.I.[ [ [ [ l.l.C C C C C C C C C C C C C C A A A I.E.X.+.#...} l } l l r.r.( u y y e = = = = = = = = = = = < < e e e M M c F F 3.].].].'.'.'.'././././././.<.<.2.2.;.H a a z 3.w. . .$.$.$.o.X.o.o.| | | | | | ` ~ ! t t ! ! ! 9 9 9 8 8 8 5 5 1 , , , : : : : : < 1 8 8 8 9 9 t 8 , : , 9 t ! ! ! ! ! ! ! ! ! ! ! ! t ! ! ~ ~ ` ` ` ` ` ` ` ` } } } } X.} ....I I F F F D D G s s s s s s s G L L L ^.v.^.^.^.^.^.^.^.^.^.^.^.^.<.<.<.<.s s s H H z z >.9./ / / / / / / / / / / / / / j j z z H L <.^.^.^.^.^.",
"x x x x b b b x b b b b b b b b A.sXU.U.dXU.Y.Y.Y.Y.Y.Y.dXdXdXdXY.dXdXdXdXdXdXY.Y.Y.Y.Y.Y.Y.Y.Y.Y.Y.Y.Y.Y.Y.Y.Y.Y.Y.Y.Y.Y.Y.Y.Y.Y.Y.Y.Y.Y.@.@.@.Y.U.@.@.@.Y.Y.Y.Y.Y.Y.Y.Y.Y.dXdXdXdXY.Y.Y.Y.Y.Y.Y.Y.Y.Y.Y.Y.dXdXU.sXsXsX].].].].'.'.'.'.'.].].].A.A.A.A.E R R A ..} } } } } } } ` ` ` ` ` ` ~ ~ ~ ~ 9 9 5 1 1 1 1 8 r t t t t t t t t t t t t t t t t ! t t t t t t t t _ S _ _ S _ ] ] _ _ [ I.I.I.[ [ [ C l.l.C C C C C C C C C C C C C C A l.A I.E.E.X.X...} l l l l w.r.%.l y e e = = = = = = = = = = = < = = e = M M c F x P ].].].'.'.'././././././.1.2.2.2.2.3.3.z z 3.y.y.w.#.$.$.$.X. .o.X.o.| | | | | | | ` ` ` ` ~ ! t 9 r 8 8 8 8 8 1 , , , : # : : 1 1 1 1 9 q q u t 1 : : 1 9 t ! ! ! ! ! ! ! ! 9 9 9 9 9 t ! ~ ~ ` ` ` ` ` ` ` } } } } } } } } } U I I I F F D D G s s s s s D G L L L v.v.v.^.^.^.^.^.^.^.^.^.v.<.L L <.<.G s s f z z z j j / / / / / / / / / / / / / j h h z z H H L <.^.^.^.^.",
"x x x x x b x x b b b b b x x b S.sXU.U.Y.U.Y.Y.Y.Y.Y.Y.Y.dXdXY.Y.Y.dXdXdXY.Y.Y.Y.Y.Y.Y.Y.Y.Y.Y.Y.Y.Y.Y.Y.Y.Y.Y.Y.Y.Y.Y.Y.Y.Y.Y.Y.U.Y.Y.@.@.@.@.Y.U.@.@.@.@.Y.Y.Y.Y.Y.Y.Y.Y.Y.dXY.Y.Y.Y.Y.Y.Y.Y.dXdXY.Y.Y.dXdXY.U.sXsXsX].].].].'.'.].].'.'.].].A.A.A.E R R R A } ` ` ` ` ` } ` ` ` ` ` ` ~ ~ ~ ~ ~ 9 9 8 , 1 1 1 8 r t t t t t t t t t t t t t t t t t t t t t t t t ! _ _ S S _ _ _ ] [ [ [ I.I.I.[ [ [ l.l.l.C C C C C C C C C C C C C C l.l.A I.E.X.X.+.O.} Y l l l %.r.%.l y 2 $ = = = = = = = = = = = = $ = e = M M c F x D '.].].'.'.'././././.1.<.2.2.2.2.3.3.3.3.3.w.y.w. . . .X.} } } } } } } ` ` } } } } } } } ` ` t t r r 8 8 8 1 1 , , : : : # : 2 q q u u u u u q q 1 : : 1 9 t 9 9 9 9 Q 9 9 9 8 9 8 8 8 9 t ! ! ~ ~ ~ ~ ~ ~ ` ` ` ` } } } } } Y U U R W W F D G D s s D D G G G L L L v.v.v.^.^.^.^.^.^.^.^.^.^.<.L L L <.H s s i d z z j j / / / / / / / / / / / / j h h h j z H H L <.^.^.^.^.",
"x x x x x x x x b b b b b x x x S.U.U.U.U.U.Y.Y.Y.Y.Y.Y.Y.Y.dXY.Y.Y.Y.Y.dXY.Y.Y.Y.Y.Y.Y.Y.Y.Y.Y.Y.Y.Y.Y.Y.Y.Y.U.Y.Y.Y.Y.Y.Y.Y.U.U.Y.U.U.@.@.@.@.U.U.@.@.@.@.@.Y.Y.Y.Y.Y.Y.Y.Y.dXY.Y.Y.Y.Y.Y.Y.Y.sXsXdXY.Y.Y.Y.Y.U.dXsXsXsX].].].].].].].].].S.A.A.A.A.E R R R A ` ` ` ` ` ` ` } ` ` ` ` ` ~ ~ ~ ~ ~ 9 9 5 , , 1 1 8 r t t t t t t t t t t t t t t t t t t t t t t t t ! _ _ S S _ _ _ _ [ [ [ [ I.I.[ [ [ C l.l.C C C C C C C C C C C C C C l.l.C A X.X.X.@.@.#. .l l l  .%. .q 0 2 $ = = = = = = = = = = = $ $ = e = M M c F x D 3.].].'.'.'./.1.1.1.<.<.2.2.;.2.3.3.y.y.y.w. .T T l } } Y u u N N N B u u u u u u u ` ` ` ~ t r r 8 8 1 , , , , , , , : : 2 q u u ~ ( ( ~ q q 9 2 2 2 1 8 9 9 8 8 8 9 8 8 8 8 8 8 8 8 8 8 5 5 9 9 9 t t t ~ ~ ~ ` ` ` N Y Y Y Y Y Y R W W H G D s D D G G L L L L L v.v.v.^.^.^.^.^.^.^.^.^.^.^.<.L G G H G s % i p g g j / / / / 9./ / / / / / / h h h h j z H H G <.^.^.^.^.",
"x x x b b x x b b b b b b b x x S.sXU.U.@.@.Y.Y.Y.Y.Y.Y.Y.Y.Y.Y.Y.Y.Y.Y.Y.Y.Y.Y.Y.Y.Y.Y.Y.Y.Y.Y.Y.Y.Y.Y.Y.Y.Y.Y.Y.Y.Y.Y.Y.Y.@.@.U.Y.@.@.U.@.@.@.@.@.@.@.@.@.@.@.Y.Y.Y.Y.Y.Y.Y.Y.U.Y.Y.Y.Y.Y.Y.Y.U.U.Y.Y.Y.Y.Y.Y.dXdXsXsXsXsX].].].].].].].].A.A.A.E E R R R R R } } ` ` ` ` ` ` ` ` ~ ~ ~ ~ ~ ~ ~ ~ 9 5 3 , > , 1 8 8 9 t t ! ! t t t t t t t 9 9 9 r r r t t t t ! ! t t t _ _ _ _ _ _ _ _ ] I.I.[ [ I.I.[ C C l.l.C C C C C C C C C C C C l.l.A A A A A X...O.} Y l l (  .( l 2 e = = = = = = = = = = = $ $ $ = = e e M c c c D H ].].'.1.2.2.1.2.2.2.2.;.H ;.3.3.y.y.w.w. . .} Y Y l l u u y u u u y q q q q 2 2 2 2 2 2 q q 1 1 , : : # # # : : : : 2 q u l l q h ( ( q q q 2 , 5 9 9 5 > > 8 8 8 5 5 5 5 5 5 5 5 5 5 5 5 5 8 8 8 t ! ~ ~ ~ ~ ` ` ` ` ` } } Y Y Y Y Y I W W F s s D G L L L v.v.v.v.v.v.^.^.^.^.^.^.^.v.v.v.^.<.L L P 2.H % % i & p j j j / / / / / / / / / / h h h h h h h z z 2.<.<.^.v.v.",
"K x m x b b x x b x b b b b x x S.sXU.U.@.@.Y.Y.@.@.Y.U.Y.Y.Y.Y.U.U.U.U.Y.Y.Y.Y.Y.Y.Y.Y.Y.Y.Y.Y.U.U.U.U.U.U.Y.Y.U.Y.Y.Y.Y.@.@.@.U.U.@.@.@.@.@.@.@.@.@.@.@.@.@.@.Y.Y.Y.Y.Y.Y.U.U.U.U.Y.Y.Y.Y.Y.U.U.U.U.Y.Y.Y.@.@.dXdXsXsXsXsX].].].].].].].].A.A.E E E R R R R A } ` ` ` ` ` ` ` ` ` ~ ~ ~ ~ ~ ~ ~ ~ 9 5 3 > , , 1 8 8 9 t t ! ! t t t t t t t 9 9 9 9 9 r r t t t t t t t t _ _ _ _ _ _ _ ] I.I.I.I.[ [ [ [ C C C C C C C C C C C C C C C C C l.A A A A A R ....} Y l l l ( l l 2 $ $ = = = = = = = = = = $ $ $ = = e e e c c c s H 3.].'.2.2.2.3.2.2.2.;.H z >.3.3.y.w. . . .( Y l l l u u y y y u u y q q q 2 q q q 2 2 2 2 2 2 : : # # @ @ # # # # # 2 q u u h ( ( ( h q h h q 2 , 1 1 , , , , , , , , , , , , , , > , , , , 8 8 8 r t ! ~ ~ u u ~ ~ u N N N N N N Y Y U E E W F s D G L L L v.v.v.v.v.v.^.^.^.^.^.^.^.v.v.^.^.<.<.L P P H % % & & g j j h j / / / / / / / j h h h q h h h h z d H <.<.v.v.v.",
"A.W x m x x b x b b b b b b b b S.A.U.U.U.@.Y.Y.@.@.@.@.U.U.U.U.U.U.U.U.@.@.U.U.U.U.U.U.U.U.U.U.U.U.U.U.U.U.Y.Y.U.U.@.Y.@.@.@.@.Y.Y.@.@.@.@.@.@.@.@.@.@.@.@.@.@.U.U.U.U.U.U.U.U.U.U.U.Y.U.U.U.U.U.U.@.@.@.@.@.@.dXdXr.sXsXsX].].].].].].].A.A.A.E E R R R R A A ` ` ` ` ` ` ` ` ` ~ ~ ~ ~ ~ ~ ~ ~ ~ 9 5 5 , , , 1 8 8 9 9 t t t t t t t t t t 9 9 9 9 9 9 9 t t t t t t t t t _ S S _ _ _ ] I.I.I.I.[ [ [ C C C C C C C C C C C C C C C C C l.l.A A A A A A U ..} } l l l l l l y $ $ = = = = = = = = = = $ $ $ = = = = e ; c c s F P ].].3.3.2.3.3.;.;.:.z >.>.3.w.y. .T T l l l l l l u u u u u u u u u u u q q 2 2 2 2 2 2 2 : # @ @ @ O O O @ @ @ @ 2 q u u q ( ( q q q h h q 2 : , < < : : : : : : : : : : : , , , , , , , 8 8 8 8 9 t t t t u u u u u u u u u N N Y Y R E W W D D D L L L v.v.v.v.v.v.v.^.^.^.^.^.^.v.^.^.^.<.<.<.G P H % % & p g z j h h h h h j j / / / h h h h h h h h z d G G L v.v.v.",
"A.A.S.n m x x b J b b b J J b b S.A.U.U.@.@.Y.U.@.@.@.@.U.U.U.U.@.@.U.U.U.U.U.U.U.U.U.U.U.U.U.U.U.U.U.U.U.U.Y.Y.@.@.@.Y.@.@.@.@.@.@.@.@.@.@.@.@.@.@.@.@.@.@.@.@.U.U.U.U.@.@.@.@.U.U.U.U.U.U.U.U.@.@.@.@.@.@.@.@.@.@.@.r.sXsX].].].].].].S.A.A.E E R R R R A N N ` ` ` ` ` ` ` ` ` ~ ~ ~ ~ ~ ~ ~ ~ u 9 5 5 , , , 1 8 8 8 9 9 9 9 ! t t ! t t 9 9 8 8 8 8 9 9 r r t t t t S S S S S S _ _ _ _ I.I.I.I.[ [ C C C C C C C C C C C C C l.C C C C l.l.l.A A A A A R U Y Y l l l l l l y $ $ = = = = = = = = = = $ $ $ $ = = = e ; c c ; ; P ].].3.3.3.3.>.>.:.z z >.>.w.w.w. .T T l l Y l l l Y Y Y Y Y } } Y N u u u y q 2 2 2 2 2 2 # @ O O O O + O + O O @ 2 u l l h h h q h h h q q 2 # # < < # # @ @ @ # # # # # : : : : , , , , 8 8 8 8 9 t t t t t u u u u u u u u ` ` N Y U E E E H D D J L L L v.v.v.v.L v.^.^.^.^.^.^.^.^.^.^.<.<.L G P H d % & p g j j h h h h h h j j / / j h h h h h h h z d H G L v.v.v.",
"E U.U.W c x x b J J J J J J b b S.A.U.U.@.@.@.@.@.@.@.@.U.U.U.U.U.U.U.U.U.U.U.U.U.U.U.U.U.U.U.U.U.U.U.U.U.U.U.U.U.U.@.@.Y.Y.@.@.@.@.@.@.@.@.@.#.@.@.@.@.@.@.@.@.@.@.@.@.@.U.U.U.U.U.U.U.U.U.U.U.@.@.@.@.@.@.@.@.@.@.@.@.@.sX].].].].A.A.A.A.E E R R R R A N ` ` ` ` ` ` ` ` ` } ~ ~ ~ ~ ~ ~ ~ ~ ~ ~ 9 9 5 , , , 8 5 8 8 9 9 9 9 ! ! t 9 9 9 9 9 8 8 8 8 8 8 9 9 t t t t S S S S S S _ _ _ _ [ I.I.I.C C C C C C C C C C C C C C l.l.l.l.l.l.l.l.l.l.l.A A A R R Y Y Y l l l l l u e $ = = = = = = = = = = $ $ $ $ = = = e e ; c c ; F 3.3.3.3.3.>.>.:.:.z >.>.w.w.w. .T Y Y } ( Y Y Y Y } } } } } } } } } Y u u u u y 2 2 2 2 2 # @ O O O O + + + + + O 2 u l l l h h h h h q q 0 2 O O $ $ O O O O O @ @ @ # # : : : : , , 1 1 8 8 8 9 9 t t t t t u u u u u u u ~ ` ` N N U ..+.E W H D J L L L L L v.v.v.v.v.^.^.^.^.^.^.^.^.^.^.<.L G P P H & & p g g g g h h h h h h j / / / h h h h h h h z z H G L v.v.v.",
"R U.U.A.S.K b x J J J J J J J J A.].U.+.@.#.@.@.@.@.@.@.@.U.@.@.@.@.U.U.U.U.U.U.U.U.U.U.U.U.U.U.U.U.U.U.U.U.U.U.U.U.@.@.Y.Y.@.@.@.@.@.@.@.@.#.#.#.#.#.#.@.@.#.@.#.#.@.@.@.@.@.U.@.@.U.U.U.U.@.@.@.@.@.@.@.@.@.@.@.@.@.@.@.sXsX].].].A.A.A.E E E R R R R A N ` ` ` ` ` ` ` ` ` ` ~ ~ ~ ~ ~ ~ ~ ~ ~ u 9 5 5 , , , 5 5 5 8 9 9 9 9 ! ! Q Q 9 9 9 9 5 8 8 8 8 8 9 9 t t t S S S S S S S S _ _ _ C C l.l.C C C C C C C C C C C C C C l.l.C l.l.l.l.l.l.l.l.l.A A R R U Y Y l l l l l u y $ = = = = = = = = = $ $ $ $ $ $ = e e e ; ; c ; F W 3.3.3.3.>.>.:.j j >.w.w. .T T T Y Y } } Y Y Y Y } } } } } } } Y u u u u y y 2 2 2 : : : # @ O O O + X + + + + O 2 u l l h h h l h 0 0 h k 2 + X + + + + O O O O @ @ # # : : : : , , 1 1 1 8 8 9 t t t t t t u u u u u u u u ` ` N } } ..O.+.E P K J J J L L L v.v.v.v.^.^.^.^.^.^.^.^.^.^.^.<.L G P W W d p g g g g g g h h h h h h j j j h h h h h h h z z f G L L v.^.",
"R +.U.U.A.S.K b b J J J J J J K A.sXU.+.#.#.@.#.@.@.@.@.@.U.U.U.U.U.@.@.@.@.@.@.U.Y.U.U.U.U.U.U.U.U.U.U.U.U.Y.Y.Y.@.@.@.Y.@.@.@.@.@.@.@.@.#.#.#.#.#.#.#.#.#.#.#.#.#.#.@.@.@.U.U.@.@.@.@.U.U.@.@.@.@.@.@.@.@.@.@.@.@.@.@.@.sXsX].].].A.A.A.E W E R R R R R N ` ` ` ` ` ` ` ` ` ~ ~ ~ ~ u u ~ ~ ~ ~ u 9 5 5 > , , 8 5 5 5 9 9 9 9 Q Q Q Q 9 9 9 9 5 5 5 8 8 8 8 9 t t t t t t S S S S S _ _ C C C [ [ C C C I.l.C C C C C C C C C C C C l.C C A A A l.l.A A A A A A U Y Y l l l l Y y = = = = = = = = = = $ $ $ $ $ $ = = = e = ; c ; c W 3.3.3.>.>.>.:.j j 9.w.w.T T T T Y Y Y Y Y Y Y Y Y Y Y Y l l u u u u q 2 q 2 2 2 : : : : # @ @ @ O O O O + O O O $ y l y 0 k h l g 0 0 0 y & X . X X X + O O O O @ # # # : : : : , , 1 1 1 8 8 9 t t t t u u ~ ~ u u N N u u ` ` } } } ....O.E W K J J J L L L L v.v.^.^.^.^.^.^.^.^.^.^.^.^.<.<.P H W H k p g g g g g & 0 0 g h h h h h h h h h h h h h j z f G G L L L ",
"+.+.+.U.A.S.K K b J J J J J J K A.sXU.+.#.#.@.#.@.@.@.@.@.U.U.U.@.@.@.@.@.@.@.@.@.@.@.@.U.U.U.@.U.U.U.U.U.U.U.Y.@.@.@.@.@.@.@.@.@.@.@.@.@.@.#.#.#.#.#.#.#.#.#.#.#.#.#.@.@.@.U.U.@.@.@.@.U.@.@.@.@.@.@.@.@.@.@.@.#.@.@.@.@.sXsXsX].].A.A.A.E W W R R R R R N ` } ` ` ` ` ` ` ` ~ ~ ~ ~ u u ~ ~ ~ ~ t 9 5 5 > , , 8 5 5 5 9 9 9 9 Q Q Q Q 9 9 9 9 5 5 5 5 8 8 8 8 r t t t t t S S S S S _ C C C C I.I.[ C C I.I.C C C C C C C C C C C C C C C A A A A l.A A A A A A N Y Y Y l l Y Y B e = = = = = = = = = $ $ $ $ $ $ $ $ = = = = c ; c H 3.3.3.>.>.>.:.j j w.w.w. .T T T T T Y Y l l l l Y Y Y Y } } } } Y N u u u u q 2 2 : : : # # @ @ @ O O O + O O + $ y y y 0 0 0 0 k l k 0 0 + . . X X . X O O O O @ # # # : : : , , , , 1 1 1 8 8 9 t u u ~ ~ ` ` ` ` ` } Y } } } } } } } } ..E W P J J J L L L L v.v.^.^.^.^.^.^.^.^.^.^.^.^.^.<.P H H F k & & g 0 & & & & 0 0 g h h j h h h h h h h h h j z f G G L L L ",
"E U.U.U.A.E K c D D D D x D K S.A.A.+.#.#.#.#.#.@.@.@.@.@.@.@.@.@.@.@.@.@.@.@.@.U.U.U.U.U.U.@.@.@.@.@.@.U.U.@.U.@.@.@.@.@.@.@.@.@.@.#.#.#.#.#.#.#.#.#.#.#.#.#.#.#.#.#.@.@.@.@.@.@.@.@.@.#.#.#.#.#.#.@.@.@.@.U.@.@.@.@.U.sXsXsX].].].A.W W W R R R Y Y N N N Y N ` ` N N ~ ~ ~ ~ ~ ~ ~ ~ ~ ~ ~ ~ ~ q 9 5 > > 3 > 3 3 5 5 5 5 5 9 Q Q Q Q 9 9 9 9 7 7 4 5 5 8 8 8 r r t t t t S S S S S S C C C [ I.I.C C C C C C C C l.l.l.l.C C C C l.l.C C C C l.A A A A A A A A A Y Y Y Y Y l Y Y M = = = = = = = = = = = = = = = = = = = = = ; ; ; F W 3.3.>.>.>.>.T  . . . . . .T T T Y Y Y Y Y Y Y Y } } } } } } } } } } } N u u u q q 2 < < : # @ O O O O O + X X X + + $ $ & & $ & y y & X X X . . . X X X + O @ # : : : : , 1 1 8 8 r r 8 8 8 r t t u u ~ ~ ~ ` ` ` ` ` ` } } } } } X.X.X...E E W K J L L L v.v.v.v.v.^.^.^.^.^.^.^.^.^.^.^.^.L P H H H d d & & & & o o + + & & 0 h h h h h h h h j j j j z z f H H G G ",
"E E U.U.A.E W K x x D D K P S.].A.A.+.+.#.#.#.#.@.@.@.@.@.@.@.@.@.@.@.@.@.@.U.@.U.U.U.U.U.U.@.@.@.@.@.@.U.U.@.@.@.@.@.@.@.@.#.#.#.#.#.#.#.#.#.#.#.#.#.#.#.#.#.#.#.#.#.@.@.@.@.@.@.@.@.@.#.#.#.#.#.#.#.@.@.@.@.@.@.@.@.@.sXsX].].].A.W W W W W R R Y B N N N N N ` ` N ` N ~ ~ ~ ~ ~ ~ u ~ ~ ~ ~ ~ q 9 5 > > 5 3 3 3 5 5 5 4 5 9 Q Q Q Q 9 9 9 9 7 4 5 5 5 8 8 8 r r t t t t t t S S S S C C C [ I.I.I.C C C C C C C l.l.l.l.C C C C l.l.C C C C l.l.A A A A A A A A R Y Y Y Y Y Y Y M e = = = = = = = = = = = = = = $ = = = = = ; c c F W 3.3.>.>.>.>.T  . . . . .T T T T Y } } } } } } } } } } } }  . .} } } } } } u u u u y 2 2 < : # @ O O O + + X X X X X X X X X X + $ $ + X X . . . . X X X + O @ # : : : , , 1 1 8 r t t t t t t t ~ ~ ~ ~ ` ` ` ` ` ` ` ` } } } } } X.X.X...E E W K J L L v.v.v.v.v.^.^.^.^.^.^.^.^.^.^.^.^.^.L P H H H I d % % % o o X X + + & 0 g h h h h h h h h j j j j z z H H H H ",
"R R +.U.+.E W W c c K P A.].].].A.A.+.+.+.#.#.#.#.@.#.#.@.#.#.@.@.@.@.@.@.@.@.@.@.@.@.@.@.@.@.@.@.@.@.@.@.@.@.@.#.@.#.@.#.#.#.#.#.#.#.#.#.#.#.#.+.+.#.#.#.#.#.#.#.#.#.#.#.@.@.@.#.#.#.#.#.#.#.#.#.#.#.#.@.@.@.U.@.@.@.@.sXsX].].A.W W W W W R R Y Y Y N Y Y N N ` N N N u u u u ~ ~ ~ u ~ u ~ ~ ~ q 9 5 > 5 9 9 5 3 3 5 5 5 5 5 9 9 9 9 9 9 9 9 7 7 5 5 5 5 8 8 r r r t t t t t S S S S S C C C I.I.I.l.C C C C C l.C C l.C l.C l.l.l.l.l.C C C C A A A A A A A A A R Y Y Y Y Y Y U I M = = = = = = = = = = = = = = = = = = = = ; c c c F 3.3.>.>.>.>.T  . . . .T T T T T Y Y } } } } } } } } } } } } } } } } } } } u u u q q 2 2 2 : # @ O O O O + X X X . . . . . . . . X X . . . . . . . X X X O O @ # : : : 1 , 1 1 8 t t ` ` ` ` ` ` ` ` ` ` ` ` ` ` ` ` ` ` ` } } } } X.X.X.O.E E W K J J v.v.v.v.v.v.v.^.N.^.^.^.^.^.^.^.^.^.^.P P H H W I d % . . . o o o o o % & 0 g h h h h h h h j j j j z z z z z a ",
"....O.O.O.E R R W W W A.].].].A.A.E +.+.+.+.+.#.#.#.#.#.#.#.#.#.@.@.@.@.#.#.#.#.#.#.#.#.#.#.#.#.#.#.@.@.#.#.#.#.#.#.#.#.#.#.#.#.#.#.#.#.#.#.#.#.+.+.+.+.#.#.#.#.#.#.#.#.#.#.#.#.#.#.#.#.#.#.#.#.#.#.#.#.#.@.@.@.@.@.U.sXsX].].A.A.W W W W W R R B Y Y N Y Y Y N ` N N N u u u u ~ ~ ~ u u u ~ ~ ~ q 9 5 > 5 q ~ 5 > > 5 5 5 5 5 9 9 9 9 9 9 9 9 5 5 5 5 5 5 8 8 8 r r r t t t t S S S S S C C C C I.I.l.C C C C C C C C l.l.l.l.l.l.l.l.l.C C C C A A A A A A A A A R R Y Y Y Y Y U Y M ; = = = = = = = = = = = = = = = $ = = = = ; c ; F W 3.3.>.>.3.T  . . .T T T T T Y Y Y Y } } } } } } } } } } } } } } } } u u u q 2 2 2 2 2 < : # # O O O X X X X X X X . X . . . X . . . . . . . . . X X X O O # : : : : 1 1 1 8 r t t ~ ` ` ` ` ` ` ` ` ` ` ` ` ` ` ` } ` ` } } } } } } X...E E W K J J L v.v.v.v.v.v.^.Z.Z.^.^.^.^.^.^.^.^.<.L H H H W d ; % o o o % % d & % % & & g g h h h h h h h j j j j j j z z z ",
"....O.....O.R E E E A.].sXsXU.A.E +.+.+.O.+.+.+.#.#.#.#.#.#.#.#.#.#.#.#.#.#.#.#.#.#.#.#.#.#.#.#.#.#.#.#.#.#.#.#.#.#.#.#.#.#.#.#.#.#.#.#.#.#.+.+.+.+.+.+.#.#.#.#.#.#.#.#.#.#.#.#.#.#.#.#.#.#.+.+.#.+.#.#.#.#.@.@.@.@.sXsX].].A.E W W W W W R R R Y Y Y Y N N N N ` N N u u ~ ~ ~ ~ ~ u u u u u u ~ q 9 9 > 5 q ~ 5 > > > 5 5 5 5 5 8 8 8 7 7 7 9 8 5 5 5 5 5 5 8 8 r r r r t t t S S S S S S C C C C l.l.A A C C C C C C C C C C l.l.l.l.l.l.A A V A A A A A A A A A A R Y Y Y Y Y Y Y M M = = = = = = = = = = = = $ $ = = = = = = c c ; F W 3.3.3.3.3.3. . . .T T T T T Y Y Y Y Y Y Y Y Y Y Y Y } } } } } } } u u u u 2 2 : : : : : # # @ O O O X X X X X X X X . . . . .     . . . . . . . . . + O @ # < < < < 1 1 1 8 8 r t t t t t ~ ~ ` ` ` ` ` ` ` ` ` } } } } } } } } } } } ..E W I K J J L L v.v.v.v.v.v.Z.Z.'.'.'.^.^.^.^.^.L P H H H H d d d d d ; d d F F F d d p p g h h h h h h h h j j j j j j j j ",
"O.O.O.......R R E E E U.sXsXU.U.+.+.+.+.O.+.O.+.#.#.#.#.#.#.#.#.#.#.#.#.#.#.#.#.#.#.#.#.#.#.#.#.#.#.#.#.#.#.#.#.#.#.#.#.#.#.#.#.#.#.#.+.+.+.+.+.+.+.+.+.+.+.+.#.+.+.+.+.+.+.+.+.+.+.+.+.+.+.+.+.+.+.#.#.#.#.#.#.@.y.sX].].].E W P W W W W R R R Y Y Y Y N N N N Y N N u u ~ ~ ~ ~ ~ u u u u ~ u u q 9 5 > 5 q ~ 5 , > , , 5 5 5 5 5 5 8 5 5 5 5 8 8 5 5 5 5 5 5 8 r r r r t r t S S S S S S C C C C C C C l.A C C C C C C C C C l.l.l.l.l.l.V V V A A A A A A A A A A R R Y Y Y I Y Y I M ; = = = = = = = = = = = $ = = = = = = = c c c c I E 3.3.3.3.T  . . .T T T T T T Y l l Y Y Y Y Y Y Y } } } } } } } } u u u q 2 2 : # : : # # @ @ O O O X X X X X . . . . .   . .       . . . . . . . X O O @ # < < 1 1 1 1 8 8 8 8 r t t t t t ~ ~ ~ ~ ` ` ` ` ` ` ` ` ` } } } } } } } } ..E W I F J J L L v.v.v.Z.Z.Z.Z.Z.'.'.'.'.'.'.^.^.L H H H H H d F H H F F D F s D G F F d d g g g h h h h h h j j j j j j j j ",
"U O.O.O.......R R R E +.U.sXsXU.+.+.O.O.O.O.+.+.+.+.#.#.+.#.#.#.+.+.#.#.#.#.#.#.#.#.#.#.#.#.#.#.#.#.#.#.#.#.#.#.#.#.#.+.#.#.#.#.+.+.+.+.+.+.+.+.+.+.+.+.+.+.+.+.+.+.+.+.+.+.+.+.+.+.+.+.+.+.+.+.+.+.+.#.#.#.+.+.@.sX].].].E W W P W W W W R Y B Y Y Y Y u u N N Y N u u u u u u ~ ~ u u u u u u u q q 5 > , 9 u 5 , > > , 5 5 5 5 5 5 5 5 5 5 5 8 8 5 5 5 5 5 5 8 r r r r r r r S S S S S S C C C C C C C A A A l.A l.l.l.l.C l.l.l.l.l.V V V V V l.A A A A A A A A A R R R Y Y Y Y Y R M M = = = = = = = = = = = = $ $ = = = = = ; c c c F W 3.3.3.3.3.T  .T T T T T T T Y Y Y Y Y Y Y Y } } } } } } } } } u u u 2 2 2 : : : : : : # @ @ O O O X X X X . . . . . . . . . . . . . . . . . . X X O O # : < < 1 1 1 8 8 8 8 9 t t t t t ~ ~ ~ ~ ~ ~ u ~ ~ ~ ~ ~ u N N } } } } } } X...R R I F J J L P P Z.Z.Z.Z.Z.Z.Z.Z.'.'.'.'.'.'.^.P H H H H F H H H P H G D G s D D D D F d d g g h h h h h h j j j j j j j h ",
"R ..O.........O.E R E +.U.sXU.U.+.+.O.O.O.O.+.+.+.+.+.#.+.+.#.#.+.+.#.#.#.#.#.#.#.#.#.#.#.#.#.#.#.#.#.#.#.#.#.#.#.#.+.+.+.+.#.#.+.+.+.+.+.+.+.+.+.+.+.+.+.+.+.+.+.+.+.+.+.+.+.+.+.+.+.+.+.+.+.+.+.+.+.+.+.+.+.+.U.sXA.E E W W W P W W W W R Y B B B Y N u u u N Y N u u u u u u ~ u u u u u u u u q q 5 > > 9 q 5 > , > , > , 5 5 5 5 5 5 7 7 7 8 8 5 5 5 5 5 5 8 8 r r r r r r S t S S S S C C C C C C C A A A l.l.l.l.l.l.C C l.l.l.l.V V V V l.l.A A A A A A A A A R R R R R R R R R I M = = = = = = = = = = = = $ $ = = = = = = c c ; F W 3.3.3.3.T T T T T U U T T T Y Y Y Y Y Y Y Y } } } } } Y u u u u q 2 2 : : : : : : : : # # @ O O O X X X X . X X X   . . . . . . . . . . . . X X X O O # < < 1 1 1 8 8 8 8 9 9 t ! t t ! ~ ~ ~ ~ ~ ~ u ~ u u u u u u N } } } } } } ..O.E E I F J J P P Z.Z.Z.Z.S.S.Z.Z.Z.'.'.'.'.'.'.^.P P H H F F H H H H H G G G H G D D D D d d g g g h h h h h j h h h h h h j ",
"U ..O...........U U Y U ..U.U.U.O.O.+.O.O.O.O.O.+.+.+.+.+.#.#.#.+.+.+.+.+.+.+.+.+.+.+.#.#.#.+.+.+.+.+.+.+.+.+.+.+.+.+.+.+.+.+.+.+.+.+.+.+.+.+.+.O.+.O.O.O.O.O.O.O.O.O.+.O.O.+.+.O.O.O.O.O.O.O.+.+.+.#.+.+.+.+.@.U.sX].].P P W W W W W W R Y Y Y Y Y Y B N N N N Y N u u u u u u ~ u u u ~ ~ ~ u q q q , , , 5 q > > > > > 5 5 5 5 5 5 5 5 5 5 5 8 8 8 8 8 8 8 8 8 8 r r r r r r S S S S S S C C V C A A A A A A A V V V V A A A V V V l.l.l.V V A A A A A A A A Z Z R R R R W W R I I I R I M ; = = = * * = = = = = = = = = = = ; ; ; c ; ; F W 3.3.3.T  .T T U T T T U U U Y Y Y Y Y Y Y Y Y Y u u Y l u u 2 2 2 < : : : : : : : : : : # O O O X X X X X X . . . . . . .       . . . . . X X + O O # : < 1 1 r 1 r t t t 9 9 t ! ~ ` ` ` ~ ` ` ` ` ` ` ` u u u u ` } } } } } } X.#.O.E W K K K P P W W A.A.A.A.A.A.A.Z.P <.P <.<.<.P P H F F H G G G J G J L L J J J G G D G D d g g g h j j j j j h h h h h h ",
"U ..O...........U U Y U ..#.U.@.O.O.O.O.O.O.O.O.O.+.+.+.+.#.#.#.+.+.+.+.+.+.+.+.+.+.+.#.#.#.+.+.+.+.+.+.+.+.+.+.+.+.+.+.O.O.O.O.+.+.O.O.O.O.O.O.O.O.O.O.O.O.O.O.O.O.O.O.O.O.O.O.O.O.O.O.O.O.O.+.+.+.+.+.+.+.+.@.@.A.].].P P W W W W W R R Y Y Y Y Y Y B N N N N Y Y u u u u u u ~ u u u ~ ~ u u q q q > , , 5 q > , , > > 5 5 , 5 5 5 5 5 5 5 5 8 8 8 8 8 8 8 8 8 8 r r r r r r S S S S S S V C V V C A A l.A A A V V V V A A A V V V V V l.V V A A A A A A A A Z Z Z R R W W I I I I I R R M c = = = = = = = = = = = = = = = = = = ; c ; ; F W 3.3.3.T T T T U T T T T U U Y Y Y Y Y Y Y l l u u u u u u q 2 2 : : < : : : < 2 < 2 2 2 # # O O X X X X X X X . X . . . . . . . . . X X X X X + @ @ # < : 1 1 w t t t t 9 9 t ! ! ~ ` ` ` ` ` | | | | } } ` ` ` } } } } } } } } X.#.O.E W K K K W W W A.A.A.A.A.A.A.A.W P P P 3.P P P H H G D G G G G J G J J J J J J J D D D G d d g g g h h j j j g g g g g g ",
"U ..O...........U U U U U O.+.#.........O.O.O.O.O.O.O.+.+.#.#.#.+.+.+.+.+.+.+.+.+.+.+.+.+.+.+.+.+.+.+.+.+.O.O.O.O.O.O.O.O.O.O.O.O.O.O.O.O.O.O.O.O.O.O.O.O.O.O.O.O.O.O.O.O.O.O.O.O.O.O.O.O.O.O.O.+.+.+.+.+.+.+.E E E W P P P W W W W W R Y Y Y Y Y Y Y B Y N N N N Y u u u u u u u u u u ~ ~ ~ q q q q , , , , q 5 , , > , , , , 5 5 5 5 5 5 8 8 8 8 8 8 8 8 8 8 8 8 r r w w w r S S S S S S V C V V V V l.l.l.V A V V V V A A V V V V V V l.V V V V A A A A A A Z Z Z Z Z W I I I I I I I I Z M = = * * = * * * * * * * * = = * = = ; c c ; F F 3.3.3.3.3.T T T T T T T Y Y Y Y Y Y l l l u u u u u y u u q y q 2 2 : : 2 q q w 2 2 2 2 : @ @ O + + + + X X X X X X X X X X X X X X X X X X + + # : < : : : 1 1 t t t t t t t t ! ~ ~ ` ` ` } | | | | | } } } } } } } } } } } } X.#.O.E W W K W W W E A.A.A.A.A.A.A.E W W P P P P P P H H G G D G G J J J J J J J J J J J D D D s d d g g g h h g g g g g g g g ",
"U U O...........U U U U U ..O.+.O.........O.O.O.O.O.O.O.O.O.+.+.+.+.+.+.O.O.O.O.+.+.+.+.O.O.O.O.O.O.O.O.O.O.O.O.O.O.O.O.O.O.O.O.O.O.O.O.O.O.O.O.O.O.O.O.O.O.O.O...O.O.O.O.O.O.O.O.O.O.O.O.O.O.O.O.O.+.+.+.U.E E E W P P P P W W W W I Y Y Y Y Y Y Y Y B Y Y N N N N u u u u u u u u u u ~ ~ ~ q q q q , : : , q 9 5 , > , , , , 5 5 5 5 5 8 8 8 8 8 8 8 8 8 8 8 8 8 w w w w r r S S S S S S V V V V V A l.l.l.V V V V V l.V V V V V V V V V V V l.V V A V A Z Z l.Z Z Z Z Z Z Z Z Z Z M M Z Z Z c = * * * * * * ; * * * * * * * = = ; c ; ; ; F W 3.3.T 3.T T T T T T T Y Y Y l l l l l l l u u u u y y u u u u u u 2 q u u u w 2 2 2 2 : # # @ O O + O O O O + + + + X X X X X X X + + O O O @ : : < < < : : < 1 r t u t t t t ~ ~ ~ ~ ` ` ` ` ` ` } } } } } } } } } } } } } } X.#.O.E E I I W R R R A.U.U.U.U.E E E W W W W W W W H H G G G J J J J J J J J J J J J J J G D G D D d d a g g g g g a a a d d d ",
"U U ..R U ......U U U U U U ....................O.O.O.O.O.O.O.+.O.O.O.O.O.O.O.O.+.+.+.O.O.O.+.+.O.O.O.O.O.O.O.O.....O.O.O.O.O.O.......O.........O.O...O.O...................O.O.O.O.O.O.O.O.O.O.+.+.+.+.@.@.3.3.3.W P P P W W W W I I Y Y Y Y Y Y Y Y Y l l u u u u u u u u u u u u u u ~ ~ q q u q q , : : , 9 q q 1 , , , , , 5 5 8 8 8 8 8 8 8 8 8 8 8 8 8 8 r r r r w w r e r S S S S S V V V V C A l.l.l.V V V l.l.l.l.V V l.l.l.V V V l.l.V V V V V Z Z Z l.l.Z Z Z Z Z Z Z Z I I M Z Z Z M c = * * * * c c c x - - * * * * = ; c ; ; ; ; W 3.3.T T T T T T T T Y Y Y l l l l l l l l l l u u u l Y Y u u u N } N u y y y 2 2 2 : $ # # # @ @ @ # @ @ O O O O O + O + + O + O O O O @ # # < < 1 1 1 1 < : : , 1 t u ~ ~ ~ ` ` ` ` ` ` ` ` ` ` ` ` ` } } } } } } } } } } } X.#.+.E R I I I R R R ..+.+.+.+.+.E E E W W W W W W H G G G L J J J J J J J J J J J J J J D D G G G G f d p g g g p p d f f f G ",
"U R ..R U U ..U U U U U U Y U U ..................O.O.O.O.O.O.O.O.O.O.O.O.O.O.O.O.O.O.O.O.O.O.O.O.O.O.O.............................................................................O.O.O.O.O.O.+.+.+.+.@.A.3.3.P P P P P W W W Y I I Y Y Y Y Y Y Y N Y l l l u u u u u u u u u u u u u u u q q q q q > : : , 9 u q q , : : , , , 1 1 8 8 8 8 8 8 8 8 8 8 8 8 8 r r r w w w w e e S S S S S V V V V V C A l.l.V V V l.l.l.l.V V l.l.l.l.l.l.l.l.V l.V V V Z Z Z l.l.Z Z Z Z Z Z Z Z Z I M Z Z Z Z c ; * * * c c F F x x x * * * * = = ; ; ; ; ; F W 3.T T T T T T T T Y Y l l l l l l l l l l l Y Y Y } } } } Y u N Y u u y 2 2 2 2 : : < : $ # # # # # # # # # # # @ @ @ @ @ @ @ # # # # # : < 1 1 1 8 t r 1 , : : , 1 t u ` ` ` ` ` ` ` ` ` ` ` ` N N ` ` N N } } } } } } } } X.#.+.R R I M I R R R ....O.O.+.+.E E E W W W W W H H G G G J J J J J J D D J J D J J J D D G G G G G s d d g g g p d d f G G G ",
"U U ..R U U U U U U U U U Y Y Y ......................O.O.O.O.O.O.O.O.O.O.O.O.O.O.O.O.O.O.O.O.O.O.O.............................................................................R R ....O.O.O.O.+.+.E E E 3.E E P P P P W W W W Y Y Y Y Y Y Y Y l l Y Y N l l l l u u u u u u u u u u u u u q q q q q , , , , 9 u u u q , : : , , 1 1 1 1 1 8 8 1 1 1 1 1 1 1 1 1 w w w w w w e r S S S S S V V V V V V A l.l.V l.l.l.l.V V V l.V V V V V V l.l.V l.V V V Z Z Z Z Z Z Z Z Z Z Z Z Z Z I I Z I Z M M c = * * c F K D D D x - * * * = = = = ; ; ; d W T T T T T T T T T l l l l l l l l l l Y Y Y } .... . .} } } Y u u u u y 2 2 : : : : < < : # # # : : : : : : : : # # # # # # # # # : : : : < 1 1 1 8 r r r 1 1 , , , 1 t ~ ` ` ` } } ` ` ` ` ` ` ` N ` ` ` ` ` } } } } } } } X.#.O...R I M Y R R R R ....X.+.+.E E E E W W W P H H G G G G G G G J D D D D D D D J D D D D D G G G D d d g g g d d f s G G G ",
"U U ..U U U U U R U U U U Y Y Y U ....................O.O.O.O.O.O.O.O.O.O.O.O.O.O.O.O.O.O.O.O.O.O.O.............................................................R R ............R R R ..O.O.O.O.+.E E E E E E W P P P P W W I R Y Y Y Y Y Y Y B l l Y Y N u l l l u u u u u u u u u u u u u q q q q q 5 , , , 9 q u u q 2 : : : 1 1 1 1 1 1 1 1 1 1 1 1 1 1 8 8 1 1 w w w w w e r e S S S S V V V V V V l.l.l.A l.l.l.l.V V V l.V V V V V V V V l.V V V V Z Z Z Z Z Z Z Z Z Z Z Z Z Z I I I Z Z M Z Z c = c c K K D D D D x * * * = = = = ; ; ; d H T T T T T T T T T l l l l l l l l l Y Y U U ....O...} } } } Y Y ` u q 2 2 2 : : : : < < : # : : : : : : : : < < < : : : : : : : : : : : < 1 1 1 1 8 8 9 r 9 2 1 , , 1 1 t t u ` } } ` ` ` } } } } } } } } } ` } } } } } } } } O.O.R R Y M Y R R R R ..X.X.+.+.A.A.E W W W W H H G G G G G D G D D D D D D D D D J D D D D D G G G D d d d g g d d s s G G G ",
"U U ....U U U ..U U U U U Y Y Y U U ....U U ..................O.O.O.O.O.O.O.O.O...........O.O.O.......................................................U U U U ..............O.R O.O.O.O.O.O.O.O.E E E E E W P P P P P W W I I I Y Y Y Y B Y Y Y u u Y Y Y Y Y Y N u u u u u u u q q u u u u u u q q q 9 2 , , 2 u q q q 2 : # : : : : , 1 1 1 1 1 1 1 1 8 8 8 8 r w w w w w w w e e S S S S V V V V V A l.l.l.V V l.l.l.V V V V l.l.l.l.l.l.Z Z l.Z Z Z l.l.l.l.Z Z Z Z Z Z Z Z Z Z Z Z Z Z Z Z Z Z Z c c c c K D D J D D x - * * * * = ; ; ; ; - F W T T T T T T T T Y Y Y l l l Y Y Y Y U  ... .O.O. .} } } Y } Y u u 2 2 2 2 : : : < 1 1 , : : : : : , , 1 1 1 1 1 1 < < < 1 1 < < < : 1 1 8 8 8 8 8 8 8 r t t t r 1 , , 1 8 8 r u u ` } } } } } } } } } } } } } } } } } } } } X.#.O...N B B B B N ` X.X.X.X...R E E E W W W H G G G L G J J J J D D D D D D D D D D D D D D D D D D d d k k k d d f G G G G ",
"U U ....U U U ..U U U U U Y Y Y Y Y Y Y } ....X.................O.O.O.O.O.O.O.O...........O.O.O.....................................................U U U U U U ............O.R O.O.O.O.O.O.E E E E E E W P P P P P W W W I I I Y Y Y Y B B Y Y u u l u l l u l u u u u u u u u q q u u u u u u q q q 9 , , 2 2 q q u u q 2 # # : : : : < 1 1 1 1 1 1 1 8 8 8 8 w w w w w w w w e e S S S S V V V V V V V V V V V V V V V V V V l.V l.l.l.V V V l.Z Z n Z l.l.l.Z Z Z Z Z Z Z Z Z Z Z Z Z Z Z Z Z Z Z c c c K K D J J J D x x * * * * = = * ; ; ; d I T T T T T T T T T Y Y Y Y Y Y Y Y U U  ...#.O. .} } } } } Y u u 2 2 2 2 2 < < 1 1 1 1 1 , , : : < 1 1 1 1 1 1 1 1 1 1 1 1 1 1 : : : 1 1 8 8 8 8 8 8 8 r t t t t t 8 1 1 1 1 1 w u u N } } } } } } } } } } } } } } } } } X.} X.X.X.Y B B B B B B N ..X.X.X...R E E E W I I F G G G J J J J J J D D D D D D D D D D D D D D D D D D d d k k k k d f s G G G ",
"U U ....U U U U U U U U U Y Y Y Y Y Y } ..X.X...................O.O.....O.O.O.O.........................U U U U ....U ..........U U R R ....U ..U U U U U U ........R ......R R O...O.O.R R E E E E E W P P P P P P W W I I I Y Y Y Y B B B Y l u u u u u u u u u u u u u u u u q q q q u u u u q q q q 2 2 2 q q q u u u 2 : # # : : : : , , 1 1 1 1 1 1 1 1 1 1 w w w w e e e e e S S S S S V V V V V V V V V V V V V V V V V v v V V V v v v V Z v v n n l.l.Z Z n n Z Z Z l.Z Z Z Z Z Z Z Z Z Z Z Z c K K K D J J J K F x x * * * = = * = ; - d I T T T T T T T T T T T Y Y Y U T T  . .....O.....} } } } } u y 0 2 2 2 2 2 2 2 2 2 1 1 1 1 , : < 1 1 r r 8 1 1 1 1 1 1 1 1 1 1 < : < 1 1 8 r r 8 8 8 8 r r t u ~ ~ u t r 8 1 1 1 w y u u N ` } } } } } } } } } } } } } } } } } } } B B u B B B B B ` X.X.X.R R R E E W I I F D G G D D J J J J D D D D D D D D F F F F D D D D D F d d k k k k d d s G D D ",
"U U U U U U U U U U U U U Y Y N N Y } } X.X.} } ................O.O...................................U U U U U ....U U U U ..U U U U U U U U U U U U U U ..........R R ....R R R R ..R R E E E E E E W P P P P P W W W I I I I Y Y B B u u l l u u u u u u u u u u u u u u u u q q q u u u u u u u q q 2 2 2 q q q q u u q : # # # # : : : : : < 1 1 1 1 1 1 1 1 1 w w w e e e e e S S S S V V V V V V V V V V V V V v V l.l.l.v v v v v v v v V V v v v v V V l.l.v n n n Z l.n n Z Z n Z Z Z Z Z Z Z K K K K J D D J K K c x * * * = = = = ; * ; F W T T T T T T T T T T T T U U  . . . ....... . ... .} Y u y 0 2 2 2 2 2 2 y q y w w 1 1 1 : , < 1 r t t r 1 1 8 r 8 8 8 8 1 1 1 1 1 1 8 8 r r r 8 8 8 8 r t t ~ ` ` ~ u u t t r w w w u u u u ` } } } X.X.} } } } } } } } } } ` N u t t t u S B B N X.X.X.....R R E W I F D D D D D J J J D J J D D D D D F F F F F F F F D D F F d k y k y k d d s s D D ",
"U U U U U U U U U U U U Y Y N N N Y Y N B N Y } ..................................................U U U U U U U U U U U U U U U U U U U U U U U U U U U U U ....R R R ......R R R R R R R E E E E E W W P P P P W W W I I I I I B B B u l l l l l l u u u u u u u u u u u u u q u u u u u u u u u u q q 2 2 2 q q q q u q q 2 # # # # : : : : : < < < < 1 1 1 1 1 1 w w w e e e e e S S V V V V V V V V V V V V V V v v V l.l.l.l.l.l.v V V V V v v v v v v v V l.v v v n n n n n n n Z n n K K K K n n n n n b K J D D J K c c ; = * = = = = ; * ; d I W T T T T T T T T T T T U T  . .O....... . .O. .} l u y y 0 2 2 2 2 y y u u y w w 8 1 < : : 1 r t t t r 8 8 r r r r r 8 8 8 1 1 1 1 8 r r r r r 8 8 8 r 9 t u ~ ` ` ` u u u u t w e e e y t u u u N } } } } } } } } } } ` u u u t e e t t t S B ` } X.X.....R R R W I F D D D D D D D D D D D D D D D D d F I I I I ; ; F F d d y y y y y y y d d s D D ",
"U U U U U U U U U U U Y Y N N N N N B u e u N } } } } U ..................................U R U U U U U U U U U U U U U U U U U U U U U U U U U U U U U U U ....U R R R ....U U R R R R R R E E E W W W P P W W W W W I I I I I B u u u u u l l u u u u u u u u u u u u u u u q u q u u u u u u u u q q 2 2 2 q q q q q q q 2 : # # # # # # # # < < : : < < , , 1 1 w w e e e e e e e S V V V V V V V Z V V Z Z V v v v v l.l.l.l.l.l.v V v v v v v v v v v v v v v v v v n n n n n n n n n K K K K K Z K K K K K J J D J J b c m * * = = * = ; * ; ; F W W T T T T T T T T T T T T  . .T  .....O.O...Y u y y 0 y 0 2 2 2 y u N u q y y u t 8 1 : , 1 t t t t r r r r r r r r r r 8 8 1 1 8 8 r 8 r r r r r 8 r 8 r t u u u u u u u u u u u u u u u y y y u u u u N Y } } } } } u u u t r e e r r t t B B N } X.R R R R R I F F D D D D D D D D D D D D D D D F d k I I M M y ; d ; ; y y y y y y y y ; d d F F ",
"Y U U U U U U U U U U Y Y N N B N N B y e u N } Y Y } ........U ....................U U U U U U U U U U U U U U U U U U U U U U U U U U U U U U U U U U U U U ..R ..R R R ..U U R R R R R R E E W W W P P W W W W W I I I I I I l u u u u u l l u u u u u u u u u u u u u u q q q q u u u u q q u q q q 2 2 2 q q q q q q q q 2 # # # # # # # # : : : : < : < < 1 1 1 w e e e e e = = S v V V V Z v v v Z Z n v v v v v n k.l.l.l.l.n v v v v v v v v v v v v v v v v v n n n n n n n n n n K K K K n K K n K K K K K J J K K K c ; * = * * * ; ; ; ; F W W W T T T T T T T T T U T T T T T  . . . .Y u y y y y y y 2 y u u Y u u u u u u u 8 1 < 1 t u t t t t r r r r r r r t r r 8 8 8 8 r r 8 r r r r r r r r r t u u u u u u u N ` ` N N u u u u u y y e 2 y u u N } } } } u u t t t r e e r t t B B N ` } R U R R Y I F ; s s D D D D D D D D D D D D D F k k I u u y y y k y y y y y 0 0 y 0 y y ; ; c F ",
"Y U U U U U U U Y Y Y Y N N N B B N B B B N N N B N U ......U U U U U U U U U ..U U U U U U U U U U U U U U U U U U U U U U U U U U U U U U U U U U U U U U ....R R R R R R U U R R R R R R E W W W P P P P W W W W I I I I I l l u u y u u u u u u u u u u u u u u u u u u q q q q u u u q q q q q q q 2 2 2 q q q q q u u q 0 # # # # # # # # # # : : : : < < 1 1 w w e e e e e = = = v v v V v v v v Z n n v v v n n v v n k.v v v v v v v n v v v v v v v v v v v v n n n n n n n n n n n n K n n n n n K K K K K K K K K K c ; * * * * * ; ; * ; F I W W W T T T T T T T T T T T U U T  . .Y Y l y y y y y y y y u Y } l y u u u u u u 8 1 1 r u u u t t t t r r r r r t t r r r 8 8 r r r 8 r r r t r r r 9 r t t u u u u u u u N N N N N N u u u u u u e y u u N } } } } u u u u t t r e t t t B B B N } U U U R Y I F ; s s s D D D D D D D D D D D D F k k l u u y y y y y y y y 0 0 2 2 2 & 0 y y M c ",
"Y Y U Y Y U U Y U Y Y Y Y ` B t u B N B u ` ` u e u N Y U ....U } } } } U U U U U U U U U U U U U U U U U U U U Y U U U U U U U U U U U U U U U U U U U U U U U R R U U U R U U U U U U R W W W W P P P P W W I I I I I l l l l u u u u u u u u u u u u u u u u u u u u q q q q u q q q q q q q u u q q q 2 2 2 0 0 q q q q q q : : # @ @ # @ @ # # # # # # # : < < < < < < < < = = = = = m v v v v n n n n n n v n n v v v n n n n n n v v v v v v v v v v v v v v v n n n n n n n n n n n n n n n K K K K K K K K K K K K K K x x * * * * * * ; c c ; c W W I T I T T T T T T T T Y U T T T T l y y y y y y y y y l } } } l u u Y u u u t r r w u N N u u t t t r r t t t t t t r r r 8 8 r r r r r r r r r r r r t t u u N N N N N ` ` Y Y } u Y } N u B Y Y u u u N } } } } u u w w e t t r t t t u B B B N } N B B Y I ; % - - s s s s s D s s s s s s d d l l l l u y y y y 0 0 0 0 0 0 2 2 2 2 2 y y y y ",
"Y Y U Y Y U U Y Y Y Y N N B t w r u N B u N ` u e u B N Y ..U Y } } U U U U U U U U U U U U U U Y Y Y Y U U Y Y Y Y U U U U U U U U U U U U U U U U U U U U U U R U U U U R R U U U U U U W W W W P P P H W I I I I I I l l l l u u u y u u y y u u u u u u u u y u u u q q q q q q q q q q q q u u q q q 2 2 2 0 0 q q q q q 0 2 : # @ @ @ @ @ @ # # # # # # # < < < < $ = = = = = = = = m v v v v n n n n n n n n n v n k.k.k.n n n n v v v v v v v v v v v v v v v n n b b b n n n n n K n n n n K K K K K K K K K K K K K K c c c * * * * = ; c c c c F W W I I T T T T T T T T U U U U Y Y k y y y y y y y u l Y } } l l l u Y u u u q r r t u ` N u u t t t t r t t t t t t t t r r r r r r r r r r r r r r r t t u B B N N ` ` ` N N Y Y } } u y 2 y u u N N } } } } } N u t w w r r r r t r t u u B B N N N N B Y I ; * - - - s - - s s s s s s s s d d l l l l l l l l l y 0 0 0 2 2 2 $ $ $ 2 e y y y ",
"Y Y Y Y Y U U Y Y Y Y Y N B t < w t N N B N ` B u B N N } } } Y } } U U U U U U U U U U U U U U Y Y Y Y Y Y Y Y Y Y Y Y U U U U Y Y Y Y U U U U U U U U U U U U U U U U U U U U U U U U W W W W P P P P H W I I I I I l k l l l u u y u u u u u y y y u u q u u q q y q q q q q q q q q q q q q q u u q q 2 2 2 0 0 0 0 q 0 2 2 2 2 # @ @ @ @ @ O @ @ # @ # # # $ $ $ $ $ $ $ $ = = = = = = m v n n n n n n n n n n n n n k.k.k.n n n n v v v v v v v v v v v v v v v n b b b b n n n n n K K K n K K K n K K K K K K K J K K K K K c c ; * * = = ; c c c c I W I T T T I Y Y Y Y Y U U U Y l k y y y y y y y y Y } } Y l l l l Y Y Y u u t t t u ` ` ` u t t t t t t t t t t ~ t t t t r r t t t t r r r r r r r t t t B N ` ` ` ` ` ` ` N N N } u 2 : # # < 2 y y u Y } } Y u y r r r r r r r t r r t u u B N N B B B B M ; ; % % - - - - s s s s s s s s d d l l l l l l Y } l k 0 2 2 $ $ # $ $ 2 2 2 e e y ",
"Y Y Y Y Y U Y Y Y Y Y Y Y N u e w r B N B ` ` u u N ` } } } } Y } } Y Y U U U U U U U U U U U Y Y Y Y Y Y Y Y Y Y Y Y Y Y U U U Y Y Y Y Y U U U U U U U U U U U U U U U U U U U U U U T W W W W H H H H H I I I I I k k k l l u u y y y u u u u y q q q y q y y q q q q q q q q q q q q q q q q q q u u q 2 2 2 2 2 2 0 2 2 2 2 2 2 : # @ @ @ @ O O O O O # # # # $ $ $ $ $ $ = = = = = = = m v n n n n n n n n n n n n n k.k.n n n n v n n v v v v v v v v v v v v v b b b b b n n n n K K K K n K K K n n n n K K K K J J K K K K K c c * * = = ; c c c ; F W I I T T I Y Y Y Y U U U Y l k y y y y y y y u l Y } } Y l l Y Y } } Y u u q u u ` ` ` ` N u t t t t t t t ` ~ ~ ~ t t t t t t t t t t t r r r r r r t u B N ` ` ` ` ` ` ` N N N u 2 # @ # @ @ # @ # $ y u N u u e r r r r r r r r r r t u u B B N N N N N B y ; % % % % % % s s s s s s s s d d l l l l l l l l 0 0 2 & $ $ 2 2 $ $ $ 2 < 2 e e ",
"Y Y Y Y Y Y Y Y Y Y Y N N N B u w w t t t t t r t N ` } } Y Y Y Y Y Y Y U U U U U U U U U Y Y Y U U Y Y Y Y Y Y Y Y Y Y Y Y Y Y Y Y Y Y Y Y Y U U U Y Y U U U U U U U U U U U U R T E W W W W W H H H W I I I I k k k k l u u u y u y u u y q u y y y y q q q q q q q q q q q q q q q q q q q q q q q q q 2 2 2 2 2 2 0 2 2 2 2 2 2 2 # @ @ @ @ O O O O O O @ @ $ $ $ $ $ $ $ = = = = = = = m v n n n n n n n n b n n n n n n n n n v v v v v v v v v v v v v v v n n b b b b b b b b n n K K K b b n K n n n n n n b K J J J K J K K K c * * = = ; c c c ; F W I I T T T T Y Y U T U Y Y k y y y y y y k l Y Y Y U Y l l Y } Y } Y l u u y u u } ` ` ` ` u u u t t t u u u u u ` ~ t t t t t u t t t t t r r r 1 r t t u B N ` ` ` N N N } Y N y < @ @ # # @ @ O O O $ y y y 2 w r y y r r r r t r r t t t B B N N N N B B y ; - - - - % % i i s f d f f i p & k k l l l y 0 0 & & & $ & $ $ $ $ $ $ $ $ < < < ",
"Y Y Y Y Y Y Y Y Y Y B B N N N B r 1 1 r r r r 1 r u ` } N Y Y Y Y Y Y Y Y Y Y Y Y Y U Y Y Y Y Y Y Y Y Y Y Y Y Y Y Y Y Y Y Y Y Y Y Y Y Y Y Y Y Y U U Y Y U U U U U U U U U U U U W T W W W H H H H H W I I I I I k k k k u y y y u y y y y y q q y y y y q q q q q q q q q q q q q q q q q q q q q q q q q 2 2 2 2 2 2 2 2 2 2 2 2 2 2 : # # @ @ @ @ @ O O @ @ + @ $ $ $ $ $ $ $ = = = = = = m m v n n n n n n n b n n n n v n n n n n n v v v v v v v v v v v v n n n b b b b b b b b b b b n n b b b b b b b b b b b K J J J K x D F K c * * * * * ; c c c c F I I T T T T Y T U U Y Y l k k k y y k k l Y U U Y Y Y Y Y } Y Y Y u u u y u u N } N N ` ` N u u t t t u u B u u ` N u t t t u N ` ` ` ` B t t t r t t u B N N ` ` N N ` } } } Y 2 # @ @ @ # # @ O O + + $ 2 2 1 r w r r r r r r t t t t t t B B N N N N B M c ; - - - - % % i i f d d d p p p p 0 0 k l k 0 & + & & & $ & & $ $ $ $ $ # # # # < ",
"Y Y Y Y Y Y Y Y Y Y Y B N N N B t w w r w 1 w 1 t ~ ` ` N Y Y Y Y Y Y Y Y Y Y Y Y Y Y Y Y Y Y Y Y Y Y Y Y Y Y Y Y Y Y Y Y Y Y Y Y Y Y Y Y Y Y Y U U Y Y Y U U U U U U U U U U U W W W W H H H H H H I I I I k k k k k k y y y y y q q q y y y q q q y y q y q q q q q q q q q q q q q q q q q q q q q q q 2 2 2 2 2 2 2 2 2 2 2 : 2 2 2 < # # # # # # @ # O @ @ + $ $ $ $ $ $ $ $ $ = = = = m m v v v n n n n n n n n n n n v n n n n n v v v v v v v v v v v v n n n b b b b b b b b b b b n n b b K b K K b K b b b J J J K K K K K K c * * * * * ; m c c c F I I I T I T T T U Y Y k k k k l k k y k l Y U Y Y Y Y Y Y Y Y Y Y u y u y y u Y } N N ` } N N N t y t u N N N N N N u u u u N ` ` ` ` ` ` B B u u u u u B B B B N N N ` Y N u y # # @ O O @ @ O + X X + $ 2 e 1 r r w w r r r r t t t t u u B B B B B B M M c ; - - - - % i i i i p p p p p p g g 0 0 0 0 & + + & & & $ & + + + $ $ $ $ # # # # ",
"Y Y Y Y Y Y Y Y Y Y B B N N N B B t t t r 1 r t t u ` N N N Y Y Y Y Y Y Y Y Y Y Y Y Y Y Y Y N N Y Y Y Y N N N N Y Y Y Y Y Y Y Y Y Y Y Y Y Y Y Y U Y Y Y U U U U U U U U U U U U W W W H H H H H H H I I I k k k k k k y y y y y q q q q y y y y q q y y q y q q y q q q q q q q q q q q q q q q q q q q q 2 2 2 2 2 2 2 2 : : : # : 2 2 < $ # # # # # # # # @ @ + + $ $ $ $ $ $ + $ $ = = = = m v v v v n n n n n n n n n n n v n n n n v v v v v v v v v v v v n n b b b b b b b b b b b b b n b b b b K b K K b b b J J J K K K K K K F - * * * * ; m m c c c I I I I I T T T T Y l y y k l l k k y y l Y Y Y Y Y Y U } Y Y } Y u y y y u B } } N N } } ` B u u u u u N N N N N N u u u u N } ` N B u u u u u u u u u u u u u u u u u u y < @ O # # # @ @ @ O + X X $ $ y 2 w r 8 1 w w r r r t t t u u u B B B B B B M c c x D s - - % i i i i p p p p p p g g 0 0 0 0 & & + + + + + + + + + $ $ $ @ @ # # # ",
"I Y Y Y Y Y Y Y Y B B B N N N u u u t t t r t t u u ` ` N N N Y N B B N Y Y Y N Y Y N N N N N Y N N N N N N N N B B B B Y Y Y Y Y Y Y Y Y Y Y Y Y Y Y Y Y U U U Y Y U U U R R R W W W P H H H H I I I I k k y y y y y y y y y y y q q q y y y y q q y y y 0 0 0 q q q q q q q q q q q q q q q q q q q q q 2 2 2 2 2 2 2 2 2 2 2 2 2 < < < < < < # # # # $ @ + + + + + + + $ $ $ = = = = = = = m m v n n n n n n n n n n n v v v n n n v v v v v v v v v v v v v b b b b b b b b b J J J b b b b b b b b b b K K K J b b K K K K K K K K c x - * * * m m c c c c F W W W I T T Y Y l k k k k k y y k k l l l Y Y Y Y Y Y Y Y Y Y l y y y u u Y Y Y Y Y Y Y N u u u u u u N Y N N N N u u u u N ` } N u < # < < < 2 2 2 2 2 2 2 2 2 2 2 < $ @ @ @ O @ # # # # O O + + + $ 2 e e w 1 1 w w w w r r r t t u u u u B t t u M M c x x D s s - % % i i i i i i p p p p p p 0 & & & o X X X + + + + + + $ $ $ $ # : 2 < ",
"I Y Y Y Y Y Y Y Y B B B N N N B u u t t t r t t t B ` ` ` N N Y N N N N N N N N N N N N B N N Y N N N N N N N N Y Y Y Y Y Y Y Y Y Y Y Y Y Y Y Y Y Y Y Y Y Y U U U U U U U R W W W W H H H H H H I I I k k k y y y y y y y y y y y q q q y y y y q q y y y y 0 0 q q q q q q q q q q q q q q q q q q q q q 2 2 2 2 2 2 2 2 2 y y y y 2 < < < < < < # # # $ $ + + + + + + + + $ $ = = = = = * * m m v n v v n n n n n n n n n v v n n v v v v v v v v v v v v v v b b b b b b b b b b b b b b b b b b b K K K K b b b b b K K K K P P K K c x - * * * m m m c c c F F W W I T T Y Y l k k k k k k y y k k y y l Y Y Y Y Y U Y Y Y u y y y u Y } } Y Y Y Y Y N N u u u u u N Y Y N N N u u u u N } N B e # # # # # # # # # # # # # # # # # # @ @ O O @ # # # # O O X X + $ < 2 < 1 1 1 1 1 1 w r r r t u B B u t B u t u M M c x x D D s - % % i s i i i i i i p p p p & & & & o X o o o o X X + + $ $ 2 2 2 2 2 2 ",
"B Y Y Y Y Y Y Y Y B B B N N N u u u t t t r t t t t ~ ` u u B N N N N N N B B N N N N N B B N B B N N N N N N N Y Y Y Y Y Y Y Y Y Y Y Y Y Y Y Y Y Y Y Y Y Y Y Y Y Y Y Y Y W W W W H H H H H H H I I I k k y y y y y y y y y y y y y y q y y q q q q q y q q 0 0 q 0 q q q q q q q q q q q q q q q 0 q q q 2 2 2 2 2 2 2 0 y u u u y y 2 2 1 < < < < < # # $ $ $ + + + + + + $ $ = = = = = * * * m m v m m n n n n n n n n n n b b v v v v v v v v v v v v v v v b b b b b b b b b b b b b b b b b b K K K K b b b b b K K K K K Z.W K K F x - * * * * m * x c F F F W W I I T T Y l k k l l l l k k y k y y l Y U Y Y Y U U Y l y y y u Y } } } } Y Y Y Y N B u u u B N N } Y N } N u y y u N } } u < # # # # # @ @ @ @ @ @ @ @ O @ O O O @ O O O @ # # # # O O X X + $ < < < 1 1 1 1 1 1 1 w r t t u B B u u u u t y y c ; x D D D s - % % s s % % s s i i % & p p & & & & o o o X X X X X + + $ & 0 y y y u y ",
"B Y Y B Y Y Y Y B B B B N B B u u u t t t r r t t t t t u u u u u u N B B u B N N N N N B B N N N N N N N N N N B B B B B Y Y Y Y Y Y Y Y Y Y Y Y Y Y Y Y Y Y Y Y Y Y Y I I W W H H H H H H H F I I k k k y y y y y y y y y y y y y y q q q q y q q q 0 q q q 0 0 q q q q q q q q q q q q q q q q 0 q q q 2 2 2 2 2 2 2 y u u l Y B u y e 1 1 1 1 1 < < $ $ $ $ + + + + + + $ = + + = = = * * * m m n m m m n n n n n n n n b b b v v v v v v v v v v v m v v v b b b b b b b b b b b b b b b b b b n K K K b b b b K K K K K K W P K K c x x - * * * m * - c F F F F I I I T T Y l k l l l l l k k k k y y k Y U Y Y Y U Y l y y y y u Y } } Y } Y Y Y Y N u u B N N N } } Y Y } N u e e u N } } y # # # # @ # # # # # # # # # @ @ @ O O O O O O @ # # # # O + X X + $ < 1 1 1 1 1 1 1 1 1 w r t u B N u u u u u e y ; ; - x D D D s - - - s s s s s s i % % % p p & & & & o o o o X X X X + $ $ & y y u u u u ",
"B B Y Y Y Y Y Y B B B B B B u u u t t t t r r r t t t t t t u u t u u u u B B N N N N N N B B N N N N N N N N N B B B B B B Y Y Y Y Y Y Y Y Y Y Y Y Y Y Y Y Y Y Y Y Y Y I W W W H H H H F F F F k k k k y y y y y y y y q q q y q y y y y y y y q q q q q q q 0 q q q q q q q q q q q q q q q q q 0 q q q 2 2 2 2 2 2 0 y u l l Y Y u u y w 1 < 1 1 < < < $ $ $ + + + + + + + + X X + + = = * * m m m m m b n n b n n n v v b b v v v v v v v v v v v v m v v v b b b b b b b b b b b b b b b b b b b n n n b b K K K K K K K K K K K K F x x x - x c c x x x x K F F I W T T T Y Y Y Y l l k k k k k k y y k l Y Y Y U U Y u y y y u Y Y } Y Y Y Y Y Y Y N u u N N N Y } } N N } N u e e u u N B 2 @ @ # @ O @ @ @ @ @ @ @ @ @ @ @ @ @ O O O O O O @ # # # O + X + + $ < < 1 1 1 1 1 1 1 1 w r u u u u u u u u y y ; ; - - - D D D - - - - s s s s s s s s % % % d & & & & o o o o o . X . X X & 0 y y u u u u ",
"B B Y B B Y N N B B B B B u u u u u t t t r r r r r r r r r t t r r r t u u B B B B B B B B B B B B B B B B B B B B B B B B Y Y Y Y Y Y Y Y Y Y Y Y Y Y Y Y Y Y Y Y Y I I W W H H H H H F F F F k k k y y y y y y y y y q q q q q q q q q 0 q q 0 q q q 0 0 0 0 q q q q q q q q 0 q 0 q q q q q q 0 q q q 2 2 2 2 2 2 0 y u l l Y Y u u y w 1 < 1 1 < < < < $ $ $ $ $ = = + + + X + + + = = * * m m m n m b b b b b n n v v b b v v v v v v v v v v v v m m v v b b b b b b b b b b b b b b b b b b b b b b n K b b b K K K K K K K K b D c c x F K K K K c x - K F F I I T T I Y Y Y Y l l k k k k k k y y k l Y Y Y U U Y y y y y l Y Y } U Y Y Y Y Y Y N u u N N Y } N N N N Y u u 2 e y u u y < O @ # O O @ O O O O O O O O O O O O O O O O O O @ # # # O + X + @ < < < < < 1 1 1 1 1 1 r t t u u u u u y y y ; ; * - - - D x - - - - s s s s s s s s - % % s % & & & & o o o o & & & & & & y k l l l l u u ",
"B B B B B N Y N B B u B B B u u u t t t t r r r 8 8 1 1 w r r r r w 1 r t u u u u u u u u u t t t t t t t t t t u u u B B B B B B Y Y Y Y Y Y Y Y Y Y Y Y Y Y Y I I I I W W H H G H H F F F d k k k y y y y y y y y y q 0 0 0 q 0 0 0 q 0 0 0 0 0 0 0 0 0 0 0 0 0 0 0 0 0 0 q q 2 2 2 2 q q q q 0 0 q q q q 2 2 2 2 0 y u u u l Y Y u u y w 1 1 w w w e e e e = = = = = = = = = + $ = + = = * * m m n n n b b b b b b n v v v b v v v v v v v v v v v m m m v v b b b b b b b b b b b b b b b b b b b b b b n K K b b b b b x x c c x b K D F D K K W W K K x - D F F F I I I k l l Y Y l k k k k k k y y y k l Y Y Y Y U Y y y y l Y Y Y Y Y Y Y Y Y Y N u u u N N Y Y N N N N N u y 2 2 e y y 2 $ @ @ @ O O O O O O O O O O O O O O O O O O O O O @ # # @ O + O O # < < < < < 1 1 1 1 1 1 r t t t t t r e y y ; ; * - - - - - - - - - - s s s - - - s s - s - s s % & & & % o & & k k k l l Y l Y Y Y Y Y l u ",
"B B B B B B N N B B u u u u u u u t t t r r 8 1 8 8 1 1 w r r r r 1 1 w t u u u t t t t t t t t t t t t t t t t t t t u B B B B B B B B Y Y Y Y Y Y Y Y Y Y Y Y I I I I W W H H G G F F F F k k k k y y y y y y y y y q q q q 0 q q q q 0 0 0 q 0 0 0 0 0 0 0 0 0 0 0 0 0 q 0 0 2 2 2 2 q q q q 0 0 q q q q 2 2 2 2 0 y u u l l l u u u y w w 1 w w w e y y e e = = = = = = = = = = = = = = * * * m c n n n b b b b b n v v v m v m v v v v v v v v v v m m v v b b b b b b b b b b b b b b b b b b b b b b b b b b b b K K b b x b x K K F F F K K K K K K x - x F F F k I I k k k Y Y l k k k k k k y y y k l Y Y l Y Y Y u y y Y U Y Y l Y Y Y Y N N u u u u u N N N N u u N u u y 2 e e e 2 # @ @ O O O O O O O O O O O O O @ @ O O O O O O O O @ # # @ O + O O # < < < < < 1 1 1 1 1 1 r r r t t r w 2 2 ; ; * * - - - - - - - - - - s s s - - - - s s - - s s d & & & % % & d k k k k k k l l l l l l l u ",
"B B B B B B B B B B B B u u u u u u r 8 1 1 1 1 1 1 1 1 1 r r r r r r t t u u u u t t t t t t r r r r r r r r r t r r r t u B B B B B B B B I I Y Y Y Y I I I I I I I I H H H H F F F F d k k k y y y y y 0 0 0 0 0 y y y y 0 0 0 0 0 0 0 0 0 0 0 0 0 0 0 0 0 0 0 0 0 0 0 2 2 2 2 2 2 2 2 0 0 q 2 2 2 q q 2 2 2 2 2 0 y u l u l u u Y N u u e < w w e B B B M M y ; = = = = = = = = = o * * * * * m m m b b n n b b b b m m v b m m v v v v v m m m v v v m m v b b b b b b b b x x x x b x b x x b b n n n n n b b K K n b b b c F c c c b K K K K K K K K x x x x F F F d k I k k k k k k k k k k k y y y k l T k y Y Y Y y y l Y U Y Y u B u u u u u u u u u u u u u B B N N B u y y y e < # O O O O O O O O O O @ @ # @ @ @ O O O O O O O O O O # # # # O O O @ # < < < < < 1 1 1 1 1 1 w r w w w e 2 $ $ $ % % % - - - - - - - - % - - s s - - s s s s - - s - - - % & & & & & p g g k k k l l l l l l y y ",
"B B B B B B B B B B B u u u u u u u r 8 1 1 1 1 8 1 1 1 1 r r r r r r t t u u u t r r w r r r r w r r r r r r r r r r r t u B B B B B B B B B B B Y Y Y I I I I I I I I H H H H F F F F d k k y y y y y y 0 0 0 0 0 0 y 0 0 0 0 0 0 0 0 0 0 0 0 0 0 0 q 0 0 0 0 0 0 0 0 0 0 2 2 2 2 2 2 2 0 0 0 2 2 2 q q 2 2 2 2 2 0 y u u u u l l u u u u e 1 w e e B B B B M M M y ; = = = = = = = o = * * * m m m m b b b n b b b b m m v b m m v m v v m m m m v v m m m m b b b b b b b b x x x x b x b x x b b b n n n n b b K K n b b b c F c x b b K K K K K K K K x x x x F F F d k k k k k k k k k k k k k y y y y y k 0 0 y l l l k l Y Y Y u u u u u u u u u u u u u u u u B u B u u y y y e 2 # # O O O O O O O O O O @ @ @ @ @ O O O O O O O O O O O @ # # @ O O O @ # : < < < < 1 1 1 1 1 1 1 w w w w 2 2 $ $ $ % % % - - - - - - - % % % - - s % % s s s s - - - - - - % % & p & & p g g g k k k l l l l l u u ",
"B B B N B B B B B B B u u u u u u t 8 8 1 1 1 1 8 8 8 1 1 8 r r r r r t t t t t r 1 1 1 1 1 w r 1 1 w w r r r r r r w w e u u B B B B B B B B B B B I I I I I I I I I F H F H F F F F F d k y y y y y y 0 0 0 0 0 0 0 0 0 0 0 0 0 0 0 0 0 0 0 0 0 0 q q q 0 0 0 0 0 0 0 0 2 2 2 2 2 2 2 2 2 0 0 2 2 2 q q 2 2 2 2 2 0 y y u u u l u u u u u y e < e e B B Y Y Y Y M M = = = = = = = = = = = = m m m m m b b b b b b b b m m b b b b m m v v v v m m m m m m m m b b b b b b b b x x x x x x b b x b b b n n n b b b K K b b b b D x x c b K D J K D D K K K x x - x F F F d d d k k k k k k k k k k y y y y 0 0 & $ $ & y Y Y k Y Y Y Y u y u u u u u u u u u u u u u u u u u u u y y y 2 < # O O O O O O O O O O O O @ @ O O O O O O O O O + O O O O @ @ O O O O O # : < < < < 1 1 1 1 1 1 1 1 1 1 < < $ $ $ $ ; ; ; - - - - - - - % % % % % % i s s s s - - - - - - - % % d d p p p g 0 0 0 0 0 g g k l u u u ",
"B B B B B B B B B B u u u u u u u t 8 8 1 8 1 1 8 8 8 8 1 8 r r r r r t t t r 8 1 1 1 1 1 1 1 w 1 1 1 w w r r r r r w w w e u u B u B B B B B B B B I I I I I I I I F F F F F F F F d k k y y y y y y y 0 0 0 0 0 0 0 0 0 0 0 0 0 0 0 0 0 0 0 0 0 0 0 0 q 0 0 0 0 0 0 0 0 0 0 0 2 2 2 2 2 2 0 0 2 2 2 q q 2 2 2 2 2 2 y y u u u l y y u B B y y e e y B B Y I I I M M e ; = = = = = = ; = = m m c m c c x x m m m b m b m m b b b b m m v v m v m m m m m m m m b b b b b b b b b x x x x x x x x x b b n n b b b b K b b b D D D D x x b D D D D D D D K D x x - x F F F F d d k k k k g g g g g g g y y 0 & & + + + & y Y Y k Y Y Y u y y u u u u y y y u u u u u u u u u u u u y y 2 < # O O O O O O O O O O O O O O O O O O + + + + + + + + + O O O O O O O O O # : < < < : < < < < < < < < < < < $ $ $ $ $ $ ; ; ; % - - - - - % % % % % % % i s s - - - - - - - - - % d d g g g g 0 0 0 0 0 0 0 y l l l u ",
"M B B B B B B B B u u y u u u u t r 1 1 1 1 8 1 1 1 1 1 1 8 8 r r r r t t r 8 1 1 1 1 1 1 1 1 1 1 1 1 1 r r r r r r r w w w t t u u u u u u B B u u B I I I I I F F F F F F F F F k k y y y y y y y y 0 0 0 0 0 0 0 0 0 0 0 0 0 0 0 0 0 0 0 0 0 0 0 0 0 0 0 0 0 0 0 0 0 0 0 2 2 2 2 2 2 2 2 2 2 2 2 q q 0 2 2 2 2 2 2 y y y u u l y y u Y B u y e e y B I I I I I M M M ; ; = = = = ; M M c c c c c c c m m x m m m m m b b b b b b m m m m v v m m m m m m b b b b b J b b x b x x x x x x x x x x b b b b b K K b b x b x x D D D D D D D D D D D J J K D x x - x x F F F F I k k k g g g g g g g g 0 0 0 & & + $ & & 0 l Y l l l l y y y y y y y y y y u y y u u y u u u u u u y 2 $ # O O O O O O O O O O O O O O O O O O O + + + + + + + + + O O O O O + + O O # : < < < : < < < < < < < < < # $ $ $ $ $ $ $ $ $ ; ; ; ; ; ; % % o o % % % % % % - - - - - - - - - - - d d d p g g 0 0 0 0 0 q y y l u l u ",
"B B u u B B B B u u u y u y y y t r 1 1 1 1 8 8 1 1 1 1 1 1 8 8 r r r t t r 1 1 1 1 1 1 1 1 1 1 1 1 1 1 1 w r r r r r w w w r t t t t t u u B B u u M I I I I I F F F F F F F F k y y y y y y y 0 0 0 0 0 0 0 0 0 0 g g g g g g 0 0 0 0 0 0 0 0 0 0 0 0 0 0 0 0 0 0 0 0 0 0 2 2 2 2 2 2 2 2 2 2 2 2 q q 2 2 2 2 2 2 2 y y y u u y y y u Y B u y e y y B I I I I I I M M M ; = = = = = M M M M M c c c c m x x m m m m m b b b b b b m m m m m m m m m m m m b b b b b K J b x b x x x x x x x x x x b b b b K K K b K x x x x D D D D D D D D D D D K K K D D D x x x c F F I I k k k g g g g p & g g 0 0 0 0 0 0 & & & 0 k l l l Y l y y y y y y y y y y y y y u u y y u u u u y 2 $ # + O O O O O O O O O O O O O O O + + X X X + + + + + + + + + + O O + X + O O # # : : < : < < < < : : # # # # @ $ $ $ $ $ $ $ $ $ = ; ; ; ; ; ; o o % ; ; % % % - - - - - - - - - - - s s d d d g g g g g y y y l k l l u ",
"M u u u B u u u u u y y u y y y r 8 1 1 1 8 8 8 8 8 8 1 1 1 1 1 r r t t t t 8 1 , 1 1 1 1 1 1 1 1 1 1 1 1 1 w w w r r w w w w t t e e e u u u B u u B I I I I I F F F F F F F I y y y y y y y y 0 0 0 0 0 0 g g p g g g g g g g g g p p 0 & 0 & 0 g 0 0 0 0 0 0 0 0 0 0 0 2 2 2 2 2 2 2 2 2 2 2 2 0 q q 2 2 2 2 2 2 2 0 y y y u y y u u u B M y y y y B I I I I I I I I M M ; = = = = M M M M M M c m m m b b x b b m m m m m m b b m m m m m m m m m m m m b b b b b K J b x b x x x x x x x x x x x b b b K K K K K D x x x x x x x D D D D D D D K K K D D D x x x x c F I I k k k g g g g p & g g g g k k k k k 0 0 0 0 y k u l u y y y y y y y y y y y y y y y y y u u y y 2 $ O O O O O O O O O O O O O O O O O + X X X X + + + + + + + + + X X + X X X X O O # # : : : < < : : # # # # # @ O O O @ $ $ $ # $ $ $ e e e e ; $ $ $ $ ; & & % % % % - - - - - - - - - - - - d d d k k g g 0 y y k k k k y y ",
"M y u u u u u u u u y y u y y e r 1 1 1 1 8 8 1 r 8 8 8 1 1 1 , r r t t t t 8 1 1 1 1 1 1 1 1 1 1 1 1 1 1 1 1 1 1 w r w w w r t e e e e u u u u u u B I I I I I F F F F F F M M y y y y y y y y 0 0 0 0 0 0 g g p p p g g g g g p p p p p p p p p p p p p p p & p p 0 0 0 2 2 2 2 2 2 2 2 2 2 2 2 0 q 0 2 2 2 2 2 2 2 0 y y y u y y u u u B B y y y M Y I I I I I I I I M M c ; = ; M M M = = M M c m m m b b b b b b b m m m m b b m m m m m m m m m m m m x b b b b K J b x b x x x x x x x x x x x b b n K K K K K D x x x x x x D D D D D D x D J K K D x x x - - * c c F F d k k g g g g p g g g g k l l l k k k k y 0 0 0 0 y y y y y y y y y y y y y y y y y y u u u y 2 O O + O O O O O O O O O O O O O O O O + X X X X + + $ $ $ $ $ + + X X X X X X X O O # # : : : : # # # # @ O O O O O O O O # $ < < < < < < e e e 2 2 2 2 $ ; & & % % % % % - - - - - - - - - - - - - d d k k k k y y k k k k y y ",
"B B u u u u B B y u u u u e e e r w 1 1 1 1 1 8 r 8 1 , , , 1 1 r r r r t t 9 1 1 1 1 1 1 1 1 1 1 1 1 < 1 w r w w w 1 1 1 1 w w r r r y y y u u y k I I I F F F F F F F F d ; ; y y y y y y y y 0 0 0 0 p p p p p p p p p p p p p p p p p p p p p p p p p p p p p p p 0 0 0 2 2 2 2 0 2 2 2 2 2 2 2 2 2 2 2 2 2 2 2 2 2 0 y y y y y u u y y y y y y B M I I I I I I I I M M M c M M M e M M M M M M c c m m x x x x m x b b b m b m m m b m m m m m m m m m m m b b b b b b b b b x x x x x x x x x b b x D D D K K K K D x x D x x D D D D D D D D D D x x x x x * * m c c c F d d k k k g g & g 0 0 g k k k k l k k l y $ + + + $ $ y y y y y y y y y y y y y y y y u u y 2 $ O O O O O O O O O O + + + + + + + + + + X X X X + $ $ $ $ $ + + X X X X X X X X + O O # # # # # # @ @ @ O O O O @ O @ @ # $ $ $ < < < < < w w w e e w 2 2 2 $ & ; ; % % - - - - - - - - - x x x - - s d d k k k y y y y y y y y ",
"B B u B u u B B u u u u y t e w r w 1 1 1 1 1 1 r 8 1 , , , , 1 r 8 1 1 8 9 9 8 1 1 1 1 1 1 1 1 1 1 1 < w r t r e w w 1 1 1 1 e w w r y y y y u y k k I F F F F F F F F F d ; y y y y y y y y y 0 0 0 0 p p p p p p p p p p p p p p p p p p p p p p p p p p p p p p p 0 0 0 0 2 2 2 2 2 2 2 2 2 2 2 2 2 2 2 2 2 2 2 2 2 0 y y y y y y y y y y y y y B M I I I I I I I I M M M c M M M M M M M M M M c c m m x x x x x b b b x m m x m m m m m m m m m m m x x x x b b b b b b b x x x x x x x x x x b x x D D D K K K K D D D D x x D D D D D D D D D D D x x x x * * m m c c F d d k k k g g g g & & 0 g k k k l k l l y $ + + + + $ $ 2 2 $ $ 2 2 y y y y y e 2 2 2 2 2 2 # @ O O O O O O O O O O + + + + + + + + + + X X X X + $ $ $ $ $ $ + X X X X X X X X + O O # # # # # @ @ O O O O O O O O O # # # # $ < < < < < w w w e w w w 2 2 $ ; ; ; % % % - - - - - - - - - x x - - - - ; d k k k y ; ; ; ; ; ; ",
"y u u u B B u u u u u u t e w w w w 1 1 1 1 1 1 8 1 1 , , , , 1 1 1 1 1 1 r 9 r 1 1 1 1 1 1 1 1 1 1 1 1 w t u u y y e 2 2 2 2 2 2 2 y y y y y y k k d d d d d d F F F F d ; y y y y y y y y y y 0 0 0 p p p p p p p p a a p p p p p p i p p p p p p p p p p p p p p p p 0 0 0 0 2 2 2 0 2 2 2 2 2 2 2 2 2 2 2 2 $ 2 $ 2 2 0 y y y y y y y y y y y y B M I I I I I I I I M M M M M M M M M M M M M M M c c m x x x x x m b b b x x m b b b b m m m m m m m m x x b b b b b b b b x x x x x x x x x x x x x D D D K K K K D D D D x D D D D D D D D D D D D x x x x m * ; m c c c c F d k k k g g g p & & 0 g k k k k k k 0 + + + + O + + $ $ O O @ $ 2 e y e 2 < # @ # @ @ @ O O O O O O O O O O O O + + + + X + O + O + + + + + + $ $ $ $ $ $ $ X X X X X X X X O O O @ # @ @ @ O O O O O O O O O O O @ # # < < < < < < < < w w w w w w w e e e ; ; * - - - - - - - - - - - x x - - - - - ; c F I F ; ; * * * * ",
"e e y u u u u u u u u t t e e w w 1 1 1 1 1 1 1 1 1 1 , , , , 1 1 1 1 1 1 8 r r , , 1 1 1 1 1 1 1 1 1 < 1 u u u y y y 2 2 2 2 2 2 0 0 y y y y k k d d d d d d d d d d d d y y y y y y y y 0 0 0 0 g p p p p p i i i a a a i i i i i i i i i i i i i i i p p p p p p p p p 0 0 0 2 0 0 0 0 2 2 2 2 2 2 2 2 2 2 2 $ $ $ 2 2 2 y y y y y y y y y y y y I M I I I I I I I I M M M M M M M M M M M M M Z Z n c n b x x x x x b b x b x b b x m b m m m m m m m x x x b b b b b b b b x x x x x x x x x x x x b D D D K K K K D D D D x x D D x D D D D D D D D x x x c m ; * ; ; c c c c c I k k k g g p & & & g g g k k 0 0 & + + + + + O O O O O O O @ @ $ 2 2 # # @ @ @ O O @ O O O O O O O O O O O O + + + + X + O O + $ $ $ + + $ $ $ $ $ $ $ + X X X X X X X X O O O O O O O O O O O O O O O O O O O # # < < < 1 1 1 1 1 1 1 1 w w w w w e e e ; ; ; - - - - - - - - - - - x x x - - - - - - - F F c - - - - - ",
"e e e t t u u u u u u y u t e w w 1 1 1 1 1 1 1 1 1 1 , : , , : 1 1 1 1 1 1 1 1 , , , 1 1 1 1 1 1 1 1 < 1 y u y y y 0 0 0 0 0 0 0 0 0 k k k k k g d d d d d d d d d d d d ; y y y y y y 0 0 0 0 g g p p p p i i i i i i i i i i i i i i i i i i i i i i i i i i p p p p p p & 0 0 0 0 0 2 0 2 2 2 2 2 2 2 2 2 : $ $ $ 2 2 2 0 y y y y y y y y y y y B M M I I I I I I I M M M M M M M M M M M M M Z c c n n n b x x x x x x x x x b b x x m m m m m m m x x x x x x x b b b b b x x x x x x x x x x x x x x b b K K K K K K D D D D D D x D D D D D D D x x x x c ; * ; m ; c ; ; c c I I k k k g g p & & 0 0 0 0 & & & & $ + + + O O O O O O O O O O O @ @ @ O O O @ @ @ @ @ @ O O O O O O O O O O + + + + + + + + $ $ $ $ $ $ $ $ $ + + X X X X X X X X X X X + + O O O O + O O O O O O O O O O O @ # < < < < 1 1 1 1 1 1 1 1 w w w w w w e e $ $ ; * - - - - - - - - - x x x x x x x - - - - - x - - - - - - ",
"e e e e t t u u y y y y t t e w w 1 1 1 1 1 1 1 1 1 1 , : : : : , , 1 , , 1 1 < , , , 1 1 1 1 1 1 1 < : 2 y y y g g g g g 0 0 0 0 g g g g g g g g p p p p p i i p d d d d ; y y y y y y 0 0 0 0 g p p p i i i i i i i i i i i i i i i i i i i i i i i i i i i i i p p p p p p & & 0 0 2 2 2 2 2 2 2 2 2 2 2 2 : 2 2 $ 2 2 2 0 0 y y y y y y y y y y y M M I I I I I I M M M M M M M M M M M M M M c c c c n n n x x x x x x x b b b b x x m m m m m m m x x x x x x x b b b b b x x x x x x x x x x x x x x x x D K K K K J D D D D D D x x x x D D x x x x x x ; ; * ; * ; ; ; ; c c I I I k k g g g p & & & & & & + + $ $ $ + O + + O O O O @ @ @ O O O O O O O O @ @ @ @ @ @ O O O O O O O O O O + + + + + + + + $ $ $ $ $ $ + + + X X X X X X X X X X X X . X X + + + + + + + + + O O O O @ @ # # # < < < < 1 1 1 1 1 1 1 1 1 1 < < w w w w $ $ $ * - - - - - - - - - - x x x x x x - x - - - - - - - - - - ",
"e w e e e e t t u u t t t t e w w 1 1 1 1 1 1 1 1 < < : : : : : : , , , , , 1 < < 1 , 1 1 1 1 1 < 1 1 : 2 0 0 0 p p p p p p p p p p g g g g g g a a a p i i i i p p p p p d y y y y y y 0 0 0 g p p p i i i i i i i i i i i i i i i i i i i i i i i i i i i i i i p p p p p p p p & 0 2 2 2 2 2 2 2 2 2 2 2 2 2 2 2 2 2 2 2 2 0 y y y y y y y y y y y M M M I M I I M M M M M M M M M M M M M M M M c c n n c c x x x x x x b n n n n b x b b b m m m m b b b b x x x x b b b b x x x x x x x x x x x x x x x x D D K J J J D D D D D D D x x x x x x x x x x x * * ; ; ; ; ; ; * ; c I I I d k g g g g & & & & & & + + + $ $ + O O O O @ O @ @ @ @ O O O O O O O O O @ O O O @ O O O O O O O O O O + + + + + + + + + + + + + + X X X X X X . . . . X X X X . . . X X + + + + + + + O O # # # # # # < < < < < w < < 1 1 1 1 1 1 < < < < < < < < $ $ $ * - - - - - - - - - - - - - - - x - x - - - - - - - - - - ",
"w w e e e w e e u y y t t t e w w 1 < < 1 1 1 1 < < : : : : : : , , , , , 1 1 1 < < < < < 1 1 1 < 1 , : 2 0 0 g p p p i i i p p p p p g a a a a a a a a i i i i p p p p p p 0 0 y y y y 0 0 0 g p p p i i i i i i i i i i i i i i i i i i i i i i i i i i i i i i p p p p p g p p & & 2 2 2 2 2 2 2 2 2 2 2 2 2 2 2 $ $ 2 2 2 0 0 0 y y y y y y y y y y M M M M I M M M M M M M M M M M M M M M M M c c K c c c x x x x x x b n n K n b x b b b m m b b b b b b x x x x x x x x x x x x x x x x x x x x x x x x x D D D D J D D D D D D D x x x x x x x x x x x * * * * ; ; ; ; * ; c I I F d d k g g g & & & & & & & + + $ $ + O @ $ $ @ @ @ @ O O @ @ O O O O O @ @ O O O @ @ @ O O O O O O O O O + + + + + + X X X X X X X X X X X X X X . . . . . X X . . . . . X X + + + + + + @ @ $ $ # # < < < < w w < < < < < < < < < 1 < < < < < < < < < $ $ * - - - - - - - - - - - - - - - - - - - - - - - - - - - - ",
"w w w w w w w w e e t t t t e e 1 1 1 1 1 < < < < : : : : : : : # : : < 1 1 1 1 , < , , , , , , 1 < : : 2 & p p p p p p p p p p p p a a a a a a a a a a a p p p p p p p p p & & 0 0 0 0 0 & p p p p p p i i i i i i i i i i i i i i i i i i i i i i i i i i i i a a a a p p p p p p & & 2 2 2 2 2 2 2 2 2 2 2 2 2 2 $ $ 2 2 2 2 2 2 0 0 y y 2 y y y y M M M M I I M M M M M M M M M M M M M M M M c c c K K c x x x x x x x x b n b x x x x x x m m b x b x x x x x x x x x x x x x x x x x x x x x x x x x x x D D D D D D D D x x x x x x x x x x x x - - - - ; ; ; * * ; ; ; * ; M I I I I I F d d & & & & & & & & + $ $ $ + $ $ # $ $ $ # $ # # @ O O O O O O O O O @ @ @ @ O O O O O O O O O O O + + + X X + + X X X X X X X X X X X X X X . . . . . . . . X X X X O O O O O O @ # # $ < < e < < w < < < < 1 1 < < < 1 1 1 < < < < < < < < $ $ $ = o o - - D D D - - - - - x - - - - - x x - - - - - - - - ",
"w w 1 1 1 w w w e e e e e e e w 1 1 1 < < < < : < : : : : : : : # : : < 1 1 1 1 < , , , 1 < , 1 1 < : : 2 & p p p p p p p p p p p p a a a a a a a a a a a p p p p p p p p p p & 0 0 0 0 0 g p p p p p p i i i i i i i i i i i i i i i i i i i i i i i i i i i i a a a p p p p p p p & & 2 2 2 2 2 2 2 2 2 2 2 2 2 2 $ $ 2 2 2 2 2 2 2 2 2 2 2 2 y y y M M M M M M M M M M M M M y M M M M M M M M c c c n K c c x x x x x x x b n b b x x x x x n n b x x x x x x x x x x x x x x x x x x x x x x x x x x x x x D D D D D D D D D x x x x x x x x x x x - - - - ; ; ; * * ; ; ; * ; c I I I I I F F d & & & & & & & & & & $ $ O $ $ $ $ $ $ # # # # # @ @ @ O @ O O @ @ @ @ @ @ O O O O O O O O O O O O + + X X + + X X X X X X . . X . . . . . . . . . . . . . X X X X + O O O O O # # # $ < < < < < < < < < < 1 1 < 1 < < 1 1 < < < < < < < < $ $ $ o o o - - D D D x - - - - - - - - - - x x - - - - - - - - ",
"w w 1 1 1 w w w w w w w e w w 1 1 1 < < < < < : < < : : : : : : : : < : , 1 , 1 , , , < < < < < 1 : : : 2 0 p p p p p p p p p p p p a a a a a a a a a a a p p p p p p p p p p p & 0 0 0 0 p p p p p p p i i i i i i i i i i i i i i i i i i i i i i i i i i i i i i p p p p p p p p p & 0 0 2 2 2 2 2 2 2 2 2 2 2 2 $ $ 2 2 2 2 2 2 2 2 2 2 2 2 y y y y y M M M M M M M M M y y ; y M M M M M M M c c c n K c x x x x x x x x x b b b b b n n n n n b x x x x x x x x x x x x x x x x x x x x x x x x x x x x x x x x D D D D D D D x x x x x x x x x x x x - - ; ; * * * * * = * ; c M I I I I F F d ; d & & & & & & & & $ $ $ $ $ $ $ $ $ $ $ $ $ # # # @ @ @ @ @ @ @ @ @ @ @ @ @ O O O O O O O O O O + + X X + X X X X X X X . . . . . . . . . . . . . . . . X X X X + O O O @ # # # # < < < < < < < < < < < < < < < < < < < < < < < < < < < $ $ $ $ o - - D D D D D x x - - - - - - - - - x - - - - - - - - ",
"w w 1 1 < < < w w w w w w w < < < < < < < < < < < < : : : : : : # : : : : < < , , , , < < < < < : : : 2 0 g p p p p p p p p p p p p a a a a a a a a a a a a p p p p p p p p p p & & & & & p p p p p p p i i i i i i i i i i i i i i i i i i i i i i i i i i i i i i i i i i p p p p p & & 2 2 2 2 2 2 2 2 2 2 2 2 2 2 2 2 2 2 2 $ 2 $ $ $ $ $ $ y y y y y M M M M M M M M y ; ; ; ; y M M M M M c c c c n K c x x x x x x x x x b b b b n n n n n n b x x x x x x x x x x x x x x x x x x x x x x x x x x x x x x x x x x D D D D D x x x x x x x x x x x x - - * * * * * * * * * ; c Z I I I F F F F d d p p & & & & & & + $ $ $ $ $ $ $ $ $ $ $ $ # $ $ # # @ @ @ @ @ @ # # # @ @ O O O O O O O O O O O + + + + X X X X X X . . . . . . . . . . . . . . . . . X X X X + O O O # # # # $ $ < < < < < < < < < < < < < < < < < < < < < < < < < < $ $ $ $ * - - D D D D D D x x - - - - - - - - - - - - - - - - - ",
"w w w 1 < < w w w < < < 1 < 1 1 < < < < < < < < < < : : : : : : # : : : : , , , < < , , : : : : # # # 2 0 g p p i p i p p p p p p p a a a a a a d d z a a a p p p p p p p p p p & & & & p g g g p p p p i i i i i i i i i i i i i i i i i i i i i i i i i i i i i i i i i i i i p p & & & & 2 2 2 2 2 2 2 2 2 2 2 2 2 2 $ $ 2 2 2 2 $ $ $ $ $ 2 y y y y y y M M M y M M M ; ; = = ; y M M M M M c c c c c c c x x x x x x x x x b b b b x x x x b b b x x x x x x x x x x x x x x x x x x x x x x x x x x x x x x x x x x D D D D D x x x x x - x x x x x x x x * * * * * * * * * ; c I I I c c F F F d d d p p & p & & & & $ $ $ $ $ $ $ $ $ $ $ $ $ $ $ $ # # # # # # # # # # # # @ @ + + + + O O O O O O + + X X X X X X X X . . . . . . . . . . . . . . . . X X X X + O @ # # # $ # $ < < < < < < < < < < < < < < < < < < < < < < < < < < < $ $ $ = ; ; ; D D D D D D D x x - - - - - - - - - - - - - - - - ",
"w w w 1 w < < < w w < < < < < < < < < < < < < < < < : : : : : : # # : : : : : : , < < < : : < < # # 2 0 g p p p p p p p p p p p p a a a a d d d d d z d a a p p a p p p p p p p p & & & p g g g p p p p i i i i i i i i i i i i i i i i i i i i i i i i i i p i i i i i i i i i i p p & & & & & 2 2 2 2 2 2 2 2 2 2 2 2 $ $ 2 $ 2 2 $ $ $ $ $ 2 y y y y y y y M y y y y ; ; ; = = ; y M M M c c c c c c c c c x x x x x x x x x x x x x x x x x m x x x x x x x x x x x x x x x x x x x x x x x x x x x x x x x x x x x x D D D D x x x x x - - x x x x x x x x * * * * * * * * * ; c M I F F c F F F F d d d p p p p & & & $ $ $ $ 2 $ 2 $ $ $ $ $ $ $ $ $ # # # # # # # # # # # # @ @ @ + + + O O O O O O + O X X X X X X X X . . X . . . . . . . . . . . . . X X X + + O # # # # # # $ < < < < < < < < < < < < < < < < < < < < < < < < < < < < e e ; ; c F F D D D D D D D x x x - - - - - - - - - - - - - % ",
"< < < < w 1 < < < < < < < < < < < < < < < : < < < : : : : : : : # # : : : : : : < < , : < < < < 2 2 0 0 p p p p p p p p p p p p p a a a a d d d d d d d a a p p p p p p p p p p p p & & p p g g p p p p i i i i i i i i i i i i i i i i i i i i i i i i i p p i i i i i i i i i i i p & & & & & 2 2 2 2 2 2 2 2 2 2 2 2 $ $ $ $ $ $ $ $ $ $ $ 2 y y y y y y y y y y y y ; ; = = = = ; M M c c c c c c c c c c x x x x x x x x x m m x x x b b n b m x x x x x x x x x x x x x x x x x x x x x x x x x x x x x x x x x D x x x x x x x x x x - - x x - x ; ; x m x * ; * * * * * * ; c c c c F F F F F D s s d d p p d & & & $ $ $ $ 2 2 2 $ $ $ < < $ $ $ $ # # $ $ $ $ # # # # # # # @ @ @ + + O O O O + + + + X X X X X X X . . . . . . . . . . . . . . . . . X X X X + O # # $ $ # # < < < < < < < < < < < < < < < < < < < < < < < < < < < < < e y y ; F F F D D D D D D D D x x x x x - - - - - - - - - % % ",
"< < < < 1 < < < < < < < < < < < < < < < < < < < < < : : : : : : # # # : : : : : < < < : < : : : y y 0 p p p p p p p p p p p p p p a a a d d d d d d d d a a p p p p p p p p p p p p & & p p p p p p p p i i i i i i i i i i i i i i i i i i i i i i i i i p p p i i i i i i i i i i p & & & & & 2 $ 2 2 2 2 2 $ 2 2 2 2 $ $ $ $ $ $ $ $ $ $ $ 2 ; y y y y y y y y ; ; ; ; ; = = = = ; M M c c c c c c c c c c x x x x x x x x x x x x m x x b b b b b x x x x x x x x x x x x x x x x x x x x x x x x x x x x x x x x D x x x x x x x x x x - - x x - - ; ; ; ; m m * * * = * * * ; ; c c c F F F F F D D s s d d d d d ; & $ $ $ $ 2 2 < $ $ $ < < < < $ $ $ $ # # $ $ $ # # # # # # @ @ @ + + O O O O + + + + X X X X X X X . . . . . . . . .     . . . . . . . X X X + @ # # # # # $ < < < < < < < < < < < $ < < $ $ $ < < < < < < < < < < < $ < e ; ; F F F s D D D D D D x x x x x x x - - - - - - - - % % ",
"< < < < < < < < < < < < < < < < : < < < < < : : < : : : : : : : # # # : : : : : # : : : : : 2 y y y 0 p p p p p p p p p p p p p d d d d d z a a d d d a a a p p p p p p p p p p p p p p p p p g p p p p p p p p p p i i i p p p i i i i p p p p p p i i p p p p i i i i i i i i i i & & & & & & 2 2 2 2 2 2 2 2 2 2 2 2 2 2 $ $ $ $ $ $ $ $ $ 2 e y y y y y y y ; ; ; ; ; ; = $ $ = ; ; c c c c c c c c c c c x m x x x m m m m m m m m x x x x x x x x x x x x x x x x x x x x x x x x x x x x x x x x x x x x x x x x x x x x x x x x x x x x - - - - - - - - - - * * * * * * * * ; ; ; ; c F F F F F d d d d d ; ; ; ; ; $ $ $ $ $ $ $ $ $ $ e e $ $ $ $ $ $ $ $ $ $ $ $ $ $ $ $ # $ # # # # @ O O O O + + + X X X X X . . . . . . . . .     . . . . . . . . X X X + + $ $ $ $ $ $ < $ $ $ $ < < < < < < < < < < < < < < < < $ $ $ $ $ $ $ $ # $ $ = ; c F F D D D D D D x - - - - - - - - - - - - - - - - - ",
"$ $ < < $ $ $ $ $ $ $ $ $ $ $ $ # # # # # # # # $ $ $ $ # # # # # # # # # # # # @ # # : # 2 2 y y y k d d d p p p p d p d d d d d d d k d k d d k k k k d d d d d d d d d d d d p p p p p d d k g d d d d d p p p p p p p p p p p p p p p p p p p p p p p p p p p p p p i i i p p p & & & & & & 2 2 2 2 2 2 $ $ $ $ $ $ $ $ $ $ $ $ $ $ $ $ $ $ y y y y y y ; ; ; ; ; ; ; ; ; $ $ = ; ; c c c c c c c c c c c ; x * * * * x x x m m m m m m x m x x x x x x x x x x x x x x x x x x x x x x x x x x x x x x x x x - - - x x x x - - - - - - - - - - - - - - - - * * * * * * * * * * * ; * * ; ; F F F F F d d d ; ; ; ; ; ; $ $ $ $ $ $ $ $ $ $ $ $ $ $ $ $ $ $ $ $ $ $ $ $ $ $ $ $ $ $ @ $ $ @ + + + + + X X X X X X . . . . . .     .         . . . . . . . . X X X X + + $ $ $ $ $ $ $ $ $ $ $ $ $ $ $ $ $ $ $ $ $ $ $ $ $ $ $ $ $ $ $ $ $ $ $ $ $ = ; ; ; c F D D D D D - - - - - - - - - - - - - - - - - - ",
"+ + + + + + + + + X X X X X + + X X X X X X X X + + X X X X X X X X X X X X X + X + + + + + $ $ o o o % % % % % % % % % % % % % % % % % & & & & ; ; ; ; % % % % % % % % % % % % % % % % % % & & % % % % % % % % % % % % % % % % % % % % % % % % % % % % % % % % % % % % % % % % % % % o o o + + + + + + + o o o + + + + + + X X X X X X X X X X o o o o o o o o * o o o o o o o X o o o * * * * * * * * * * * * * * * * * * * * * * * * * * * * * * * * * * * * * * * * * * * * * * * * * * * * * * * * * * * * * * * o * * * * o * o o * * * * o o o o * * o o o o o o o o o o o o o o o o o * * * * * * * * o % o o o o o o X X X + + X X X X + + + + + + + X X X X X X X X X X X X X X X X X X X X . . . . . . . . . . .   .                                 . . X X X X X X X + + + + + + + + + + + + + X X X X X X + + + + + + + + + + + + X X X o o o * * * * * * - * * * o o o o o o o o o o o o o o o o ",
"                                                . . . . . .                       . . .                                                                                                     . .                                                                                                                                 . . .   . . . .                                         . .                                                                                                                                                             . . .                                                                       . . . . . . . .     . .     . . . . .                       . . .           . .                                                         . . . . . . . . . .                                       . . . . .               .                                                 ",
"                                                                                                            .           . . . .                                                                       . . . . . . . . .                                                                         . .                                                                             .                                                               . .                                                               . . .                                 .                                     .         . . . . . .         . .                                                                                                                                                                                                                             . .               .                               . ",
"                                                                                                  .     . . . . . . . . . . . . . . . . . . . . . . . .     . . . . . . . . .                                   . . . . . . . . . . . . . . . . . . . . . . . .         . . . . . . .   . . . .                                                                           . .   .                   .       . .                         . . . .         .   . .           .                                     . . . .                                 . .                                 . .     . . . . . . . .       . . .   . . .   .                                                                                                                                                                                                                     . . . . . . . .                         . .     ",
"                                                                                                                                                                                                    .                                                                                                                                                                                                                                                                                                                                                                                                                               . .                                                                                                                                                                                                                                       .                                 ",
"                                                                                          . . .     . .   . .                                   .                                                                                                                                                           . .                                     . . . . . .         . .                                   .                                                                 . . . . . . . . . . . . . .                                                                     . .   . .         . .               .                 .                                   . . .                                                                                                                                                                       .                                                         ",
"                                                                                                                                                                                                                                                                                                                                                                                                                                                                                                                                                                                                                                                                                                                                                                                                                                                                                                                ",
"                                                                                                                                                                                                                                                                                                                                                                                                                                                                                                                                                                                                                                                                                                                                                                                                                                                                                                                ",
"                                                                                                                                                                                                                                                                                                                                                                                                                                                                                                                                                                                                                                                                                                                                                                                                                                                                                                                ",
"                                                                                                                                                                                                                                                                                                                                                                                                                                                                                                                                                                                                                                                                                                                                                                                                                                                                                                                ",
"                                                                                                                                                                                                                                                                                                                                                                                                                                                                                                                                                                                                                                                                                                                                                                                                                                                                                                                ",
"                                                                                                                                                                                                                                                                                                                                                                                                                                                                                                                                                                                                                                                                                                                                                                                                                                                                                                                ",
"                                                                                                                                                                                                                                                                                                                                                                                                                                                                                                                                                                                                                                                                                                                                                                                                                                                                                                                ",
"                                                                                                                                                                                                                                                                                                                                                                                                                                                                                                                                                                                                                                                                                                                                                                                                                                                                                                                ",
"                                                                                                                                                                                                                                                                                                                                                                                                                                                                                                                                                                                                                                                                                                                                                                                                                                                                                                                ",
"                                                                                                                                                                                                                                                                                                                                                                                                                                                                                                                                                                                                                                                                                                                                                                                                                                                                                                                ",
"                                                                                                                                                                                                                                                                                                                                                                                                                                                                                                                                                                                                                                                                                                                                                                                                                                                                                                                ",
"                                                                                                                                                                                                                                                                                                                                                                                                                                                                                                                                                                                                                                                                                                                                                                                                                                                                                                                ",
"                                                                                                                                                                                                                                                                                                                                                                                                                                                                                                                                                                                                                                                                                                                                                                                                                                                                                                                ",
"                                                                                                                                                                                                                                                                                                                                                                                                                                                                                                                                                                                                                                                                                                                                                                                                                                                                                                                ",
"                                                                                                                                                                                                                                                                                                                                                                                                                                                                                                                                                                                                                                                                                                                                                                                                                                                                                                                ",
"                                                                                                                                                                                                                                                                                                                                                                                                                                                                                                                                                                                                                                                                                                                                                                                                                                                                                                                ",
"                                                                                                                                                                                                                                                                                                                                                                                                                                                                                                                                                                                                                                                                                                                                                                                                                                                                                                                ",
"                                                                                                                                                                                                                                                                                                                                                                                                                                                                                                                                                                                                                                                                                                                                                                                                                                                                                                                ",
"                                                                                                                                                                                                                                                                                                                                                                                                                                                                                                                                                                                                                                                                                                                                                                                                                                                                                                                ",
"                                                                                                                                                                                                                                                                                                                                                                                                                                                                                                                                                                                                                                                                                                                                                                                                                                                                                                                ",
"                                                                                                                                                                                                                                                                                                                                                                                                                                                                                                                                                                                                                                                                                                                                                                                                                                                                                                                ",
"                                                                                                                                                                                                                                                                                                                                                                                                                                                                                                                                                                                                                                                                                                                                                                                                                                                                                                                ",
"                                                                                                                                                                                                                                                                                                                                                                                                                                                                                                                                                                                                                                                                                                                                                                                                                                                                                                                ",
"                                                                                                                                                                                                                                                                                                                                                                                                                                                                                                                                                                                                                                                                                                                                                                                                                                                                                                                ",
"                                                                                                                                                                                                                                                                                                                                                                                                                                                                                                                                                                                                                                                                                                                                                                                                                                                                                                                ",
"                                                                                                                                                                                                                                                                                                                                                                                                                                                                                                                                                                                                                                                                                                                                                                                                                                                                                                                ",
"                                                                                                                                                                                                                                                                                                                                                                                                                                                                                                                                                                                                                                                                                                                                                                                                                                                                                                                ",
"                                                                                                                                                                                                                                                                                                                                                                                                                                                                                                                                                                                                                                                                                                                                                                                                                                                                                                                ",
"                                                                                                                                                                                                                                                                                                                                                                                                                                                                                                                                                                                                                                                                                                                                                                                                                                                                                                                ",
"                                                                                                                                                                                                                                                                                                                                                                                                                                                                                                                                                                                                                                                                                                                                                                                                                                                                                                                ",
"                                                                                                                                                                                                                                                                                                                                                                                                                                                                                                                                                                                                                                                                                                                                                                                                                                                                                                                ",
"                                                                                                                                                                                                                                                                                                                                                                                                                                                                                                                                                                                                                                                                                                                                                                                                                                                                                                                ",
"                                                                                                                                                                                                                                                                                                                                                                                                                                                                                                                                                                                                                                                                                                                                                                                                                                                                                                                ",
"                                                                                                                                                                                                                                                                                                                                                                                                                                                                                                                                                                                                                                                                                                                                                                                                                                                                                                                ",
"                                                                                                                                                                                                                                                                                                                                                                                                                                                                                                                                                                                                                                                                                                                                                                                                                                                                                                                ",
"                                                                                                                                                                                                                                                                                                                                                                                                                                                                                                                                                                                                                                                                                                                                                                                                                                                                                                                ",
"                                                                                                                                                                                                                                                                                                                                                                                                                                                                                                                                                                                                                                                                                                                                                                                                                                                                                                                ",
"                                                                                                                                                                                                                                                                                                                                                                                                                                                                                                                                                                                                                                                                                                                                                                                                                                                                                                                ",
"                                                                                                                                                                                                                                                                                                                                                                                                                                                                                                                                                                                                                                                                                                                                                                                                                                                                                                                ",
"                                                                                                                                                                                                                                                                                                                                                                                                                                                                                                                                                                                                                                                                                                                                                                                                                                                                                                                ",
"                                                                                                                                                                                                                                                                                                                                                                                                                                                                                                                                                                                                                                                                                                                                                                                                                                                                                                                ",
"                                                                                                                                                                                                                                                                                                                                                                                                                                                                                                                                                                                                                                                                                                                                                                                                                                                                                                                ",
"                                                                                                                                                                                                                                                                                                                                                                                                                                                                                                                                                                                                                                                                                                                                                                                                                                                                                                                ",
"                                                                                                                                                                                                                                                                                                                                                                                                                                                                                                                                                                                                                                                                                                                                                                                                                                                                                                                ",
"                                                                                                                                                                                                                                                                                                                                                                                                                                                                                                                                                                                                                                                                                                                                                                                                                                                                                                                ",
"                                                                                                                                                                                                                                                                                                                                                                                                                                                                                                                                                                                                                                                                                                                                                                                                                                                                                                                ",
"                                                                                                                                                                                                                                                                                                                                                                                                                                                                                                                                                                                                                                                                                                                                                                                                                                                                                                                ",
"                                                                                                                                                                                                                                                                                                                                                                                                                                                                                                                                                                                                                                                                                                                                                                                                                                                                                                                ",
"                                                                                                                                                                                                                                                                                                                                                                                                                                                                                                                                                                                                                                                                                                                                                                                                                                                                                                                ",
"                                                                                                                                                                                                                                                                                                                                                                                                                                                                                                                                                                                                                                                                                                                                                                                                                                                                                                                ",
"                                                                                                                                                                                                                                                                                                                                                                                                                                                                                                                                                                                                                                                                                                                                                                                                                                                                                                                ",
"                                                                                                                                                                                                                                                                                                                                                                                                                                                                                                                                                                                                                                                                                                                                                                                                                                                                                                                ",
"                                                                                                                                                                                                                                                                                                                                                                                                                                                                                                                                                                                                                                                                                                                                                                                                                                                                                                                ",
"                                                                                                                                                                                                                                                                                                                                                                                                                                                                                                                                                                                                                                                                                                                                                                                                                                                                                                                "
};
