/* XPM */
static char *d38f9b3d77d0402bc57851c76d20feb2qeortxlVQ5oWrt3Q[] = {
/* columns rows colors chars-per-pixel */
"640 640 256 2 ",
"   c #010101",
".  c #0A0A08",
"X  c #161A0A",
"o  c #171817",
"O  c #0E120C",
"+  c #261D0D",
"@  c #1C230B",
"#  c #1D2615",
"$  c #15290C",
"%  c #26260B",
"&  c #383808",
"*  c #252A14",
"=  c #272815",
"-  c #3D2B1C",
";  c #352716",
":  c #2A3518",
">  c #3C3D1C",
",  c #373816",
"<  c #302F0B",
"1  c #191D22",
"2  c #1E252B",
"3  c #1D2629",
"4  c #162F32",
"5  c #23252B",
"6  c #222A2E",
"7  c #272927",
"8  c #2C3628",
"9  c #343928",
"0  c #282D33",
"q  c #2B3236",
"w  c #2C343A",
"e  c #2E393C",
"r  c #293434",
"t  c #333335",
"y  c #32353B",
"u  c #333A3D",
"i  c #3E3E3E",
"p  c #373B34",
"a  c #382D24",
"s  c #201F25",
"d  c #463918",
"f  c #493613",
"g  c #4E3A23",
"h  c #4B3827",
"j  c #523B24",
"k  c #553C29",
"l  c #423E3B",
"z  c #463224",
"x  c #643D20",
"c  c #3D431B",
"v  c #394719",
"b  c #314817",
"n  c #3B4523",
"m  c #3C4A24",
"M  c #374727",
"N  c #3A4339",
"B  c #374F22",
"V  c #46460A",
"C  c #444314",
"Z  c #42431B",
"A  c #4A4A19",
"S  c #544919",
"D  c #4C531B",
"F  c #565616",
"G  c #55541A",
"H  c #595819",
"J  c #55530A",
"K  c #675017",
"L  c #686819",
"P  c #787819",
"I  c #736F0B",
"U  c #464A26",
"Y  c #58452A",
"T  c #4B5528",
"R  c #565826",
"E  c #41413E",
"W  c #484839",
"Q  c #594A36",
"!  c #585935",
"~  c #4B5635",
"^  c #664829",
"/  c #665927",
"(  c #664B35",
")  c #655439",
"_  c #775939",
"`  c #76542C",
"'  c #5A652B",
"]  c #5A6535",
"[  c #566A2C",
"{  c #666728",
"}  c #787827",
"|  c #676936",
" . c #786838",
".. c #6B7536",
"X. c #767938",
"o. c #6E6F29",
"O. c #5B6318",
"+. c #333C42",
"@. c #3C3E42",
"#. c #353842",
"$. c #2F3840",
"%. c #364144",
"&. c #3B4245",
"*. c #3D454A",
"=. c #3D484A",
"-. c #2A4748",
";. c #1E4443",
":. c #414141",
">. c #43444A",
",. c #414A4D",
"<. c #494B46",
"1. c #4B5348",
"2. c #575949",
"3. c #474D53",
"4. c #4D555B",
"5. c #4C5458",
"6. c #545A5D",
"7. c #545759",
"8. c #554D45",
"9. c #6B5946",
"0. c #5C644C",
"q. c #7A6647",
"w. c #6F6F50",
"e. c #535A61",
"r. c #5A5D62",
"t. c #4F5760",
"y. c #5E6266",
"u. c #656667",
"i. c #767669",
"p. c #6D7275",
"a. c #787A77",
"s. c #6E6F6A",
"d. c #605F64",
"f. c #413F44",
"g. c #877B13",
"h. c #8A5A37",
"j. c #86673B",
"k. c #8F7532",
"l. c #A47B3B",
"z. c #876946",
"x. c #966947",
"c. c #897547",
"v. c #97774A",
"b. c #9B7853",
"n. c #897356",
"m. c #A9784C",
"M. c #B17E4D",
"N. c #AB7653",
"B. c #AD7B53",
"V. c #A77956",
"C. c #B27D55",
"Z. c #B37E58",
"A. c #A26E49",
"S. c #867B6E",
"D. c #8C6449",
"F. c #7E831B",
"G. c #7E8107",
"H. c #798438",
"J. c #7A8328",
"K. c #7B834D",
"L. c #7D8471",
"P. c #9A9B0C",
"I. c #81841B",
"U. c #878717",
"Y. c #999A17",
"T. c #8B880D",
"R. c #A49B16",
"E. c #9EA10E",
"W. c #9FA212",
"Q. c #9EA11A",
"!. c #A3A40C",
"~. c #ABAB0B",
"^. c #A9A80B",
"/. c #B1AE0B",
"(. c #AFB00C",
"). c #AEB007",
"_. c #B2B20C",
"`. c #B8B609",
"'. c #A2A312",
"]. c #A9A815",
"[. c #B4B315",
"{. c #B1AD18",
"}. c #878626",
"|. c #919134",
" X c #A78538",
".X c #A8932B",
"XX c #99A130",
"oX c #B0AD2B",
"OX c #C2C331",
"+X c #989846",
"@X c #8F8D4E",
"#X c #AB8249",
"$X c #A98557",
"%X c #B38159",
"&X c #B38154",
"*X c #AC914E",
"=X c #9AA44F",
"-X c #A8A848",
";X c #B6B44A",
":X c #A5A855",
">X c #B5B252",
",X c #82827D",
"<X c #888978",
"1X c #908F6E",
"2X c #B79968",
"3X c #AB8D6A",
"4X c #B4AB6D",
"5X c #9CA466",
"6X c #C9AF75",
"7X c #C2B75A",
"8X c #BBCA61",
"9X c #C6C855",
"0X c #CFCB72",
"qX c #DDD97C",
"wX c #BFC02C",
"eX c #7C7E81",
"rX c #898A85",
"tX c #93938C",
"yX c #979589",
"uX c #989892",
"iX c #908F89",
"pX c #A49C8F",
"aX c #A8A599",
"sX c #B4AD92",
"dX c #BAB5AA",
"fX c #B3AFA6",
"gX c #9E9F98",
"hX c #CEB988",
"jX c #C3BBAD",
"kX c #C3BDB2",
"lX c #C8BFB6",
"zX c #CFBAA9",
"xX c #E5BA93",
"cX c #D8C689",
"vX c #D9C997",
"bX c #D6D08B",
"nX c #E4CB89",
"mX c #E6D88A",
"MX c #E7D797",
"NX c #F0D796",
"BX c #F2E597",
"VX c #CAC2B8",
"CX c #D6CCAB",
"ZX c #E7D9A6",
"AX c #EDDBAD",
"SX c #F6E8A8",
"DX c #FCF3AA",
"FX c #FDF4B4",
"GX c #FDF6BA",
"HX c #F2E7B1",
"JX c #D3E48D",
"KX c #FDF9C4",
"LX c #F9F5CF",
"PX c #E4DFD1",
"IX c #BCC399",
"UX c #7E8184",
/* pixels */
"6 6 6 6 6 6 6 6 3 3 3 o o o o o o # # # # # # # # # # # # # # # # # # o o o = = # # # # # # # # # = = = # # o o o o o # # # o = = # X < ! 0.| w.............X.X.X.X.X.X.X.X.X.w.X.X.H.H.X.X.X.X.H.|.|.H.H.H.|.|.|.|.|.+X:X>X>X>X>X>X>X>X;X>X;X;X>X;X;X;X;X-X-X-XXXXXXXXX-X-X-X-X-X-X-X-X-X-X-X-X-X-XoXXXXXXXXX-XXXXXXXXX|.|.+X|.|.|.k.}  . . ./ Y ) _ _  ._ _ _ _ _ _ _ _ _ q.9._ q._ 9.( d Y ( _ ) ) ) ) ) ) Q Q ) ) ) 9.9.) ) ) Q Q Q Q Y h z d U U T T T T T T T ! R ! ! ! ' ' ' ' ' | ..H.@X@X@X@X@X+X+X+X+X+X+X+X+X+X+X+X+X+X+X+X=X+X+X+X+X+X+X|.+X+X+X+X=X=X+X+X+X+X+X+X+X|.|.|.+X|.+X+X+X+X+X@XH.| R D T T T T T T T T T T T T T T T T T T T ! ' ] ] | | | | | | | | | | | | | | ........H.H.|.|.J.H.+X@XXX=X=X+X+X+XXXXX|.J.J.J.H.H.J.J.o.L O.O.O.L o.o.o.o.........[ [ | [ [ T T T T D v v B T [ ' ' R T T U U U U U n 9 z U h U W Q Q Q ! ! ! ! ! ! ! ! ! ! ! ! ! ! ! ! ! ! ! ! ! ! ! ! ! ! ! ! ! ! ~ Q Q Y h Y Q Q Q Q Q Q k Y Q Q Q Q Q Q Q Q W W W W W W W W W U U Q ! ! ~ T ~ ! Q Q ~ ~ ~ W W U h a a h h U U h h h h 9 h W W W ~ U U U n n n n 9 n n n n n n M m U T ~ T m m m m m m U U U U U U T T T T T T ~ ~ T T T T T T T T T ~ ~ ~ T T T T T T T T T T T T [ [ ~ ~ ~ ~ ~ ~ ! ! R ~ ! ! ~ ~ ~ T U n , : : < : @ % 5X@X|.+X@X@X@X|.|.|.|.|.|.@X@X@X@X@X@X@X@X|.|.|.|.}.H.H.H.H.X.X.X.X.X.} ..o.{ ' ' ' ' ' D ",
"6 6 6 6 6 6 6 6 6 6 6 5 3 # # # # # # # # # # # # # # # # # # # # # # o o # # = = # # # # # # # # = = = # # # o o o # # # # = = # X % U | w.w.............X.X.X.w.w.w.w.H.K.K.K.K.w.H.H.H.X.H.H.|.|.|.|.H.H.|.|.|.|.|.+X:X>X>X>X>X>X>X>X>X>X>X>X>X;X;X;X;X;X-X-X-X-X-X-X-X-X-X-X-X-X-X-X-X-X-X-X-X-X-XXXXXXX-X-X-X-XXXXXXXXX+X+X+X|.|.k. . . ./ Y ) _ q.j.z.q.z._ _ _ _ _ _ _ _ _ _ _ ) Q d Y ) ) _ ) ) ) ) Q j Q ) ) ) 9.) ) ) Q Q Q Q U g z z U U Y T T T ! ! T T ! ! ! ' ' ' ] ] ] ' | ....X.H.H.H.@X|.@X|.@X|.|.|.+X+X+X+X+X+X+X+X+X+X+X+X+X+X+X+X+X+X+X+X=X+X+X+X+X+X+X+X+X|.|.|.|.+X+X+X+X+X+X+XH.' D D D T T T T T T T T T T T T T T T T T R ! ] ] ] | | | | | | | | | | | | | ............H.H.H.H.H.H.|.|.XX+X+X+X+XXXXX|.|.|.|.|.+X|.|.@XH.H.J.J.H.H.H.H.H.......[ [ [ [ [ [ [ [ [ [ [ [ [ [ [ ] ] ] ] ] [ ! ! ] ] ] ] ! ! ! Q Y U W Q Q ! ! ! ! ! ! ! ! ! ! ! ! ! ! ! ! ] ! ! ] ! ! ! ! ! ! ! ! ! ! Q Q Q W h Y Q Q Q Q Q Q Y Q Q Q Q Q Q Q Q Q W W W W W W W W W U U ! ! ! ! ~ ! ! ! ! ~ ~ ~ W W h 9 9 h h U W W h h h h h W Q ~ ~ U U U n n n n n n n n n n n n n n m U ~ T U T T T N T ~ T U U T T T T T T T T T U U U T T T T T T T T ~ ~ T T T T T T T T T ~ T ~ [ [ ~ ' ~ ~ ~ ~ [ ! R R ! ~ T T T U m c , : % % % @ @ K.@X@X|.@X@X@X|.@X|.|.|.|.@X@X@X@X|.|.|.|.|.|.|.|.}.H.H.H.H.X.X.X.X.X.......{ ' ' ' ' ' D ",
"6 6 6 6 6 6 6 r r r r r 6 6 3 # # # # # # # # # o o # # # # # # # # # # # # # = # # # # # # = = = = = = = = # # o # # = = = * = @ @ > ] w.............X.X.X.X.w.X.w.X.X.H.H.K.K.K.K.H.H.H.H.H.@X|.|.|.|.|.|.|.|.|.|.|.|.+X:X>X>X>X>X>X>X>X>X>X>X>X>X;X;X>X>X-X-X-X-X-X-X;X;X;X;X;X;X-X-X;X-X-X-X-XoX-XoX-X-X-X-X-X-X-X-X-X-X+X+X+X+X+X|.k.j. ./ Y ) _ z.z.z.z.z.q.q._ _ _ _ q._ _ _ _ ) k d Q ) ) _ ) ) 9.( g g ( ) ) ) ) ( Q ( Q Q Q Y g d d g Y T T T T ! ~ ! ! ! ! ] ' ' ' ' ] ] | | [ | | ......X.H.H.H.H.H.H.H.H.H.H.|.@X+X+X+X+X+X+X+X+X+X+X+X+X+X+X+X+X+X+X+X+X+X|.|.+X+X+X+X|.+X|.|.+X+X+X+X@X..' D D D T T T T T T T T T T T T T T T T R R ! ' ' ] | | ........| | | ..| ..| | ........| H.H.|.|.H.H.|.|.XXXXXX+X=X=XXX=X+X|.|.+X+X+X+X+X+X@X|.H.H.H.H.H.H.H.....[ [ [ [ [ [ [ [ [ [ [ [ [ [ ' [ [ [ ' ' ' ' ] ] ] | | 9.9.9.9.Q Y Q Q ! Q ! ! ! ! ! ! ! ! ! ! ! ] ! ] ! ! ] ] ] ] ] ! ! ! ! ! ! Q ! Q Q Q W h W Q Q Q Q Q Q Q Q Q Q Q Q Q Q Q Q W U W W Q Q W Q Q U U Q ! ! ! ! ! ! ! Q Q Q Y W U h h h h W W W W U h z U W ~ ! ! Y U n n U U n n n n n n n n n n n n m U ~ ~ T ~ ~ ~ ~ ~ ~ T ~ T T T T T T U U U m m m m U U T T T T T ~ ~ ~ ~ ~ ~ ~ ~ ~ ~ ~ ~ ~ ' ' [ [ ' ' ' R [ [ [ ' R ! ! ~ T T U m n > , * % % @ @ O 9.5X@X@X+X@X@X@X@X@X@X@X|.@X@X|.|.|.|.|.|.|.|.|.|.}.H.H.H.X.X.X.X.X.X...} ..{ { ' ' ' ' D ",
"6 6 6 6 r r r r r r r r r r 6 6 7 7 # # # # # = o o # # # # # # # # # # # # # = = = # # = = = = = = = = = = = # # = = = = * = * @ : ! w.............X.X.w.w.w.w.X.X.X.X.H.H.K.K.K.K.H.H.H.H.|.@X|.@X@X|.|.@X@X@X|.|.|.|.|.-X>X>X;X>X>X>X>X>X;X;X>X;X;X;X;X;X;X-X;X;X;X;X;X;X;X;X;X;X;X;X;X-X-X-XoXoXoXoX-X-X-X-X-X-X-X-X-X+X+X+X-X+X+X|.k. . ./ Y )  .z.z.z.z.z.q.q.q._ _ q.q.q._ _ 9.( g j ) 9.) _ ) ) 9.Y d j ) ) ) ) ( Q Q ( ( Q Y Y d d g U T ~ ~ T ~ ~ ! ! ! ! ! ] ' ' ' ' ' ' | | | | | ........................X.H.H.@X@X+X+X+X+X+X+X+X+X+X+X+X+X+X+X+X+X+X+X+X+X|.|.+X+X+X+X+X+X+X+X+X+X+X+XH...D D D T T T T T T T T T T T T T T T T T T R ! ! ' ' ] | | | | ..| | ....| | | | | | | | | | K.+X+X|.+X+XXXXX=XXX=X=X=X=X=X+X+X+X|.|.|.|.+X+X+X+X|.|.H.H.H.H.J...........[ [ [ [ [ [ [ [ [ [ [ [ [ ' [ ' ' ' ' ' R ] ] ] ] | 9.9.9.Q Y Q Q Q ! ! ! ! ! ! ! ! ! ! ! ! ! ! ! ] ! ] ] ] ] ! ! ! ! ! ! ! ! Q Q Q W h W Q Q Q Q Q Q Q Q Q Q Q Q Q Q Q Q W h U Q Q Q Q Q Q U U ~ ! ! ! ! ! Q ! Q Q Q W W h h h h U W Q W W h h z W ~ ! ! ~ U U n n U U n n n n m m m n n n n n n m U T T T T ~ ~ ~ ~ ~ T T T T ~ T T U U m m m m m U U T T T T T T T ~ ~ ~ ~ ~ ~ ! ~ ~ R R ' ' ~ ' ' ' R R ' [ [ ' R R ~ T T T U m c , : % % % @ # . ~ 5X@X+X@X@X@X@X|.@X+X+X+X@X@X|.|.|.|.|.|.|.|.|.|.|.H.H.H.X.X.X.X.X.X...} ..o.{ ' ' ' ' D ",
"6 6 6 6 r r r r r r r w w w r r 7 7 5 3 # # # # # # # # # # # # # # # # # # # = = = # # # # = = = = = = = = = = # = = = = = = = % U w.w.........X.X.X.w.w.X.X.X.X.X.X.X.H.H.H.X.K.K.H.H.|.|.@X@X@X@X@X@X@X|.@X@X@X@X|.|.|.+X>X>X>X>X;X;X;X>X>X>X>X>X;X;X;X;X;X;X;X;X;X;X;X;X;X;X;X;X;X;X-X-X-X-X-X-X-X-X-X-XXXXXXXXXXXXX-X-X-XXX-X+X+X|.j.j. ./ Y ` q.z.z.z.z.q.q._ q._ _ _ q._ _ q.9.Y d Y ) ) ) _ _ ) ) g d ( 9.) ( ( Q ( ) ( Q Y Y d d g U T T ! ! T ~ ! ! ! ! ! ! ! ! ! ' ' ' ' | | | | ............................X.H.H.@X+X+X+X+X+X+X+X+X+X+X+X+X+X+X+X+X+X+X+X|.@X+X+X+X+X+X@X@X+X+X+X+X+X+XX.' D D T T T T T T T T T T T T T T T T T T T T R R R ' ] | | | ....| | ....| | | | | | | | ' ' ..@X=X=X+X+X+X+X=X=X=X=XXX=X=X=XXXXXXXXX+X+X+X+X+XXX|.|.H.H.H.H.J.J.......H.......[ [ [ [ [ [ [ [ ' [ [ [ ' ' ' ] ' ' ' ' ' ] ] | q.q.) Q U Q Q ) ) ! ! ! ! ! ! ! ! ! ! ! ! ! ! ] ] ] ] ! ! ! ! ! ! ! Q Q Q ! Q W h k Q Q Q Q Q Q Q Q Q Q Q Q Q Q Q Q Y h h Q Q Q Q Q Q W U Y Q ! ! ! ! Q Q ~ Q W W U U h h h W Q Q W h h h U T ! ! ~ U U z n U U U m n n n n n n m n n n n n n U T T T ~ ~ ~ ~ ~ T T T T ~ ~ T U m m m m m m m m U U T T T T T ~ ~ ~ ~ R R R R R ~ ~ ~ [ ' T ~ R R ! R ! [ ! ! T T T T T U U n , * % @ @ X X X . : 1X@X+X|.+X+X@X@X@X@X+X+X|.|.|.|.@X|.|.|.|.|.|.|.H.H.H.X.J.} X.X.X.X.X.....o...' ' ' ' D ",
"6 6 6 6 r r r r r r r r w w w w r r 6 6 5 7 3 # # # # # # # # # # # # # # # # = = = # # # # = = = = = = = = = = # = = = = = = * @ U w.w...w.....X.X.X.w.w.w.X.X.X.X.X.H.K.K.w.w.K.K.H.H.H.|.@X@X@X@X@X|.@X@X@X|.@X@X|.|.|.|.-X>X>X>X>X>X;X;X>X;X>X>X>X;X;X;X;X;X;X;X;X;X;X;X;X;X;X;X;X;X;X-X-X-X;X;X-X-X-X-X-XXXXXXXXXXX-X-XXXXX-X+X+X|.j.j. ./ Y ` _ z.z.z.z.q.q.q.q.q.q._ q.q._ _ _ Y d ( 9._ _ _ ) ) Y d j ) 9.Q Q Q ( ) ) Q Q Y d d g U U T T T T ! ! ! ! ! ' ' ! ! ! ! ' ' ] ] | | | | | ......................o.....X.H.H.@X+X+X=X+X+X=X=X=X+X+X+X+X+X+X+X+X|.|.|.|.|.|.|.|.@X@X@X+X+X+X+X+XH...R D T T T T T T T T T T T T T T T T T T T T T R R R ' ] ] | | ................| | | | | | ] ' ' H.=X:X=X+X+X+X+X=X=XXXXX=X=X=XXXXXXXXX+X+X|.|.|.|.|.|.|.H.J.J.J.J.J.J.H.H.........[ [ [ [ [ [ [ [ [ [ ' ' [ ' ' ' ' ' ' ' ] ] | w.q.) Q U Q ) ) ) ! ! ! ! ! ! ! ! ! ! ! ! ! ! ] ! ! ! ! ! ! ! ! ! ! Q ! Q ! Q W h Y Q Q Q Q Q Q Q Q Q Q Q Q Q Q Q Q Y h h W Q Q Q Q Q W U Q Q ! ! ! ! Q Q Q Q W W U h U U U Q Q Q U 9 z h T ! ! ~ U U n n n U m U m m m n n n n n n n n n n n m U U U T ~ ~ ~ ~ U U U T T U m m n n n n n m m m U U T T T T ~ ~ ~ ~ ~ R R R R R T ~ ~ ~ ~ T T ~ ~ R R ~ ! ! T T T T T T T U c : % @ X X X X X X O w.5X|.+X@X@X@X@X@X@X|.|.|.+X|.|.|.|.|.|.|.|.|.H.H.H.X.X.X.X.X.X.X.X.X...o.o.o.{ ' ' ' D ",
"6 6 6 6 6 r r r r r r r r r r w w w r r 6 6 7 5 5 3 # # # # o o # # # o # # # = = = # # o o = = = = # # # # = = # # = # = # # # @ , 0.w...w.....X.X.X.w.X.X.X.X.w.K.K.K.K.K.w.w.K.K.H.H.H.@X@X@X@X@X@X@X|.|.|.|.@X@X|.|.|.|.+X-X>X>X>X>X;X;X;X;X;X;X>X;X;X;X;X;X;X;X;X;X;X;X;X;X;X;X;X;X;X;X-X-X-X;X;X-X-X-XXXXXXXXX-X-X-X-X-XXX-X+X+X|.k.j. .` Y ` q.z.z.z.z.q.z.j.q.q.q._ _ _ _ _ ) j j ) ) _ _ ) _ ) g g Q 9.) Q Q Q ( ) ) Q Y g d g U T ! ! T T ! ! ! ! ! ! ' ' ! ! ! ! ' ' ] ' ] | | | | | ............................X.H.H.H.@X+X+X+X+X+X+X+X+X+X+X+X+X|.|.|.H.H.H.H.|.|.|.|.|.@X@X@X@X@XH...' H D T T T T T T T T T T T T T T T T T T T T T T R R ' ' ' ] | | | | ..| | ....| | | | | ] ' ' D ' K.=X=X=X+X+X+X=XXXXX=X=X=X=X=XXXXX|.|.|.XXXX|.|.|.|.|.|.J.J.J.J.H.H.H.H.........[ [ [ [ [ [ [ ' [ [ [ [ ' ' ' ] ] ] ] ' ' ' ] | 9.9.Q Q Q Q ) ) ) ! ! ! ! ! ! ! ! ! ! ! ! ! ! ! ! ! ! ! ! ! ! ! ! ! ! ! ! Q Y h Y Q Q Q Q Q Y Y Q Q Q Q Q Q Q Q Q Y h h Y Q Q Q Q Q Y U Y ! ! ! ! ! ! Q ~ Y U W U h U W Q Q Q W z 9 h W ! ! ! U U U n n U m m m U U m m n n n n n n n n n n n m m U U T T T T U U U U m m m n n v v n n M n m m U T T T ~ ~ ~ ~ ~ T T R ~ R ~ ~ ~ ~ T T T T T T ~ ~ ! ! ! ~ T T T T T U n , % @ X X X X X X X . U @X@X@X@X@X@X@X@X@X|.@X+X+X@X@X@X|.|.|.|.|.|.H.H.H.X.X.X.X.X.X.H.X.X.X.......{ | { { D ",
"6 6 6 6 0 r r r 0 r r r r r r w w w w w r r r r 7 7 5 3 3 # # o # o o o # # # = = = # o o o = = # = # # # # # # # # # # # @ @ # @ @ ! w.| ......X.X.X.X.X.X.X.X.w.w.K.K.K.K.X.X.K.K.K.@X@X@X@X@X@X@X@X|.|.|.|.|.@X|.|.|.|.|.|.+X-X>X>X>X>X;X;X;X;X>X;X;X;X;X;X;X;X;X;X;X;X;X;X;X;X;X;X-X;X-X-X-X-X-X-X-X-XoXXXXXXXXX-X-X-X-XXXXX+X+X+X|.k.j. .` ^ _ z.z.z.z.z. .z.z.q.q.q._ _ _ _ _ ^ d k ) ) _ _ ) 9.( d Y 9.9.( Y Q ) ) ) Q Y g g g U T ! Q ! R R ! ! ! ! ! ! ' ' ' ' ' ' ' ' ' ' ' { | | ..................................X.H.H.H.H.|.|.|.+X@X@X|.@X|.|.|.|.H.H.H.H.H.H.|.|.|.|.|.|.K.K.H.H.H...R D D T T T T T T T T T T T T T T T T T T T T T T T R R ' ' ] ] ] | | | | | ..| | | | | ] ] R R D D ' @X:X=X=X+X+X=X=XXX=X=X=X=XXXXXXXXX+X+XXXXX|.|.|.|.|.H.H.H.H.H.H.H.H.H.H.H.....[ [ [ [ [ [ [ [ [ [ [ [ ' ' ] ] ] ' ' ' ] ' ] | ) ) Q W Q Q ) ) ) ! ! ! ! ! ! ! ! ! ! ! ! ! ! ! ! ! ! ! ! ! ! ! ! ! ! ! ! ! Y h Y Q Q Q Q Q Y k Q Q Q Q Q Q Q Q Q Y h h Y Q Q Q Q Q Y U Y Q ! Q ! Q Q Q Q U W U h h U Q Q Q ~ U 9 z U Q ! ! T U n U U n U m n n m m m n n n n n n n n n n n n n m m m U U T U m m m m m n n n n n n n n n n m m U T T T ~ ~ ~ ~ ~ T T T ~ ~ T ~ ~ ~ T T T T T T ~ ~ ! ! ! ~ T T T T U U c : @ X X X X O X X X O . w.5X@X@X@X@X@X@X@X@X|.@X@X@X@X@X|.|.|.|.|.H.H.H.H.H.X.X.X.X.X.H.X.X.X...........| | G ",
"6 6 6 6 r r r 0 r r r r r r r r r r w w w w w e w w r 6 6 3 # o o # # # # # # o # # # = = # = = o o o o o # = = @ % = = + + X X @ % , ] w.| ..w...w.w.w.w.w.w.w.w.w.w.X.K.X.X.K.X.X.X.H.K.K.@X@X|.|.|.|.|.|.|.|.|.|.@X@X|.|.+X+X+X-X>X>X>X;X;X>X;X;X;X;X;X;X;X;X;X;X;X;X;X;X;X;X;X;X;X;X;X-XoXoX;X-X-X-X-X-X-X-XXXXXXXXX-X-XXXXX-X+X+X|.k.k.j.` ^ ` j.z.z.z.z.z.z.q._ _ _ _ q.q._ ( j g Y ) ) _ _ 9._ k g ( 9.) Q Q Q ( ) ) Y S d Y Y Y R R ! ! ! ! ! ! ' ' ' ' ' ! ' ' ' ' ' ' ' ' ' | | ......................................X.H.H.H.H.H.|.|.|.|.|.|.|.|.|.H.|.|.H.H.K.|.|.|.@X|.|.H.H.@XK.H.| ' R R R D D D T T T T T T T T T T T T T T T T T T R T R R R R R ' ' ' ] | | | | | | | | ] ' R R T T D D ' @X:X=X=X=X+X=XXX=X=X=X=X=X+X+X+XXXXXXXXX+X+X|.|.|.|.H.H.H.H.H.H.J.J.H.J.......[ [ [ [ [ [ [ [ [ [ ' ' ' ' ' ] ] ] ' ' ' ] ] ! | ) Q Y Q Q ) Q ! ! ! ! ! ! ! ! ! ! ! ! ! ! ! ! ! ! ! ! ! ! ! ! ! ! ! ! Q Y h Y Q Q ) Q Q Y Y Q Q ) ) Q Q Q Q Q Y h h Y Q Q Q Q Q Q U Q Q ! ! Q Q Q Y Q W U U U U Y ! ! Q W h > h Q ! ~ U U U U U U U m m m m n n n n m n n n n n n n n n n n n n m m m m m m n n n n n n n n n n n n n n n m m U T T T T ~ T ~ ~ ~ T T T T ~ ~ ~ R R R ~ ~ ~ T T T T T ~ ~ T T U U v , % X X X X X X X O X X   X w.5X+X@X@X@X@X@X@X@X@X|.|.|.|.|.@X|.|.|.}.}.H.H.H.X.H.} } } X.X.X.X.X...X.....o...H ",
"6 6 6 6 6 r r r r r 0 r r r r r r r r r r w w w u u e e e e r r 5 # o o o = = # # # # o # = = = o o o o o o = = @ @ = % + X @ @ X X % T w.w.K.K.K.K.K.K.K.@X@X@X@X@X@X@X@XK.w.K.K.H.H.H.K.K.K.K.|.|.|.|.|.|.|.|.|.|.@X@X|.|.|.|.|.+X-X>X>X>X>X;X;X;X;X;X;X;X;X;X;X;X;X;X;X;X;X;X;X;X;X;X;XoXoXoX;X-X-XoX-X-X-X-XXXXXXXXX-X-XXXXX-X-X+X@Xk.k.j.` ^ _ z.z.z.z.z.z.z.q.q._ _ _ _ _ ) Y j k ( ) ) _ 9._ ( j k ) 9.) Q Q ( ) ) Q U d g U Y Q ! ! ! ! ! ! ! ' ' ' ' ' ! ' ! ' ' ' ' ' ' ' ' ' | | ........................................X.H.H.H.H.H.H.H.H.|.|.|.H.H.|.|.H.H.|.|.|.|.@X|.|.|.H.H.H...' R R T R T D R T R T T T T T T T T T T T T T T T T T R R R T R R R R R ' ' ] ] ] ] ] ' ' ! R R T A U T A v O.K.=X:X=X=X=X=X=X=X=X=X=X=X+XXX|.|.XXXX+X|.|.|.|.|.|.|.H.H.H.H.J.J.H.H.J.....[ [ [ [ [ [ [ [ [ [ ' ' ' ' ' ' ] ] ' ' ! ! ] ] | ) Q Y Q Q ) ) ! ! ! ! ! ! ! ! ! ! ! ! ! ! ! ! ! ! ! ! ! ! ! ! ! ! ! ! Q Y h Y Q Q ) Q Q Y Y Q Q Q ) Q Q Q Q Q Y k h Y Q Q Q Q Q Q Y Y ! ! Q Q ~ Q Y Y U h h U U Q ! Q W h 9 > U Q ! Y U U U U U U U n n m n n n n n n n n n n n n n n n n n n n n m m m m m n n n n n n n n n n n n n n n n m U T T T T ~ ~ ~ ~ T T T T T ~ ~ ~ R ' R R R R T ~ T T T T T T U U n c < @ X X X X O X O X O X X   X | :X5X=X@X@X@X@X+X@X|.|.|.+X@X|.|.|.|.|.}.H.H.X.} J.} } } X.X.X.X...........o...H ",
"6 6 6 6 6 r r r 0 0 0 6 r r r r 6 6 r r r r r w e +.+.+.%.&.=.=.N r 3 o o o # # # # # o o = = o # # o o o o = = # o = + + + @ # = @ % U 0.w.w.] T T U c , , , , U ! ..w.@X@XK.K.K.K.H.|.K.@X@XK.|.|.|.|.|.|.@X@X@X@X@X@X|.|.|.|.|.|.|.-X>X>X>X>X>X>X>X;X;X;X;X;X;X;X;X;X;X;X;X;X;X;X;X;X;X;X;X;X;XoX-X-X-X-X-XoX-X-XXXXX-X-XXX-X-X-X+X|.k.k.j.` ^ _ z.z.z.z.z.z.z.z.z._ _ _ _ _ ^ j j ^ ) ) _ _ _ ) Y j Y ) ) ) Q Q ( ) ( Y d g Y Y ! ! ! ! ! ! ! ! ! ! R ' ' ' ! ! ! ' ' ' ' ' ' ' ' ' ' | | | ..........................................X.H.H.H.H.H.H.H.H.H.H.H.H.H.|.H.H.H.H.H.H.|.H.H.H...' H D T T T T T T T T T T T T T T T T T T T T T T T T R R T T T T T T T T R R R R ! ! R R R R T T T T T T U v C D K.=X:X:X=X=X=X=X+X+X=X=X=X=X=X+XXXXXXX|.XX|.|.|.|.|.|.|.H.H.J.J.J.H.J.J.....[ [ [ [ [ [ [ [ [ ' [ [ ' ' ' ] ] ] ' ' ' ] ] | ) Q Q Y Q ) ) ) ! ! ! ! ! ! ! ! ! ! ! ! ! ] ] ] ! ! ! ! ! ! ! ! Q Q Q Q Y z k Q ) ) Q Q Y Q Q Q Q Q Q Q Q ) Q Q Y h W Q Q Q Q Q ~ U Y Q ! ! Q Q Y U W U h h U Q Q Q Q U z 9 h Q ! Q U U U n n n U n n n n n n n n n n n n n n n n n n n n n n n M n n m m n n n n n n n M n n n n n n n n n m m U T ~ ~ ~ ~ ~ T T T T T T T ~ ~ R R ! R R R T ~ T T T T T T U U n , @ X X X X X X X O X X O X X . O ~ @X4X:X+X+X@X@X@X@X+X|.|.@X|.@X|.|.|.}.H.H.X.} } } } } } ....................' ",
"r 6 6 6 6 6 r r 0 6 6 6 6 6 6 6 6 6 6 0 0 0 r w w e +.+.%.&.,.3.3.,.&.r 7 o o = o = = # # = = X # o o o o # = = X o o + + % = = @ @ @ * , , < % X X X X X % % % % % < C | w.K.@X@X@XH.H.|.@X@X@X@X|.|.|.|.@X@X@X@X@X@X@X|.|.|.|.+X|.|.|.-X-X>X>X>X>X;X>X;X;X;X;X;X;X;X;X;X;X;X;X;X;X;X;X;X;X;X;X;X;XoX-X-X-XoX-X-X-X-X-X-X-X-X-X-X-X+X|.k.k.j./ S ` j.z.z.z.z.z._ z.q._ q._ _ ( k j Y ) _ ) _ _ _ ( j j ( 9.) ( Q Q ( ( Y g g Y R ! ! ! ! ! ! ! ! ! ! ! ! R ' ' ' ! ' ' ' ' ' ' ' ] ' ' ' [ | | ............................................X.H.H.H.H.H.H.H.H.H.H.H.H.|.H.H.H.H.H.H.H.H.H.H...' D D T T T R R T T T T T T T T T T T T T T T T T T T R R T T T T T T T T T T T T T T T T T T T T U T T U U T A v v H ..@X=X:X:X=X=X=X=X=X+X+X=XXXXXXXXX|.XX|.|.|.|.|.|.|.H.H.J.J.H.J.J.J.J...[ [ [ [ [ [ [ [ [ ' [ [ [ ' ' ' ] ] ' ' ' ] ] | ) ) Q Y Q ) ) ) ! Q ! ! ! ! ! ! ! ! ! ! ! ] ] ! ! ! ! ! ! ! ! ! Q Q Q Q k z k Q ) ) Q Q Y Q Q Q Q Q Q Q Q ) Q Q Y k U Q Q Q Q Q ~ Y Y ~ Q Q ~ Q W U U h h h U Q Q Q W h 9 h Y ! Q U U U n n n n n n n n n n n n n n n n n n n n n n n n n n n n M n n n n n n n n n n n n n n n n n n n n n n m U U T T T ~ ~ T T T T T T T T ~ ~ R ~ ~ R T T T T T T T U T U n , : X X X X X O O X o . X X . X X .   X T @X5X:X=X=X@X|.|.|.|.|.@X|.|.|.}.}.H.H.X.X.} } } } } } ....} ............' ",
"r r 6 6 6 6 6 r 0 0 6 6 6 6 6 6 6 6 6 6 6 0 0 r w e +.+.+.&.=.3.3.5.5.,.u 7 = o o = = o o = = o # # o o o o = = X o + + + % = = = % % % % % % % % % < < < < < < < % % % & A | w.@X@X@X|.}.|.|.@X@X@X|.|.|.|.@X@X@X@X+X+X|.@X|.|.|.|.|.|.|.XX-X-X;X;X>X>X;X;X;X;X;X;X;X;X;X;X;X;X;X;X;X;X;X;X;X;X;X;XoX-X-X-X-XoX-X-X-X-X-XXX-X-X-X*X*X@X|.k. ./ S _ z.z.z.z.z.z.j.z._ _ q._ ( Y j k ( _ _ _ _ ) _ ( j Y ) 9.) ( Y Q Q Y g g Y Q R ! ! ! ! ! ] ! ! ! ! ! R ! ' ' ' ' ' ' ' ' ' ' ' ' ' ' ] ] | | ............................................X.X.X.H.H.H.H.H.H.H.H.H.|.|.H.H.H.H.H.H.H.H.H.X...' R R R T R R R T T T T T T T T T T T T T T T T T T T T R T T T T T T T T T T T U T T U T T T T T U T T T U U T T A v v V O...@X=X=X=X=X=X=XXXXXXX+X+X|.|.|.XX|.|.|.|.|.|.|.H.J.J.J.J.J.J.H.....[ [ [ [ [ [ [ [ ' [ [ ' ' ' ' ' ' ' ' ' ] ] | | ) Q Y Q Q ) ) ) Q ! ! ! ! ! ! ! ! ! ! ! ! ! ! ! ! ! ! ! ! ! ! Q Q Q Q Y h k Q Q ) Q Q k Q Q Q Q Q Q Q Q Q Q Q Y h Y Q ! Q Q Q Q Y Y Q Q Q Q Q W U h h h W Q Q Q Y U > 9 U Q ~ Y U U n 9 n n n n n n n n n n n n n n n n n n n n n n n n n n n n n m m m m n n M n n n n n n n n n n n n n v n m m T T T T T ~ ~ T T T T T T T ~ R ~ ~ ~ ~ T T T T T T T U n > * @ O X X X X X O O X X O X X . X X X .   . = ! @X:X5X=X|.|.@X|.|.|.|.|.H.H.H.X.} } X.} } ........} o.o.....X.X.X.' ",
"r r 6 6 6 6 6 6 6 6 6 6 6 6 6 6 6 6 6 6 6 6 0 r w w u +.+.&.=.3.3.5.5.5.5.:.8 o o o o o o o o # # # o o o o = = @ o + % + + = = @ % % = % % % % % % % % < < < < < , , < < < d R q.@X@X@X|.|.|.|.@X@X|.|.|.|.@X@X|.|.|.+X+X+X+X+X+X+X|.|.+X|.|.|.XX-X-X>X;X;X>X;X;X;X;X;X;X;X;X;X;X;X;X;X;X;X;X;X;X;X-XoX-X-X-X-X-X-X-X-X-X-XXXXX-X+X*X#X@Xk. .K ^ _ x.z.z.z.z.z.z.z._ q._ _ ^ j j ( _ _ _ _ _ _ _ ( j Y 9.) ) ( Y Y Y g d U R ! ! ! ! ! ' ' ' ! ! ! ! ! R ! ' ' ' ' ' ' ' ' ' ! ' ' ' ' ' ] ] ] | | ..........................................X.X.H.H.H.H.H.H.H.K.H.H.H.H.H.H.H.H.H.H.H.H.X...{ ' ' R T R R R T T T T T T T T T T T T T R R R ' R R T R T T T T T T T U T T T U U T U U U U U U U U U T T U U T T U D D v v V H { H.|.+X=X=XXXXX+X+X+XXXXXXXXXXX|.|.|.|.|.H.H.H.H.J.J.J.H.H...[ [ [ [ [ [ [ ' ' [ [ ' ' ' ' ' ' ' ' ' ' ] | ) ) Q Y Y Q ) ) ) ) ! ! ! ! ! ! ! ! ! ! ! ! ! ! ! ! ! ! ! ! ! ! Q Q Q Q Y h W Q Q Q Q Q k Q Q Q Q Q Q Q Q Q Q Q k h U Q Q Q Q Q Q Y U Q ~ Q Q Q Q W z h Y Q Q Q Q Y z > h Q ! T U U 9 9 n n n n n n n n n n n n n n n n n n n n n n n n n n n n n m m m m m n n n n n n n n n n n n n n v v n n n m U U T T T T T T T T T T T T ~ R T T T T T T T T T T U U 9 = @ X X X X X X X O O . @ O . X X X . O O X O . . X >  .@X@X}.|.|.}.|.|.|.H.H.H.X.} } } } } ..........o.o...o.....X.{ ",
"r r 6 6 6 6 6 6 6 6 6 6 6 6 6 6 6 6 6 6 6 6 0 r r w u +.+.%.=.,.3.5.5.5.6.5.&.r = o o o # o o = = = = + o # # = # = = % + + = = @ % % = = % % % = = = < < < < < , , < ; , , < < R | @X@X@X@X@X@X@X@X@X@X|.@X@X@X|.|.|.+X+X+X+X+X+X+X+X+X+X|.XXXX|.|.|.XX-X-X;X>X;X;X;X;X;X;X;X;X;X;X;X;X;X;X;X;X;XoX;X-X-X-X-X-X-X-X-X-X-XXXXXXX-X*X*X#X@Xj.` ^ ` z.z.z.z.z.z.j.z. ._ _ _ ( Y j ( _ _ _ _ _ _ _ ) ( j ( 9.) ) Y Y Y g g Y Y ! ! ! ! ! ! R ' ! R R R ' R ' ' ' ' ! ' ' ' ' ' ' ! ' ' ' ' ' ' ] ] { | | ............................................X.H.H.H.H.H.H.K.H.H.H.H.H.H.H.H.H.H.H.X.X.....| ' ' ' R D R T T T T T T T T T T T R R ' ' ' ' ' ' ' R R T T T U U U U U U T T U U T U U U U U T U U U T T T U T U U U U A C v & V F o.+X=X+X+X+X+X+XXXXXXXXXXXXXXXXX|.|.|.H.H.H.H.H.H.H.H.J.[ [ [ [ [ [ [ [ [ [ [ [ ' ' ' ' ' ' ' ' ] ' | | ) ) Q Y Q ) ) ) ) ! ! ! ! ! ! ! ! ! ! ! ! ! ! ! ! ! ! ! ! ! ! ! ! Q Q Y h W Q Q Q Q Y k Q Q Q Q ) Q Q Q Q Q Q Y h Y Q Q Q Q Q Q Y U Y Q Q Q Q W h h Y Q Q Q Q W h > h Y ! ~ U U U 9 9 n n n n n n n n n n n n n n n n n n n n n n m m n n n n m m m m m m n n n n n n n n n n n n n n n v n n m m m U U T T T T T T T T T T T T T T T T T T T U U T U U 9 = @ X X X X X X X X X X O X X X O . O X X X X . O X O   X T @X@X|.@XH.|.}.H.H.X.H.X.} } X.} ......} ....o.o...o.....X.{ ",
"r r 6 6 6 6 6 6 6 6 6 6 6 6 6 3 6 6 6 6 6 6 0 r r w e +.+.%.*.,.3.5.5.5.5.6.5.3.8 = o o = # X # = = # + o o = = # = = % + + = = = = % = = % = % = = = = = < < < < < , , , , < , & R X.@X@X@X@X@X@X@X@X@X|.|.@X@X|.|.+X+X+X+X+X+X+X+X+X+X+X|.|.XX+X+X|.|.|.-X-X;X;X;X;X;X;X;X;X;X;X;X;X;X;X;X;X;X;X;X;X;X-X-X-X-X-X-X-X-X-XXXXXXX-X*X*X#Xk. .` ^ j.c.v.z.z.z.z.j.z. ._  ._ ^ Y k _ q._ _ _ _ _ 9._ ^ j ( 9.) ) Y Y g d Y Q ! ! ! ! ! ! ! R ' ' R R R ' ' ' ' ' ' ! ' ' ' ' ' ' ' ] ' ' ' ' ' ' ] ' { | | ............................................X.X.H.H.H.H.K.H.H.H.H.H.H.H.H.H.H.X...X.X.......| ' R D D T T T T T T T T T T R R ' ' | | ....| ' ' R T T T A U U U U U U U U U U U U U U U U U U T U U U U T T T U U U A A U v & V H.=X=X=X=X+X+XXXXXXXXXXX=XXXXXXX|.|.|.H.H.H.H.H.H.H.H.[ [ [ [ [ [ [ [ [ [ [ ' ' ' ' ' ' ' ' ' ] ' ) | ) 9.Q Y Q Q ) ) ) ! ! ! ! ! ! ! ! ] ] ] ! ! ! ! ! ! ! ! ! ! ! ! Q Q Q Y h Y Q Q Q Q Y k Q Q Q Q ) Q Q Q Q Q Q Y h Y Q Q Q Q Q Q Y U Y Q Q Q Q W h h Q Q Q Q Q U z > U ! Q U U U n 9 9 n n n n n n n n n n n n n n n n n n n n n n m m m n m m m m m m m m n n n n n n c n n n n n n n n n n n n n n m U T T T T T T T T T T T T T T T T T U U U U U n > = X X X X X X X X X X X X X O O O O X O X X X O X X O O X X X w.@XH.@XX.|.H.H.H.H.H.H.} } X.} ....} ......} o...o.....X.{ ",
"r r r 6 6 6 6 6 6 6 6 6 6 6 6 6 6 2 2 6 6 6 0 0 r w e +.+.&.*.,.3.3.5.5.5.4.6.6.,.r o o = o X = = = = = o o o = # # o + + + % % % = = = = = = = % = % < < < < < < ; , , , & , , & d A X.@X@X@X@X|.|.|.@X@X@X|.@X+X+X+X+X+X+X+X+X+X+X+X+X+XXXXXXX|.XX|.|.|.XX-X>X>X>X;X;X;X;X;X;X;X;X;X;X;X;X;X;X;X;X;X;X-X-X-X-X-X-X-X-X-X-X-X-XXX+X#X#Xk.` ^ _ v.v.v.v.z.z.j.j.j.j.q.q._ ^ Y ( _ _ _ _ _ _ _ _ _ Y k ) ) ) ) Y g d U R ) ) | | ' ' ' ' ! R R R R R ! ' ' ' ' ' ' ' ' ' ' ' ' ' ' ' ' ' ' ' ' ' ' ' ' | | ..............................X.X.X.X.X.X.X.X.X.X.H.H.H.H.H.H.H.H.H.H.H.H.H.X.X.....X.......| ' ' H D T T T T R R R R H ' ' | ............| ' R T T T U U U U U U U U U U U U U U U U U U U U U U U U U T U U U U T T T Z A v o.=X=X+X=X=X+XXXXXXXXX+X+X+X+XXXXX|.|.|.|.|.H.H.H.H.H...[ [ [ [ [ [ [ [ [ ' [ [ ' ' ' ' ' ' ' ! ' / | | ) ! Y Y Q ) ) ) ) ) ! ! ! ! ! ! ! ! ! ! ! ] ] ! ! ! ! ! ! ! Q ! Q Q Y h k Q 9.Q Q Y Y Q Q Q Q Q ) Q Q Q Q Q Y g h Q Q ) Q Q Q Y Y Y Q Q Q W h h Y Q Q Q Q h h h U Q ! Q U U U n n n U n n n n n n n n n n n n n n n n n n n n n n m m m m m m n n m m m m n n n n n n n n n n n n M b n n n n n m m U U T T T T U U U U T T T T U U U U U U U n n , % X X X X X X X X X X X X X X X X O X X X X O O X X X X X X X %  .@X|.|.X.H.H.H.H.H.H.H.X.X.X.} } ......o.............o...{ ",
"r r r 6 6 6 6 6 6 6 6 6 6 6 6 6 2 2 2 6 6 6 0 0 0 w e u +.&.*.,.3.5.5.5.5.5.6.4.5.:.8 = o o # # + = = = o o o = # o o + + = % % % = = = = = % % % % % = % < < < ; ; , , , , , , , & f R |.@X@X@X|.|.|.@X@X@X@X+X+X+X+X+X+X+X+X+X+X+X+X+X+X+XXXXX|.+X+X+X|.XXXX;X>X>X;X;X;X;X;X;X;X;X;X;X;X;X;X;XoX;X;X;X-X-X-X-X-X-X-X-X-X-X-X-X.X+X#Xv. ./ ` z.b.b.v.v.x.z.z.z.j.j.q.q._ ( ^ _ _ _ _ _ _ _ _ _ ) Y k ) ) ) ) j d g Y ) ) ) / ! ' ' ' ' ! ! ' ' ' ' ! ' ' ' ' ' ' ' ' ' ' ' ' ' ' ' ' ' ' ' ' ' ' ' ' ' | ..............................................X.X.X.X.H.H.H.H.H.H.H.H.H.H.X.X.................| ' ' ' R R R R R R R ' ' ' | ................| ' T T T U U U U U U U n U U U U U U U U U U U U U U U U U T U U U T T T T U A v { =X=X=X=X=X=X+XXXXXXXXXXXXX+XXX|.|.|.H.H.H.H.H.H.H.H.J.o.[ [ [ [ [ [ [ [ [ [ [ ' ' ' [ ' ' ' ! ' ! | | ) ) Y Y Q ) ) ) ) ! ! ! ! ! ! ! ! ! ! ! ! ] ! ! ! ! ! ! ! ! Q Q Q Q Y h k Q 9.Q Q k Y Q Q Q Q Q Q Q Q Q Q Q Y h h Q ) ) Q Q Q Y Y Y Q Q Q W h k Q Q Q Q Q h h h Q ! ! Q U U n n n n n n n n n n n n n n n n n n n n n n n n n m m m m m m m m m m m m m m m m n n n n n n n n n n M n n n n n n m m U U U U m m U U U U U U U U U n n n U U U n : * X X X X X X X X X X X X X X O O X X X X O O X X X X X X X X X @ | @X|.}.H.H.H.H.H.H.H.H.X.X.X.X.....} } o.........o.o.....{ ",
"r 0 r 0 6 6 6 6 6 6 6 6 6 6 6 6 2 2 2 6 6 6 6 0 0 r w e +.&.,.3.5.5.5.5.5.5.5.5.6.7.:.7 o o # X + o o o o o = = # X o + + = % % % % = = % % % % % % % % % % < < ; ; ; , , , , , d & & C ..@X@X@X|.@X@X@X@X@X+X+X+X+X+X+X+X+X+X+X+X+X+X+X+X+X+X+X+X+X+X+XXX|.XX-X>X>X;X;X;X;X;X;X;X;X;X;X;X;X;X;XoXoX;X;X-X;X-X-X-X-X-X-X-X-X-X-XXX+X#Xk.` / j.v.b.b.v.v.z.z.z.z.j.j._ q._ ( ` _ _ _ _ _ _ _ _ _ ) Y Y ) _ ) Q d d Y ) | | / / ' ' ' ' ' ! ! ' ' ' ' ' ' ' ' ' ' ' ' ' ' ' ' ' ' ' ' ' ' ' ' ' ' ' ' ' ' ' | ..................................................X.H.X.X.X.X.X.X.X.X.X.........................| | ' ' ' ' ' ' ' ' ......................| ' T U U U U U U c n n c n n U U U U U U U U U U U U U U U T U U U U T T T U D v ' =X=X=X=X=XXXXXXXXXXXXXXXXX|.|.|.|.H.H.H.H.H.H.H.|.H.H.J...[ [ [ [ [ [ [ [ [ [ [ [ [ ' ' ' ' ' ' ! ! | | ) Y Y Q ) ) ) ) ! ! ! ! ! ! ! ! ! ! ! ] ] ! ! ! ! ! ! ! ! Q Q Q Q Y h k Q ) Q Q W Y Q Q ) Q Q Q Q Q ) Q Q Y h h Q ) ) Q Q Q Y W Q Q Q W h Y Y Q Q Q Q Y h h U ! ! ! T U U n n n n n n n n n n n n n n n n n n n n n n n n n m m m m m m m m m U U m m m m m m m m m n n n n n n n n n n n n m n m n U U U U U m m v v v v v c U n n U U U c , @ X X X X X X X X X X X X X X X X O O X X X O X X O X X X X X X X @ | @X|.H.|.X.}.}.H.H.H.H.X.} X.} } } } ............o.....X.{ ",
"6 6 r 6 6 6 6 6 6 6 6 2 6 6 6 6 2 2 2 6 6 6 6 6 6 r w e +.=.3.5.5.4.4.5.5.5.4.5.4.6.5.p = o o o o o o o o o = = # @ o + = = % + % % = = % % % % % % % % % % < < ; ; ; , , , , , , , d & / @X@X@X@X@X@X+X@X@X+X+X+X+X+X+X+X+X+X+X+X+X+X+X+X+X+X+X+X+X+X+XXXXXXX-X>X>X>X;X;X;X;X;X;X;X;X;X;X;X;X;XoXoX;X;X;X;X-X-X;X-X-X-X-X-X-X-X*X+X@X ./  .v.$Xb.b.v.z.z.z.z.j.j.j._ q._ ` ) _ q.q._ _ _ _ _ _ ) Y Y _ _ ) Y f d R ) | / ! ' { ! ' ' ' ! ! ' ' ' ' ' ' ! ' ' ' ' ' ' ' ' ' ' ' ' ' ' ' ' ' ' ' ' ' ' ' ' ' { | | ..............................................X.X.X.X.....X.....................................| | { | | ............................] R T U U U U U c c c c c c c n n U U U U U U U U U U U U T U U U U T T T T U v ' =X=X=X=X=XXXXXXXXXXXXX|.|.|.|.|.|.H.H.H.H.H.H.|.|.H.H.H.J...o.[ [ [ [ [ [ ' [ ' ' [ ' ' ' ' ' ' ! ! ) | ) Q Y Q Q ) ) ) ! ! ! ! ! ! ! ! ! ! ! ! ! ! ! ! ! ! ! ! ! Q Q ! Q Y k Y Q 9.Q Q k Y Q ) ) ) ) Q Q ) ) ) Q Q h h Q ) ) ) Q Q Q Y Q Q Q k k Y Q Q Q Q Y h h U Q ! ! ! T U U U n n n n n n n n n n n n n n n n n n n n n n m m m m m m m m m m m U U m m m m m m m m m m n n n n n n n n n n m m m m m n m m m U U m m m m m m m c c n U m > : % X X X X X X X X X X X X X X X X X X O X X O X X X X X X X X X X X X ! @X}.X.|.H.H.H.H.H.H.H.X.} X.X.} X.} ..} o.......o.......{ ",
"6 6 6 6 6 6 6 6 6 6 6 6 6 6 2 2 2 2 2 6 6 6 6 6 6 0 r e %.,.3.5.5.4.4.4.6.6.4.4.4.6.7.<.t # X = o o o o # # = = # # = % = % % + = = = = % = = = % % = % = % < < < ; ; , , , , , , , d & A q.@X@X@X@X@X@X@X@X+X+X+X+X+X+X+X+X+X+X+X+X+X+X+X+X+X+X+X+X+X|.+X+XXX-X;X;X;X;X;X;X;X;X;X;X;X;X;X;X;X;XoX;X;X;X;X;X;X;X;X;X-X-X-X-X-X-X*X*Xk.` ` v.$X$Xb.b.v.x.z.z.z.j.j.j._ q._ ^ _ q.q.q._ _ _ _ _ _ ( Y ^ ) _ ) Y f Y ) | ) ! / { ' ! ! ' ' ' ' ! ! ! ! ! ' ' ' ' ' ' ' ' ' ' ' ' ' ' ' ' ' ' ' ' ' ' ' ' ' ' ' ' ' { | ............................................................X.X.X...X.X.....X.......................................................] R T U U U U n n > > > , , > > > n n U U U U U U U U U U U T T U T U T U T U v ' :X:X=X=X=XXXXXXXXXXXXX|.|.|.|.|.|.|.|.H.H.H.H.|.|.H.H.H.H.H.....[ [ [ [ [ [ [ ' [ [ ' ' ' ' ' ' ! ! | | ) Q Y Y Q ) ) ) ) ! ! ! ! ! ! ! ! ! ! ! ! ! ! ! ! ! ! ! ! Q Q Q Q Q k Y Q 8.Q Q k Y Q ) ) ) ) Q Q ) ) ) ) Q h h Q ) ) ) ) Q Q Q Y Y k k Y Q Q Q Q Q U h U Y ! ! ! ! T U U U n n n n n n n n n n n n n n n n n n n n n m m m m m m m m m m m m U m m m m m m m m m m m m m m m m m m n n n n m m U m m U U n U U m m n n n n n c c c n , = @ X X X X X X X X X X X X X X X X X O X X X O . X % % X X X X X X X X X A @XH.H.H.H.X.X.H.H.H.H.X.} X.} X.} X.X...o.......o.......{ ",
"6 6 6 6 6 6 6 6 6 6 6 6 2 2 2 2 2 2 2 6 6 6 6 6 6 6 r e &.3.5.5.4.4.4.6.6.4.4.6.6.4.6.7.N 7 o = o o o o # # # = = = = % % % % = = = = = % = = = % = % % = % % % < ; ; , , , , , > , , < & ..@X@X@X@X+X@X@X@X+X+X+X+X+X+X+X+X+X+X+X+X+X+X+X+X+X+X+X+X+X+X-X+X+X-X-X;X>X;X;X;X;X;X;X;X;X;X;X;X;X;X;X;X;X;X;X;X;X;X;X;X;X-X-X-X-X-X*X@X ./ j.$X$X$X$Xb.v.v.z.z.z.j.j.j._ _ ` ^ _ q.q._ _ _ _ _ _ _ ( Y ^ ) _ ( S d R ) | { ! { ' R ' ' ' ! ! ! ! ' ! ! ! ' ' ' ' ] ' ' ' ' ' ' ' ' ' ' ' ' ' ' ' ' ' ' ' ' ' ' ' ' ' | | | | ......................................X...X.X.....X...X.X.X...X.X.X...X.X.X.....X...........................................| ' R T U c n n c > , , , , , , , , , > n U U U U U U U U U U U T U U U U U T U v ' :X:X=X=X=XXXXXXXXXXX|.|.|.|.|.XX|.|.|.H.H.J.H.H.|.H.J.J.H.H.H.H...[ [ [ [ [ [ ' ' ' ' ' ' ' ' ' ! ! ! | | ! Y Y Q ) ) ) ) ! ! ! ! ! ! ! ! ! ! ! ! ! ! ! ! ! ! ! ! Q Q Q Q Q k Y Q 8.Q Q k Q Q 9.) ) ) Q Q ) ) ) Q Q h h Q ) ) ) ) Q Q Q Y h h Y Q Q ) Q Q Y g U Y ~ ! ! ! ! T T U U n U U n n n n m m n n n n n n n n n n n m m m m m U U m U m m m m U m m m m m m m m m m m m m m m m m m n n n n n n n n m U U U U U m m n n n n n U n > , = @ X O X X X X X X X X X X X X X X X X X X X . . + d Q , X X X X + X X + X & w.@X@XX.}.H.X.X.X.X.X.X.X.X.X.X.X.X.X...........o.......' ",
"6 6 6 6 6 6 6 6 2 6 3 3 2 2 2 2 2 2 2 6 6 6 6 6 6 6 0 u =.5.5.5.4.6.6.6.6.4.4.4.6.4.5.6.3.t = o # # # # o o o o o = = + % % = = = = = = % % % % % = = = = % % < < < ; , , , , , > , , < & R @X@X|.|.+X@X@X@X+X+X+X+X+X+X+X+X+X+X+X+X+X+X+X+X+X+X+X+X+X+X+X+X+X-X;X>X7X7X;X;X;X;X;X;X;X;X;X;X;X;X;X;X;X;X;X-X;X;X-X-X;X;X-X-X-X*X*Xk./  .@X$X$X$X$Xb.v.v.z.z.z.j.j.j._ _ ^ ^ _ q.q._ _ _ _ _ _ _ ( Y ^ ) _ ( S Y ! ) ) { / ' ! ! ' ' ! ! ! ' ' ' ' ' ! ' ' ' [ [ ' ' ' ' ' ' ' ' ' ' ' ' ' ' ' ' ' ' ' ' ' ' ' ' ' ' ' { | | ........................................X.X.X.X.X.X.X.X.X.X.............X.........X.X.....................................| ' T U c n n n > , , , , , : : : : , , > c n U U U U U U U U U U U U U U U T U v ' :X:X=X=X=X=X=X=X=XXXXXXXXXXXXX+XXX|.|.|.H.J.H.H.H.H.H.H.J.H.H.H.H.....[ [ ' [ ' ' ' ' ' ' ' ' ' ! ! ' | 9.) Y Y Q Q ) ) ) ) ! ! ! ! ! ! ! ! ! ! ! ! ! ! ! ! ! ! ! Q ! Q Q Q k Y Q 9.Q Q k Q ) 9.) ) ) ) Q ) ) ) ) Q h h Q ) ) 9.) Q Q Y h h k Q Q Q ) Q Q Y U Y ~ ! ! ! ! ! T T U U U U U n n n n n m n n n n n n n n n n m m m m m m U U U U U m m U m m U U U U m m U U m m m m m m n m m m m m n : : : : , n n n n m m m m m m n n , , * % X X O X X X X X X X X X X X X X X X O O X O . O + g 9.w.9 X X X X + X X @ X % ! @X@XH.|.H.X.X.X.X.X.X.X.X.X.X.X.X.X.X.........o.......' ",
"6 6 6 6 6 6 6 2 3 3 3 3 2 2 2 2 2 2 6 6 6 6 6 6 6 6 0 u ,.5.4.5.6.6.6.6.6.4.4.4.6.4.6.6.6.<.8 o # # # # o o o o o = = + % % = = = = = % % % % % = ; ; = < < ; < < < ; , , , , , , , d , < A @X@X|.+X+X+X+X+X+X+X+X+X+X+X+X+X+X+X+X+X+X+X+X+X+X+X+X+X+X+X+X+X*X>X7X7X7X7X7X;X;X;X;X;X;X;X;X;X;X;X;X;X;X;X;X;X;X-X-X-X;X;X;X-X-X*X*X` / c.$X$X$X$X$X$Xv.x.z.z.z.j.j.z.j._ ^ j _ q._ _ _ _ _ _ _ _ ` Y ^ )  .( Y ! ) ) ) / / ! ! ' ' ' ! ! ' ' ' ' ' ' ! ' ' ] [ [ ' ' ' ' ' ' ' ' ' ' ' ' ' ' ' ' ' ' ' ' ' ' ' ' ' ' ' ' ' | ..........................X.X.X...X.....X.X.X.X.X.X.X.X.X.X.............X.X.X.....X.X.X...................................[ ' T U c 9 n 9 > , , , , : : : : : , , , > n U U U U U U U U U T U U U T U T U v ' :X:X=X=X=X=X=X=X=X=XXX+XXXXXXX+X+XXX|.|.H.J.J.H.H.H.H.H.J.J.H.H.H.H.H...[ [ [ ' ' ' ' ' ' ' ' ' ! ! ! | q.) Q Y Q Q ) ) ) ) ! ! ! ! ! ! ! ! ! ! ! ! ! ! ! ! ! ! ! ! ! Q Q Q k Y Q 8.Q Q k Y ) ) ) ) ) ) ) ) ) ) ) Q k h Q ) 9.9.) Q Q k h h k Q Q ) ) Q Q U U ~ ! ! ! ! ! ! ! T T U U U U n n n n n n n n n n n n n n n m m m m m m m U U U U U U U U m m U U U U U U U U U m m m m m n n m m m m n : @ @ @ % : , , , : , , , , : : * % @ X X X O X X X X X X X X X X X X X X X X O O . . O ; Q q.z.q.- X X + X X X % + X X Z w.w.|.H.H.X.X.X.X.X.X.X.X.X.X.X.X.X.X.......o.o.o.| ..' ",
"6 6 6 6 6 6 6 6 6 6 6 6 6 6 6 6 2 2 2 2 2 6 6 6 6 6 6 u ,.4.4.4.4.4.4.6.6.6.4.4.6.6.7.6.7.2.N = o = # X = = o + o + % % % % + + % % = % % % % % ; ; = < < < < ; < < ; , , , , , , , d , < A X.@X@X+X+X+X|.|.+X+X+X+X+X+X+X+X+X+X+X+X+X+X+X+X+X+X+X+X+X+X+X:X6X0X0X0X7X>X;X;X;X;X;X;X;X;X;X;X;X;X;X;X;X;X;X;X;X;X;X;X-X-X;X-X-X*Xk.K j.$X$X2X$X$X$XV.v.v.z.z.z.j.j.j.z._ ^ x _ q.q.q._ _ q.q._ _ ` Y ^ _ _ ) ! ! ! / / { ' ' ! ! ' ' ' ' ' ' ' ' ' ' ' ' ] ] ' ' ' ' ' ' ' ' ' ' ' ' ' ' ' ' ' ' ' ' ' ' ' ' ' ' ' ' ' ' ' | | ..........................X.......X.X.X.X.X.X.X.X.X.X.......X.X.X.X.X.X.....X.X.X.X.X...................................] T U n c > > > , , , : : : : : : : : , , , > n U U U U U U U U U U T T T U Z T v D =X:X=X:X=X=X=X=X=XXX=X=X+X+X+XXXXXXXXX|.H.H.H.H.H.H.H.H.H.J...H.H.H.H.....[ ' ' ' [ ' ' ' ' ' ' ' ! ! ) 9.9.) Y Y Q ) ) ) ) ) ! ! ! ! ! ! ! ] ! ! ! ! ! ! ! ! ! Q Q Q Q Q Q h Y Q 9.Q Q k Q 9.9.) ) ) ) ) ) ) ) ) Q k h Q ) 9.) ) ) Y h z h Q Q ) Q Q U U Y T ! ! ! ! ! ! ! ! ~ T T T m m n n n n n n n n n n n n n n c n m U U U m m m m m m U U U U U U m m U U U m m m m m m m m m m U m m m m > : X X X X X X X X @ @ @ @ X X X O O O . O X X X X X O X X X O X O O X O O . . . . . + j 9.q.q.q.q.< X X X + X + + + % X @ | @X@XX.X.H.H.H.X.X.X.X.H.X.X.} ........o...o.o...| ..! ",
"6 6 6 6 6 6 6 6 6 6 6 6 6 6 2 2 2 2 2 2 2 6 6 6 6 2 6 u ,.4.4.6.4.4.4.6.6.6.6.6.6.7.7.7.7.6.<.t = = o o = = o = o + % % % % + + % % = % % % % % ; < < < < < < < < < ; , , , , , , , , , < A k.@X@X|.@X@X+X+X+X+X+X+X+X+X+X+X+X+X+X+X+X+X+X+X+X|.+X+X+X:X6X0XcXnXqX0X7X7X7X7X7X;X;X;X;X;X;X;X;X;X;X;X;X;X;X;X;X;X-X;X;X;X;X-X-X*X` K k.3X2X2X$X$X$X$Xv.v.x.z.z.z.j.j.z._ x k _ q.q.q._ _ _ q._ _ ` ^ ^ _ _ ) ! ) ! ! / ' ' ! ! ' ' ' ' ' ' ' ' ' ' ' ' ' ' ' ' ' ' ' ' ' ' ' ' ' ' ' ' ' ' ' ' ' ' ' ' ' ' ' ' ' ' ' ' ' ' | | ........................X.X.X.X.X.....X.X.X.X.X.................X...........X.X.X.....................................| ' T n c > , , , , , , : : : : : : : : : , , , n U U U U U U U U U U U U U T U T v A K.:X:X=X=X=X=X=X=X=X+X=X+X+XXXXXXX|.|.|.|.H.H.H.H.H.H.H.H.H.H.H.H.H.H.......[ ' ' ' ' ' ' ' ' ' ' ! ! ) | q.) Q Y Q Q ) ) ) ) ! ! ! ! ! ! ! ! ! ! ! ! ! ! ! ! ! Q Q Q Q Q Q h Y Q 9.Q Q k Q 9.9.) ) ) ) ) ) ) ) 9.Q Y h Y Q 9.) ) ) Q h h h Q Q ) Q Y g U U Q ! ! ! ! ! ! ! ! ! ~ T T U U n n v n v v n n n n n n n n m U U U U U U U U m m U U T U U U U U U U U U m m m m m m m m m n m U m m U , @ X X X X X X X O O O O O O O O O O O X X X X X X X X X O . . . O . . . O X + < ; Y ) q.z.q.q.q._ < X X X + + @ + % + % X % | @XX.@XX...X.X.X.X.X...X.X.X.........o...o.| { { | ' ",
"6 6 6 6 6 6 6 6 6 6 6 6 6 2 2 2 2 2 2 2 2 6 6 6 2 2 2 e ,.4.4.6.4.4.4.6.6.6.6.6.4.4.6.7.7.6.7.<.7 + o # = o + = + = = = % % % = = = = % % % % % = = = < < < < < < ; ; ; ; , , , , , , , < G @X@X+X+X@X+X+X+X|.|.+X+X+X+X+X|.|.|.|.|.|.|.|.+X*X:X>X4X6X0XbXmXmXmXmX0X0X7X7X7X7X;X;X;X;X;X;X;X;X;X;X;X;X;X;X;X;X;X-X;X;X-X-X-X:Xk.K  .$X2X2X2X$X$X$X$Xb.v.x.z.j.j.j.j.z._ k k _ q.q.q._ _ q.q._ _ ( ^ ^ _  .) / / / ! / ! ' ' ' ' ' ' ' ' ' ' ' ' ' ' ' ' ' ' ' ' ' ' ' ' ' ' ' ' { | | ....| | | { ' ' ' ' ' ' ' ' ' ' ' | | ..........X.X.X.X.X.X.X.X.X.X.X.....X.X.X.X.X.X.X.X.X.X.....X.X.X...X.........X.X.......................................] T U c > > , , , : : : : : : : : : : : : : , , > n U U U U U T U T T U U U T U U U v ' =X:X=X:X=X=X=X=X=XXX+X+XXXXX|.|.|.|.|.|.H.H.H.H.H.H.H.H.H.H.H.H.H...........[ ' ' ' ' ' ' ' ' ' ! ! ! | q.9.) Y Q Q ) ) ) ) ! ! ! ! ! ! ! ! ! ! ! ! ! ! ! ! ! Q Q Q Q Q Q h Y Q 9.Q Q k Q 9.9.) ) ) ) ) ) ) ) 9.) Y h Q Q 9.) 9.) Q Y h k Q Q Q Q U g U Q ! ! ! ! ! ! ! ~ ~ ~ ~ ~ T T T U U U n n c c n n n n n m U T T T T T U U U T U T T T T U U T U U U U U U m m m m m U U U U m U m n n n : X X X X X X X X X X X X X X X X X X X X X X X X X X X X . % g g d d - - d j Y ) q.q.q.q.q.q.q.q._ ; X + + @ @ + + % + % % X , q.1XX.H.H.X.X.X.X.X.K.X.......X.....o.o.{ ..w.w...R ",
"6 6 6 6 6 6 6 6 6 3 3 3 2 2 2 2 2 2 2 2 2 6 6 6 2 2 2 w ,.4.4.6.4.6.4.6.6.6.6.6.4.6.6.7.7.6.6.7.p = o # o X o o o = = = % % % = = = % % % % % % = = = < < < < < < ; ; ; ; , , , , , d < < { @X@X|.@X@X+X+X+X+X+X|.+X+X|.|.+X4XcXMXMXbXcX0X6X0X0XcXcXmXmXnXcXnXnXnXbX0X0X7X7X7X7X;X;X;X;X;X;X;X;X;X;X;X;X;X;X;X;X;X;X;X-X-X>X*XL K @X2X2X2X3X3X3X$X$Xb.v.x.z.j.j.z.z.z._ k ^ _ q._ q._ _ _ q._ _ ` ^ ^ _ | | / { { { ' ! ' ' ' ' ' ' ' ' ' ' ' ' ' ' ' ' ' ' ' ' ' ' ' ' ' ' ' ' ................| | { { { { { { | | | ............X.X.X.X.X.X.X.X.X.X.X.X.X.X...X.X.........X.X.X...X.X.X...............X.X...| ] ' ' | ..........................| ! U c > , , : : : : : : : : : : : : = = : : : : , c n U U U U U T T T T T T U T U T v V K.5X:X:X=X=X=X=XXXXX+X+XXX|.|.|.|.|.H.H.H.H.H.H.H.H.H.H.H.H.H.H.............| [ ' ' ' ' ' ' ' ' ! ! ! | q.q.) Q Q Q ) ) ) ) ) ! ! ! ! ! ! ! ! ! ! ! ! ! ! ! ! Q Q Q ) Q Q h Y Q 9.Q Q k Q 9.9.) ) ) ) ) ) ) ) 9.) Q h Y Q 9.9.9.) Q Y U Y Q ) Q Y U U Q Q ! ! ! ! ! ~ ~ ~ T T T T ~ T T T T T T T U U U U U U T T T T T T T T T T T T T T T T T T U T T T U U U U U U U U m U U U m U n m U n : @ X X X X X X X X X X X X X X X X X X X X X X X X X X X X ; ) w.z.q.) Y j ^ q.q.q.z.q.q.q.q.q.q.q._ % X + + + + % + % % + % % X < | @X@XX.X.H.X.X.X...X.X.X...o.o.....w.| Z % c | | ",
"6 6 6 6 6 6 6 6 2 2 2 3 2 2 2 2 2 2 2 2 2 6 6 2 2 2 2 w ,.4.5.6.6.6.6.6.6.6.6.6.6.6.6.6.4.7.6.7.1.t # o X o # o + + = = % % = = = = % % % % = = = = < < < ; ; ; < ; ; , , , , , , , d < & X.@X@X+X+X+X+X@X+X+X+X+X+X|.|.:XMXGXGXFXGXGXDXSXMXMXMXnXnXnXbXnXnXnXnXnXnXcX0X9X7X7X7X;X;X;X;X;X;X;X;X;X;X;X;X;X;X;X;X;X;X;X-X;X7X XK  .2X6X2X2X2X2X3X$X$X$Xv.x.z.j.j.z.z.z._ k ^ q.q._ q._ _ _ _ _ _ ) Y Y ) | | | { | { { ' ! ! ' ' ' ' ' ' ' ' ' ' ' ' ' ' ' ' ' ' ' ' ' ' ' [ | ........X.X...................................X.X.X.X.X.X.X.X.X.X.X.X.X.X.X.X.....X.X.X.....X.X.X...X.........................] R T A A R | ......................| ' U c > , , : , : : : = = = : = = = = : : : : : : , > n n U U U U U U U U U U U T U U Z v ' @X:X:X=X=X=X=X=X+XXXXX|.|.|.H.H.H.H.H.H.|.H.H.H.H.H.H.H.H.H.H...............| ' ' ' ' ' ' ' ' ' ! ! ) q.q.9.) Q Q Q Q ) ) ) ) ) ! ! ! ! ! ! ! ! ! ! ! ! ! ! ! Q Q ) Q Q h k Q 9.Q Q k Q 9.9.) ) ) ) ) ) ) ) 9.) Q h Y Q 9.9.9.) Q Y Y Y Q Q Q Y U T ! ! ! ! ! ! ! ! ~ ~ T T T T ~ T T T T T T T T T T T T T T T T ~ ~ ~ ~ ~ T T T T T T T T U U U U U U U U U U U U U U U U U U m n m U U 9 * X X X X X X X X X X X X X X X X X X X X X X X X X X X O ; 9.n.z.z.z.9.Y f ^ q.q._ _ z.q.q.q.q.z.q.) % X + @ + + % % % = % + @ @ @ + ! n.1X@Xq.X.X...X.X...o.....q.w.w.A % X X X , U ",
"6 6 6 6 6 6 2 2 2 2 3 3 2 2 2 2 2 2 2 6 2 6 2 2 2 1 1 r ,.5.4.6.6.6.6.6.6.6.6.6.6.6.6.6.7.6.6.6.6.N 7 o X o = # + + = = % % = = % = % % % % = = % % < < ; ; ; ; < < ; ; , , , , , & d % A @X@X+X@X@X@X+X+X+X+X@X+X|.+XbXFXGXFXFXFXFXFXDXZXMXbXbXnXnXvXnXnXnXnXnXnXnXnXqX0X7X7X7X7X7X7X;X;X;X;X;X;X;X;X;X;X;X;X;X;X;X;X>X7X>Xk.S v.6X6X2X2X2X2X2X$X$X$Xv.x.z.j.j.z.z.z._ x ^ q.q.q.q._ _ _ _ _ _ ` Y Y ) | | | { { { { ' ' ' ' ' ' ' ' ' ' ' ' ' ' ' ' ' ' ' ' ' ' ' ' ' | ......X.X.X.X.X.X.X.X.X.X.......X.X.X...X.X.X.X.X.X.X.H.H.X.X.X.X.X.X.X.X.X.X.X.X.X.X.X.X.X.X.X.X.X.X.X.X.X.X.X.X.......X.X...| ! U v v , v T ] | ................| | ! T c , , , : : : : : = = = = = = = = = = = : : = : : , , > n n U U U U U U U U U U U c U c v ' =X5X5X=X=X=X=X+XXXXX|.|.|.H.H.H.H.H.H.H.H.H.H.H.H.H.H.H.H...........{ ......| ' ' ' ' ' ' ' ' ! ! ) | q.q.) Q Q Q Q ) ) ) ) ) ) ! ! ! ! ! ! ! ! ! ! ! ! ! ! Q Q ) Q Q h k Q 9.Q Q k Q Q 9.) ) ) ) ) ) ) ) 9.) Q h Y Q 9.9.9.) Q Y Y Q Q Q Y Y U ~ ! ! ! ! ! R ! ! ! ~ T T T T ~ T T ~ ~ T T T T ~ ~ ~ ~ T T ~ ~ ! ! ~ ~ ~ ~ T T T T T T T T T T U U U U T T U U U U U U U U U U T ~ U > * X X X X X X X X X X X X X X X X X X X X X X X X X X X O + Q q.z. .q.z.q.Y f ^ q.q.q.q.q.q.q.q.q.z.q.) % + + + % % % % % % % % % % % X X % T w.@X@X@X@XX.X.X.K.@Xw.| R % @ X X + % % X ",
"6 6 6 6 6 6 2 2 2 2 6 6 2 2 2 2 2 2 2 6 2 6 2 2 2 1 1 0 ,.5.4.4.4.6.6.6.6.6.6.6.7.4.6.6.6.6.6.6.6.1.p = # = = = + + = % % % = = % % % % = = ; ; ; < < < < ; ; ; < < ; ; , , , , , , < < | @X@X|.@X@X@X@X|.|.|.|.+X0XDXGXFXFXGXGXFXGXFXSXZXMXMXMXMXMXMXMXnXnXbXnXbXnXnXnX0X0X9X7X7X7X7X7X;X;X;X;X;X;X;X;X;X;X;X;X;X-X>X;X>X*XK ` 2X6X6X2X2X2X2X2X2X$X$Xv.v.z.z.z.z.z.j.` k ^ z.q.q.q.q._ _ _ _ _ ` Y Y / | | | / { { ' ' ' ' R ' ' ' ' ' ' ' ' ' ' ' ' ' ' ' ' ' ' ' | ........X.X.X.X.X.X.X.X.X.X.X.X.X.X.X.X.X.X.X.X.X.X.X.X.X.H.H.X.X.X.H.H.X.X.X.X.X.X.X.....X...........X.X.......X.X.X.X.X.w.X...] T Z , , , , , c T ! ] ] | | | ] ] ' R R U c , , : : : : : : : : = = : : : : : : = = = = = = : : : , > > n n U U U U U U U U U n U c & v | @X5X:X=X=X=X+XXX|.|.|.|.H.H.H.H.H.H.H.H.H.H.H.H.H.H.H.............o.......| | ' ' ' ' ' ' ! ! ! ! | q.q.9.) Q Q Q ) ) ) ) ) ) ) ! ! ! ! ! ! ! ! ! ! ! ! ! Q Q Q Q Q h k Q 9.8.Q k Q Q 9.) ) ) ) ) ) ) ) 9.) Q h Y Q 9.9.9.) Q Y Y Q Q Q Y U U U Y U U T T T T T T T T T T T T T ~ ~ ~ ~ ~ R ~ ~ ~ ~ ~ ~ ~ ~ ~ ~ ~ ~ ~ ~ ~ ~ T ~ ~ T T T T T T T T U T T T T T U T T T T T T U ~ U , % X X X X X X X X X X X X X X X X X X X X X X X X X X X X + Y q.q._ q.z.z._ Y f Y _ q.q.q.z.z.q.z.q.z.z._ ; + + + % % % % % % % % % X X < % + X X % U | w.@Xi.w.| U , % X @ X % % % % % % ",
"6 6 6 6 6 6 2 2 2 6 6 6 2 2 2 2 2 2 2 6 2 6 2 2 6 1 1 0 =.5.4.4.4.4.6.6.6.6.6.6.6.4.7.6.6.6.6.6.6.7.E = # = % % + + = % % % = = = = % % % = ; ; ; ; < < < ; ; ; < < ; , , , , , , , < & @X@X@XX.X.} } }.|.@X:X0XFXGXGXGXGXGXGXFXFXGXFXSXZXMXbXbXMXMXnXnXMXnXnXbXnXnXnXnXmXqX0X9X7X7X7X7X;X;X;X;X;X;X;X;X;X;X;X;X;X-X>X>X>X XK j.6X6X6X6X6X2X2X2X2X2X$Xb.v.z.z.j.z.z._ ` k ^ z.q.q.q._ _ _ _ _ _ ` ^ Y / | | | / ' ' ' ' ' ' R R ' ' ' ' ' ' ' ' ' ' ' ' ' ' ' ' { ....X.X.X.X.X.X.X.X.X.X.X.X.X.H.H.X.X.X.X.X.X.X.X.X.H.H.H.H.H.H.H.X.X.X.X.X.X.X.X.X.X.X.X.........| ' ' | ..............X.X.X.X...' D v , , , , , , , c U T ! R R R T T Z c , , < : : : : : : : : : : : : : = : : : : = = * * = = * * * : : , , > n n U U U U U U U U c , , & & ' @X5X:X=X=X+X+X|.|.|.|.|.H.H.H.H.H.H.H.H.H.H.H.H.H.H.................| | | | [ [ ' ' ' ' ! ! ! ! | q.q.q.) Q Q Q Q ) ) ) ) ) ! ! ! ! ! ! ! ! ! ! ! ! ! ! Q Q Q Q Q h k Q 9.Q Q k Y Q ) ) ) ) ) ) ) ) ) 9.9.Q h Q Q 9.9.9.) Y Q Y Q ) Q Y U U U U U c Z U T U U T T T T U T T T T ~ ~ ~ ~ ~ ! ~ ~ ! ! ! ~ ~ ~ ! ! ! ~ ~ ~ ~ ~ T T T T T T T U T T T T T ~ ~ ~ ~ ~ ~ ~ ~ ~ T T 9 * @ X X X X X X X X X X X X X X X X X X X X X X X X X X X X X g 9.q.q.z.z.q.q.q.Y f ^ _ z.q._ q.q.q.q.q.z.q.) ; + + + % % = % % % % % % % < % % % % % X . O + % % X X X X @ % % @ % % % % % % ",
"6 6 6 6 6 6 6 2 3 3 3 3 3 3 3 3 2 2 6 2 6 6 2 2 2 1 1 0 ,.5.4.4.6.6.6.6.6.6.6.6.6.6.6.6.6.6.6.6.6.d.1.8 = # o = % % % % % % % = % % % % % % % = < < < ; ; < < < ; ; < ; , , , ; & , % { vXbXZXbXcXcXbXbXZXGXFXGXGXGXGXGXGXGXFXFXFXGXFXSXMXMXMXMXMXnXnXnXnXnXnXnXnXbXbXnXmXmXqXqX0X9X7X>X;X;X;X;X;X;X;X;X;X;X;X;X>X>X;X7X>XL K $X6X6X6X6X6X2X2X2X2X2X$Xb.v.z.j.j.z.z.j.^ x ` q.z._ _ q.q.q._ _ _ ` ^ G / | | | / ' ' ' ' ' ' ' ' ' ' ' ' ' ' ' ' ' ' ' ' ' ' | ......X.X.X.X.X.X.H.H.X.X.X.H.H.H.X.X.X.X.X.X.X.X.H.X.X.X.H.H.H.H.H.H.H.H.X.X.X.X.X.w.X.....X...| ' D A D D D R ' ' ' ' | ] ' ' ' R T c , , , , , , , , , , v c c U c > , , , < < < < : ; : : : : ; : : : : = = = = : = = = = = = = = = : : : : : : , > > c n n n n c c c > > , , % & ' @X5X:X=X+X+X+X+X+X|.|.|.@XH.H.H.H.H.H.H.H.H.......H.................| [ | ..| ' ' ' ' ! ! ! ! | q.q.q.9.) Q Q Q ) ) ) ) Q ! ) ) ) ! ! ! ! ! ! ! ! Q Q Q Q ) Q Q h k Q 8.8.Q k Q Q ) ) ) ) ) ) ) ) 9.9.) Q k Y Q 9.9.) ) Q Q Q Q Q Q U U g n > > > c c c c U U U U c n m m T T T T T ~ ~ ~ [ [ ! ! ~ ~ ~ ~ R ~ ~ ~ ~ ~ ~ T T T ~ T T T T T T T U U T ~ ~ ~ ~ ~ T T U n , * X X X X X X X X X X X X X X X X X X X X X X X X X X X X X O + h 9.q.q.z.q.q.q.q._ Y f Y _  .q.q.z.q.q.q.z.q.z.) % + + % ; % % % % % % % % % % % % % % % % % % + X @ + % % % % % + % % % % % % % ",
"6 6 6 6 6 6 6 6 2 3 3 3 3 3 3 3 2 2 6 2 6 6 2 2 2 1 1 6 >.4.5.4.6.6.6.6.6.6.6.6.6.6.6.6.6.6.6.6.6.d.2.p = # o = % % % % % % % % % = % % % % < = < < < ; ; < < < ; ; < < ; , , ; , < % vXKXKXGXKXGXGXGXGXGXGXGXGXGXGXGXFXFXFXGXGXFXFXHXZXMXMXMXvXMXMXMXnXMXnXnXnXnXnXnXnXmXmXmXqXqX0X9X7X7X>X;X;X;X;X;X;X;X;X>X7X>X7X>X7X*XK ` 6X6X6X6X6X6X2X2X2X2X2X$Xb.v.j.j.j.z.j.j.^ x _ q.z._ _ _ q.q. ._ _ / Y Y / | | { / ' ' ' ' ' ' ' ' ' ' ' ' ' ' ' ' ' ' ' { | ......X.X.X.X.X.X.X.H.H.H.X.X.X.X.X.X.X.X.X.X.X.X.X.X.X.X.X.X.H.H.H.X.H.H.H.X.X.X.X.X.X.X.X.......' R A c v v , v C A A A D T D A Z c v , , , , , , , , , , , < < , , , : < < : < < < < ; , , < : < < < ; : = = = = = : : : = = = = = = = * = = : = : : : : : , , , , > > , , , , : < , < < D K.5X:X=X=X+X+X+X+X|.|.|.H.H.H.H.H.....X.....H.H.H...H.H.......| [ [ [ | [ [ [ ] ] ] ' R ! ! | q.q.w.q.) Q Q Q ) ) ) ) ) ) ) ) ) ! ! ! ! ! ! ! ! Q ) ) Q ) Q Y h k Q 8.Q Q k Q Q ) ) ) ) ) ) ) ) 9.9.) Q k Y Q ) 9.) ) Q Q Q Q Q T U U z > > > , , c c c v v c c c c c c n U T T T ~ ~ ! ~ ~ ! ! ~ ! ~ ~ [ [ ! ! ! [ ~ ~ T T T T T T ~ T T m , : : , : , , , : = * @ X O X X X X X X X X X X X X X X X X X X X X X X X X X X X X X + h 9.q.q.q.q.q.z.q.q._ ^ f Y _  ._ q.D.q.q.q.z.q.z.) ; + + % % % % % % % % % % % % % % % % % % % % % % % % % % % % % % % % % % % % % ",
"6 6 6 6 3 6 6 6 6 6 3 3 2 2 6 6 2 2 6 2 6 6 2 2 2 1 1 6 *.4.4.4.6.6.6.6.6.6.6.6.6.6.6.6.6.6.6.6.6.6.6.<.7 = # = = % % = % % % = % = % % % % = = < < ; ; ; < < ; ; ; < < ; ; & & , @ ) LXKXKXGXGXGXGXFXGXKXGXGXGXGXGXGXGXGXGXGXFXGXFXSXZXMXMXMXMXMXMXMXMXMXMXnXnXnXnXnXmXmXmXmXmXqXqXqX0X0X0X9X7X;X;X;X;X;X>X>X7X7X7X7X6X XJ k.hX6X6X6X6X6X6X2X2X2X2X$X$Xv.c.j.j.z.j._ ^ ^ _ j.z._ _ _ _  . . ._ / ^ / / | | { { ' ' ' ' ' ' ' ' ' ' ' ' ' ' ' ' { | ........X.X.X.X.X.H.X.X.X.X.H.H.H.H.H.H.X.X.H.X.H.H.H.H.H.H.X.H.X.X.H.H.H.X.H.H.X.X.X.X.X.X.X.......| R D v v c Z > , , , , , , , , , , , , < < < , , , , , , , : : : < : : : < < < < : < ; ; ; < < % % % < < ; ; = = = = = = = = = = = = = = * * * * = = = : : : : : : : : , , : , , : , : : < < & A { @X5X5X5X=X=X=X=X+X+X@X@XK.| ' D ' X.K.K.H...........X.......| [ [ [ | | [ | ] ] ' ' ! ! ) q.q.w.q.9.Q Q Q ) ) ) ) ) ) ) ) ) ) ! ! ! ! ! ! ! ! ) ) ) ) Q Q h k Q 9.9.Q k Y Q Q ) ) ) ) ) ) ) 9.9.) Q k k Q ) ) ) ) Q Q Q Q Q Y U U z > > > , , , b b c c b b c v c c c c m U T T ! ! ~ ! [ [ [ [ ! ! ! ~ ~ ~ ! ~ ~ ~ ! ~ T T ~ ~ ~ U n : @ X X X X X X X O O O X X X X X X X X X X X O X X X X X O O X X X X X X X X O X X + ; g ) q.q.q.z.j.j.z.z.z._ ^ f Y _  ._ q.D.q.q.q.z.q.z.( % % + % % % % % % % % % % % % % % % % % % % % + @ % % % % % % % % % % % % % % % ",
"3 3 3 6 3 3 6 6 6 6 3 3 2 2 6 6 2 2 6 2 6 6 2 2 2 1 o 6 *.4.4.4.6.6.6.6.6.6.6.6.6.6.6.6.6.6.6.6.6.6.6.1.9 = = = = = = = % % = = % = % % < < = = < < ; < ; < ; ; , ; ; ; < , & , , % jXLXKXFXKXGXGXKXGXGXGXGXGXGXGXGXGXGXFXFXFXGXHXHXSXZXMXMXMXnXvXvXvXvXvXvXvXvXnXnXnXnXmXmXmXmXqXqXmXmXqXqXqXqXqX0X0X0X0X0X0X0X0X0X0X6Xk.K #XhX6X6X6X6X6X6X2X2X2X2X$X$Xv.x.j.j.z.j._ ^ ^ _ j.j. ._ _ _ _  . ._ / / / | | { { ' ' ' ' ' ' ' ' ' R ' ' ' ' ' ' | ........X.X.X.H.H.H.H.H.X.X.X.X.H.H.H.H.H.H.H.H.H.H.H.H.H.H.H.H.H.H.X.X.X.H.H.X.H.X.X.X.X.X.X.X.......| R A v c > c Z Z > , & & & & , < < , , , , , , : : : : < < < < * * * * * * * * : : < < < < < % % % < > U U > : : : = = = = = = = = = = = = = = = * = = = : = = = = = : : : : : : : : , , : : < < % % v T | H.K.=X=X@X@X@X@XX.' v < < A ' K.K.K.H.X.H.H...H.X.........| | | | [ ] ' ' R R T ! ! | w.n.q.q.) Q Q ) ) ) ) ) ) ) ) ) ) ) ) ! ! ! ! ! Q Q ) ) ) Q Q h k Q 9.8.Q Y Y Q Q ) ) ) ) ) ) ) 9.9.) Q k k Q ) ) ) ) Q Y Y Y Y U U U 9 > > > > , b b b b b c b b v v c v v v v c U T T [ [ [ [ [ [ ! ! ! ~ ~ ! ! [ [ [ ~ ! [ ! ! ~ U c * @ X X X X X X X X X X X X X X X X X X X X X X X X O X X X X X O O O O X O . . X + ; g Q ) _ _ q.q.z.z.j.z.z.z._ ^ f ^ _ j.j.z.j.q.q.q.z.q.z.( % % % % % % % % % % % % % % % % % % % + % + + % @ % % % % % + + % % % % % % % % ",
"3 3 6 6 6 3 3 2 6 6 2 3 2 3 6 6 3 2 6 2 6 6 2 2 2 1 o 6 *.5.4.6.6.6.6.6.6.6.6.6.6.6.6.6.6.6.6.6.6.7.6.7.i = = = = = = = % % = = % = < < % = = = < < < ; ; < ; ; , , < < < & & , % d PXKXGXGXGXKXGXGXGXGXGXGXGXKXKXKXKXKXLXKXKXLXKXGXFXZXMXMXMXMXMXnXnXMXvXvXvXvXnXnXbXnXmXmXmXmXmXmXqXqXqXqXmXmXmXmXmXmXmXmXqXqX0X0X0X2XK K 2XcX6X6X6X6X6X6X6X6X2X2X$X$Xv.v.c.j.j.j._ ^ ^ _ j.z. ._ _ _ _ _ _ _ / / | | | { { ' ' ' ' ' ' ' R R R R R ' ' ' { ..X.X.X.X.X.X.H.H.H.H.X.X.X.X.H.H.H.H.H.H.H.H.H.H.H.H.H.H.H.H.H.H.H.H.X.X.X.H.H.X.X.X.X...X...........| T c , > > , > > U R R U S A A A Z d , , , : : * < * * < * * * * * * * * * = < < ; < < % % % % % < d Y ) q.! d < : , = = = = = = = = = = = = = = * = = = = * * * = = = = = : : : : : : : : : : * : : % @ @ @ < v T R ' R R D v < % @ @ < v ' ..K.K.X.X.H.H.X.X.............| [ ' ' R R D D T T ! | q.w.w.q.) ( Y Q ) ) ) ) ) ) ) ) ) ) ) ) ) ! ! Q Q Q Q Q ) Q Q h k Q 9.9.Q Q Q Q Q ) ) ) ) ) ) ) 9.9.) Q k k Q ) 9.9.) Q Y Y Y Y U U z U c > > > c c v b , , c b b b v c v v b b b v c U T ~ ! ] ] ! ! ~ ~ ~ ~ T ~ ~ ~ ~ ~ ! ~ ~ T n : @ @ X X @ @ @ X @ X X X X X X X X X X X X X X X X X O X X X O . . . . . . O + + % - Y ) _ ) ) _ q.q.q.z.z.z.z.z.z._ ^ f ^ _ j.z.z.q.q.q.q.z.q.z.( % % + % % % % % % % % % % % % % + + + + + + + % % % + + % % % % % % % % % % % % ",
"3 3 6 6 6 3 3 3 2 3 3 3 3 3 3 3 3 2 6 2 6 6 2 2 2 1 o 2 *.4.4.4.6.6.6.6.6.6.6.6.r.6.6.6.6.6.6.6.6.7.6.6.:.7 = = = = = = = % = = % = = < < = = = < < ; ; ; ; ; ; , ; , , < , , , @ w.LXKXGXKXFXGXGXGXKXGXKXKXKXGXvX5Xq.| | q.@X1X4XcXAXFXHXZXMXvXMXMXnXnXvXvXvXvXbXbXbXnXnXmXmXmXmXmXmXqXqXqXqXmXqXqXqXqXqXqXqX0X0X0X0X*XK h.6XhX6X6X6X6X6X6X6X6X2X2X$X$Xb.v.c.j.z.j.` ^ ^ _ _ z. ._  ._ _ _ _ _ / / | | { { { ' ' ' ' ' ' ' ' ' ' R R ' ' ' ' ..X.X.X.X.X.X.H.H.H.H.H.H.H.H.H.H.H.H.H.H.H.H.H.H.H.H.H.H.H.H.H.H.H.H.X.X.H.X.X.X.X.X...X.X.........| T c , > > > > > , R w.q.q.q. . . .| R d < < < < % % % % % % * % % % * * * % < * % % < < , d S d d Y ) q.n.n.! > * : : = = = = = = = = = = = = = = = = = = = = = = = = = = = = = = = : = : : * : : : : : : % @ @ @ @ @ % % % % % @ % % % % % & D ] ..K.K.H.H.K.K.K.H.K.K.K.K.w.] ' T A v v v Z U T ! q.w.n.w.q.) Q Q ) ) ) ) ) ) ) ) ) ) ) ) ) ) ! Q Q Q Q Q Q Q Q h k Q 9.9.Q Q Y Q Q Q ) ) ) ) ) ) 9.9.) Q Y k Q ) 9.9.) Q Y Y Y U U U U n n c > > c c > > , , b b b b c v c v c b b b , , c U T ~ ] ] ] ] ! ! ! ] ] ] ! ~ ~ T U c : % @ X @ @ @ @ @ @ @ @ X X X X X X X X X X X X X X X X X X X O O X + - z - ; ; - U Q ) ) 9.q.q.) ( _ z.q.z.z.z.z.z.z.z._ ^ f ^ _ j.q.q.q.q.q.q.z.q.z.Y % % % % % % % % % % % % + + % % + % % % + + % % + + + + % % % % % % % % % % < % ",
"3 3 3 3 3 3 3 3 3 3 3 3 3 3 3 3 2 2 6 2 6 6 2 2 2 1 o 2 *.4.4.6.6.6.6.6.6.6.6.6.r.r.6.6.6.6.6.6.6.6.7.6.1.t = = = = = = = % = = % = < < < = < < < < ; ; ; < < < < ; < < < , , , @ ! LXKXKXGXKXKXGXKXGXKXKXHX1X, % % % < < < % < & & f  .4XMXSXMXMXMXMXnXvXvXvXvXbXbXbXbXmXmXmXmXmXmXmXmXmXqXqXqXmXmXmXqXqXqXqX0X0X0X0X#XK l.6XhX6X6X6X6X6X6X6X6X2X2X$X$X$Xv.v.j.j.j.` ^ ` j.j.z.j.j. ._ _ _ _ _ | | | | { { { { ' ' ' ' ' ' R ' ' R R ' ' ' ' ..X.X.X.X.X.H.H.H.H.H.H.H.H.H.H.H.H.H.X.X.H.H.H.H.X.X.X.X.H.H.X.X.X.X.X.X.H.X.X.X.......X.......| ] T c , > > > > > , , Y w.1X@Xn.c.c.n.c. .Z < % % % % % % % % % % % % % % % % % % % + % < d R )  ._ ) ) q.n.n.q.Y , * : = = = = = = = = = = = = = = = * = = = = = = = = = = = = = = = = = = : : * = : * * : : : : * % % < < % % % % % * : : % % @ % b T | w.K.K.K.K.K.K.K.K.K.w.] R A b , , b v c c U R 9.w.n.n.w.9.( Q Q Q ) ) ) ) ) ) ) ) ) ) ) ) ) ) ) ) Q Q Q Q Q h k Q 9.9.Q Q Y Q Q Q ) Q ) ) ) ) ) 9.) Q Y k Q ) 9.) ) Q Y Y U U U U U U n c c > > c > > b c c b b b c v c v v c b , , , : b c U T ~ ~ ! ] ] ] ] ] ! ~ T U n , % @ @ @ @ @ @ @ @ @ @ @ X @ @ X X X X X X X X X X X X X X X X O . + Y n.3X3XS.q.q.q.z.z.z.z.q.q._ ` ) _ _ z.q.z.z.z.q.q.z._ ^ f ^ _ j. .q.q.q.q.q.z.q.z.Y % % % % % % % % % % % % + + + + + + + + + + + + % % % % % % < ; d , < % % % < % ",
"3 3 3 3 3 3 3 3 3 3 3 3 3 3 3 3 2 2 6 2 6 6 2 2 2 1 o 2 *.4.4.4.6.6.6.6.6.6.6.6.r.r.6.6.6.6.6.6.6.6.6.6.7.i = = = = = = = = = = = = < < < < < < < < ; ; ; < < < < < < < , , , , ; X CXLXKXKXKXLXKXKXKXLXsX< X < f f f f f f f f f f f & f { 4XZXMXMXMXbXbXvXbXbXbXbXnXmXmXmXmXmXmXmXmXqXqXqXqXqXmXmXmXqXqXqXqX0X0X0X6Xk.J #XhXnX6X6X6X6X6X6X6X6X2X2X2X$X$Xv.v.j.j.j.^ x ` z.j.j.j.j. . ._ _ _ _  .| | | { { { { ' ' ' ' ' ' ' R ' R R ' ' ' ' | X.X.X.X.X.H.H.H.H.H.H.H.H.H.H.H.H.X.X.X.X.X.X.X.X.X.X.X.X.X.H.H.X.X.X.X.H.X.X...........| | | ' T Z , , > , , > > , < d q.1X@Xc.b.b.@Xn. .S < % % % % % % % % % % % % % % % % + X @ < d Y ) q.c.z. .` _ z.n.q._ d , ; ; = = : = = = = = = = = = = = * * * * * = = = = = = = = = = = * * = = = = : = * : : = * * * * * * * * * * * * * % < < % % * @ % % & v T R ] | ....| ] ' T A v : , , , , b b , > U ) w.n.n.w.q.) Q Y Q ) ) ) ) ) ) ) ) ) ) ) ) Q Q Q Q ) ) Q Q Q h k Q ) 9.Q Q Y Y Q Q ) Q ) ) ) ) ) 9.) Q Y k Y Q 9.) ) Q Y Y U U U U U U U n c c c c c > c c c c b b c v c v v b b , , , : < : , c v m U T T T T U m n c , : % @ @ @ @ @ @ # * # @ @ @ @ @ @ X X X X o X X X X X X X X X X X O @ Q 1XsXsX2X3Xn.z.n.b.n.z.q.z.q._ ( ` _ z.z.z.z.z.q.q.q.z._ ^ f ^ _ z.q.q.q.q.q.q.z.q.z.Q % % % % % % % % % % % % + + + + X @ @ @ @ @ @ + @ X @ @ % , Y ) ) R , < % % < % ",
"2 2 2 2 3 3 2 3 3 3 3 3 3 3 3 3 6 6 6 2 6 2 2 2 2 o o 6 ,.4.4.4.6.6.e.6.6.6.6.r.r.r.r.6.6.6.6.6.6.6.6.6.7.W 7 = = = = = = % % % ; ; = ; = = = < = < = ; ; < < ; ; ; , < < < < , > X Y LXLXPXCXsXAXLXLX1X+ < f f f f f f f f f f f f f S f f S $XZXZXMXvXcXMXcXvXbXnXnXmXmXmXmXmXmXmXmXmXmXqXqXqXqXmXqXqXqXqXqX0X0X6X6XK K 2XhXhX6X6X6X6X6X6X6X6X2X2X*X$X$Xb.v.j.j._ ^ ^ ` j.j.j._ _ _ _  . . . . . .| | | | { { ' ' ' ' ' ' ' ' ' R R R R ' ' ' ..X.H.X.X.H.H.X.H.H.H.H.H.H.H.H.H.H.H.X.X.H.H.H.H.X.H.H.X.X.X.X.X.X.H.X.X...| ' ' ' R R R R T A > > > , > > > c > , , , ) n.n.c.b.@Xb.c. .U % @ % % % @ * % X + X X X X X X X + % - Y )  .z.z.j.j.` ` _ z.z.q.( , < < = = : : = = = = = = = * * = = = = = = = = = = = = = = = = = = = = : = : : = = = = = = * = = = = = = = = = = = = * = * % % % % % % % % % % < < & & & & < < < : < : , : : , , , , Z ! w.n.n.w.w.q.) Y Y Q ) ) ) ) ) ) ) ) Q Q Q Q Q Q Q Q ) Q Q Y h h Q 9.9.Q Q Y Y Q Q ) ) ) ) ) ) ) ) ) Q Y k Q Q ) ) ) Q Y U U U U U U U n n n c c c c c c c c c v v c c c c c b , , , , : : , < < < < < < < < : : < : < : : % % @ @ # # * # # @ @ @ @ @ # X X X X X X X o X X X X X X X X X . % n.3X4X2X3X3Xn.n.b.b.n.z.z.q.q._ ( ) q.z.z.z.z.z.z.z.z.z.q.j f ( _ _ q.q.q.q.q.q.q.z.z.Y % % % % % % % % % % % % + X + + < < % % + X X @ + % % < d ) q.q.q._ d % < < < % ",
"2 2 2 2 3 2 3 3 3 3 3 3 3 3 3 3 6 2 6 2 6 2 2 2 2 o o 6 ,.4.4.4.6.6.e.6.6.6.6.r.r.r.6.6.6.6.6.6.6.6.6.6.7.<.a = = = = = = % % % ; = = = = = = < < < = ; ; ; < < ; ; , , < < < , < , + g Q - X X + Z A % f S & V f f f f f f f f f S S f f f f f @XvXMXvXnXcXvXvXbXnXnXmXmXmXmXmXmXmXmXmXmXqXqXqXqXmXqXqXqXqXqX0X0X6X2XK K 2XnXnX6X6X6X6X6X6X6X6X2X2X*X$X$Xb.v.x.j._ ^ ^ _ z.j.j._ _ _ _  . . . . . .| | | | { { ' ' ' ' ' ' ' ' ' R R R H H ' ' ....H.X.X.H.H.H.H.H.H.H.H.H.H.H.X.H.X.X.H.H.H.H.H.H.X.X.X.X.X.X.X.X.X...| { R D A A C C Z c , , > > , , > > > > > , , , ) n.n.c.b.b.b.q.) d % % % % % % % X X % % % % % % % < d R ) q.c.z.z.j.j. .` ` _ z.z. .Y , < = = = : = = = = = = = = * = = = = = = = = = = = * * * * * * * * = = = = = : = = = = = = * * = = = = = = = = = = * * * * * * % % % % % % % < % % % < < < < < : : , , , : , : , , , > T w.n.n.w.w.q.9.Q Y Q Q ) ) ) ) ) ) ) Q Q Y Y Q Q Q Q Q Q Q Y h h Q 9.2.Q Q Y Y Q Q Q Q ) ) ) ) ) ) ) Q Y Y Q Q ) ) ) Q U U U U U U U U U n n n c c c c c c c c c c c c c c c c c > , , : : , < < < < < : : < < < < < < : : * % * * * # * * * @ # # @ @ # @ X @ X X X X X X X X X X X X X X O = n.3X2X3X3X3Xz.z.b.b.n.z.z.q.q._ ( ) q.z.z.z.z.z.z.z.z.z._ j j ` z.z.q.q.q.q.q.q.q.z.z.Y % % % % % % % % % % % + X + - Y Q Y d d ; < < , d d g Y ( q.q.q.q.) d % < < < % ",
"6 6 2 2 3 3 3 3 3 3 3 3 3 3 3 3 2 2 2 2 6 2 2 2 2 o o 6 ,.4.4.6.6.6.6.6.6.6.6.r.r.6.6.6.6.6.6.6.6.6.6.6.6.1.p = = = = = = = % % % % ; = ; = < < = < ; ; ; ; ; ; ; ; ; , ; < < , , , < % < % , ; < < & f f f f f f f f f V f f S f S S S S S f f f 3XvXvXvXcXMXvXbXnXnXmXmXmXmXmXmXmXmXmXmXqXqXqXqXqXqXqXqXqX0X0X0X6X*Xf K 6XnX0XhX6X6X6X6X6X6X6X2X2X*X$X$Xb.v.v.j.` ^ ^ _ j.j.j.j._  ._  . . . . . .| | | | | { ' ' ' ' ' ' R R R R R R D D R ' | ..X.X.X.X.H.H.H.H.X.H.X.X.H.H.X.X.X.X.X.X.H.H.H.H.H.X.X.X.X.X.X.X...{ R D A c c > > , , > > , > > > > , > > > , > , , R n.n.n.v.n.c. ./ d % % % % % % % % - Y _ _ | ) Y S R _ q.c.c.q._ _  . ._ ` ` _ z.z._ Y < < = = = = = = = = = = = = = = * * = = = = = = = * * * * * = = * = = = * * = = = = * * = * * * = = = = = = = = = = = = = = * * % * * % % % < < < < < < < : : : , , , , : , : : : , < , U 9.n.n.n.n.w.q.) Y Y Q ) ) ) ) ) ) ) ) Q Y Y Y Q Q Q ) ) Q Q h h Q Q 9.8.Q Q Y Q Q Q Q ) ) ) ) ) ) ) Q Y Y Q Q ) ) ) Q U U U U U U U U U U U U c c c c c c c c c c c c c c c c c c > > b b , , , : , , : , : : : : , , : : : * * * * # # # # # # # # @ # @ @ @ @ X X X o X X X X X X X X X O % n.3X3X3X3X$Xz.z.3X3Xb.n.z.z.q._ ( ) q.z.z.z.z.z.z.z.z.z.` f x _ z.j.z._ _ q.q.z.q.q.z.Y % % % % % % % % + % + X % d ) q.q._ ^ Y j Y ) _ ) Q ( _  .q.z.q.q.Y ; % % < ; % ",
"3 3 2 3 3 3 3 3 2 2 2 2 2 2 2 2 2 2 2 2 6 2 2 2 2 o o 6 ,.6.4.6.6.6.6.6.6.6.6.r.6.6.6.6.6.6.6.6.6.6.6.6.6.2.E = = = = = = = % % = = % ; = ; = < = < < ; ; ; < ; ; ; ; ; ; < < , & < f d & f f f d f f f f f f f f f f f V S S S S f S S S f f S f G 6XZXvXvXMXcXbXnXmXmXmXmXmXmXmXmXmXmXmXqXqXqXqXqXqXqXqXqX0X0X0X6Xv.f h.6XnX6XhXhX6X6X6X6X6X6X2X2X2X$X$Xb.v.v.j.` ^ ` j.z.j.j.j.j._  . . . . . . .......| | { ' ' ' ' ' ' R R R R R R R D D R ' ..w.K.X.X.H.H.H.H.X.X.X.X.H.H.X.X.X.X.X.X.X.X.H.X.X.X.X.X.X.X.X...{ R D C > , , > > > > > > > > > > > > > > , > > , , U q.b.b.b.z. ._ / R & % % % % % % & ) n.1X$X3X$Xz./ `  .c.z. ._ ` _  .j._ ` `  .z.z.) d < < = = = = = = = = = = = * = = = = = = = = = = * * * = * = = = = = = = * = = = = * * = * * * * * * = = = = : : = : : : : = * * * * * % * * < < , , < < : : : : , , , , , , , : , : , , c ! w.n.n.n.n.w.9.Q Y Q Q ) ) ) ) ) ) ) ) Q Y Y Y Q Q ) 9.Q Q k h Q Q 9.8.Q Q Y Q Q Q Q ) ) ) ) ) ) ) Q Q Y Q Q ) ) Q Q U U U U U U U U U U U U n n c c c c c c c c c n c c c c c c c > c c b , : : : : , , , : , , , , : : : : * * * * @ # # # # # # @ * * * * # @ X X @ X X X X X X X X X . + n.3X3X3X3X3Xz.n.3X3X3Xn.z.z.q._ ) _ q.z.z.z.z.z.z.z.z.q.^ f ^ z.z.j.z._ _ _ q.z.q.q.z.Y % % % % % % % % + % X + f _ z.n.z._ / ^ ( _ q.q.) Y ^  .q.q.q.q._ S < % % % < % ",
"6 2 2 2 3 3 3 3 2 2 2 2 2 2 2 2 2 2 2 2 2 2 2 2 2 o o 6 ,.6.4.6.6.6.6.6.6.6.6.r.6.6.6.6.6.6.6.6.6.6.6.6.6.7.E 7 = = = = = = = % % = % % = ; ; ; = < < ; ; < < < ; < ; < ; < ; , ; f , f f d & f f f f f f f f f f V f f f f S S S S S S f S S f f & @XMXMXvXnXbXbXbXmXmXmXmXmXmXmXmXmXqXmXqXqXqXqXqXqXqXqXqX0X0X0X6Xh.f k.hXnX6XcXhX6X6X6X6X6X6X2X2X2X$X$XV.v.v.j.^ ^ ` j.z.j.j.j.j. . . . . . . . .......| | { ' ' ' ' ' R R R R R R R R D D D ' | ..K.K.H.H.H.H.X.X.X.X.X.H.H.H.H.H.H.X.X.X.X.X.X.X.X.X.X.X.X...| R U Z > , , , , , , > > > > > , 9 9 9 > > > > > , , Z q.@X$Xc._ / _ q.q.U % % % % + % d  .b.b.$X$X$Xz.^ ^  .z.j. .` `  .j.j._ ` ` j.z.q.( f < * = = = = = = = = = = = = = = = = = = = = = = = = = = * * = = * * * * * * * * = = = * * * = = * = = = = = : : = : : = = = = = * * * * : : < < : < , , : : : : , , : , : : : : : : , < , Q w.n.n.n.n.n.q.) Y Y Q ) ) ) ) ) ) ) ) Q Q Y Y Y Q Q 9.) Q Y h Y Q 9.8.Q Q Y Q Q Q Q ) ) ) ) ) ) Q Q Q Y Q Q ) ) Q Y U U U U U U U U U U U U n n n c c c c c c c n U c n n c v c c c , , , , , : , , , , , , , , , , , : : : : = * * @ @ # # # # # @ * * * = = = X X X X X X X X X X X X X + w.3X3X3X2X3Xz.n.3X3X3Xb.c.z.z._ ) _ z.z.z.z.z.z.z.z.z._ j j ( z.j.j.z._  ._ j.z.q.q.z.^ + + % % % % % % % + + & ( z.c.q._ ^ ^ ) _ q. .( Y Y ) z.q.q.q._ Y & % % % < ; % ",
"2 2 2 2 3 3 3 3 2 2 2 2 2 2 2 2 2 2 2 2 2 2 2 2 2 o o 6 ,.6.4.6.6.6.6.e.6.6.6.6.6.6.6.6.6.6.6.6.6.6.6.6.6.7.<.8 = = = = = = = = = % = % = ; ; ; = < < < < < < < ; < ; < ; < , , f < & f & f f f f d f f f f f S f V f S S S S S f S S S f S S S S f / hXZXvXnXnXnXnXmXmXmXmXmXmXmXmXmXmXmXqXqXqXqXqXqXqXqXqX0X0X0X2XK f #XnXnXnXnX6X6X6X6X6X6X6X2X2X2X$X$XV.v.x.h.^ ^ _ z.z.z.j.j.j. . . . . . . . .......| | { ' ' ' ' R R R H R R R R R R D R D ' | ..X.X.H.H.X.X.X.X.X.X.X.H.H.H.H.H.X.X.X.X.X.X.X.X.X.X.X...| ' T Z > , , > > > > > > > > > , , , , > > > > > > > , Z ) n.@X .^ ^  .n.n.! < % % % @ % Y z.b.v.v.b.v._ ^ /  .j.j._ ` ` _ j.j._ ` ` j.z.q.Q , < = = = * < : = = = = = = * = = = = = = = = = = = = = = * * = = * * * * * * = * = = = = = * = * * = * = = : : : = : : : = = * = * * * * : : < < : : : , , : : : , , : : : : : : : : : < < U q.n.n.n.n.n.w.q.Q Y Y Q ) ) ) ) ) ) ) Q Q Q Y k Q Q ) ) Q Y h k Q 9.9.Q Q Q Q Q Q ) ) ) ) ) ) ) Q Q Q Y Q Q ) ) Q Y U U U U U U U U U U U U U n n n c c c c c c U U U U n c n c c c , , , , , , , , , , , , , , , , , , , : : = = * % % * * % @ % @ * * * * = = @ @ = @ X X X X X X X X X + q.3X2X2X2X3Xz.z.3X3X3Xb.v.z.q._ ` _ z.z.z.z.j.z.z.z.z.( f k _ z.j.j.z. .j. .j.z.q.q.z.^ % % < < % % < % < % & Y q.z. ._ ^ ^ ^ _  . .( S j ^  .z.q.q.q.( d < % % % < , % ",
"6 3 2 3 3 3 3 3 2 2 2 2 2 2 2 2 2 2 2 2 2 2 2 2 2 o o 6 ,.6.4.6.6.6.6.e.6.6.r.r.6.6.6.6.6.6.6.6.6.7.6.6.6.6.1.t = = = = = = = = = % % % % = ; ; = < < ; < < < < ; ; ; ; < < , , - f f f d f , d f f f f S C f f C V V C f f S S S S S S f f f S S S f $XMXvXvXnXnXnXmXmXmXmXmXmXmXmXmXmXqXqXqXqXqXqXqXqXqXqXqX0X6X#Xf f 2XnXnXnXnXnX6X6X6X6X6X6X2X2X2X2X$Xm.v.c.` ^ ^ j.z.z.z.j.j.j.j.j. . . . . . .........| { { ' ' ' ' R H H R R D D R D D D D D ' { ....X.X.X.X.X.X.X.X.X.X.H.H.H.X.X.X.X.X.X.X.X.X.X.....| R T Z > > > > > > > > > , , , , , , , > > > > > > > > , , Y q.n.` ^ ` c.$Xb.) < % % % @ % Y c.b.v.v.b.c.` ^ /  .z.j.` / ` j.z.z._ ` ` z.z.q.Y , < = = : < < : = = = = = * = * * = = = = = = = = = = = = * * * * * * * * = = = = = = = * * * = * * * * = = : = = : : : : = = * * * * * : * : : : < : , < , , : : : : , , , , : : , : : , < > ) w.n.n.n.n.n.w.9.Y Y Q ) ) ) ) ) ) ) Q Q Q Q Y Y Q Q ) ) Q h h Q Q 9.Q Q Q Q Q Q Q ) ) ) ) ) ) ) Q Q Y Q Q ) ) Q Y U U U U U U U U U U U U U U U U n U U n c c n U U U U U n n c c c c c b > , , , , , , , , , , , , , , , , : = = * * * % % @ % % % % * * * % % % = = = % = % % X X X X + ) 3X2XpX2X3Xq.z.3X3X3X$Xb.z._ _ ) _ z.z.z.z.j.z.z.z._ x f ^ q.z.j.j.z.z.z. .q.q.q.q.z.^ ; ; & - , , , f f d Y _ z. .` ` ^ ` _  ._ ^ S j ^ _ z. . .q.) S < < < < < < , % ",
"6 6 6 3 3 3 2 2 2 2 2 2 2 2 2 2 2 2 2 2 2 2 2 2 1 o o 6 ,.6.4.6.6.6.6.e.6.6.r.r.r.6.6.6.6.6.6.6.6.7.6.6.6.6.1.p = = = = = = = = = = % % = % < ; = < < ; ; < < < ; ; ; ; < < , , ; d & f & f d f d f d d & f S f C C V S f f f f S S S S S S S S S f f c.vXMXbXMXnXmXmXmXmXmXmXmXmXmXmXmXqXqXqXqXqXqXqXqXqXnXqX0X6Xk.f K 6XnXnXnXnXnXhX6X6X6X6X6X2X2X2X2X$Xb.v.j.` ^ ` j.z.z.z.j.z.j.j.j.q.q. . . . .........| { { ' ' ' ' R H H R R D D D D D D D D D R { ..X.X.X.X.X.X.X.X.X.X.X.X.H.X.X.X.X.X.X.X.X.......{ ' T A , > > > > > 9 9 > > > 9 9 9 > > > > > > > > > > > , , d ) _ / / j.b.$Xn.! < % X @ @ < Y z.v.v.v.v.j.` K /  .z. .` / _ j.j.j.` ^ ` z.z.q.R , < < = = = < : * = = = = * * * = = = = = = = = = = = = = * * * * * * * * = = = = = = = * * * = = = = * = = : = = : : : : : = * * * * * * * : : : , , , , , , : , : : , , , , : : : : : , < , Q w.n.n.n.w.n.n.q.Q Y Q Q ) ) ) ) ) ) ) Q Q Q Y k k Q Q 9.Q k h Q Q 9.8.Q Q Q Q Q Q ) ) ) ) ) ) ) ) Q Y Q Q ) ) Q Y U U U U U U U U U U U U U U U U U U U U c c U U U U U U n n c c c c b , , , , , , , , , , , , , , , , , , : : : = * * % % % % % @ % * * * % % % = = = = = = = = = = = X ( 3XsXsX2X3Xq.z.3X3X3X3Xb.z._ ` `  .z.z.z.z.j.z.z.j.` f f _ z.z.j.j. .z.z.q.q.q.q.q.z.( f f f d d d d S d (  . ._ ` ` ^ ^ _ j.j.` ^ S ( _ j. . . ._ Y f < < < < < , , % ",
"6 6 3 3 3 3 3 3 2 2 2 2 2 2 2 2 2 2 2 6 6 6 2 2 3 o O 6 ,.4.6.4.6.6.6.6.e.e.e.e.6.e.r.r.6.6.6.6.6.6.7.6.6.6.2.E 7 = = = = = = = = % = = = = ; ; ; ; < < < < < < < < < ; ; ; & & & f f f f f f d d d f f f d f f f S f f f f S S f S S S S S S S f S f K cXMXbXMXnXMXmXmXmXmXmXmXmXmXmXmXmXmXqXqXqXmXqXqXqXqX0X0X6Xj.f ` 6XnXnXnXnXnX0X0X6X6X6X6X2X2X*X2X$Xb.v.j.^ ^ _ z.z.z.j.z.z.j.j.j.j.j.j.c. . .X.....| | | ' ' ' ' R R R R R R D D D T D D D D D D H ' | ..X.X.X.X.X.X.X.X.X.X.X.X.X.X.X.X.X.......| | R T Z Z c > > > > > > > > > > > > > > > > > > > > > > > > , < , Y _ _ z.b.$X$Xz.R < % % % @ < Y c.b.v.v.v.j.^ K ` j.z. .` / j.z.j.j.` ^ _ z.c.q.Y & < ; < < = * < < = ; ; < ; < = * = = = = = = = = * * * * * * * * * * * * * * * * * * = = = = * * = * * = = = = : : , , : : : * * = = * = : : , , , , , , : : , , : : : : : : : : : , < : : < U 9.n.n.n.n.i.n.w.9.Q Y Q ) ) ) ) ) ) ) Q Q Q Q k k Q Q Q Q Q h k Q 9.9.Q Q Q Q Q Q ) ) ) ) ) ) ) Q Q Y Y Q ) ! Q Y U U U U U U U U U U U U U U U U U U U U U U U U U U U n n c c c > > > , , , , , , > , , , , , , , , , : , : : : : = = * * = # # * % % % * * * * * = = % = = = % % = % @ Y 3X2XsXsX3Xz.q.3X3X2X3XV.b. .` _  .z.z.z.j.z.z.z.z.^ f ^ _ z.z.z.z. .z.q.z.z._ q.q.q.) d d d d d d Y Y ( _  . .` ^ ^ ` _ j.j.` ^ S `  . .j.q.q. .R f < < & , , , , d % ",
"6 6 3 3 3 3 3 3 2 2 2 2 2 2 2 2 2 2 2 6 6 6 2 2 3 o O 6 ,.4.6.6.6.6.6.6.6.e.e.e.6.6.r.r.6.6.6.6.6.6.6.6.6.6.7.W 7 = = = = = = = = = % = = = ; ; ; ; < < < < < ; < < < ; ; ; & , & f f f f f f d d f f f f d f f f C S f f f S S S f S S S S S S S S f K hXMXMXnXnXMXmXmXmXmXmXmXmXmXmXmXmXmXqXqXqXqXqXnXqXqXqX0X*XK f k.6XnXnXnXnXnX0X0X6X6X6X6X2X2X2X*X$Xb.v.j.^ ^ j.z.z.z.j.z.z.z.j.j.j.j.z.j. . .X.X.....| { ' ' ' ' R R R R R R D D D D D D D D D D D H ' { ....X.X.X.X.X.X.X.X.X.X.X.X.........{ { ! R A Z Z Z > > > > c > > > > > > > > > > > > > > > > > > > > > , ; U ) j.v.b.b.v.q.Y & % % % % < ^ c.b.v.v.v.j.K K ` j.z._ ` ` j.z.j.j.` ^ _ z.z. .Y & < ; ; : < < , , z U Y U Y Y 9 ; < = = * = = = = * * * * * * * * * * * * * * * * * * = = = = * * * * * * = = = : : , - : : : : = = = = : : , , , , > > , , , , , : : : : , , : : : , < : : : > ! w.n.n.n.n.n.n.q.) Q Q Q ) ) ) ) ) ) Q Q Q Q Y k Y Q Q ) Q h k Q 8.9.Q Q Q Q Q Q Q ) ) ) ) ) ) Q Q Y Y Q ) ! Q Y U U U U U U U U U U U U U U U U U U U U U U U U U U U n n c c c c > , , , , : , , , , , , , , , , , , , , : : : : : = = * * * * * * % % * = = * = = = % = = = = ; ; < % Y 1XsXsX2X3Xc.z.3X2X2X3X$Xb.z._ _  .z.z.z.z.z.z.z._ S f ` z.z.z.z.z.z.z.q.z.z._ q.q.q.) d d S d d S Y ^ _ _  ._ ` ^ ` ` _ _ ` ^ ^ ` _  .j.j. . ./ S f & & , d d d d d < ",
"3 3 3 3 3 3 3 3 2 2 2 2 2 2 2 2 2 2 2 6 6 6 2 2 3 o O 6 ,.4.6.6.6.6.6.6.6.6.6.6.6.6.e.e.6.6.6.6.6.6.6.6.6.6.7.<.a = = = = = = = = % % = % = = = ; ; < < = < < ; < < < ; ; ; ; , & , f f f f d d d d f f f d f f f f f f f S S S S S S S S S S S j S f K 6XMXMXbXMXMXmXmXmXmXmXmXmXmXmXmXmXmXqXqXqXqXmXmXqXqXnX6X#Xf K *XnXnXnXnXnXcX0X6X6X6X6X6X6X2X2X*X$Xb.x.` ^ ` z.x.z.z.z.z.z.z.j.j.z.j.j.j.j. . .X.....| { ' ' ' ' R R R R H H D D D D D D D D D D D D G H R ' { ..........X.X.........{ { { ' R R D A Z c c c c c c > > > > > > > > > > > > > > > > > > > > > > > , < d ) n.$X$Xb.z. .( d < % + % ; ( c.b.b.v.v. .K K _ z.j._ / ` j.x.j.j./ ^ _ z.z._ d ; < ; ; ; < , g Y ) 9.q.q.q.w.! > < = = * = = = = * * * * * * * * = = * * * * * * * * * = * * * * * * = * = = = : : , , - : : = = = = : : : , , > , > > > > , , , : : : : , , : : < : < : : < : U 9.i.n.n.n.n.n.i.q.) Y Q Q Q ) ) ) Q Q Q Q Q Q k h Y Q 9.Q k h Y Q 9.) Q Q Y Q Q Q ) ) ) ) ) ) Q Y Y Q Q ) ! Q U U U U U U U U U U U U U U U U U U U n U U n U U n n n n n n c c c > , < < : : : < : : , , , , , , , , , , , : : , : : : : = = = * * * * * * * * * = = = = = = = = ; ; % g n.sXhX2X3Xn.z.3X2X2X2X3X$Xz._ _ j.z.x.z.z.z.z.z.( f ^ z.c.z.j.z.z.z.z.z.z.z. .z.q.z.) d g Y S S Y ( _  . ._ ` ^ ` _ _ j.` ^ K ^ _ z.z.z.z. .` Y d f d C Z U Z A A Z , ",
"3 3 3 3 3 3 3 3 2 2 2 2 2 2 2 2 6 2 6 6 6 6 2 2 s o O 6 >.4.6.6.6.6.6.6.6.6.6.6.6.6.e.e.6.6.6.6.6.6.6.6.6.6.7.1.9 = = = = = = = % % % = % = = = ; ; < < = < < ; < < < ; ; ; ; , & , f f f f f d d d f f f d f f f f f f S S S S S S S S S S S S j S f / 4XMXMXnXMXMXmXmXmXmXmXmXmXmXmXmXmXmXqXqXqXqXmXmXqXqXnX6Xk.f K 2XnXnXnXnXnXnX0X6X6X6X6X6X6X2X2X*X$XV.j.` ^ _ z.x.z.z.z.z.z.z.z.j.j.j.c.c.j.j.X. .....| { { ' ' R R R R R R H H D R R D D D D D D D D D D D D G H R ' ' { { { { { ' ' R R R R D A Z Z c c > > > > > > > > d d > > > 9 > > > > > > > > > > > > , > > < < ( b.$Xb.z._  . .( f % + % - ( c.v.b.v.c.` K ` j.v.j.` ` _ z.c.j._ ^ ^ _ z.z._ d ; ; ; < < , U ) q.q.q.z.z.n.n.q.Z = = = * * * = = * * * = = * * * = = * * * * * * * * * * * * * * * * * = = = : : - , , - : : = = = * : : , , > > > > c > c > > , : : : : : : : : : : < : : * < , Q w.n.n.n.i.n.n.w.9.Q Q Q Q ) ) ) Q Q Q ) Q Q h z k Q 9.Q Y h k Q 8.8.Q Q Q Q Q Q ) ) ) ) 9.) Q Y Y Q Q ) Q T U U U U U U U U U U U U U U U U U U U n n n n U U n n n n n n n c > , , < < < < < < : < , , , , , , , , , , , , , , , , , , , : : : : = : : : = = : : = : : : : ; ; ; , % d n.sXhX2X3Xb.z.3X2X2X2X2X3Xz.` ` j.z.x.z.z.z.z.z.^ f ` x.z.j.z.z.z.z.z.z.z.z.z.z.q.z._ j Y Y Y Y ^ _  .j._ ` ^ ` _ j.j._ ^ K ^ _ j.z.z.z. ._ / S d C A A A A Z S A A & ",
"2 3 3 3 3 3 3 3 2 2 2 2 2 2 2 2 6 6 6 6 6 6 2 2 s o o 6 ,.5.6.6.6.6.6.6.6.6.6.6.6.6.6.6.6.6.6.6.6.6.6.6.6.6.7.1.p = = = = = = = % % = = ; ; = = < = = = = ; < < < < ; ; ; ; - - & , f f f f d d d d f f f f f f f f V C S S S S S S S S S S S S S S f  .hXMXnXMXMXmXmXmXmXmXmXmXmXmXmXmXqXqXqXqXqXqXmXmXqXqXqX2XK f K 2XnXnXnXnXnXnX0X6X6X6X6X6X6X2X2X2X$Xb._ ^ ` j.x.x.z.z.z.z.c.z.j.j.j.j.c.c.c.j.X.X.....| | { { ' R R R R H R R R R R H R G D D D D D D D D A A A A A D D D G G R R R T D A A A Z Z c c c Z > c c > > > > > > d 9 n > > > > > > > > > > > > > > > > > < < Q b.$Xb. ._  .c.z.Y < + + f ) c.v.b.v.j.` ^ ` j.v.j.` ` j.c.x.j._ ^ ` j.z.z.) d & ; < < , U ) q.z.c.q.q.q.n.n.| , = = = * * * = = * * * = = = = * = = * * * * = = * * * * * * * * * * = * * = : : , , , : : = = * * : : : , , > > c c c > > > > , : : : : : : : : : : : : : : < : z 9.w.n.n.n.n.n.n.q.9.Q Q Q ) Q ) ) Q Q Q Q Q k z h Q 9.) Q h h Q Q 9.Q Q Q Q Q Q ) ) ) ) 9.) Q Y Y Q Q ) Q Y U U U U U U U U U U U U U U U U U U n n c c n n n n n U U U c c > , , : < % < < < < < : , , , , , , , , , , , : : , , , , , , , , , , , , , , , , , , , : : : , , ; ; ; % - z.4XhX2X3Xb.z.3X2X2X2X2X3Xz.` _ z.x.z.z.z.z.z._ x ^ z.z.z.j.z.z.z.z.z.z.z.z.z.z.q.z._ Y Y Y Y ^ _ _ j._ ` ` ` _ j.j._ ^ S ^ _ z.z.z.z. ._ ^ S S A A A S S S A S C A , ",
"2 2 3 3 3 3 3 3 2 2 2 2 2 2 2 2 6 6 6 6 6 6 2 2 s o o 0 ,.5.6.6.6.6.6.6.6.6.e.6.6.6.6.6.6.6.6.6.6.6.6.6.6.7.7.1.p 7 = = = = = = % = = = = ; = ; < = = = < ; < < < < ; ; ; ; - - & , f f f f d d d d f f f f f f f f f C S S S S f S S S S S S S S S S c.cXMXvXMXmXMXmXMXmXmXmXmXmXmXmXmXmXqXqXqXqXqXmXmXqXmX6X#XK f ` 6XnXnXnXnXnXnX0X6X6X6X6X6X6X2X2X2X$Xv.` ^ _ x.v.x.z.x.x.x.c.z.j.j.j.c.c.c.c.j.X. .....o.| { { ' ' ' R R R R R R R R R R R T T D D D D D D D D A A A A D D A A A A A A A A Z Z Z Z c c c c c > > > > > > > z d 9 9 > > > d > > > > > > > > > > > , > ; % Y n.@Xc._ ` z.b.b._ f + + f ) v.v.b.v.j.` ^ j.c.c.` ` ` j.c.x.j.` ^ ` j.z.z.( f & < < , S Q q.q.z.z.z.q.q.q.q.Y , < = = = * * = = * * = = = = = = = = * * * * = = * * * * * * * * = * * * * = , 9 9 , , , : = = = : : < : , , > > c c c > > c > , , , : : : : , < : < : : : : < : ; Y 9.n.n.n.n.n.n.w.q.) Q Q ) Q ) ) ) Q Q Q Q Y z h Y Q 9.Q k h Y Q 8.Q Q Q Q Q Q ) ) ) 9.9.) Q Y Y Q Q ) Q Y U U U U U U U U U U U U U U U U U U U c c c c c c U U n n c c > , , : < < % < < < < : : , , , , , , , , , , , : : , , , , , , , , , , , , , , , , , , , , : : , , , ; ; % ; q.2XhXhX2Xb.z.2X2X2X6X2X3Xz.` _ z.x.z.x.z.z.z.` S ` x.z.z.z.z.z.z.z.z.z.z.z.z.z.z.z._ Y Y Y ^ ` _  . .` ` ` _ j.j.` ^ S ^ _ j.z.z.j. ._ / S S S S A A A A S A A C S f ",
"2 3 3 3 3 3 3 3 6 2 6 2 2 2 2 2 6 6 6 6 6 2 2 2 3 1 o q 3.4.6.6.6.6.6.6.6.e.e.e.6.6.6.6.6.6.6.6.6.6.6.6.6.7.7.2.l 7 = = = = = = = = = = = ; ; ; < = < < < ; < < < < < < ; & - - , , f f f f d f d d f f f f f f f f f C f f S f f f S S S S S S S S / 2XvXMXvXnXMXMXMXmXmXmXmXmXmXmXmXmXmXqXqXqXqXmXmXmXmXmX7Xk.J J h.6XnXnXnXnXnXnXnX6X6X6X6X6X6X2X2X2X$Xc.^ ^ j.v.v.z.v.x.x.x.c.c.c.j.c.c.c.c.c.j.X.X. .o.o.| { { ' ' ' ' R R R R H H H H H H R R R D D D D D D D D D D D D D A A A A A A Z Z Z Z Z Z c c c > > > > > > > > U 9 9 > > d d > d > > > > > > > > > > z > > , < d q.n.z._  .v.$X$Xz.S < % & ^ c.b.$Xv.j.` ` j.v.j.` ` ` z.c.z.j._ ` ` z.x.z.Y & ; ; d d Y _ q.z.z.q.q.q.q.q.! d < < < = = * * * * * * = = = = = = = = = * * = = = = * * * * * * * * = = * : 9 U U U n 9 , , = = : : : : , , , > > c c c c c c > > , , , , : : , < : : , , : : : : * > W w.n.n.n.n.n.n.w.q.) Q ) ) ) ) Q Q ) ) Q Q h h k Q 9.Q Y h k Q 8.Q Q Q Q Q 8.8.) ) ) ) ) Q Y Y Q Q Q Q U U U U U U U U U U U U U U U U U U U U c c c c c c U c c c c c , , < < < < < < < < : : < < : : , , , , , , , , , , , , , , , , , , , , , , > > > , , , , , , , , , , , ; % < _ 3XhXhX2Xb.z.2X6X6X6X6X3Xx._ _ z.z.z.x.z.z.q.^ ^ _ x.z.j.z.z.z.z.z.z.z.z.z.z.z.z.z._ Y Y ^ ) _  ._ _ ` ` _ j.j._ ^ S ^ _ z.z.j.j. ._ / Y S S A A A A S A S S A A S d ",
"6 2 3 3 3 3 3 3 2 6 6 2 2 2 6 6 6 2 6 6 6 2 2 2 3 1 1 w 5.6.6.6.6.6.6.6.6.e.r.r.6.6.6.6.6.6.6.6.6.6.7.6.6.6.7.2.E 7 = = = = = = = = = = = ; ; ; ; ; < < < ; < < < < < < , & - - , f f f f f d d d d f f f f f f f f C C f f f f f f S S S S S S S S  .hXvXMXMXMXMXBXBXMXmXmXmXmXmXmXmXmXmXqXqXqXqXmXmXmXmXqX>XK J J k.nXnXnXnXnXnXnXnX6X6X6X6X6X6X2X2X2X$Xj.^ ^ z.v.x.z.v.x.x.x.v.c.c.c.c.c.c.c.c.j.X.X. .o.o.o.{ { { ' ' ' R R R R R H H H H H R G G R G G D D R T G D D D D A D D A A A Z Z Z Z Z Z Z Z Z Z Z > > > > > > > U > > > > d d > > > > > > > > > > > > U > > > < d _ q. . .j.b.$X$Xc.^ f < & ^ c.b.b.c._ / ` c.v.j.` ` h.c.c.z.j.` ` _ z.z. .Y < ; d d Y ) q.q.z.z.q.q.q.q.) U < < < < * = * * * = * * = * = = = = = = * * * = = = = = * * * * * * = * * = 9 U ! ! ~ U n 9 , : : : , , , , , > > > c c c c c c > , > , , , , , : , : < , , < : : : : < > ) q.n.n.n.n.n.n.w.9.) Q Q ) ) Q Q Q ) Q Q k h h Q 9.Q Y h k Q Q Q Q Q Q Q 8.8.) ) ) ) ) Q Y Y Q Q Q Y U U U U U U U U U U U U U U U U U U U U c c c c c c U c c c > > , < < < < < < < < < : < < < < : : , , , , , , , , , , , , , , , , , , , , > > > > > , , , , , , , , , , , < < ) 3XhXhX2Xn.j.2X6X6XhX6X2Xv._ _ z.x.z.x.z.z.q.^ ^ j.x.z.j.z.z.j.z.c.z.z.z.z.z.z.z.z._ ^ ^ ( _  . .` ` ` ` _ z._ ^ ^ ^ _ j.z.z.j._ _ _ Y S S S S A A A S A S S A A S d ",
"2 3 3 3 6 6 6 6 3 3 2 2 6 2 2 2 2 2 2 2 6 2 2 2 2 1 2 #.5.6.6.6.6.6.6.6.6.6.6.r.r.6.6.6.6.6.6.6.r.6.6.6.7.6.7.1.E 9 = = = = = = = % % ; < < = = ; = < < < < < < ; ; ; ; ; , , f , f f f f d d d d d d d f f f f f f C f S S f f f f f f S S S S S K 2XvXMXMXcXMXNXBXSXBXNXmXmXmXmXmXmXmXmXmXqXmXqXqXqXqXmXcX#XK J K *XnXnXnXnXnXnXnXnX6X6X6X6X6X6X6X2X$XV.` K ` v.v.v.v.v.v.v.v.v.v.c.c.c.c.c.c.k.k.X. . ...o.o.{ { { { R R R R R R R R R R R H R R R G G D A A T T T G D D A D D D A A A Z Z Z Z Z Z Z Z c c c c c > > c > > > z d d d n n 9 9 > > > > > > d d > > > > d > , < Y  .q.z.v.V.V.b.v. .S & < S z.b.v.c.` ^ _ x.c.j.` ` j.c.c.z.j.` ` ` z.z.) f f f d Y ( _  .q.z.z. .z.q. .Y , < < * * * = * * * * = * = * * * * * * * * * * * * * * * * * * = * * % * , n T ! ! ! ~ T U n > , : : , , , > > > > > c c c c > > > > , > , , , , , : : : : : : < < < ; < : U ! q.n.n.n.n.n.n.q.) Q Q Q Q ) ) ) ) Q Q Y h h Y 8.8.Q h k Y Q 8.Q Q Y Q Q ) ) ) 9.) ) Q Y Y Q Q Q T U U U U U U U U U U U U U U U U U U Z Z Z Z c c c c c c c c , , , < < < : < < < < < < : : < < , , , , , , > > > , > , , , , , , , , > > > > > > > , , , , , , , , , ; , , ; % Y $X4XhX4Xv._ 2XhX6XhXhX2Xb._ _ z.v.z.z.z.z.` ^ ^ z.x.z.z.z.z.z.z.z.z.z.z.z.z.z.z.z. .^ ^ ` _ _ ` ` ` ` _  . .` x ^ ` z.j.j.j._ _ / / S S S S A A A A A A S S A A G d ",
"3 3 6 3 3 3 3 3 3 3 2 2 6 2 2 2 6 2 2 2 6 2 2 2 2 1 6 @.5.6.6.6.6.6.6.6.6.6.6.6.r.r.r.r.6.6.6.6.6.6.6.6.7.6.7.1.E 9 7 = = = = = = % % ; < = = = = = < < ; < < < < < ; ; , , , , f f f f f d d d d d d d f f f f f f f S S S f f f f S S S S S S S c.hXvXcXMXMXMXZXSXSXSXBXMXmXmXmXmXmXmXmXmXmXmXqXqXmXmXmX6Xk.K f K 2XNXNXnXnXnXnXnXnX6X6X6X6X6X6X6X2X2Xv.` ^ j.b.v.v.v.v.v.v.v.v.v.c.c.c.c.c.c.c.k.X. . ...o.o.| { { { ' R R R R R R R R R R R R H H G G G G D D G D G G G D D D D D A U U Z Z Z Z Z Z Z c c c c c n > c > > > 9 > > d > 9 9 > > > > 9 > > d d > > d > > > , < Z ) z.v.V.$Xb.b.v.z.` f f S j.v.v.j.` K j.v.v.j.` ` j.j.x.z.j.` ` _ z.z.^ f f S ( ( ) ) _ q.q.z.z.q. .Y d < < < * * * = = * * * = = = * = * * * * = = = = * = = * * * * % % * * , n U ~ ! ! ! ! ~ T U U c , , , , , > > > > c > c c c c > > > > , , , , , , , : : : : : : : < < ; : < , U 9.w.n.n.n.n.n.n.q.) Q Q Q Q ) Q Q Q Q Q h h Y Q 9.Q k k Y Q 8.Q Q Y Q Q ) ) ) 9.) Q Q Y Y Q Q Q T U U U U U U U U U U U U U U U U U U Z Z Z c c c c c c c v , , , < < < < < < < < < < : : : < < < : , , , , > > > , > , , , , , > > > > > > > > > > > , , , , , , , , , , , , % Y $XhXhX4Xb.` 3XhXhXhXhX2Xv._ j.z.v.c.z.z.z.` S ^ z.x.z.z.z.z.z.z.z.z.z.z.z.z.z.z.z. .` ` ` _ ` ` ` ` j.j. .` ^ ^ ^ _ z.j.j. ._ ` / G G S S A S A A A A S S A A A G d ",
"3 3 3 3 3 3 3 3 3 3 2 2 6 2 2 2 6 6 6 6 6 2 2 2 2 1 6 *.5.6.6.6.6.6.6.6.6.6.6.6.6.6.6.6.6.6.6.6.6.6.6.6.7.6.7.1.W 9 7 = = = = = % % ; ; = = = = = = < ; ; ; ; < < < , , , , , , f f f f f d d d d d d d d f f d f f C C C S S S f f S S S S S S / 4XvXMXvXvXMXMXSXSXSXDXSXBXMXmXmXmXmXmXmXmXmXmXqXqXmXmXmX6Xj.f f k.6XNXmXnXnXnXnXnXnX6X6X6X6X6X6X6X2X$Xj.K ` x.v.v.v.v.v.v.v.v.v.v.v.c.c.c.c.c.c.c.X.X. .o.o.o.| { { { ' ' ' ' ' ' R R R R R R R G H R G G G R G R G G D D G G G G D U U U U Z Z Z c c c c c c n n n n c > > > 9 > > > > > c > > > > 9 > > d d > > 9 > d > , , d ) c.$X3X$Xb.b.v.x.j.^ f x h.v.v.j.K K j.v.v.j.` ` h.j.x.j.j.` ` j.z._ S f Y )  ._ / / _  .z.z.q. .! d ; < < < < * * = = = * * * * = = = * * * * * * * * = = = * * % % % % : , U ! ! ! ! ! ! ! T U U U n > > > > > > > > > > > c c c > > > , > , , , , , , < < < < : : : : : : : : : < , Y 9.i.n.n.n.n.n.n.9.Q Q Q Q ) Q Q Q Q Q h h Y Q 8.Q k k k Q 8.Q Q Q Q Q ) 9.) ) ) Q Q Y Y Q Q Q U U U U U U U U U U U U U U U U Z n n Z Z c c c c c c v b b , , , < < < < < < < < < < : : : : : < < < : , , > > > > > > > > > > > > > > > > > > > > > , , , , , , , , , , , ; % d n.4XhX4Xb.` b.hXhXhXhX2Xb.j.z.v.c.z.c.v.z.` ^ ` z.z.z.z.z.z.x.x.x.x.z.x.z.z.x.z.z.j.` ` ` ` ` ` _ j.j.j.` ^ ^ ^ _ z.z.z.j._ ` ^ Y S G G S A A A A A A A S A A A T d ",
"3 3 6 6 2 2 3 3 3 3 2 6 6 2 2 2 6 6 6 6 6 6 2 2 2 1 6 >.5.6.6.6.6.6.6.6.6.6.6.6.6.6.6.6.6.6.6.6.6.6.6.6.7.6.2.1.E p 8 = = = = = % % ; = = = = = ; ; = ; ; ; ; < < < ; , , , , , , , f f f d f f d d d d d d d f f f C C C S S S f S S S S S S f j.vXZXcXMXMXnXNXSXSXDXDXDXSXBXMXmXmXmXmXmXmXmXmXmXmXmXmXnX2XK f K *XnXNXmXNXnXnXnXnXnX6X6X6X6X6X6X6X2X$Xh.x ` v.b.b.v.v.v.v.v.v.v.v.v.v.v.v.c.c.c.k.k.X. .o.o.o.| | { { { { ' ' { R R R R R R R R H R G R G R R R G G G D G R R R R T T U U U Z Z Z Z c c c c c n n n c c > > > > > > > > > > > > 9 9 9 > > > d > > 9 9 z d > , d ) b.3X3X$X$Xb.v.x.x.j.^ ^ h.v.v.j.K ^ j.b.v.j.` ` h.j.c.j.j.` ` z.x.` S S ) q.q._ / / _ q.z.z.q.) Y , < < ; ; < < = = = * * * * * = = * * * * % % % @ @ @ @ % @ % * : , U ~ ! ! ! ] ! ! ! ! T T U U n c > > > > > > > > > > c > > > > > , , > , , , , , , < < < < : : : : : : < < < : : > Q w.i.n.n.n.n.n.w.) Q Q Q ) ) Q Q Q Q Y z h Q 8.Q W k k Q 8.Q Q Y Q Q ) 9.) ) ) Q Q U Y Q Q T U U U U U U U U U U U U U U U Z Z c c Z c c c c c c c , , , , , < < < < % < < < < < < : : : : < < : : < < , > c c c c c c U U Z Z Z Z U U U U U Z Z > > , , , , , , , , , , < < d c.hXhX4X3X_ x.6XhXhXhX6Xb.j.z.b.v.c.v.v.z.` ^ ` z.z.z.z.z.z.x.x.x.x.x.x.x.x.x.x.z.z._ ` ` ` ` _ j.z.j._ ^ ^ ^ ` z.z.z.j._ ` ^ Y S S G G S S A A A A A S S S S A T d ",
"3 2 2 6 6 2 6 6 3 2 6 6 6 6 2 2 6 6 6 6 6 6 2 2 2 1 0 >.4.5.6.4.6.6.6.6.6.6.6.6.6.6.6.6.6.6.6.6.6.6.6.6.7.6.2.<.E p a 7 = = = = % = = ; = ; ; ; < = < < ; ; < < ; ; ; , , , - , , f f f f f f f d d d d d d d d f f f C f f f f f S S S S S f f  .hXZXvXvXMXMXSXSXDXDXDXDXDXSXBXBXMXmXmXmXmXmXmXmXmXmXmX0X XJ f ` 6XNXNXNXNXmXnXnXnXnX6X6X6X6X6X6X6X2X$X` x j.v.v.v.v.v.v.v.v.v.v.v.v.v.v.v.c.k.c.k.X.X.X.o.o.o.o.{ { { { { { ' { { R R R R R R R R H H R G R R G G G G R R R / / R R T U U A A U U Z Z Z c c c c c c c c > > > 9 > > > d d d > > > > > > 9 9 9 > > 9 9 > > > , , ) $X3X3X3X$X$Xv.z.v.v.` ^ _ v.v.j.` ^ j.v.v.j.` ` j.j.x.j._ ` _ z.z.` ^ ( q.c.q._ ^ ^ _ z.z.z. .) Z < % < < < < < * * * * * % % = * * = * = = * * * = * = = : , > U ~ ! ! ! ! ! ! ! ! ! ! ! T T U U c c > > > > > > > , , > > > > > > > , , , , , , , , : : < < < : : : : : : : : < , : : 9 Q w.n.n.n.n.S.n.q.Q Q Q Q ) ) Q Q Q k z h Q 9.Q Y k k Q 8.8.Q Y Q Q Q ) ) ) ) Q Y Y Q Q Q T U U U U U U U U U U U U U U Z c c c c c c c c c b b b , < < < < < < < < < % % < < < < < < < < < < < < : < , > c U U U U U T T T T R ! ! ! ! ! ! R R T U Z > , , < , < < < < < < d z.hXhX6X3Xj.j.2XhXhXhXhX$Xj.z.b.b.c.v.v.z.` ^ ` v.x.z.z.z.z.z.z.x.x.x.x.x.z.c.c.x.z. ._ ` ` j.z.z.z._ ` ^ ^ ` j.z.z.z. .` ^ S S G G G S S A A A A S A A S S S S R d ",
"3 3 2 3 6 6 6 6 3 6 6 6 6 6 2 2 6 6 6 6 6 6 2 2 2 2 w ,.5.5.4.4.6.6.6.6.6.6.6.6.6.6.6.6.6.6.6.6.6.6.6.6.7.7.2.<.E p 9 7 = = = = = = = = ; ; ; ; = = < ; ; ; ; ; ; ; ; , , , , , , , f f f f f f d d d d d d d d f f f f f f f f f S S S f S f f S c.6XMXMXMXMXZXDXDXDXDXDXDXDXDXBXBXBXmXmXmXmXmXmXmXmXmX6Xk.f f k.6XNXNXNXmXnXnXnXnXnX6X6X6X6X6X6X6X2Xv.K K z.b.v.v.v.v.v.v.v.v.v.v.v.v.v.v.v.k.@Xc.X.X.X.o.o.o.| { { { { { { { { { / / R R R R R R R R H H R R G G R R R / / |  ./ R R G U D D U U U Z Z Z Z Z c c c c c > > > 9 > > > d d d > 9 > > > > > > > > > 9 > > > > , < ) @X3X3X3X3X$Xv.z.v.b.j.^ _ v.v.c.` ^ j.v.v.j.` ` j.c.x.j._ ` _ z.z.` ^ _ z.c.z._ ^ ^ _ q.z.z.q.) Y , < < < < < < % % < * < < < < , , > n U U U U U U U ~ ~ ~ ! ! ! | ] ! ! ! ! ! ! ! | ] ! ! T U U U c > > > > > , > , > , v > > > > , , , , , , , , , : : < : < : : < < : : , : : , : < < z ! w.n.n.n.S.n.w.) Q Q Q ) 9.) Q Q Y z h Q 9.Q Y k k Q 8.8.Q Y Q Q Q ) ) ) ) Q Y U Q ! Q T Y U U U U U U U U U U U U Z c c c c c c c c b b , , , < < < < < < < < < < < < < < < : < < < < < < < < : : , > Z U T T R R ! ! ! ' { | | | | | | | / ! R R T U U Z Z Z Z Z Z Z A S q.4XhXhX2Xj.` 2XhXhXhXhX$Xj.x.b.v.c.v.v.z.` ^ ` x.x.x.x.x.x.x.z.x.x.x.x.x.x.z.z.z.z.j. ._ z.x.x.z.j.^ ^ ^ ` z.x.z.j. ._ ^ S S S G G G G A A A A S S S A G S S S R d ",
"3 3 3 3 3 3 3 3 6 6 6 6 6 2 2 2 6 6 2 6 6 6 2 2 2 2 w 3.5.5.4.6.6.6.6.6.6.6.6.6.6.6.6.6.r.r.r.6.6.6.6.6.7.7.1.:.E p 9 a : = = = = = = = = = = = = = = < < ; ; < ; ; ; , , , - , f f f f f f f f d d d d d d d d f f f f f S f f f S S S f S S f f f  .6XMXMXZXSXDXDXDXDXDXDXDXDXDXSXBXBXMXmXmXmXmXmXmXnX*XK f K *XnXNXNXNXnXnXmXnXnXnX6X6X6X6X6X6X6X2Xh.f ` v.b.v.v.v.v.v.v.v.v.v.v.v.v.v.@X@X@X@Xk.k.X.X...o.o.o.o.{ { { { { { { { { { / / R R R R R H R R R R R R / / /  . . . . ./ R G G U D U U U U A Z Z Z c c c c c 9 9 9 U d > Z d z z 9 9 9 > d > > > 9 d > > > > > > > < R n.3X3X3X3X$Xv.z.b.b.j.^ ` v.b.v.` ^ j.v.v.j.` ` j.v.c.j._ ` j.x.z.` ^ _ z.z.q._ ^ / _  .q.q.q. .) R U U Z d , , , , , , , > > Z U U U T ! ! ] ] | | ] ] | | | | ] ! ] ] | | ! ! ] | | ] ! T T U U Z c c c c > , > > v v , , > > > , , , , , , , : , , , : : : : : : < : < : ; : : : : < < < U ! w.n.n.n.n.n.q.) Q Q ) 9.) ) Q Y z h Q 9.Q Y k W Q 8.Q Q Y Q Q Q 9.) 9.) Q Y Y Q Q Q T Y U U U U U U U U U U U U c c c c c c c c v b , , , , < < < < < < < < < < < < < < < : % < < < < < < < : : , > U U T ! ! ! | | { { | | | | | | | | | | | { / ! ! ! ! ! ! / | / / / q.2XhXhX4Xv.` $XhXhXhXhXV.z.b.b.v.c.v.v.x._ ^ ` x.x.x.x.x.x.z.z.z.z.x.x.x.z.x.z.z.z.j.j.x.v.v.z._ ` ^ ^ ` j.c.c.z. ./ / S S S G G G G G S A G G S S S A S S G S R d ",
"3 3 3 3 3 3 3 3 6 6 6 6 6 2 2 2 6 6 6 6 6 6 2 2 2 2 u 3.4.5.4.6.6.6.6.6.6.6.6.6.6.6.6.6.r.r.r.r.6.6.6.6.7.2.1.E E p 9 a : = = = = = = = = = ; = = = = < < ; ; ; ; ; ; , - - - f f f f f f f f f d d d d d d d d f f f C V S f f f S S S S S S S S f f @XcXMXSXDXDXDXDXDXDXDXDXDXDXDXBXBXBXBXmXmXBXmXmX0Xk.V f j.6XNXNXnXNXNXnXNXnXnXnX6X6X6X6X6X6X6X$X` f j.V.v.v.v.m.v.v.v.v.v.v.b.v.v.@X@X@X@X@Xk.k.X.X...o.o.o.o.o.{ { { { { { { { { { ' { ' / R R R R R R R / / / |  . . .z.q. ./ G G D D D U U U U A A U Z c Z c c c > 9 9 U d d Z d z z 9 9 9 > > > > z z d d > > > > > > < Y c.3X3X3X3X$Xx.x.b.$Xj.K ` v.V.v.` ^ _ v.v.j.` ` j.v.j.j.` ` j.x.z.` ^ _ z.z.q.) ^ ( _  .q.q. . . .| ) ! R T T U U U U U U U U U U U T T ! ] | | | | | | | ] | | | | | | ! ! ! ] | ] ] ] ! ! U U Z Z Z c c c > > > > v v , , > > > , , , , , , , : , , , , : : : : : < < < : : , , : : ; < < , U 9.w.n.n.n.n.q.9.Q Q ) ) ) ) Q Y z z Q 9.Q Y k W Q 8.Q Q k Q Q ) 9.) 9.) Q Y Y Q ! Q Q T U U U U T U U U U U Z Z c c c c c c c v , , , , , < , < < < < < < < < < < < < < < : < < < : : < < < : : , > U U T R R ! | | | | | | | | | | | | | | | | | | | | | | | | | | | /  .2XhX6X6X3X` z.2XhXhX6Xb.z.b.b.v.z.v.v.v._ ^ ` x.v.v.v.v.c.z.z.z.x.x.x.x.z.z.z.z.z.z.x.v.v.z._ ^ x ^ ` j.x.v.z. .` S S S S R G G G G G S A G G G S S S G S G S R C ",
"2 6 6 3 3 3 3 6 3 6 6 6 6 6 6 6 6 6 6 6 6 6 2 2 2 0 +.3.5.4.4.6.6.6.6.6.r.e.6.6.6.6.6.6.6.6.r.r.6.6.7.7.7.1.<.:.i p p 9 7 = = = = = = = = ; ; = ; ; ; ; ; ; < ; ; ; , , , f f f f f f f f f f d f f d d d f f f d d f f f f C S S S S S S f S S S f f S 3XMXSXDXFXDXDXDXDXDXDXDXDXDXDXSXBXBXMXmXmXBXmX2X} f K *XNXNXNXNXNXmXnXnXnXnXcXhX6X6X6X6X6X6XV.K K v.m.m.b.b.b.b.b.b.b.b.v.v.@X@Xv.@X@Xv.c.k.k.X.X. .o.o.o.o.o.{ { { { { { { { { { { / / / / / / / / / / { `  . . . .j. . .| R R G G A S D D D A U U U U Z Z Z c c > > c Z Z > > > c c c > > > c c c z d > d d > c c Z d , d q.3X3X3X3Xb.z.v.$X$Xj.` _ v.V.v.j.^ ` v.v.j.` ` j.c.c.j.` ` j.x.z.` ` `  .q._ ` ( / _  . . . . .| | / / ! ! ! R R T T T U U T U U U T ! ! ! ] ] ] | | | ] ] | | | | | | ] ] ] ! | | | ! ! T U U U Z c c c c > , , , v v v c c c > , , , , , , < < , , , : : : : : < < : : : < < : < , : : : ; > U ) w.n.n.n.n.q.) Q Q ) 9.) Q Q h z Q 8.Q Y k Q Q ) Q Q k Y Q 8.9.9.) ) Q Y Y Q ! R U U U U U Y U T U U U U c c v , , b v v v v , , , , < < < < < < < < < < < < < < < < < < : : : : : < < < : < , , Z U T ! ! ! { | | | | | | | | | | | | | | | | | | | | | { | | | | `  .3XhX6X6X6Xx.` b.hXxX6Xv.v.$Xb.b.z.v.v.v.j.^ ^ z.v.v.x.z.x.z.z.c.z.x.x.x.x.x.z.z.z.x.v.v.z.` K x ^ _ z.v.v.x.j.` S S S S S S G G G G G G S S S S S S S G S G G R C ",
"2 6 6 3 3 3 3 6 3 6 6 6 6 6 6 6 6 6 6 6 6 6 2 2 5 0 +.3.5.5.4.6.6.6.6.6.r.e.6.6.6.6.6.6.6.6.r.r.6.6.7.7.7.1.<.E i i p 9 a 7 = = = = = ; ; ; ; = ; ; = ; ; ; < ; < ; , , , f f f f f f f f f f f f f d d d d f f d d f f f f V C S S S C S C S S S S f f j.hXSXFXFXDXDXDXDXDXDXDXDXDXDXDXBXBXMXMXmXmXnX*XK f K 6XNXNXNXNXNXmXmXmXnXnXnXhX6X6X6X6X6X6Xx.K ` v.V.v.b.b.m.b.b.b.b.b.v.@X@X@X#X$X@Xv.c.k.k.X.X.o.o.o.o.o.o.{ { { { { { { { { { { { / { { { { / / ` `  . . .j.j.j.j. . ./ R G T S G T D D D U U U U U A U U Z c c c c Z Z 9 > > > d d > > > c c c > > d d d Z n c Z Z , d  .3X3X$X$Xb.x.b.3X$Xj.` h.v.b.b.j.^ ` v.b.c.` ` j.c.c.j.` ` j.c.z.` ` `  . . ._ ` ) _  . . . .| | / ! ! R R R R R T T T U U U U U U T T ! ! ] ] ] | | | | | | | | | | | ] ] | ] | | | ! T T U U U Z Z c c c c c , , , v c c c c > , , , , , , , , , , , : : : , : < < : : : : : : : , < < : < , > U 9.w.n.n.n.q.9.Q Q ) 9.9.Q Q h h Q 9.Q Y k Q Q Q Q Q k Q Q 8.) ) ) ) Q Y Y Q ! Q U U U U U U U U U U U c c c v , , b b v v b , , , , < < < < < < < < < < < < < < < < < < : : : : < < < < < < , > Z U T R R ! { | | | | | | | | | | | | | | | | | | | | | | | | | | ` ` 3X6XhXhX6X3X_ ` 3X6X3Xx.b.3X$Xb.x.v.v.v.j.^ ^ z.v.v.x.x.x.z.v.c.z.v.z.z.z.z.z.x.v.v.z.j.^ x f ^ _ j.x.v.v.j.` ^ S S S S S G G G G G G G G S S S S S S G S G G R C ",
"2 3 3 3 3 3 6 6 3 6 2 6 6 6 6 6 6 6 6 6 6 6 2 2 5 0 @.3.5.5.5.4.6.6.6.6.6.6.6.6.6.6.6.6.6.6.r.r.6.6.6.7.7.1.:.N N i i p 9 7 = = = = = ; = = = = = = < ; ; < ; ; < ; ; , , f f f f f f d f f d d f f f d d d d f d d d f f f f V f f S f f f S S S S S f K 4XFXFXFXDXDXDXDXDXDXDXDXDXDXDXSXBXBXBXBXBX0Xk.J f h.6XNXNXNXNXNXmXmXnXnXnXcXcX6X6X6X6X6X2Xh.K h.V.V.v.b.b.v.b.b.#X$X#Xb.#X$X@X$X$X@X@X|.k.k.X.} } o.o.o.o.o.o.o.o.{ { { { { { { { { o. . . . . . . . . . .j.j.j.j.j.j. ./ R G T G T T D U D U T U U U U U U U U c c c z 9 9 9 z > d d > > z z > 9 9 9 9 9 > c n n z z , , ( @X3X$Xb.v.b.$X3X$Xj.` j.b.V.$Xj.^ ` v.b.c.` ` j.c.j.j.` ` z.v.z.` ^ ` _  . ._ _ _  . . . .| | / / ! R R R R R T T T T T U U U U U T T ! ' ] | | | | | | | | | | | | | ] ] | ] | | ] ! T U U U A Z Z Z c c c c c c c c c c c c > , , , , , , , , , , , , , : : , , , : : : : : : : , , : : , < < > Q 9.q.n.n.w.q.) Q Q ) ) Q Q h h Q 9.Q Y Y Q Q 8.Q Q Y Q Q ) ) ) Q Q Q Y Y Q ! Q T U U U U U U U U U c c v , , , , , b b b b , , , , < < , , < < < < < < < < < < < < < < < : < < < < < < < < < , > Z T T ! ! { | | | | | | | | | | | | | | | | | | | | | | | | | { { / @X6XhXhXhXhXb.K / v.z.j.3X2X$Xb.v.v.v.v.z.^ ^ j.v.v.z.x.x.v.v.v.v.x.x.x.x.z.x.x.x.j.` x f f ^ _ z.x.x.z.z._ / S S S G S G G G G G G G G G S G S S G S G S G G R C ",
"3 3 3 3 3 3 3 6 3 6 2 2 6 2 6 6 6 6 6 6 6 2 2 2 2 r &.3.5.4.5.4.6.6.6.6.r.r.e.6.6.6.6.6.6.6.r.r.6.6.6.7.7.<.E i N i i p 9 a : = = = = ; ; ; = = = = < ; < < < , < ; ; , - f d f f f d d f f d d d d d d d d d d d d d f f f f f f f f f f f f S f S S f S 4XGXFXFXFXFXDXDXDXDXDXDXDXDXDXDXSXBXBXBXNX4Xo.f J l.nXBXNXNXNXNXNXmXnXnXnXnXcX6X6XhX6X6X*X` ` v.V.V.m.V.m.m.b.#X#X#X#X#X$X$X*X#X#X@X|.|.k.k.} } } o.o.o.o.o.o.o.o.{ { { { { { { { o. .j.c.c.j. . .j. . . .j.j.j.j.j.j. ./ Y G T T G T G D D D U T U U U U U U U U Z Z z z 9 9 9 9 > d z z z z 9 9 9 > 9 9 9 n > > d z > , Y n.3X$Xb.v.V.3X2X$Xj.` z.V.V.$Xz.^ ` v.b.j.` ` j.x.j.h.` _ z.v.z.` ^ `  . . ._ _  . . . .| | | / ! R R R R R R T T T T T T U U U U U T R ! | | | | | | | | | | | | | | | | | | | | ] ! T U U U U Z Z Z c c Z c c > c c c c v v v , , , , , , , , , , , , , : , , , , , : : < < : : , , < < , , , > U ! 9.q.w.n.q.9.) Q Q Q Q Y z k 8.9.Q W Y Q Q 8.8.Q Y Q Q ) ) ) Q Q Q Y Y Q ! Q T U U U U U U U U Z c c , , , , , , , , b b , , , , , < , , < < < < < < < < < < < < < < < < < < < < < < < < < < , > U T ! ! { | | | | | | | | | | | | | | | | | | | | | | | | | { { / @X6XhXhXhXhX6Xc.S f K z.6X6X3Xb.v.x.v.v.z.` ^ j.v.v.v.x.x.x.v.v.x.x.v.x.x.v.v.j.` ^ f f f ` j.x.z.v.x.z. ./ S S S G G G G G G G G G S G G G G G G G G G G G S R A ",
"3 3 3 3 2 2 3 6 3 3 6 6 6 6 6 6 6 6 6 6 2 2 2 2 5 w =.3.5.5.4.4.6.6.6.6.6.6.6.e.r.r.6.6.6.6.r.r.6.6.6.7.1.<.E N N i i p 9 a 8 = = = = ; ; ; = = = = < < < < ; ; , ; , , - - d d , f f f f f d d d d d d f f f f d d d d d f f f f f C C S S f f S S S f f 5XGXGXFXFXFXDXFXDXDXDXDXDXDXDXDXDXBXBXBXnX*XK f K *XNXNXNXNXNXNXNXmXnXnXnXnX0X6X6XhX6X6Xv.S ` V.V.b.V.m.m.m.b.b.$Xb.$X#X#X@X@X@X@X@X|.|.k.} } } } o.o.o.o.o.o.o.o.o.{ { { o.{ { { o. .v.v.v.j.j. . .j. . .j.j.j.j.z.j.| / R G T T G G U G U U U U U A U U U U U Z Z Z Z Z Z z 9 9 9 > > 9 9 > z > d d 9 9 d Z d d z d d , d q.$Xb.b.b.$X2X2Xb._ ` x.V.$X$Xz.^ ` v.b.z.` ` j.x.j.j.` j.x.v.j.` ^ `  . . . . . .q.q. .| / / / ! R R R R R R T U U U T T U U U U U U T ! ! | | | | | | | | | | | | | | | | | | | ! ! T T U U A Z Z Z Z c Z Z Z Z c c c c c c , , , , , , , , , , , , , , , , , , , : : : < < < : : : : : , , < d Q ! ) ) q.q.w.q.9.) Q Q Q h z Y 9.9.Q k Y Q Q 8.Q Q Y Q Q ) ) ( Q ) Q Q Y Q Q Q T U U U U U U U U Z c v , , , , , , , , , , , , b , , , < < < < < < < < < < < < < < < < < < < < < < < < < < , , , , Z T R ! { | | | | | | | | | | | | | | | | | | | | | | | | | { { { @X6XhXhXhXhXvXhX$X_ j.3XhX6X3Xb.x.v.v.v.z.` ^ _ x.v.v.v.x.x.x.x.z.z.z.x.x.z.j.^ f f f ^ ` j.x.v.v.v.z. ./ G S G G G G G G G G G G G G G G G G G G G G H G H G R A ",
"3 3 3 3 2 2 3 6 3 3 3 2 6 2 6 6 6 6 6 2 2 2 2 2 6 u >.5.4.5.6.6.6.6.6.e.6.6.6.6.6.r.6.6.6.6.r.r.6.6.6.7.<.:.E N i i p p p 9 7 : = = = ; ; ; = = = = < < ; < ; ; , , , , - - d d , , f f f f d d d d d d f f f f d d d d d d f f f f C C C S C S S S S S f 5XFXGXFXFXFXDXFXDXDXDXDXDXDXDXDXDXDXSXBX0Xl.K f h.6XSXNXNXNXNXNXNXmXnXnXnXnX0X6X6XhX6X2X` x j.$X$XV.$XV.$XV.m.$Xb.$X$X#X#X@X*X+X@X+X|.|.k.} } } } } } } o.o.o.o.o.o.o.o.o.o.o.{ {  .k.@Xv.v.j. . .j.j.j.j.j.j.z.z.z.j./ / R G R T D D D D D U U D D A A U U U U Z Z Z Z Z Z Z Z Z c c > c d Z Z d d d 9 9 d Z > d Z d d , d / c.v.b.b.3X2X3Xv.` h.V.$X$XV.j.^ ` v.V.z.` ` j.x.j.j._ j.c.v.j.^ ^ / _  . . . .q.q.q. .| / / R R R R R R R T U U A A U U A U U A A A T R ! | | | | | | | | | | | | | | | | | | | ! ! T T U U U A U Z Z Z Z Z Z Z Z c c c c c , , v , , , , , , , , < , , , , , , , , , < < < : , , , : : , < < U ) q.) Q Q ) q.q.q.9.) Q h h h Q 9.8.Q k Q Q Q 8.Q Q Y Q Q ) ) ( Q ) Q Q Y Y Q R T U U U U U U U Z c v , , , , , , , , , , , , , b b , , , , < < < < < < < < < < < < < < , , < < < < < < < < , , < , , Z R R R / { | | | | | | | | | | | | | | | | | | | | | | | { {  .@X6XhXhXhXvXcXvXvXhXhXhXhX6X2X$Xv.v.v.v.v._ ^ ` z.v.v.x.x.x.x.x.x.z.v.v.z.` f f f x ` z.x.v.x.v.v.c.j.` G S G G S G G G G G G G G G G G G G G G G H H H G H H R A ",
"6 6 3 3 2 2 2 6 3 3 3 2 2 2 6 6 6 6 2 2 2 2 2 2 7 u 3.5.5.5.6.6.6.6.6.e.r.e.e.r.r.r.r.r.r.r.6.6.6.6.6.7.<.E N E i i i p p 9 a 7 : = = ; ; ; = = = = = ; ; < ; ; , , , - - , f d , f f f f f d d d d d d f f f f d d d d d d d f f f C C S S S S C S S f f 4XFXGXFXFXFXFXFXDXDXDXDXDXDXDXDXDXDXDXSX6Xj.f f k.nXSXNXNXNXNXNXNXnXnXnXnXcX0X6X6X6X6X$XK K v.$X$X$X$X$X$X$X$X$X$X$X#X#X$X*X*X*X+X@X|.|.k.} } } } } } } } o.o.o.o.o.o.o.o.o.o.o.o.j.v.$X@Xv.j.`  .j.j.j.j.j.j.z.z.z.j./ R R G R T G S D D D D D D D D U A U U U Z Z Z Z Z Z Z Z Z Z Z c c c c Z Z Z Z Z Z Z Z > > d d d > , S  .c.b.$X2X2X3Xz.` z.$X3X3XV.h.^ ` v.b.j.` ` j.c.j.j.j.j.c.v. .^ ^ ` _  . . . .q.q. . .| / ! R R R T R R T T U U A A A A U U U A Z Z A U ! | | | | | | | | | | | | | | | | | | { ! R T T U U U U U U Z Z Z Z c Z c c c c c v , , v , , , , , , , , , , , , , , , , , < , : : : , , , , , , , , U q.n.q.9.Q Q ) 9.q.q.) Y z h Y 9.9.Q k k Q Q Q 8.Q Q Y Q Q ) ) ) ) ) ) Q Y Y Y T U Z U U U U Z c c v v , , , , , b b v v , , v v v b , , , , , < < < < , < < < < < < < < , , , < < < < < < < , , , & C A R R R R R / / { { | | | | | | | | | | | | | | | | { | | {  .` c.4XhXhXhXnXcXhXvXvXcXhXhX6X6X$Xv.v.v.v.v.j.^ ` z.v.x.v.x.x.x.x.v.z.v.x.` f f x ` j.x.v.v.v.v.v.x.j._ ^ G G G G S G G G G G G G G G G G G G G G G H G H H H H / S ",
"2 6 6 6 2 3 3 6 2 3 3 2 2 2 6 6 6 2 2 2 2 2 2 2 6 #.3.5.5.5.6.6.6.6.6.e.r.r.r.e.r.r.r.r.r.r.6.6.6.6.6.7.<.E i i l i i p p p a a : = = ; = ; = = ; = < ; ; < ; ; , , , - - , d d f f f f f f , , d d d d d f f f d d d f d d f d d f C C S S S f S S S f f 4XGXGXFXFXFXFXFXDXDXDXDXDXDXDXDXDXDXDXSX7XK f K m.NXBXNXNXNXNXNXmXnXnXnXnXcX0X6X6X6X6Xk.f ` $X$X#X$X$X$X$X$X$X$X$X#X#X#X*X$X*X*X+X@X|.k.k.} } } } } } } } o.o.o.o.o.o.o.o.o.o.o. .k.#X$X$Xv.j.` j.c.c.j.j.j.j.z.z.j. ./ R R T R G G G D D D D D D D D U U A U A U Z Z Z Z Z Z Z Z Z Z c c c Z Z Z Z Z Z Z Z Z > > d d d d & f / z.b.3X2X2X$Xj.` v.3X2X2X$Xh.K _ b.b.j._ _ z.z.j.j.j.j.z.v.j.^ ^ `  . . . . .q.q. .| / / / R R R R R R T T U U D U A A U U A Z Z Z Z A ! ] | | | | | | | | | | | | | | | | | { ! R T T U U U U U U U Z Z Z d c c c c c c , , , , , , , , , , , , , , , , , , , , , < , , , , , , , , : < < , U q.n.n.w.9.Q Y Y Q ) Q Y z h Q 9.9.Q h k Q Q ) 9.Q Q Y Q Q ) ) ) ) ) ) Q Y Y T U U Z Z U U Z c v , , , , , , , v b v v v , v v v v v , , , , , , , < , , < < < < < < < < , , < < < < < < & , , , , c D R R R R R R R / { { { | | | | | | | | | | | | | |  .| | | |  .| c.2XhXvXhXhXvXcXcXcXhXhXhX6X6X2X$Xv.v.v.v.z.^ ` z.v.v.x.v.x.v.v.v.v.z.` f f ^ j.x.v.v.v.x.v.v.v.x. ./ G G R G G G G G G G G G G G G G G G G G G G H G H H H H / S ",
"6 2 3 3 6 6 6 3 2 2 2 2 2 2 6 6 6 6 2 5 6 6 5 6 0 +.3.5.5.4.5.6.6.6.6.e.e.r.r.r.6.6.6.r.r.r.r.r.r.r.6.1.E i i p i l l i p p 9 a ; ; = ; = = = ; ; ; ; ; ; < ; ; , ; , , , & f f , , f f f d d d f f f f d d d f d d f d d d d d d S f f S S S S C S S & / vXKXFXFXFXFXFXDXDXDXDXFXDXDXDXDXDXDXDXBX*XK f K *XNXBXNXNXNXNXNXNXnXnXnXnXnX0X6XhX6X2X` x x.$X$X$X$X$X*X$X$X$X$X$X#X#X$X$X*X*X*X*X+X|.|.k.} } } } } } } } } o.o.o.o.o.o.o.o.o.o.j.v.m.#X$Xv.` ` j.v.j.j.j.j.k.v.c.j. ./ R R G T T D D D D D D D D D D U U U U D A A A Z Z Z Z Z Z Z Z Z Z Z Z Z Z Z Z Z Z Z Z Z Z Z d Z > Z f Y z.$X2X2X3Xx.` j.$X3X2X2X$Xh.^ h.V.b.j.` j.z.x.z.j.z.z.c.c. .^ ^ `  . .q.q.q.q. .| | | / ! ! R R R R T T T U A U A A Z A Z Z Z c c c A ! | | | | | | | | |  . .| | | | | | | { ' R R T U U A U U A A Z Z Z Z c c c c c c c c v , , , , , , , , , < < < , , , , < < < < , , < < : : : , : , < Z q.n.@X1Xn.q.Q U g g g g g Q 9.9.Q h h Q Q Q Q Q ) Q k Q Q ) ) ) ) ) ) Q T U U U Z Z c c c c v v , , b b b b b b , , v v b b , , , , , , , , , , , < < < , , < < < < < , < , , < < < , , < < < < & R  .X...| { { { { { { | | | | | | | | | | | | | | | | | | | | { { o. .$XhXcXcXnXcXcXcXnXcXhXhX6X6X2X$Xv.x.v.v.z.` ^ z.b.x.x.x.x.x.v.b.v.z.x f ^ j.x.v.x.b.v.v.v.v.z. ./ / G G G G G G G G G G G G G G G G G G G G G G H H H H R H / S ",
"6 3 3 3 3 6 3 3 2 2 2 2 2 2 6 6 2 6 2 5 6 6 5 7 w &.3.5.5.5.5.6.6.6.6.e.r.r.r.r.6.6.6.6.6.r.r.r.r.r.7.<.E i i i i l i p p p 9 a a ; = = = = = ; ; ; ; ; ; < ; ; ; ; , , , f f f f f f f f d d d f f f f d d d d f d f f d d f f d f f f V f f f f S f f @XHXGXFXFXFXFXFXDXDXDXDXFXDXDXDXDXDXDXFXBX#Xf f ` 6XBXBXNXNXNXNXNXmXnXnXnXnX0XcX6XhX6Xm.K K v.$X$X$X$X$X$X$X$X$X$X$X$X$X$X$X*X#X#X+X+X|.|.k.k.} } } } } } } } o.} o.o.o.o.o.o.o. .k.v.$X$X$Xc.`  .c.v.j.j.j.j.c.v.c.j. ./ R R G T T D D D D D D D D D D U U U U U U U U U U U U U Z Z Z Z Z U U Z Z Z Z U U Z Z Z Z Z Z Z Z d , S _ $X2X2X$Xj.` z.3X2X2X2X$Xh.^ j.V.b.j._ j.z.x.z.z.z.z.c.z. .^ ^ `  . .q.q.q. . .| | | / ! R R R R R T T U U A A A A Z Z Z Z Z c v c U ! | | | | | | | | | | | |  .| | | | | { ' ! R T T U U U A A A A Z Z Z c c c c c c c c c , , , , , , , , , , , < , , , , , < < < , , < < < : : , : , < Z q.n.n.n.S.n.q.) Y g h g Q ) 9.) Y z h Q Q Q Q Q ) Q k Q Q ) ) ) ) ) ) Q U U U U Z c c c v v b v , , , , b b b b , , v v v b b b , , , , , b , b , , , < , , , , , , , , , < < , , , < < % % % % f | c.c.X. . . .| | | | | | | | | | | | | | | | | | | | | | | | { {  . .$X6XcXcXnXcXcXcXnXcXhXhXhX6X2X$Xv.v.v.v.z.` ^ z.v.x.x.v.v.v.v.v.v.` f ^ j.v.v.v.x.v.v.v.v.c.j._ / H G G G G G G G G G G G G G G G G G G G H H H H H R H R R / S ",
"3 3 3 3 2 2 2 2 2 2 2 2 2 2 6 6 2 2 2 5 6 2 2 6 +.*.3.5.5.5.6.6.6.6.6.6.e.e.r.r.r.6.6.6.6.r.r.r.r.6.7.<.i p p p p i i p p p 9 9 a : = = = = ; ; ; ; ; ; ; ; ; ; ; , , - , f f f f f f f d f f f f f f f d d d d f f f f d d d d d f f f f f C C S f & G hXGXGXFXFXFXFXDXDXDXDXDXFXDXDXDXDXDXDXFXmXk.f K k.nXSXNXNXNXNXNXNXnXnXnXnXnX0XnX6XhX6X` x j.$X$X$X$X$X$X$X$X$X$X$X$X*X*X$X$X*X*X*X*X+X|.k.k.k.k.k.} } } } } } } } } o.o.o.o.o.o.j.v.$X$X$X$Xj.` j.v.v.j.j.j.j.c.v.c. . ./ R G G T T D D R T T U U D D D U U U U D T T U U T T U U U U U U U U U U U U U U U U U U U U U c U d & & Y b.3X2Xv.` ` b.2X2X2X2X$Xh.` x.$Xv.j.h.j.z.x.z.z.z.x.c.z._ ^ ^ _  .q.q.q.q. . .| | ) / ! R R R T T U T T U A A A A Z Z C Z Z c v A R | | | | | | | | | | | | | |  . .| | | | { ! R R R R U U U A A A A Z Z c c c Z Z c c c c v , , , , , , , , , , , , , , , < < < < , , < < < , , , < , < U q.n.n.n.n.n.n.w.9.Q Q Q 9.9.9.Q z z Y Q Q ) Q Q ) Q Y Q Q ) ) ) ) ) ) Q U Z d Z , , c , b b , , , , , , , , b b , , , , v , v v v v , , v , b b , , , , , , , , b , , , & v < < v < < & R { |  .q.c.@Xc.j.X.X. . .X. .......| | | | | | | | | | | | | | | | | | |  . . .c.4XcXcXnXcXcXcXnXcXcXhXhX6X6X$Xv.v.v.v.x._ ` j.v.v.v.v.v.v.v.v.z.^ x j.b.b.v.v.v.v.v.v.c.z. ./ K H H G G G G G G G G G G G R R G G G H H H H R H H H H R R / S ",
"3 3 3 2 2 2 2 2 2 2 2 2 2 6 6 6 2 2 2 2 2 2 2 6 +.,.5.5.4.5.5.6.6.6.6.6.6.r.6.6.e.e.6.6.6.r.r.r.r.6.5.:.i p p p p i i p p p 9 9 a a 7 : ; : = ; ; ; ; ; ; ; ; ; ; ; , - , d d f f f f f d d f f f f f f d d d d d f f f d d d d f d d f f f C C f & V @XAXFXFXFXFXFXDXDXDXDXDXDXDXFXDXDXDXDXDXFX0XK f K *XNXNXNXNXNXNXNXmXmXnXnXnXnXcXcX6X6X$XK K v.$X$X$X$X$X$X$X$X$X$X$X*X*X*X*X*X*X*X*X+X|.|.k.k.k.k.k.k.} k.} } } } } } } o.o.o.o. .k.#X$X$X$X$Xj.` j.b.v.j.j.j.c.c.v.c. .{ R R G G R T D D R R T U U U U G U U U U T T T R T T T T T T T T T T T T T U U U T T U U U U U U U Z & & & S c.3X3Xz.` j.$X2X2X2X2XV._ ` v.$Xv.j.j.j.z.x.z.z.x.z.v.z._ / ^  . .q.q.q.q. . .| ) / / ! ! R R T T U T T A A U A A Z Z C C c c c U ! | | | | | |  . .| | | |  .| | | | | | | | ! R R R R G U D D A A A A Z C C c C C c c c c c , , , , , , , , , , , , , , , , , < < < < < < , , , , , , < Y w.n.n.n.n.n.n.n.q.q.9.9.9.9.Q h z h Q Q ) ) Q ) ) Q Y Q Q ) ) ) ) ) ) Q Y Z > > , , v , v , v , , , b b , , , b , , , , v , v v v v v , , , v v v v , , b b b v v v b b b , < , , % V @XbXbXMXcX4X@XX.X. . . . . . . . . ...........| | | |  . .| | | |  .| | |  . . .o.j.4XcXnXnXnXnXnXnXcXcXhXhX6X6X2Xb.v.v.v.v._ ` _ v.v.v.v.v.v.v.v.j.^ ` x.v.v.x.v.v.v.v.v.z. ./ / G H H G G G G G G G G G G G G G G H H H H H R R R H H H / R / S ",
"3 2 2 3 2 2 2 2 2 2 2 2 2 2 2 2 2 2 2 2 2 2 2 0 &.,.5.4.4.4.5.6.6.6.6.6.6.6.6.6.6.6.6.e.r.e.r.r.r.7.3.:.p p p p p p p p p p p 9 9 a a a a : ; ; ; = ; ; ; ; ; ; ; ; , - - d d d , f d d f f f f f f f f f f d f f d d f d d d d d d S d d C f f & S c.vXGXFXGXDXDXDXDXDXDXDXDXDXDXFXDXDXDXDXDXDX7XK f j.6XBXNXNXNXNXNXmXmXnXnXnXcXcXnX6XcX6Xk.K j.$X$X$X$X$X$X$X$X$X$X$X$X$X*X*X2X2X:X*X+X+X|.|.k.k.} k.k.} } } } } } } } } } } o.o.o.k.@X$X$X$X$X$Xj.` v.b.v.j.j.j.c.c.v.c. ./ R R G G R G G D U U D D T T R R T U D U A U U U T T T T T T T T T T T T T U U U T T T T T U U U A & C R /  .c.$Xv._ ` v.3X2X2X2X2Xv.` ` b.$Xv.j.j.j.z.z.z.x.x.v.c.z._ ` `  .q.q.q.q. . . .| | / / ! ! R R R R U T D D A A A Z Z Z Z C c c Z R |  .| ..| | | | | ........| | | ..| | | | | ' ! R R R R R G D U A A A A Z C C C C c c c c c c , , , , , , , , , , , , , , , < , , , , , < , < , < , , , R n.n.n.n.n.n.n.w.q.q.q.9.9.Q h z h Q ) ) ) ) ) ) ) Q Y Q Q ) ) ) ) ) ) Q Y Z > , v b v b v v , , b b b b , , b b b b b b v v , , v v v v v v v v , v v , v v v v v v v , , , c < % G 5XMXMXMXMXbX4X@Xk.k. . . . . . . .X. . ......... . .........| |  . . .| | |  . . .o.j.2XcXnXnXnXnXnXnXnXcXhXhX6X6X2X#Xv.v.v.v.j.` _ v.v.v.v.v.v.v.v._ ^ _ b.b.v.v.v.v.v.v.c.j.` / K G H H H G G G G G G G G G G G G H H H H H R H H R H H H H H / S ",
"2 3 2 2 2 2 2 2 2 2 2 2 2 2 2 2 2 6 2 2 2 2 3 w =.,.5.5.6.6.5.6.6.6.6.6.6.6.6.6.6.6.6.e.e.e.e.e.6.7.<.N p p p p p p p p p p p 9 9 8 8 9 9 a a a a : = ; ; ; , , , , , , - d , , , , f d f f f f d d d d f f f f d f d f f d d d S d d d d C f f / @XhXSXGXDXFXFXDXDXDXDXDXDXDXDXDXFXDXFXDXDXGXDX*XV J l.nXBXNXNXNXNXmXmXmXnXnXnXnXcXcXhXnX2X` K v.$X$X$X$X$X$X$X$X$X$X$X$X*X*X2X6X6X6X:X*X+X|.k.k.k.} k.k.k.k.k.k.} } } } } } } } o.} @X*X2X3X$X$Xv.j.` v.b.v.j.j.j.c.v.v.c. ./ R R G G R G G D U U U D T T R R D D D D A D D D T T T U U U T T T T T T T U U U T T T T T U A A & R @X4X4X4X3Xc._ ` j.$X2X2X2X2X$Xj.` h.V.$Xx.j.j.j.z.z.x.x.z.v.x.z. ._ _  .q.q.q.q. . . .| | / / ! ! R R R R T T D D A A A Z Z Z Z c v c A ! | ......| | | | | | |  .| | | |  . . . . .| | ! R R R R R R R T T T D A A Z C C C C Z C c c c v v , , , , , , , , , , , , < < < < , , , , , , < < , < , ) n.n.n.n.n.n.n.q.q.q.q.9.Q Y z h Q ) 9.) ) 9.) ) ) Q Y Q ) ) ) ) ) ) ) ) Y d , , v b b b , b , , , , , , , , b b b b v v v v v v v v v v v v v v v v v v c c c c v c & & , , < % R 4XMXbXbXbXbXbX6X@X . . . . . . . . .X. . . . ......................... ....... . . . .j.2XcXnXnXnXnXnXnXnXcXcXhX6X6X2X$Xv.v.v.v.j.` ` v.v.v.v.v.v.v.v.` x h.V.b.v.b.v.v.v.c.j._ / K K H H H G G G G G G G G G G G G G H H H H H H H H H H / H / H / S ",
"2 3 3 2 3 3 2 2 2 2 2 2 6 6 2 2 2 6 2 2 3 2 6 u ,.3.5.5.6.6.5.6.6.6.6.6.6.6.6.6.6.6.6.6.6.6.e.e.6.5.:.i p p p p p p p p p p t t t 8 t 9 p 9 9 9 a a : ; - a 9 h h z > , - d , , , , , f f f f f d d d f f f f f d d d f f f f d d d d d d d f  .4XvXZXHXFXFXDXFXDXDXDXDXDXDXDXDXDXDXDXFXDXFXGXBXk.f K *XNXBXNXNXNXmXmXmXnXnXnXnXnXcXnXnX6Xv.K ` $X$X$X$X$X$X$X$X$X$X$X$X$X$X*X6XcXcXqX6X4X:X+Xk.} } P P } } } } k.k.k.} } } } } } } k.*X2X2X2X3X$Xv.` ` v.b.v.j.j.c.v.v.c.c. ./ R T T T R G D D T T D D G G G G D D D D D U D D R T T T U T T T T T T T T U U U U U T T T U A A / 5XbXMXbXbX6Xc.` j.b.2X2X2X2X2XV.` ` x.$XV.x.h.j.z.x.x.x.c.c.c.z.j. . . . .q.q.q. . . .| | | ! / ! R R R R R U D D D A A A Z Z C Z c , C R | | ........| | |  . .|  . .| | | |  . . .| | | { ! R R R R R R R R R R T D D A A A A A Z Z C c v v v , v v , , , , , , , , , < , , , , , , , < < < , < , | n.n.n.n.n.n.n.w.q.q.q.) Q h g Y ) 9.9.) 9.9.) 9.9.Q Y Q ) ) ) ) ) ) ) ) U d , , v , b , , , , , , , , , , , v v v v v v v v v v v v v v v c v v v v v c c c c c , & & & , < % R 4XMXbXcXbXbXbXcX2X@Xj.j. .o.o. . . .X.}  . . . ....... .........................|  . . . .*XcXnXnXMXnXnXnXnXnXcXhXhX6X6X2X$Xv.v.v.j.` ` v.v.v.v.v.v.v.v.` x z.V.b.x.v.v.v.v.z. ./ K H H G G H H H H G G H H H H H H H H H R H H H H / / / H / H / / { G ",
"2 3 3 2 3 3 2 2 2 2 2 2 6 6 2 2 6 6 2 2 3 2 0 %.,.5.5.5.6.6.5.6.6.6.6.6.6.6.6.6.6.6.6.6.6.e.e.e.6.3.:.i p p p p p p p p p p t t t 8 t p p p p p 9 a : : a 9 h W W U h , - - , & , , , f f f d d d d f f f f f f d d d d f f d d d d d d d f Y 3XvXMXSXDXDXGXFXDXDXDXDXDXDXDXDXDXDXDXDXFXDXFXGXbXK f ` 6XBXNXmXNXmXmXmXmXnXnXnXnXnXnXcXnX6X` K j.$X$X$X$X#X$X$X$X$X$X$X$X$X$X*X6XnXmXmXmXnX0X6X>X*X+X|.k.}.}.|.|.k.k.k.k.k.} } } } } k.*X2X6X2X2X$Xv.` j.v.V.v.j.j.c.v.v.c.c. ./ R G T R R T D U R R G D G G G D D D R R T U R D R R T T T T T T T T T T T T T T U T T T T D A A 4XbXbXcXcXcX6X$Xj.v.3X2X2X2X2X2Xb.` ` v.$X$Xv._ j.z.z.z.x.c.v.x.z.z. . . .q.q.q. . . . .| | | ! / ! R R R R U U D D A A A A Z C C Z c , Z R | | ....| | | | |  . . .|  .| | | | |  . . .| | { / R R R R R R R R R R R R T D D D D A A A C c c v c c v v v , , , , , , , , , , , , , , , < < < < , < > | n.n.n.1Xn.@Xn.w.q.q.9.Q h g h Q 9.9.) ) 9.9.) 9.9.Q Y Q ) ) ) ) ) 9.) ) U d , , v , b , b , , , , , v , , , v v v v v v c v v v v v v v c v v c c c c c c C c C & & & & < C ..4XbXbXcXbXbXbXbX6X*Xk.j.j. ./ /  . . .} X.X.X. . . . ... . ............... . ......... . . .$XcXNXMXNXnXnXnXnXnXcXhXhX6X6X2X$Xb.v.v.j.` _ v.v.v.v.v.v.v.x.^ x z.b.b.b.V.v.v.c.j.` / H K H H G H H R R H H H H R H R R R R H R H R R R / / / R / O./ / { G ",
"6 3 3 3 3 3 3 2 2 2 2 2 2 2 2 2 2 2 2 2 1 2 w *.3.5.5.4.4.4.4.4.6.6.6.6.6.6.6.6.6.6.6.4.6.e.e.e.7.<.i p p p p p p p p p p t t t t t p p p p p p 9 a = a 9 l W 8.8.8.Q U , ; , - f f f f f f f f f f d f , f f f d d d d d d f f d d d d d f R 3XcXMXSXHXFXDXDXDXDXDXDXDXDXDXDXDXFXDXDXFXDXDXFX4XK f k.6XBXmXNXNXmXmXmXmXnXnXnXnXnXcXcXnX2XK K v.$X$X$X$X$X$X$X$X$X$X$X2X$X*X6XcXmXmXmXmXmXmXmXmXmXmXmXmXmXmXmXmX0X=Xk.} k.} } } } } @X2X6X6X6X2X2Xx.` j.v.#Xv.j.j.v.v.v.v.z./ / R R R R R R R R R R G T T G G T T T T T R R R R R R R R U U T T T T T G G G T T U A T U T C V 5XbX0X0X0X0XcX6X2Xv.$X2X2X2X2X2X$Xz.` h.V.3X$Xj.j.z.z.x.x.x.v.x.z.j.z.j.z.c.c.q.X. . . .| | | / ! R R R T R R D D D D A A A A Z Z C c c c A ! | | | .... . . .| | ..X..... . .| | |  .X.X. .| | | R R R R R R R R R R R R R R R G D D U D A C c c c c v v , , , , v , , , , , , , , , , , < , < < < < d q.n.@X@X1X1X1X1Xn.n.q.) Y g h Y ) 9.) ) ) ) ) ) ) 9.Q k Q ) ) ) ) ) ) ) Q U > , , , v v , , , , v v v , , b v v v v v v v v v v v c c v v c c c c v v v c Z c C R { / S f V q.4XbXbXbXcXbXbXbXbX6X@Xk.c.j. .K {  .j. . . . .X.X. .X. ..... . .............X... ... . .X.X.k.@XcXMXNXmXmXMXnXnXnXnXnXhX6X6X2X$X$Xv.v.j.` ` x.b.v.v.v.v.v.z.^ K z.b.V.v.V.v.v.z._ / R H R / R R R R H H H H H H R H R H H H H H H H R O./ O./ O.O.O./ / { H ",
"3 3 3 2 3 3 3 2 2 2 2 2 2 2 2 2 2 6 2 2 1 6 u *.5.5.5.4.6.6.4.4.6.6.4.6.6.6.6.6.6.6.6.4.6.e.e.e.4.>.i p p p p p p p p p p t t t 8 t t p p p p p 9 a 7 a 9 W Q 2.9.9.9.! U > , - d f f f f f d f f f d f f f f f d d d d d d f f d d d d d f S @XcXMXSXFXFXDXDXDXDXDXDXDXDXDXDXDXDXDXDXDXDXFXDX+Xf f #XnXBXmXNXNXmXmXmXmXnXnXnXnXnXcXnXhXm.K ` $X$X$X$X$X$X$X$X$X$X$X$X2X$X$X6XnXmXmXmXmXmXmXmXmXmXmXmXBXBXBXBXBXBX0X-X} L o.} } o.} @X2X6XhX6X6X2Xv.j.j.v.$Xv.j.j.v.v.v.v.j.` R R R R R R R R R R R T T D D G G U U T T T T R R R R R R U U T T T T R T U U U T T Z R U C & @XbXcX0X0X0X0XcX6X4X2X2X2X2X2X2X2X$Xh._ x.$X3XV.j.j.z.x.z.x.x.z.x.z.z.z.j.z.q.q.q.X. . . .| | | / ! R R R T R R D D D D A A A A A Z c c c c U ' | | ....|  .| | ..| X.X..... . . . . . .X.X.X. .| | { { R R R R R R R R R R R R R R R R R U A Z C c c c c v , , , , , , , , , , , , , , < < , , , , < < Z w.1X1X1X3X3X3X3X1Xn.9.Y g g Y ) 9.9.9.) ) ) ) ) ) 9.Q Y Q ) ) ) ) ) ) ) Q Z > , , , v v v , , , v v v , , v v v v v v v v v v v v c c c v v v v v v c c Z C A ' q.@Xq. .{ @X4XMXMXbXbXbXbXcXbXcX4X@Xc.c.j.o./  .j.j.k.k.j. .X. . .X.X.X.X. . ...........X..... . . . . .k.c.@X6XNXNXmXNXmXnXnXnXnXnXhX6X6X6X2X$Xb.v.j._ ` x.b.v.v.v.v.v.x.` ^ z.b.V.b.V.v.v.j.` / H H / / R R R R H H H H H R R R H H H H H H R H H O.O.O./ / O./ / / { H ",
"3 3 3 2 3 3 3 2 2 2 2 2 6 6 6 6 2 6 2 2 1 6 +.,.5.5.5.4.5.6.6.6.4.4.4.4.6.6.6.6.4.6.4.4.6.6.e.6.5.:.p p p p p p p p p p t t 8 8 t 9 p p p p p p a 7 7 a p W 8.0.w.w.w.9.! h , , , f d d f , , d d d d d d , f d d d d d f f f f d d d d d & f c.hXMXSXFXFXDXDXDXDXDXDXDXDXDXDXDXDXDXFXDXDXFXBXk.f K 2XNXNXmXNXNXmXmXmXnXnXnXnXnXnXcXnX6Xj.K j.%X$X$X$X$X$X$X$X$X*X*X$X*X*X*X6XmXmXmXmXmXmXmXmXmXmXmXmXmXmXmXmXmXmXBXmX4X|.} L L L o.@X2XhXhX6X6X2Xv.j.v.b.$Xv.x.c.v.v.v.v.j./ R R R R R T T R R T T D D D D D D D D D D T T U U G R T T U U T T U U R R D U U T U T A A & @XbXcX0X0X0X0X0X0XcX6X6X2X4X6X6X6X3Xj.` j.V.3X$Xv.j.j.z.x.x.x.x.x.x.z.z.z.z.z.X.q.q.X. . . .| | | / ! R R R T R R D D D A A A A A Z C C c c c U { | |  .....| |  . . . . .| X. .X.X.X. . .X.X.X.X. ...| { { { R R R R R R R R R R R R R R R R T A Z C c c c c c v , , , , , , , , , , , , , , , , , , < < R @X1X3X3X2X4X4X4X3Xn.) g d Y ) 9.9.9.9.9.) ) ) ) 9.) Q Y Q ) ) ) ) ) 9.) Y Z , > v , v v v , , , , v v v v v v v v c c c c v v v v v v c c v c c c c c c v c V { @X@X@X@X@X4XvXMXbXcXbXbXbXcXbXcX4X@Xv.k. ./ /  .k.k.k.k. . . .X.X.X.X..... . . .X.X.X.X. .....X. . . .X.c.@X@X6XNXNXNXNXNXnXnXnXnXnXhX6X6X6X2X$Xb.v.j.` ` x.v.v.v.v.v.v.v.` ^ j.b.b.v.b.v.c. ./ / H R R / R R / / H H R R R R R R / / / / R R H H O./ / / / / / { / { { H ",
"3 3 3 2 3 3 3 2 2 2 2 6 6 6 6 6 2 6 2 1 2 0 @.3.5.4.5.4.4.6.6.6.4.4.4.4.6.6.6.6.4.6.4.4.6.6.e.6.3.:.p p p p p p p p p p t t 8 8 t t p p p p p t 7 7 a 9 l W 2.0.w.w.w.w.9.Q > ; , - d d , - d d d d d d , , f d d d d d f f f f d d d d d & f c.6XMXSXFXFXDXDXDXDXDXDXDXDXDXDXDXDXDXDXDXDXDX0XK f k.cXNXmXmXmXNXmXmXnXnXnXnXnXnXnXcXnX2X` ` m.$X$X$X$X$X$X$X$X$X*X*X$X$X*X2XcXNXmXmXmXmXmXmXmXmXmXmXmXmXmXmXmXmXmXmXBXmX0X6X:X+X+X+X2X6XhXhXhX6X2Xv.v.v.$X$Xv.j.c.v.v.v.v. ./ R R R R R R T R R T T D D D D D D G D D D T T U D D U G D D D R R G G R R T U U T D T S & q.bXbX0X0X0X0X0X0X0X0X6X6X6X6X6X6X6Xv.` h.v.$X$X$Xx.j.z.x.c.x.x.x.x.z.z.z.c.c.z.q.q.q.q. . . .| | | / ! R R R T R R D D D A A A A A Z C C c c c D ! | | ........ . . .X. .X.X.X.X. . .X. . .X.X.X.X. . ...| | { { { R R R R R R R R R R R R R R R D A C Z c c c c c v , , v v v , , , , , , , , , , , , < & | 1X3X3X4X4X4X4XsX3Xn.Y d g ( 9.q.9.9.9.9.) 9.9.) ) 9.Q Y Q ) ) ) ) 9.9.) T Z , , , , v v v , , , , v v v v v v v v c c c v v v v v v v c v c v c v v c C C V A | @X@X@X@X@X4XcXbXcXbXbXbXbXcXbX0X2X@Xv.k. ./ ` j.c.@Xc.k.k.} o.o.{ o.X.X.X.X.X.X. ... .X......... . . . .@X*X#X2XNXNXNXmXNXnXnXnXnXnXcX6X6X6X2X$X$Xv.j.` ` x.v.v.v.v.v.v.v._ ^ j.v.b.b.b.v.j. ./ / R R H H H H / / H H R R R R R / / / / / / / / / / / / / / / / { / { { / ",
"3 3 3 2 2 2 3 2 2 2 6 6 6 6 6 6 2 2 2 1 2 r &.3.4.4.5.5.5.5.6.6.4.4.6.6.6.6.6.6.6.6.6.4.6.6.6.6.<.@.p p p p p p p p p p t 8 8 7 t t p p p p 9 8 7 7 a 9 l 8.0.w.w.s.s.s.w.9.U , , - , d d , d d d d d d f f f f f f f f d f f f d d f d f & f c.6XMXSXFXFXDXFXDXDXDXDXDXDXDXDXDXDXDXDXDXFXDX2XJ J *XNXNXmXNXmXmXmXmXnXnXnXnXnXnXnXnXhX#XK h.$X$X$X$X$X$X$X$X$X$X$X*X$X$X$X2XnXMXmXmXmXmXmXmXmXmXmXmXmXmXmXmXmXmXMXmXmXmXBXBXMXMXbXcXcXhXhXhXhX6X3Xb.v.$X$X$Xv.j.v.v.v.v.c. ./ R R R R R R T T T R R T D U U G G G G T T T T D D D D D D T R T T T D G U T T A T R A & X.bXcX0X0XcX0X0X0X0X0X0X6X6X6X6X6X6X$Xj.` x.$X3X$XV.z.j.z.x.c.v.x.x.x.z.z.z.c.c.q.q.q.q.q. . .| | | | { ! R R R R R T G D D A A A A A Z C C C c C A R | | ..|  . .X.X..... . .X.X. . .X.X. .X. .X.X.X.X.X.X.....| | { / R R R R R R R R R R R R R R R D A C C C c Z c c c > c > , , > , , , , , , , , , , < & q.3X3X3X4X4X4X4XsX3Xq.d d Q 9.9.q.9.9.9.9.9.9.9.9.9.) Q Y Q ) ) ) ) 9.9.) Y > , , , b v v v , v v v v v v v v v v v c c c v v v v v v v v v v v c v & & & & & G X.@X@X@X@X@X2X6XcXcXbXbXcXbXcXbX0X:X@Xc.j. ./ o.k.c.@Xc.*X4X:X*X+X|.X.X.o.{ o.o. .X. . . .X. .........o. .@X2X*X*XmXNXNXmXNXmXmXnXnXnXcX6X6X6X6X2X$Xv.j.` ` x.v.v.v.v.v.v.v._ ^ j.v.b.V.b.v.j. ./ / / / H H / / H H H H / / R R R R / / / / / / / / / / / / { { / { / { { H ",
"3 3 3 2 3 2 3 2 2 2 2 6 6 6 6 6 2 2 2 1 2 w *.3.4.5.5.5.5.5.6.6.5.5.6.6.5.4.5.5.4.4.6.4.6.6.6.4.>.@.p p p p p p y p p t t 8 8 7 t t p p p p t 8 7 7 9 p E 8.0.u.w.s.s.w.w.9.Q > , - - , , - d d , , , , , , f f , , f f f d d d f f f d f & f c.hXMXHXFXFXDXFXDXDXDXDXDXDXDXDXDXDXDXDXDXFXSX@Xf ` 6XBXNXNXNXnXmXmXnXnXnXnXnXnXnXnXnX6Xj.K j.$X$X$X$X$X$X$X$X$X$X$X*X$X$X$X6XmXMXmXmXmXmXmXmXmXmXmXmXmXmXmXmXmXmXmXMXmXmXmXmXMXMXNXMXcXhXhXhX6X6X3X$X$X$X$X$Xv.x.v.v.v.v.c.| R R R R R R R R G G R G T D U U D D G G T T R T G G D D D D D T R R D A D U T D D D V f k.cXbXbX0X0X0X0X0X0X0X0X0X6X6X6X6XhX2Xj.` j.V.3X3X$XV.j.j.z.x.c.x.x.x.c.z.c.c.c.c.z.q.q.q.q. . .| | | { / ! R R R R R R T D D D A A A Z A Z C C C C A R | | |  . .X. ...X.X.X.X...X. .X.X.X.X.X.X.X.X.X.X.X.X.X.X...| | { { / / R R R R R R R R R R R R R D A C f & , > c c c c c > , , , , , , , , , , , , < f c.4X2X4XsXsX4XhXhX3X( f g 9.q.q.9.q.9.9.9.9.9.9.9.9.) Q Y ) ) ) ) ) 9.9.) U > , , , , v v v v v v v v v v v v v c c c c v v v v v v v v v c v & & & & & v V / c.=X:X@X@X@X@X@X4XcXcX0XcXcXcXbXbX6X*X@Xc.j. .K  .k.c.@Xk.:XcXbXbXbXbXbX0X4X4X+Xk.o.o.X.X.o.X. . .....X. .k.*X6X2X*XnXNXNXmXNXNXmXnXnXnXnX0X6X6X6X2X$Xv.j.` _ x.v.v.v.v.v.v.b.j.^ h.v.b.b.v.v.j.` / / / / H / / / H H H H / / H R / / / / / / { { / / / { { { { { { { / { { H ",
"3 3 2 2 3 3 3 2 2 2 2 6 6 6 2 2 6 2 1 1 6 +.,.3.4.5.5.5.5.4.4.6.5.6.6.6.5.5.5.5.4.4.4.5.6.6.4.5.:.i y p p p p p y y p t t 8 7 7 t p p p p p 8 7 7 8 p l W 8.d.u.w.s.s.u.s.w.2.U , , , , , , - - - - - - - - - d , , , f d f d f f f f f f f S $XcXZXFXFXDXDXFXDXDXDXDXDXDXDXDXDXDXFXDXDXFXmXo.f #XnXNXNXNXNXmXmXmXnXnXnXnXnXnXnXnXhX2X` ` m.$X$X$X$X$X$X$X$X$X$X$X*X$X$X*X6XNXmXmXmXmXmXmXmXmXmXmXmXmXmXmXmXmXmXmXMXmXmXmXMXMXmXMXmXcXhXhXhXhX6X3X$X$X$X$X$Xv.v.v.v.b.v.j.{ R R R R R R R R G G R G R U D D D D G T T U G G G G D D D D D U U U U D D U U A A A V @XbXbX0X0X0X0X0X0X0X0X0X0X6X0X6X6XhX6Xb.` ` v.$X2X$X$Xv.j.z.z.x.z.v.x.x.c.z.z.z.c.c.q.q.q.q.X...| | | | { / / ! R R R R R R G G D D A A A Z C C C C C C R { | |  . . .X. .X.X. .X.X.X.X.X.X.X.q.q.X.X.X.X.X.X. .X.X.X. . . .| { { { / / R R / / / / R R R R R G A C f & , c c c c > , , , , , , , , , , , , , % d @X4X4X4XsXsXhXhXhX@XY d ( 9.q.q.9.9.9.9.9.9.9.9.9.9.9.Q Y ) ) ) ) ) 9.9.) U , , , , , v v v v v v v v c c c c c c c C C C C v v v v v v v v & & V R ..K.@X5X4X0XcX6X:X@Xk.k.k.@X4XcXcXcXbXbXbXbX6X*X@Xc.j.` K j.c.k.v.k.4XnXcXcX0X0XbXbXbXbXbX6X@Xo.o.X.o.X. .X.X.o.X.o.k.2X6X6X*X0XNXNXNXNXNXNXmXnXnXnXcX6X6X6X2X*Xv.j.` h.v.b.v.v.b.v.v.b.j.^ _ v.b.b.v.v. ./ / / / / / / / / R R / / / / H / / / / { / / { / { { { / { { { { { { / { { / ",
"3 3 2 2 3 3 3 2 2 2 2 2 6 2 2 2 6 2 1 1 6 +.3.5.4.5.5.4.4.4.4.4.4.4.6.6.5.5.5.5.4.4.5.4.6.6.5.3.:.u y p p p p p p y t t t 7 7 8 t p p p p t 7 7 7 8 p l W 2.d.u.w.s.s.s.s.u.2.W , , , , , d - - - - - - - - - , , , , f d d d f f d f f f f / 4XvXZXFXFXDXDXFXDXDXDXDXDXDXDXDXDXDXFXDXDXFX0XK K 6XNXNXNXmXmXNXnXmXnXnXnXnXnXnXnXnX6Xv.K j.$X$X$X$X$X$X$X$X$X$X$X$X*X$X$X*X6XNXmXmXmXmXmXmXmXmXmXmXmXmXmXmXmXmXmXmXmXmXmXmXmXmXBXNXnXcXhXhXhX6X6X3X$X$X$X$X$Xv.v.v.v.v.v. ./ R R R R R R R R G G R R R U D G D D D D U U G G G G D D D D D D U U R D U R A C C V 5XbXbX0X0X0X0X0X0X0X0X0X0X0X6X0X6X6XhX2X` K v.2X2X2X3X$Xv.h.z.x.x.z.v.x.c.c.c.z.c.c.c.q.q.q.q. ... .| | { / / / ! R R R R R R G R G D A A A A C C C C d C D R |  . . .q. .X.X.X.X.X.X.X.X.X.X.X.q.X.X.X.X.X.X.X. . . . .X.X.X. ...| | { { { { { { { { / R / R R R R S A A C C , c c > > v , v v , , , , , , , , < Z 1X4X4X4XsXsXhXhXsXn.d Y 9.q.q.q.q.9.9.9.q.9.9.9.9.9.9.Q Y ) ) 9.) ) 9.9.) U , , , v , v v , v v v v c c c c c c c c C C C C v v v v v v v v & A w.4XbXJXbXMXMXMXMX0X4X*X|.k.o.} *X0XcX0XcXcXbXcX4X*Xv.c.j.` K j.c.k.@Xk.4XcX0X0X0X0X0X0X0X0X0XbX4XX.o.X. .o.X.X.X...X.o.j.2X6X6X*X6XNXNXNXNXNXNXmXnXnXnXcX6X6X6X6X$Xv.j._ j.v.b.v.v.b.v.b.b.j.^ _ v.b.b.v.v. ./ / / / / / / / / / / / / / / / / / / { { { { { { { { { { { { { { { { / { o./ ",
"6 2 2 2 2 2 2 2 2 2 6 2 2 6 2 2 2 2 1 2 r &.3.3.4.4.5.5.4.6.4.5.6.6.6.5.5.5.5.5.6.6.6.5.6.6.5.,.i p p p p p p p p p t t 8 7 7 t p p i p t t 7 7 8 t p E 8.0.w.s.w.w.u.u.u.w.9.8.z , , , , , - , , - , d d d d f f d d f , , f d & f d f & f  .4XvXZXDXDXDXDXDXDXDXDXDXDXDXDXDXDXDXDXDXDXDX*Xf k.qXmXNXmXnXmXmXmXmXnXmXnXnXnXcXnXnX6X` K v.2X#X$X$X$X$X$X$X$X$X$X2X$X$X#X*XcXMXMXmXmXmXmXmXmXmXmXmXmXmXmXmXmXmXmXmXMXmXmXmXMXMXMXMXMXcXhXhXhXhX6X2X$X$X$X$X$Xv.v.v.v.v.c. ./ R R R R R R R R R G R R G D D D U T G G D D U D D D R A A T U U D R R A A C & f X.4XbXbX0X0X0X0X0X0X0X0X0X0X0X0X6X6X6XcX6Xj.K v.2X6X2X2X3X$Xx.j.z.x.c.v.x.x.z.c.c.c.c.c.c.q.q.q.q. . . .| | { { ! ! ! R R R R R R R G G D D A A A C C C C C c C A R |  .X.X.X.X.X.X.X.X.X.X.X.X.X.X.q.q.X.X.X.X.X.X.X.X.X.X.X.X.X.X. . . ............... .| { / R R { X. .{ | / R S A d & C C , , d , , & & , , , , < U 5X4X4X4XhXhXhXhX2X( j ) q.q.q.q.q.9.9.9.q.q.q.q.q.q.) Y Q ) ) 9.) 9.9.) ! Z , , v , v c c , v c c c v v v v c C C v v C v v C v v v v C v & & @X0XMXZXMXMXMXMXbXbXbX6X2X*Xk.L L k.4XcXcXcXbXcXcX2X*X@Xk.k.` ` j.v.v.k.@X6XcXbX0XbX0X0X0X0XbX0XbX0X:Xo.o.X.o.o.X.X.X. . .X.=X6X6X#X2XBXNXNXmXNXNXmXnXnXnXcX6X6X6X6X*Xv.j.j.j.v.b.v.v.b.v.v.b.j.^ j.v.v.b.v.c. ./ / / { / / / / / / / O.O.O./ { / / / / / { { { / / { { / { { { { / L { { o.{ ",
"6 2 2 2 2 2 2 2 2 2 6 2 2 6 2 2 2 1 1 2 w *.5.5.4.5.5.4.4.6.4.5.6.4.6.5.5.5.5.5.4.6.6.4.6.6.5.,.i p t p p p p p p p t t 7 7 7 t p p i p t 8 7 7 8 9 p W 8.0.w.s.w.w.u.s.w.w.9.2.U , , , , , - , , , , , f d d d d d , ; & d f & f f f f & S @XhXMXSXDXDXDXDXDXDXDXDXDXDXDXDXDXDXDXDXDXDXDXk.f *XnXNXNXmXmXmXmXmXmXnXnXnXnXnXnXnXhX2XK ` V.*X$X$X$X$X$X$X$X$X$X$X$X$Xv.j.*XnXNXmXmXmXmXmXmXmXmXmXmXmXmXmXmXmXmXmXmXmXmXMXMXMXMXMXMXMXcXhXhXhXhX6X3X$X$X$X$X$Xv.v.v.v.b.c. ./ R R R R R R R R R R R G R G D D D D G D D R T R D D A R A A T D A & & & & V X.4XcXbXcX0X0X0X0X0X0X0X0X0X0X0X0X0X6X6X6X6X$X` ` $X6X6X2X2X3X$Xz.j.z.x.v.v.x.x.x.z.c.c.c.c.c.q.q.q. . . .| | | { / ! ! ! R R R R R R R R G G D A A A A C C C C c c A R { |  .X.X.X.q.q.q.q.q.q.X.X.X.q.q.q.X.X.X.X.X.X.X.X.X.X.X.X.X.X.X.X.X.X.X.X.X...X.X.X...| / / R X.c.X. .q. . . ./ G C C c , , , c , , & , , , , < R 5XhXhX6XhXhXhXhX$XY Y q.q.q.q.q.q.9.q.q.q.q.q.q.q.q.) Y Q ) ) 9.9.9.9.9.! d , , c c c v , , C C c c c c v C C c v v v v v v v v v v v v < & ..4XZXMXMXMXbXMXbXbXbXbX0X4X*Xk.K K o.*X6XbXcXcXcX6X2X@X@Xk.j.` ` j.v.v.|.+X6XbX0X0XcX0X0X0X0X0X0X0XbX4Xk.o.X.o.X.X.X.X.X.o.o.*X4X6X*X#XBXNXNXNXNXNXNXnXnXnXnXcX6X6X6X2Xv.j.j.c.v.b.v.v.b.v.v.b.j.^ j.v.v.b.v.c. ./ / / { / / / / / / O.O.O./ / { { / { / / { { { { { O.O./ { { / { o.o.{ / { { ",
"6 2 2 2 2 2 2 2 2 2 2 2 2 6 2 2 1 1 1 6 +.>.3.5.5.5.5.4.4.6.5.5.6.5.5.6.4.6.4.5.4.6.4.5.5.4.5.,.u p p p p p t p p t t 8 7 7 8 t p p i p 8 7 7 7 8 t p W 2.0.u.w.w.u.s.s.s.w.w.9.Q > , , , , , , , , , , , , , , , - , d f f f d f d f < f  .4XvXMXSXDXDXDXDXDXDXDXDXDXDXDXDXDXDXDXDXDXDXNXK K 6XmXNXmXmXmXmXnXnXmXnXnXnXnXnXcXnX6Xv.K j.$X$X$X$X$X$X$X$X$X$X$X$X$Xv.` ` 4XNXMXmXmXmXmXmXmXmXmXmXmXmXmXmXmXmXmXMXmXmXMXMXMXMXMXBXMXnXcXhXhXhXhX6X3X$X$X$X$X$Xb.v.v.v.v.j. ./ R R R R R R R R R R G G R R G U D D G G D R T U D D T A R D A C C | q.@X5X4XbXMXbX0X0X0X0X0X0X0X0X0X0X0X0X0X0X0X6X6X6X6Xk.` v.6X6X6X2X2X$XV.j.j.z.v.c.v.x.x.c.c.c.c.c.c.c.q.q.q. . . .| | | | / ! ! R R R R R R R R R R G D D A A A A C C C C & c A R | X.X.X.q.q.X.X.c.X.X.X.X.q.q.q.q.q.X.X.X.X.X.X.X.X.X.X.X.X.X.X.X.X.X.X.X.X.X.X.X.X.X...{ / R c.@Xc. .c.c.c.c.q.| G C C C , & C c & , , , , & < / 4XhXhXhXhXhXvXvXz.d ) n.n.q.q.q.q.q.q.q.q.q.q.q.q.q.) Y Q ) 9.) 9.) ) q.! d , , , , b v c A C C C A A c c C v v v v v v v v v v c v c < < R 4XMXSXMXbXMXbXbXbXbXbXbXbX0X2Xk.` K K k.4XcXnXcXbX6X*X@X#Xk.j.` j.v.v.k.k.*X0XbX0X0X0X0X0X0X0X0X0X0XbXbX4XX.L o. . .X.X.X.X.o.@X4X6X*Xk.NXNXNXNXNXNXNXnXnXnXnXcXcXcX6X2Xv.j.j.v.v.b.v.v.b.b.v.b.j.^ j.v.b.b.v.j. ./ / / { / / / / O./ / { / / / L L { { { { { { O.{ { { { { { { { { / { { { { { ",
"2 2 2 2 2 2 2 2 2 2 2 2 2 6 2 2 1 1 2 w &.,.3.5.5.5.4.4.4.6.5.5.6.5.5.6.6.6.4.4.4.4.5.5.5.4.3.>.u p p p p p p p p t t 7 7 7 7 t p p p t 8 7 7 7 t p l 8.2.w.u.u.u.u.s.s.u.s.w.w.8.h , , , , , , , , , , , , , , , , d d , & , d & & < & / 2XvXvXZXSXDXDXDXDXDXDXDXDXDXDXDXDXDXDXDXDXDXDX6XJ k.0XNXmXmXmXmXmXnXmXnXnXnXnXnXnXcXnX6X` K v.$X$X$X$X$X$X$X$X$X$X$X$Xv.j.K k.hXNXmXmXmXmXmXmXmXmXmXmXmXmXmXmXmXmXMXMXMXMXMXMXMXMXBXZXMXcXhXhXhXhXhX6X3X$X$X$X$X$Xb.v.v.v.v.j.{ / R R R R R R R R R R G R R R T U D D R G U U U U D D T U D A & / hXvXMXbXbXbXbX0X0X0X0X0X0X0X0X0X0X0X0X0X0X0X0X0X0X0X0X4Xh.` 2X6X6X6X2X2X$Xm.j.j.x.v.c.c.x.x.c.c.c.c.c.c.c.q.q.q. . . .| | | | / / ! ! R R R R R R R R R G D D A A A A C C C C c & c S { X.X.X.q.q.X.X.k.X.X.X.X.q.q.c.q.q.q.c.q.q.q.X.X.X.q.X.X.X.X.X.X.X.X.X.X.q.X.X.X.X. . .| / R c.v. .` j.c.@X@X@Xc.{ S C C C C C C , , , & , , < | sXcXhXhXhXhXvXhX/ d q.n.n.z.q.q.q.q.q.q.q.q.q.q.q.q.) Y Q ) ) ) 9.) q.q.Y & , , , v v v v v v v C C v v v v v v v v & & < % < < % % % < { 4XMXMXbXbXbXbXbXbXbXbXbXbXbXbX6Xk.` K /  .#X6XnXnXcX6X*X@X@Xk.` ` j.v.v.k.@X:X0XcX0X0X0X0X0XcX0X0X0XbX0XbXbX:X} { o.X.X.o.o. .o.*X6XcX2Xk.nXSXNXNXNXNXNXmXnXnXnXnXnXnX6X2Xv.j.j.v.v.v.v.v.b.b.v.v._ K j.v.V.b.v.j.o./ / / { / / / / / / { { { / / L L { { { { { { { { { { { { { { { { { { L L o.X.",
"2 2 2 3 2 2 2 2 2 2 2 2 2 6 2 2 1 1 6 +.*.3.5.5.4.4.4.4.4.5.5.5.6.5.5.5.6.6.6.4.4.6.4.5.4.4.3.:.u u p p p p p p p t 7 7 7 7 t p p p p t 8 7 7 7 t p E 8.7.u.u.u.u.u.s.s.u.s.s.w.0.U , ; ; - , , , , , , - , , , d d d & & d f < < % & | 3XcXvXvXMXSXDXDXDXDXDXDXDXDXDXDXDXDXDXDXDXDXDXDX*XJ *XnXNXmXmXmXmXnXnXmXnXnXnXnXnXnXnXnX2XK ` $X$X$X$X$X$X$X$X$X$X$X$Xv.h.` ` *XnXNXmXmXmXmXmXmXmXmXmXmXMXMXMXMXMXMXMXMXMXMXMXMXMXMXBXSXNXvXhXhXhXcXhX6X$X$X$X$X$X$Xv.v.v.@Xv. .` / R R R R R R R R R R R T T D G D D D R U D U D D D D C A C & { cXMXbXcXcX0X0XcXcX0X0X0X0X0X0X0X0X0X0X0X0X0X0X0X0X0X0XcX*X` v.6XhX6X6X2X2X%Xm.j.j.x.v.v.v.c.c.c.x.x.x.c.c.c.q.q.q. . . .| | | | | { / / R R R R R R R R R G D D A A A A C C C C C C & V ' X.X.X.q.q.q.c.X.X.q.X.q.q.q.c.c.q.q.c.c.k.k.q.w.w.X.X.X.X.X.X.X.X.X.X.w.X.X.X.X.X.X. . .{ / c.@Xj.` j.v.@X@X@Xc. .R A A A C C C C C C C , , < | sXcXhXhXhXhXCXsXS S n.$Xn.z.q.q.q.q.q.q.q.q.q.q.q.q.9.Q Q ) ) 9.q.) q.q.T d < , , , , v v v v v v v v A C v A , < v R | R A , & < C w.4XCXHXZXJXbXbXbXbXbXMXbXMXbXbXbXmX6X@X` ` ` ` j.*X6XnXcX2X#X@Xv.j.` ` j.v.v.k.@X4XcXcXcX0XqX0X0X0X0X0XbX0XbXbXcXbX4XX.o.o.X.X.X. . .*X6XnX0Xk.6XSXNXNXNXNXNXmXnXnXnXnXnXnXhX6Xv.j.j.v.v.v.b.b.b.V.b.v.` K j.b.$X$Xv.j.{ / / / / / / { / / { { { { / / / / / / { / { { o.{ { { o.{ { { L L J J O.} *X:X",
"2 2 2 3 2 2 2 2 2 2 2 2 2 6 2 2 1 2 q @.,.5.5.4.5.4.4.4.4.5.5.5.6.6.5.5.6.6.6.4.4.4.5.5.4.5.<.@.u u u p p p u p t t 7 7 7 7 t p p p p t 7 7 7 8 t p W 8.0.u.u.u.u.w.u.s.u.s.s.s.w.Q > , ; ; , , ; - , , , , f , , , , d , < < < & S c.4XcXcXbXMXMXSXDXDXDXDXDXDXDXDXDXDXDXDXDXDXDXDXDXDXk.K 6XmXNXmXmXmXmXnXnXnXnXnXnXnX0XnXnX6Xv.K x.$X$X$X$X$X$X$X$X$X$X$Xv.j.` ` v.6XMXNXMXmXmXmXmXmXMXMXMXMXMXMXMXMXMXMXMXMXMXMXMXMXMXZXSXSXNXvXcXcXhXcXhX6X$X$X$X3X$X$Xv.v.v.@Xv. ./ / / R R R R R R R G G T R G G G U D D T D U T T T D D D D & { cXMXcXcX0XcXcXcXcXcX0X0X0X0X0X0X0X0X0X0X0X0X0X0X0X0X0XcXcX#X` $XxXhX6X6X6X2X%Xv.j.j.x.x.v.v.c.c.c.x.x.x.c.c.c.q.q.q. . . .| | | | | | { / ! R R R R R R R R D D D A A A V A C C C C C V C R ..X.q.q.q.q.c.c.k.k.q.q.q.q.c.c.q.q.c.c.c.c.q.q.q.w.k.X.X.X.k.X.c.k.X.X.q.q.X.X.X.X. . .{ / @X@X . .j.v.@X@Xv.v.c.{ G A A A A A A A A C C d & q.hXhXhXhXhXvXZX3Xf ^ $X3Xb.z.q.q.q.q.q.q.q.q.q.q.q.q.9.Q ( 9.9.9.9.) ) 9.T < & , , , , , v v v v v v v v & & < < R 1XvXAXZXZXCXZXAXHXKXKXKXHXMXbXbXbXbXbXbXbXbXbXbXbXbXmX0X*X` `  .` ` k.4XcX6X2X*X@Xv.j.` ` k.v.v.k.#X6XcXbXcXcX0X0X0X0X0X0XqX0XbXbXcXbXbX4X+XX.o.X.k.X.o.*X0XnXMX|.2XSXNXNXNXNXNXmXmXnXnXnXnXnXnX6Xv.j.v.v.b.v.b.b.b.V.b.v.^ K x.b.V.$Xv.j.{ / / / / / { { { { { { { { / / / / / { { { { { { / K H J J J J J L } |.:X0XbX0X",
"2 2 2 2 2 2 2 2 2 2 2 2 6 2 2 1 1 6 $.*.3.5.4.4.5.5.5.4.4.6.6.5.6.6.6.4.6.6.6.6.4.4.5.5.4.5.,.@.y u u t p p p p t 7 7 7 0 t t p p p t 7 7 7 7 8 t l <.2.d.u.u.u.w.w.u.u.u.u.s.s.w.8.h , ; , , ; ; ; , , , , , , - , , f & & f R q.$XsXcXcXcXvXMXMXSXDXDXDXDXDXDXDXDXDXDXDXDXDXDXDXDXFXbXL k.6XNXNXNXmXnXmXnXnXnXnXnXnXnX0XnXnX6X` ` V.%X$X$X$X$X$X$X$X$X$Xv.j.` ` v.3XhXAXNXBXMXMXMXMXMXMXBXBXBXBXBXBXBXBXBXBXBXZXZXBXZXSXSXHXHXZXvXcXcXhXcXhX6X$Xv.$X$X$X$Xv.v.v.b.c. ./ / / R R R R R R R G G D D G G G D D D D D D T D A A A & & q.cXMXcXcXbXbXcXcXcXcX0X0X0X0X0X0X0X0X0X0X0X0X0X0X0X0X0XcXcX6Xk.h.2XxXhX6X6X6X2X$Xv.j.z.v.x.v.v.c.c.c.x.x.z.c.c.q.q.q.q. . . . .| | | | { { / ! R R R R R R R R R D D D A A A A A C C C C C V G { X.w.q.q.q.X.X.k.k.X.X.|.|.c.c.q.X.X.X.k.k.X.X.k.k.k.k.X.X.X.X.X.X.X.X.k.k.k.k.X.X. . . .{ @X@X .` c.v.@X@Xb.c.j.{ R G G D G G S A A A A C f c.hXcXhXhXhXvXCXn.f _ 2X4X3Xz.q.q.q.q.q.q.q.q.q.q.q.q.9.Q ) 9._ ) 9.9.) w.w.U < % % % < & < , < < < & & & & & C w.sXAXGXHXKXKXKXKXKXLXLXKXKXHXZXMXbXbXbXMXbXbXbXbXbXbXbXMXbX4Xk.} j.j.` ` *X6X6X*X*X#Xc.h.` j.v.#Xv.k.*X6XbXbXcXcXbXbX0X0X0X0X0XqX0X0XbX0X0XbX0X:X|.X.X.X.} :X0XnXBX*X@XSXNXNXNXNXNXmXmXmXnXnXnXnXnX6Xv.j.v.b.b.v.b.b.b.V.b.v.K ^ v.$XV.$Xv.j./ / / / / / { / L { { { { { { / / { { { L L L L L L } } k.|.*X:X7X0X0XqXqX0XqX0X",
"2 2 2 2 2 2 2 2 2 2 2 2 6 2 2 1 1 0 +.>.3.5.4.4.4.5.4.4.6.6.6.6.6.6.6.4.6.6.6.6.4.4.5.5.4.5.>.@.y u u u p u u t t 7 7 7 7 t u p p p t 7 7 7 7 8 p l 8.2.d.u.u.u.w.w.u.u.u.u.s.s.s.2.U , ; , , ; , ; ; , , , & & ; d & < d c.4XsXhXhXhXhXcXcXbXMXZXSXDXDXDXDXDXDXDXDXDXDXDXDXDXDXDXDXFX6XK 2XnXNXNXNXmXnXnXmXnXnXnXnXnXnX0XnXcX*XK ` $X%X$X$X$X$X$X$X$X$XV.j.` ` j.$X4XvXSXSXBXBXBXBXZXZXBXBXSXSXBXBXBXBXBXZXZXBXZXZXZXSXSXFXFXFXAXvXcXcXhXhXhX6Xb.v.$X$X$X$Xv.v.v.v.c. ./ / / R R R R R R G D A D D G G G D D A D D D D A A C & G 1XvXMXcXcXbXcXcXcXcXcXcXcX0X0X0X0X0X0X0X0X0X0X0X0X0X0X0X0XcXcX6X .j.6XxX6X6X6X6X2X$Xx.h.z.v.v.v.x.c.x.z.x.x.z.c.c.q.q.q.q. . . . .| | | | { { / ! R R R R R R R R G G G D D A A A A C C C C C V A ' ..X.q.q.q.k.X.X.c.|.|.|.k.k.k.X.X.X.k.X.X.X.k.k.k.k.k.X.X.X.k.k.k.k.k.k.c.k.k.k.X.X. . . .$X@X .` c.b.@X@X$Xc.j.{ R R R T R G G G R G D A A @XcXcXhXhXcXvXCXz.f c.sXhX3Xn.z.q.q.q.q.q.q.q.q.q.q.q.) Q ) 9.q.) q._ Q 3XLXZXsXw.A < % @ @ % % % % < & & R q.sXZXHXHXZXAXHXGXKXKXKXLXKXKXKXGXHXZXMXMXbXbXbXbXbXbXbXbXbXMXnX0X*Xk.j.k.` ` #X2X4X*X*X@Xv.` ` j.v.#Xv.v.*X0XbXbXcXcXbXqXbXcX0XbX0XqXbXbX0XbXbX0XbXbX0X4X+X+X@X4XnXmXBX2Xk.SXNXNXNXNXNXNXNXNXnXnXnXnXnX6Xv.k.v.b.m.b.b.m.b.V.b.x.K ` b.$Xm.$Xv.j./ / / / / / { / / { { { { { { / { { { { { L L L |.>X0XqXqXmXqX0X0X0X0X0X0X0X0X0X",
"2 2 2 3 3 3 3 3 2 2 2 2 2 2 2 1 2 e *.3.3.5.4.4.5.5.4.4.4.4.4.4.4.4.4.6.4.4.4.4.4.4.5.4.4.3.>.u u u u t u u t t 0 7 5 7 t t u p p t t 7 7 7 8 t p W 8.7.d.u.u.u.u.w.w.w.w.u.u.s.u.9.Q - , , , , , , , ; - , , , ; d ; % q.hXCXvXhXhXhXhXcXcXvXMXZXSXDXDXDXDXDXDXDXDXDXDXDXDXDXDXDXDXDX*Xk.6XmXmXmXmXmXnXnXnXnXnXnXnXnX0XnXnX6Xk.S v.$X3X$X$X$X$X$X$X$XV.v.` ^ j.b.2X6XMXFXSXHXHXFXFXFXFXFXFXSXSXSXSXHXSXSXSXZXZXZXZXHXHXFXGXGXFXZXvXcXcXcXcXhX4Xv.v.$X3X$X$Xv.c.c.@Xk./ / / R R R G G G D C & & V & & C A A A A A A C & & f / @XcXvXZXvXhXcXcXcXcXcXcXbX0X0XcX0X0X0X0X0X0X0X0X0X0X0X0X0X0X0X0XnX6X` v.hXxX6X6X6X2X2X$Xj.j.x.v.x.x.v.x.x.c.z.x.c.c.c.z.q.q.q.q. . .| | | | | | / / / ! R R R R R R R R G G A D D A A A A C C C C V C A / ..q.c.q.k.k.X.X.X.k.X.X.X.X.X.X.X.X.k.k.k.q.q.X.k.X.X.X.X.X.k.k.k.|.@XX.X.X.q.X.X.X.o.j.*X@X .` j.v.@Xv.@X@Xc./ / R R G R R R R R R R A S @XcXhXcXcXcXMXvX/ ^ $XhXhX2Xn.z.z.q.q.q.q.q.q.q.q.q.q.) Q ) 9.9.9.9.) ( vXLXLXLXLXLXAXvXsX1X@Xw.q.w.1X4XsXvXZXAXAXZXZXZXZXAXHXKXKXKXKXKXKXKXKXHXZXMXMXJXbXbXvXbXbXbXMXMXbXbXbX6X*Xk.j. . .l.*X*X$X$X#Xk.` ` j.#Xv.@Xv.*XcXbXbX0X0X0X0X0X0XqX0XqXqXbXbX0X0XqXqXbXbXbXbXbX0XcXbXmXNXBX0XL cXSXNXNXNXNXNXmXmXmXnXnXnXnX6Xv.v.v.V.b.b.m.m.b.m.v.j.^ j.b.V.$XV.v.j./ / / / / { { { / { { { { { { / { L L o.L J L +X0X0X0X0X0X0X0X0X0X0X0X0X0X0X0X0X",
"2 2 2 2 2 3 3 3 2 2 2 2 2 2 2 1 6 +.,.3.5.4.4.4.5.5.4.4.4.4.4.4.4.4.4.4.6.4.4.4.4.4.4.4.5.3.&.u u u u u u u t t 7 7 7 0 t t t u t t 8 7 7 7 8 t p <.8.7.d.u.u.u.w.u.w.w.u.u.u.u.s.w.Q > , , , , , , , , - , , , , , < f 1XCXvXcXhXhXhXhXcXcXvXMXZXSXDXDXDXDXDXDXDXDXDXDXDXDXDXDXDXDXNX+X*XnXNXnXmXmXmXnXnXnXnXnXnXnXnXnXcXnX6X` K b.2X3X$X$X$X$X$X$XV.x.` ` j.v.$X2XhXSXGXFXFXFXFXFXFXFXFXFXHXHXSXSXSXSXSXHXSXAXAXSXHXFXGXKXGXHXZXvXvXvXcXvXhX4Xv.b.$X3X$X#Xv.k.v.v.j./ / R R R G R R C & A @XsXvXhX5Xq.R C & V f C S { @X4XvXZXvXvXcXcXcXvXcXcXcXcXbXbXbX0X0X0X0X0X0X0X0X0X0X0X0X0X0X0X0X0X0XcX2X .$XxXnXhX6X6X2X2XV.j.j.x.v.x.v.x.x.x.c.c.c.c.c.c.c.q.q.q.q. . . .| | | | | / / / ! R R R R R R R R G G G D D A A A A A C C C V V V G { ..q.c.c.k.X.c.q.k.k.k.X.X.X.X.X.X.X.X.c.c.c.X.k.c.c.c.X.X.k.k.k.k.c.X.X.X.q.X.X.X. .c.2X$X . .j.v.@Xv.@X@Xc.{ / R R R R R R / R / R G S 3XvXcXvXvXvXZXvX^ ^ 3XhXhX2Xb.z.z.q.q.q.q.q.q.q.q.q.q.) Q ) 9.q.q.q.) ) vXLXLXKXLXKXLXLXLXLXLXLXKXHXHXAXZXZXZXZXZXZXZXZXZXZXHXKXKXKXKXKXKXKXKXHXZXZXMXMXbXbXbXbXbXbXMXMXbXbXbXcX4X@Xj.` k.#X*X$X*X$Xv.j.` ` j.#X@X#X@X2XcXcXbXbXcX0XcXbX0XbXbXqXbXbXbX0X0XqXqXqXbXbXbXbXbXbXmXmXBXBXNXL *XSXNXNXNXNXNXNXNXmXnXnXnXnX6Xv.v.v.V.m.$Xb.m.m.m.v._ K j.b.V.$Xm.v. ./ / / { { { { { { { { { { { { { L { L L L L |.6X0X0X0X0X0X0X0X0X0X0X0X0X0X0X0X0X",
"2 2 2 2 2 2 2 2 2 2 2 2 2 2 2 2 e *.5.5.5.4.4.4.5.4.4.4.6.6.6.6.4.4.4.4.6.4.4.4.4.4.4.4.5.,.@.y u u u u u u t q 5 7 0 t t t t t t t 7 7 7 7 t p l <.7.0.u.u.u.s.u.u.u.u.u.u.u.u.s.s.2.h , ; , , , , , , , , , , , , < d 3XAXvXhXhX6XhXhXcXcXvXMXSXHXDXDXDXDXDXDXDXDXDXDXDXDXDXDXDXDXcX*X6XNXNXnXmXnXnXnXnXnXnXnXnXnXnXnXcXhX$XS ` $X2X$X$X$X$X$X$X$Xv.` ^ ` v.$X3X2XvXFXGXGXFXGXFXFXFXFXFXFXFXHXHXHXHXHXHXHXHXHXHXHXFXGXGXKXGXHXZXvXvXcXvXvXxX2Xv.$X$X3X$Xb.v.k.v.v. ./ / / / G A & & R 5XZXKXKXGXHXZXMXvXcXhXsXvXZXZXZXZXZXvXcXbXcXcXcXcXcXcXcXcXcXbXbXbX0X0X0X0X0X0X0X0X0X0X0X0X0X0X0X0X0XcXcX*Xj.2XnXxXhX6X6X2X2Xm.j.j.x.v.x.x.v.x.c.c.z.z.c.c.c.c.q.q.q.q.q...| | | | | | | / / R R R R R R R R R R G D D D D D A A A A C C C V V C S R ..X.c.c.@X@X@Xc.X.X.c.c.c.k.k.k.k.c.q.@X@X@X@X@Xk.X.q.X.k.c.c.@X@Xc.X.X.k.X.X.k. .@X4X*Xj. .j.c.$X@X$X$Xc.{ / R R / / / / | |  ./ Y S 5XvXvXvXvXvXAXhXS / 2XvXhX4X@Xz.z.z.q.q.q.q.q.q.q.q.q.) ( ) 9.q.q.q.) ) zXKXKXLXLXKXKXKXKXKXKXKXHXZXZXZXZXCXCXvXCXCXZXZXZXZXHXKXKXKXLXKXKXKXKXHXHXZXMXMXJXbXJXbXbXMXMXbXMXbXbXMX6X$Xj.` k.$X*X*X*X*X#Xj.` h.v.#X#X#X#X2XbXbXbXbXbXqXqXqXbXbXbXqXqXcXbXcXcXqXqX0XqXbXbXbXbXnXmXmXBXBXDX|.o.SXNXNXNXNXNXNXNXmXnXnXnXnX6X#Xv.v.V.$X$Xb.V.m.b.v.` ^ x.$XV.$X#Xv. ./ K / / { { { / / / { { { { { { L { L O.P +X>X0X0X0X0X0X0X0X0X0X0X0X0X0X0X0X0X0X",
"2 2 2 2 2 2 2 2 2 2 2 2 2 1 2 6 @.,.5.5.4.4.4.5.5.4.4.4.6.6.6.6.4.4.4.4.4.4.4.4.4.4.4.4.5.>.@.y u u u u u y q 6 5 7 q t t t t t t 7 7 7 7 7 t p E 2.0.d.u.u.u.u.s.u.u.u.u.u.u.s.s.s.9.U , , , ; , , , , , ; , , - , < , n.vXvXcXhXhXhXhXcXcXbXMXSXSXDXDXDXDXDXDXDXDXDXDXDXDXDXDXDXDX6X4XmXmXnXmXnXnXnXnXnXnXnXnXnXnXcXnXcX6Xk.f j.3X2X$X$X$X$X$X$Xv.j.^ ^ j.$X$X3X2XMXFXGXGXFXGXGXGXGXFXGXFXHXHXHXHXHXHXHXHXHXHXHXHXFXGXKXKXGXHXMXvXvXcXvXvXhX2Xv.$X$X3X$Xb.v.c.v.c./ f f f V V S q.sXHXKXKXFXHXSXvXhXcXvXMXZXZXZXZXvXcXhXcXcXcXcXcXcXvXcXhXcXcXcXcXbXMXmXbX0X0X0X0X0X0X0X0X0X0X0X0X0XcX0X0XcX0Xv.k.6XnXhX6X6X6X2X2Xv.j.j.v.v.x.x.x.x.j.c.c.z.c.c.c.c.q.q.q.X. . .| | | | | | { / R R R R R R R R R R G G G D D D A A S A A A C C C V V V A R { X.X.c.@X@X@X@X@Xc.c.c.c.@X@X@X@X@X@X@X@X@XX.X.X.q.q.k.@X@X@X@X@Xk.k.k.X.k.k. .@X6X2Xc.j.c.v.$X$X$X$Xc.{ / / R / / /  . .q.X.| G H 4XvXvXvXvXvXHX3Xf _ 4XMXcX4X$Xc.z.z.q.q.q.q.q.q.q.q.q.) ( ) 9.q.q.q.) ) hXKXKXKXKXKXKXKXKXKXKXGXHXZXvXCXvXvXvXvXCXCXZXZXCXZXAXKXKXKXLXKXKXKXKXHXHXZXZXMXMXJXJXbXbXMXMXbXbXbXbXbX6X*Xj.` k.*X*X*X*X$X#Xj.` j.v.$X#X$X*X4XbXbXbXbXqXqXqXbXbXbXbXqXqXcXcXcXcXqXqXqXqXbXbXcXcXnXmXNXmXBXDX6XK nXBXNXNXNXNXNXNXmXnXnXnXnX6X#Xv.b.V.b.b.b.V.V.v.v.` ` v.$X$X$X#Xc. ./ / { { { { { { o.{ { { L L L { { L L } |.>X0X7X0X0X0X0X0X0X0X0X0X0X0X0X0X0XqX0X",
"3 3 3 3 3 3 3 3 2 2 2 3 2 2 6 w *.3.5.5.4.4.4.5.4.4.4.4.6.6.6.6.6.6.6.4.4.4.4.4.4.4.4.5.3.=.+.u u u u u u q 6 5 7 0 t t t y t t t 7 7 7 7 8 t p <.2.d.u.u.u.u.u.s.u.u.u.s.s.s.s.u.s.w.W - ; , ; , , , ; , ; ; , , - ; < S @XhXvXhXhXhXhXcXcXvXZXSXSXDXDXDXDXDXDXDXDXDXDXDXDXDXDXDXBX6X0XNXnXnXmXnXnXnXnXnXnXnXnXnXnXcX0XnX2XK K $X2X2X$X$X$X$X$XV.j.` ^ _ b.$X$X$X4XSXGXFXGXGXGXKXGXGXGXGXFXHXHXHXHXHXHXHXHXHXHXHXHXHXGXGXKXHXAXMXvXvXcXcXvXhX3Xv.$X$X$X$Xb.v.c.c.@X*X5X4XsXcXZXGXGXKXGXGXFXHXSXMXcXhXhXcXcXcXcXcXcXhXhXhXhXhXcXcXcXcXcXcXcXcXcXcXcXMXSXSXBXbX0X0X0X0X0X0X0X0X0X0XcX0XbX0XqXnX6Xk.k.6XhX6X6X6X6X2X%Xv.j.j.v.v.x.v.x.x.c.c.c.c.z.c.c.c.q.X.X.X.X. . .| | | | | | { / R R R R R R R R R R G G G G D A A A A A A C C C V V V V V A H { | X.q.@X@X@X@X@X@X@X@X@X@X@X@X@XX.| H A V F X.k.k.k.@X@Xk.@Xc.@Xk.k.k.k. .@XhX4X$Xc.c.@X$X$X$X$Xc.` / / / / / {  .c.c.c.{ S / 4XvXvXvXvXvXHXc.f z.hXZXvXhX$Xn.c.z.z.z.q.q.q.q.q.q.9.( ( 9.q.q.q.q._ _ hXHXKXKXKXKXKXKXKXKXKXHXAXCXvXvXvXvXvXCXCXCXZXZXCXZXAXHXKXKXLXKXKXKXGXHXHXZXZXMXMXMXMXMXJXMXbXbXMXMXMXbXcX2Xj.o.v.2X*X*X*X$X#Xj.` j.b.#X#X*X*X6XnXbXbXqXqXqXqXqXqXqXqXqXqXqXqXbXbXbXqX0X0XqXqXbXbXmXmXmXNXBXBXSXk.2XSXNXNXNXNXNXNXNXmXmXmXnX2X#X#X$X$Xb.b.v.V.m.m.x.` ` b.$X$X$X#Xj.o./ / / / { { { { o.{ L { { L { o.L J L +X>X0X0X0X0X0X0X0X0X0X0X0X0X0X0X0X0X0XqX0X",
"3 3 3 3 3 3 3 3 2 3 3 3 2 3 r +.,.5.5.5.4.4.4.4.4.4.4.4.6.4.6.6.6.6.6.6.4.4.4.4.4.4.5.5.,.&.u u u u u u y 0 5 3 6 q y t t t y y t 0 7 7 7 7 p i <.7.u.u.u.u.u.u.u.u.u.s.s.s.s.s.s.s.w.Q 9 ; , ; , , , , , ; , , ; , - < % d @XhXhXhXhXhXcXbXMXZXSXDXDXDXDXDXDXDXDXDXDXDXDXDXDXDXDXBX0XnXnXmXmXnXnXnXnXnXnXnXnXnXnXcXnXcXcX#Xf ` $X2X$X$X$X$XV.V.v._ K ` v.$X$X$X$X6XHXGXFXGXGXGXGXGXGXGXGXHXHXHXHXHXHXHXHXHXHXHXHXHXGXGXGXGXHXAXZXvXvXvXcXcXhX$Xv.$X$X$X$Xv.v.c.@XcXFXGXKXKXKXKXGXGXFXFXFXFXHXSXMXcXhX6X6X6XhXcXcXcXhXhXhXcXcXvXcXcXcXcXcXcXcXcXcXcXmXDXDXDXBXmX0X0X0X0X0X0X0X0XbXbXbXnX0XnXnX6X` #XhXcXhX6X6X6X2X$Xx.j.j.v.v.v.v.v.x.c.c.c.c.c.c.c.c.q.q.X.X.X. . . .| ..| | | { { / R R R R R R R R G G G G G S A A A A A A A C C C C C V V & V V A G R { { | ..X.X.X.X...| | H G V V & & & V o.k.@X@X@X@Xk.@X@X@Xk.k.k.k. .@XcX6X$Xv.@X$X$X$X$X@Xc.` / / / / {  .c.@Xc.X./ S { hXZXvXMXvXvXHX .f b.vXZXvXhX$Xn.n.z.z.z.z.q.q.q.q.q.9.( ) 9.q.q.q.q._ _ hXHXGXKXKXKXKXKXKXKXKXGXHXZXZXCXCXvXvXvXCXCXCXCXCXZXHXHXKXKXLXKXKXKXGXHXHXZXZXZXMXMXMXMXMXMXMXMXMXMXMXMXMX6X@Xj.@X2X$X*X*X$X#Xj.` k.#X#X*X*X2X0XnXbXbX0X0XqXqXqXqXqXqXqXqXbXqXbXbXqXqX0X0X0XqXbXbXmXmXmXBXNXBXDX2Xk.BXNXNXNXNXNXNXNXNXNXmXcX*X#X#X$Xb.b.b.b.V.m.v.j.^ j.$X$X$X$X#Xj.{ / / { { { { L { { { L o.o.L O.L J } +X>X9X0X0X0X0X0X0X0X0X0X0X0X0X0X0X0X0X0XqX0X",
"2 2 3 3 3 3 3 3 2 2 3 2 2 6 u =.3.5.5.5.4.5.5.4.6.4.4.4.4.4.4.4.6.6.6.6.4.4.4.4.4.4.5.5.,.@.y u u u y y q 6 5 5 0 t t y t t t t q 7 7 7 7 t p :.8.d.u.u.u.u.u.u.u.u.u.s.s.s.s.s.u.s.s.2.h ; , , , , , , , , , , , , , , < % Y n.4X4XhXcXcXvXMXZXSXDXDXDXDXDXDXDXDXDXDXDXDXDXDXDXDXmX0XnXnXmXmXnXnXnXnXnXnXnXnXnXnXnX0XcX6Xh.f x.3X2X$X$X$X$XV.v.j.^ ^ z.$X$X$X$X$XhXHXGXFXGXGXGXGXGXGXGXGXFXHXHXHXHXHXHXHXHXHXHXHXHXGXGXGXGXHXAXMXvXcXvXcXvX6X$Xv.$X$X$X$Xb.v.j.@XZXGXFXFXFXFXSXFXFXFXFXFXFXSXBXbXcX6X6XhXcXcXbXvXcXhXhXhXhXcXcXcXvXvXcXhXcXcXcXcXcXmXBXDXDXDXDXmXmX0X0X0X0XqXmXmXmXmXmXqXnXnX*X` *XhXnXhX6X6X6X2X$Xx.j.j.v.v.v.v.x.v.v.c.c.c.c.c.c.c.c.q.X.X.X. . .X.X.| | | | { { { / / R R R R R R R G G G G G S A A A A A A C C C C V V V f & & & & f V V V V V V V V V f f V & & & f & & & G X.@X@X@X@X@X@X@X@X@X|.@Xk. .@XcXhX3X$X$X*X3X$X$X$Xc. ./ / / {  .c.@Xc.c.X.{ S  .cXZXMXMXvXMXGX .f $XvXMXvXhX$Xn.n.z.z.z.z.q.q.q.q.q.9.( ) q.q.q.q.q._ q.hXHXGXKXKXKXKXKXKXKXKXHXAXZXvXCXvXvXCXvXvXCXCXCXCXZXAXHXKXKXKXKXKXKXKXHXHXZXZXZXZXZXZXZXZXAXAXHXHXHXSXSXHXMX6X$X$X*X*X$X*X$X#Xj.` k.$X$X$X*X4X0XnXbXbXbXbXbXqXqXqXbXbXbXbXbXbXbXbXbXbXcX0X0X0X0XbXmXmXmXNXNXBXSXnXk.6XBXNXNXNXNXNXNXNXNXmX6X*Xv.b.$Xb.V.V.m.m.v.v.j.^ j.$X$X$X$Xv. ./ ` o.o.o.o.o.o.o.o.o.o.L O.J O.L k.-X0X0X0X0X0X0X0X0X0X0X0X0X0X0X0X0X0X0X0X0XnX0X",
"2 2 2 3 3 3 3 3 6 2 3 2 2 6 u ,.5.4.4.5.5.5.5.6.6.4.4.4.4.4.4.4.6.6.6.6.4.4.4.4.4.5.5.3.>.u y y u y y q 0 7 5 7 q t y y t y t y 0 7 7 7 7 t i <.2.d.u.u.u.u.u.u.u.u.u.s.s.s.s.s.s.s.s.9.h , , , , , , , , , , , , , , , d % < R 3X4XhXcXcXbXMXSXDXDXDXDXDXDXDXDXDXDXDXDXDXDXDXDXSXnXcXnXnXnXnXmXnXnXnXnXnXnXnXnXnX0X0XcX6XK K $X2X2X$X$X$XV.V.x.` x ` V.$X$X$Xb.$XhXHXGXGXGXKXKXGXGXGXGXGXFXHXHXHXHXHXHXHXHXHXHXHXHXGXGXGXGXHXAXvXvXvXvXcXhX6Xv.v.$X$X$X$X$Xv.k.4XFXFXFXGXSXGXFXDXFXFXDXDXDXSXBXbXcXhX6X6XhXcXcXcXcXhXhXhXcXcXcXcXhXcXcXcXcXcXcXcXcXMXSXDXDXDXDXDXDXBXBXBXBXBXBXBXBXmXmXqXnXcX#Xk.6XnXnXcXhX6X6X2X$Xj.j.j.v.v.v.v.v.v.v.v.c.c.c.c.c.c.j.X.X.X.X. . . .X.| ..| | | { { { / / R R R R R R G G G G G S S A A A S A C C C C V V V C V V f V V v & & V V V V V V V V V V V f V V V & & { k.@X@X@X@X@X@X@X@X@X@Xk. .@XcXhX2X$X3X2X2X3X$X$Xc. .{ {  . .c.c.@Xc.c. .{ G c.vXZXMXMXZXZXGX .f $XMXZXMXvX3Xc.c.z.z.z.z.q.q.q.q.q.9.( ) q.q.q.q.q._ q.hXAXHXHXGXKXKXKXKXKXKXKXHXZXCXCXvXCXCXCXCXvXCXZXCXZXAXHXKXKXKXKXKXKXKXHXHXZXZXZXZXZXZXHXHXFXGXGXGXGXGXGXGXFXSX6X*X*X2X*X*X$Xv.h.` k.$X#X$X*X6XcXnXbXbXbXbXbXbXbXbXbXqXbXbXbXbXbXcXcXbX0X0X0X0XbXbXmXmXmXmXNXBXBXSXk.2XBXNXNXNXNXNXNXNXNXmX6X#Xv.b.$Xb.b.b.m.m.m.v.j.` v.$X$X$X$Xv. ./ K / / { { { L L { L J J J L k.+X7X0X0X0X0X0X0X0X0X0X0X0X0X0X0X0X0X0X0X0X0X0XnX0X",
"2 2 2 3 2 3 3 3 3 6 3 1 2 r &.3.5.5.5.5.5.4.4.6.6.6.4.4.4.4.6.6.6.6.4.4.4.4.4.4.5.5.5.,.@.y y y y y t 0 5 5 7 0 t y t y y t t q 0 5 5 7 t t :.<.7.d.u.u.u.u.u.u.u.u.u.u.s.s.s.s.s.s.s.9.W , , , , , , , , , , , , , ; ; , & < & q.4XhXcXvXMXBXSXDXDXDXDXDXDXDXDXDXDXDXDXDXDXDXDXBXmXnXnXnXnXnXnXnXnXnXnXnXnXnXnXqX6X0XhX$XK j.2X2X2X2X$X$X$Xv._ K ` x.$X$X$Xb.b.$XvXGXFXGXGXGXGXKXKXGXGXHXHXHXHXHXHXHXHXHXHXHXHXHXHXGXKXKXGXHXZXvXcXvXvXvXhX2Xv.v.$X$X$X$X#Xv.v.cXFXFXDXFXDXFXFXDXFXDXDXDXDXSXMXbXcX6X6XhXhXcXvXcXhXhXhXhXhXcXcXcXcXcXcXcXcXcXcXcXbXNXDXDXDXDXDXDXDXDXDXDXDXDXDXSXBXmXmXnXnXcXk.#X6XnXnXnXhXhX6X2Xm.j.j.v.v.v.v.v.c.c.c.c.z.c.c.c.c.c.c.c.q.q.X. . . .X...| | | | | { { { { / / R R R R H H H G G G G S A A A A A V V V C C C V V V V V V V V V C C C V V V C C V C V V V V f f & V | @X@X@X@X@X@X@X@X@X|.@XX.@XcXhX4X$X3X4X6X4X2X$Xv.j. . .X.c.c.@Xc.c.c. .{ / 3XMXMXZXMXMXZXKXc.& 3XZXZXMXvX3Xc.c.c.z.z.z.z.q.z.q.q.) Q ) q.q.q.q.q. ._ hXCXZXAXHXKXKXKXKXKXKXKXHXZXCXvXvXvXCXvXCXCXCXCXCXZXAXHXKXKXLXLXLXLXKXHXAXZXZXZXZXZXZXHXGXGXGXGXGXGXGXGXGXGXFXMX4X*X*X*X*X*X#X` ` v.$X*X$X*X6XbXbXbXbXbXbXbXqXbXbXbXbXcX0XqXqXbX0X0X0X0X0X0X0XcXnXmXmXNXNXmXBXBXSX7X XNXBXNXNXNXNXNXNXNXNX6Xm.#Xb.$X$Xb.$Xb.b.b.b.j.` v.$X$X$X$Xv. .K H J J J J J J J J J L P }.-X>X0X0X0X0X0X0X0X0X0X0X0X0XbXbXqXqXqX0X0X0XqX0XqXmX0X",
"2 2 2 2 2 2 3 3 3 3 2 3 2 y ,.3.5.5.5.5.5.4.4.4.6.6.4.4.4.4.6.6.6.6.4.4.4.4.4.4.5.5.5.>.u y y y y y q 0 5 5 7 0 t y t y t y y q 7 5 5 7 t y >.5.6.d.u.u.u.u.u.u.u.u.u.u.s.s.s.s.s.s.s.w.Q > , , , , , , , , , , , , ; ; , , < <  .4XhXcXbXMXZXSXDXDXDXDXDXDXDXDXDXDXDXDXDXDXDXDXBXmXnXnXnXnXnXnXnXnXnXnXnXnXnXnX0X0XcX6Xj.K v.2X2X2X$X$X$Xb.j.` ^ j.v.$X$X$Xb.v.$XMXGXFXGXGXGXGXKXGXGXGXHXHXHXHXHXHXHXHXHXHXHXHXHXHXGXKXKXGXHXMXvXvXcXvXvXhX3Xc.v.$X$X$X$X#Xc.$XbXFXFXDXFXDXFXFXFXFXDXDXDXDXSXMXbXcX6X6XhXhXcXvXvXhXhXhXhXhXcXcXcXcXcXcXcXcXcXcXcXbXBXDXDXDXDXDXDXDXDXDXDXDXDXDXSXBXmXnXnXnX6Xk.*XnXnXnXnX6X6X6X2Xv.j.j.v.v.v.v.v.c.c.x.c.z.c.c.c.c.c.c.q.q.q.q.q. . .X.X.| ..| | | { { { { / / / / / { / / R G G G G S S S A A A A V V C V C C V V V V V V V V C C V V V V V V V V V V C V V C & & A ..@X@X@X@X@X@X@X@X@Xc.k.$XcXhX4X$X$X4X6X6X4X3X@Xc. . .c.c.@X@Xc.c.j. .{ / 2XZXZXZXMXMXZXKX@Xf 3XZXZXZXvX2Xc.c.c.z.z.z.z.q.z.q.q.) ( 9.q.q.q.q.q._ _ hXCXZXZXAXHXGXKXKXKXKXKXHXZXCXvXvXvXCXCXCXCXCXCXCXZXZXHXKXKXLXLXLXLXKXHXAXZXZXZXZXZXZXHXGXKXKXGXGXGXGXGXGXGXGXZX6X2X2X*X*X*X#X` h.v.$X$X*X*X6XbXbXmXbXbXbXbXbXbXbXbXbXbX0XqXqXbXcXcXcX0X0X0X0X0XnXmXmXmXNXmXNXBXSX6Xl.nXBXNXNXNXNXNXNXNXNX6Xm.#X#X$X#Xv.$Xv.b.b.b.j.` v.$X$X$X$X$X*X*X+X|.|.|.|.|.|.|.+X-X>X7X0X0X0X0X0X0X0X0X0X0X0X0X0X0XqXnXbXbXbXqXqX0X0XqX0XbXmX0X",
"3 3 3 3 3 2 2 3 2 2 3 3 0 &.3.5.5.5.5.5.4.4.4.4.6.4.4.4.6.6.6.6.6.6.6.6.4.4.4.4.5.5.3.&.u y y y y q 0 7 5 5 0 q t y y y t t t 0 5 5 7 0 t i <.7.6.u.u.u.u.u.u.u.u.u.u.s.s.s.s.s.s.s.s.w.Q 9 , , , , , , , , , ; , , , , , , < < / 4XhXcXvXMXSXSXDXDXDXDXDXDXDXDXDXDXDXDXDXDXDXDXBXmXnXnXnXnXnXnXnXnXnXnXnXnXnXcX0X6XcX2XK K 3X2X2X2X$X$Xb.v._ ^ ` x.V.$Xb.V.b.v.3XZXFXFXGXGXGXGXGXGXGXGXFXHXHXHXHXHXHXHXHXHXHXHXHXHXGXKXKXGXAXMXvXcXvXvXvXhX$Xv.#X$X$X$X$Xv.k.2XZXFXFXDXDXDXFXDXFXFXDXDXDXDXZXMXcXhX6XhXhXhXcXcXvXhXhXhXhXcXcXvXcXcXcXcXcXcXcXcXcXbXBXSXDXDXDXDXDXDXDXDXDXDXDXDXBXmXmXmXcXnX2Xk.6XnXnXnXnX6X6X6X$Xv.j.j.v.v.v.v.v.c.v.c.x.c.c.c.c.c.c.c.c.q.q.q.q.q. . . .X.X...| | | | | { / / / /  . . . .{ / R H G G G G S A A A V V V V V C C C C C C C C C C V V V V V V V V C V V V V f f f f V S { |.+X@X@X@X@X@X@XX.X.@XhXcX6X$X$X4XhXhX6X4X3Xv.j.c.c.@X@X@Xc.j. . . . .4XZXSXZXZXZXZXKX@Xf 3XZXAXZXMX2Xn.c.c.n.z.z.z.q.z.q.q.) ( q.q.q.q.q.q._ _ hXvXvXCXZXAXHXHXKXKXKXKXHXAXCXvXvXvXCXvXvXCXCXCXvXCXZXAXKXKXLXLXLXKXKXHXZXZXZXZXZXZXHXFXKXKXKXKXKXKXGXKXGXGXGXSXcX4X2X*X*X*Xv.` h.v.$X$X*X2X6XbXbXbXbXbXmXmXmXbXbXbXbXbXqXqXqXbX0X0X0XqXqX0X0XbXmXmXmXmXNXmXmXNXSXnXk.6XNXNXNXNXNXNXNXNXNXhXm.b.#X$X$Xv.b.v.b.b.b.j.` v.$X$X$Xv.2X6X0X0X0X0X0X0X7X7X0X0X0X0X0X0X0X0X0X0X0X0X0X0X0X0X0X0XbXnXmXmXmXbXbXnXbXqXnXqXbXmX0X",
"3 3 3 3 3 2 2 3 2 2 1 2 e ,.5.5.5.5.5.5.4.4.4.4.4.4.4.4.4.6.6.6.6.6.6.6.4.4.4.4.5.5.,.@.y y y y y q 6 5 5 7 q t y y y t t t q 7 3 5 7 q y @.1.6.d.u.u.u.u.u.u.u.u.u.u.s.s.s.s.s.s.u.s.w.Q 9 , , ; ; , , , , , , , , , , , , & < / 4XhXcXbXMXSXSXDXDXDXDXDXDXDXDXDXDXDXDXDXDXDXDXNXnXnXnXnXnXnXnXnXnXnXnXnXnXcXcXnX6XhX#Xf h.2X2X2X3X$X$Xv.j.^ ^ z.b.V.b.v.b.b.v.2XZXGXGXGXGXGXGXGXGXGXGXFXHXHXHXHXHXHXHXHXHXHXHXHXHXGXKXKXHXZXvXvXcXcXvXMXhX$Xv.$X$X$X$X#Xv.c.6XDXFXDXDXDXDXFXDXFXFXDXDXDXSXZXMXcXhX6X6XhXhXcXcXvXhXhXhXhXcXvXvXcXcXcXcXcXcXcXcXcXbXBXDXDXDXDXDXDXDXDXDXDXDXDXDXBXmXmXnXqXnX*Xk.6XnXnXnXnX6X6X2X$Xv.j.x.v.v.v.v.v.v.x.v.x.c.c.c.c.c.c.c.c.c.q.q.q.q.X. . .X. . ...| | | | | { { /  . .c.c.c.j. .{ / H G G G S S S A A A A C V V V C C C C C C C V V V V V V V V V V V C C C V V C V f f V F o.X.@X@XX.X.X. .X.@XhXvXhX3X$X4XhXhXhX6X2X@Xc.c.@X@X@X@Xc.X. . . .c.cXSXSXZXZXZXZXKX@Xf 3XAXZXZXMX4Xb.c.c.n.z.z.z.q.z.z.q.) ( q.q.q.q.q.q._ _ sXvXvXCXCXZXAXHXHXKXKXKXHXAXCXvXvXvXCXCXCXCXCXvXvXCXZXAXHXKXKXLXLXKXKXHXZXZXZXZXZXZXHXGXKXKXKXKXKXKXKXKXKXGXGXFXMX6X2X2X2X*X#X` j.v.*X$X*X2X6XbXbXbXbXbXmXMXMXmXmXbXbXbXqXqXqXbXbX0X0XbXbXqX0XbXmXmXmXmXmXNXmXmXSXBXk.6XBXNXNXNXNXNXNXNXBX6Xm.b.$X$Xb.b.b.b.b.b.b.j.` v.$X$X$Xv.2X0X0X0X0X0X0X0X0X0X0X0X0X0X0X0X0X0X0X0X0X0X0X0X0X0X0X0XbXmXmXMXMXbXbXmXnXbXbXbXmXmXcX",
"3 3 3 3 2 2 2 2 2 3 o 2 u 3.5.5.5.5.5.5.5.4.4.4.4.4.4.4.4.4.4.4.6.6.6.6.6.4.4.5.5.3.=.u y y t y y 0 5 3 7 0 t y y y y t t y 0 7 s 7 0 q y f.5.6.u.u.u.u.u.u.u.u.u.u.u.s.u.u.u.u.s.u.s.u.2.9 , , , , , , , , , , , , , , , , & < / 4XhXcXbXMXSXDXDXDXDXDXDXDXDXDXDXDXDXDXDXDXDXSXmXnXnXnXnXnXnXnXnXnXnXnXnXnXcXcXcXcX6X` f v.2X2X3X$X$X$Xx.` ^ _ v.b.b.b.b.b.b.v.2XAXGXGXGXGXGXGXGXGXFXFXHXHXHXHXHXHXHXHXHXHXHXHXHXHXKXKXKXHXZXvXvXcXcXMXvX6X$Xb.$X$X$X$Xv.v.@XcXDXDXDXDXDXDXFXDXFXDXDXDXDXSXMXMXcXhX6X6XhXcXcXcXcXhXhXhXhXcXcXcXcXcXcXcXcXcXcXcXcXnXBXDXDXDXDXDXDXDXDXDXDXDXDXDXBXmXmXqX0X0X#X#XnXnXnXnXcX6X6X2X#Xk.j.x.v.v.v.v.v.v.x.v.c.c.c.c.c.c.c.c.q.c.q.q.w.q.q.q.X. . . .....| | | | | { /  .c.b.@Xv.v.c. . ./ H H G S S S S A A A A V V C C C C C C V V V V V V V V V V V V V V C C V V V V V V V C A G S { @X4XcXvXvXcXhXvXhX2X$X2XhXhXhX6X2X$Xc.c.@X$X@X@Xc.X. . . .@XbXSXSXZXZXZXZXKX@Xf 3XSXZXMXvX4Xb.c.z.z.z.z.z.z.z.z.q.( ) q.q.q.q.q.q.q._ sXvXvXCXCXCXZXZXHXGXGXKXGXHXZXvXvXvXCXCXvXCXCXCXCXCXZXAXGXLXLXLXLXKXHXHXAXZXZXZXZXAXHXGXKXKXKXKXKXKXKXKXKXGXGXFXZXhX6X4X2X2X#X .j.#X$X$X*X2X6XbXMXMXMXBXBXSXBXBXBXMXMXbXbXbXbXbXbXbXbXbXbXbXqXbXmXmXmXMXmXNXNXmXBXDXk.7XBXBXNXNXNXNXNXNXSX6Xv.m.$X$Xb.#X$Xb.b.v.v.j.` b.$X$X$X#X2X0X0X0X0X0X0X0X0X0X0X0X0X0X0X0X0X0X0X0X0X0X0X0X0X0X0XbXbXmXMXmXMXMXMXmXmXbXbXbXmXmXbX",
"2 2 2 2 2 2 2 6 3 1 1 0 &.3.5.5.5.5.5.5.4.5.5.5.5.5.4.4.4.4.4.4.4.6.6.6.4.4.5.5.5.,.&.u y y y y q 6 5 5 7 q y y y y y t y q 7 5 s 7 q t y >.5.r.u.u.u.u.u.u.u.u.u.u.u.u.u.u.u.u.s.u.s.w.2.9 , ; , , , , , , , , , , , , , , ; < / 4XhXcXvXZXSXDXDXDXDXDXDXDXDXDXDXDXDXDXDXDXSXBXmXnXnXnXnXnXnXnXnXnXnXcXnXnXcXcX0XnX6Xx f $X2X3X$X$X$Xv.j.^ ` z.b.b.b.b.v.v.v.v.4XAXGXFXGXGXGXGXGXGXGXFXHXHXHXHXHXHXAXHXHXHXHXHXHXHXKXKXGXHXZXvXcXcXvXZXvX2Xb.$X$X$X$Xb.v.v.*XMXFXDXDXDXDXDXDXFXDXDXDXDXDXSXMXnXcXhX6X6XhXcXcXvXcXhXhXhXhXcXcXcXcXcXcXcXcXcXcXcXcXMXBXDXDXDXDXDXDXDXDXDXDXDXDXBXBXmXmXqX0X6Xk.*XnXnXnXnXhX6X6X2Xm.j.j.v.v.v.v.v.v.v.x.v.c.c.c.c.c.c.c.q.c.c.c.c.q.q.q.q.X.X. . . .....|  . .| | {  .c.@Xv.v.v.v.c.j. ./ / G G S S S S A A A V V V V V V C C V V V V V V V V V V V V C C V C V V V V V C V & % @ | hXKXKXKXKXKXZXhXvXcX2X$X2XhXxXhX6X2X$Xc.c.@X$X$X@Xc.X. . . .:XMXSXSXZXSXZXZXKX@XS 3XSXAXMXMX6Xb.c.z.z.z.z.z.z.z.z.q.( ) q.q.q.q.q.q.q._ hXvXvXvXvXvXvXZXAXHXGXKXKXHXZXCXvXvXvXvXvXCXCXCXZXCXZXAXHXKXLXLXKXKXHXHXZXZXZXZXZXHXHXGXKXKXKXKXKXKXKXKXKXGXGXGXZXcX6X6X6X6X$Xj.k.#X*X$X*X2XcXMXBXZXBXSXDXDXDXDXSXSXBXmXmXbXbXcXbXbXbXbXbXbXbXbXmXmXmXmXmXmXNXNXBXDX|.*XBXNXNXNXNXNXNXBXBX6Xv.m.$Xb.b.$X$Xb.b.b.v.j.` b.$X$X#X#X4X0X0X0X0X0X0X0X0X0X0X0X0X0X0X0X0X0X0X0X0X0X0X0X0X0XbXmXbXMXMXMXMXMXMXMXMXbXbXbXbXMXbX",
"3 3 3 3 2 2 2 2 2 o 3 w ,.5.5.5.5.5.5.5.5.5.5.4.5.5.4.4.4.4.4.4.4.4.4.4.4.5.5.4.3.=.+.y y y y q 0 7 5 5 0 t y t y y y y t q 7 5 5 0 t y i >.7.d.u.u.u.u.u.u.u.u.u.u.u.u.u.u.u.u.s.u.u.u.2.9 - : , , , , , , , , , , , , , , < ,  .4XhXcXvXZXSXDXDXDXDXDXDXDXDXDXDXDXDXDXDXDXSXNXmXnXmXnXnXnXnXnXnXnXcXcXnXnXcXcXcXnX$Xf ` 2X2X3X$X$XV.z.` ^ _ v.b.b.v.v.v.v.v.v.6XAXGXFXGXGXGXGXGXFXFXHXHXHXHXHXHXHXHXHXAXAXAXHXHXHXKXKXGXAXMXvXcXvXMXMX6X$Xv.$X$X$Xb.b.v.v.2XSXFXFXDXDXDXDXDXFXDXDXDXDXDXSXMXnXcXhX6X6XhXcXvXcXcXhXhXhXhXcXcXcXcXcXcXcXcXcXcXcXcXMXBXDXDXDXDXDXDXDXDXDXDXDXSXBXBXmXmXqX0X7Xk.6XNXnXnXnX6X6X6X2Xm.j.j.v.v.v.v.v.v.v.x.x.c.c.c.c.c.c.c.c.c.c.q.q.q.q.q.q.q.q.X.X.X.X. ... . . . .{  .c.@Xv.c.v.v.v.v.c. ./ / G G G G S S S A A C C C V V V V V V V V V V V V V C V V C A V V V V A C & & % X R 5XKXKXKXKXKXKXKXHXhXvXvX4X$X3X6XhXhX6X2X$Xv.c.$X*X*X@Xc.X. . . .4XZXSXSXZXSXZXZXGX@XS 2XSXAXNXMX6Xb.n.c.n.z.z.z.z.z.q.9.Q ) q.q.q.q.q.q.q. .hXCXvXvXvXvXvXCXZXAXHXGXKXHXAXCXvXvXvXvXvXvXCXCXCXCXZXAXHXKXLXKXKXKXHXAXZXZXZXZXZXHXFXGXGXKXKXKXKXKXKXKXKXKXGXGXZXcXcX6XhX6X2Xj.v.$X$X*X$X2XcXSXSXDXDXFXFXFXFXFXDXDXDXSXBXmXmXbXbXbXbXbXbXmXbXmXmXmXmXmXNXmXNXNXBXDX|.#XNXNXNXNXNXNXNXBXNX2Xk.m.$XV.b.#X$Xb.b.b.v.j.` b.$X$X#X#X6X0X0X0X0X0X0X0X0X0X0X0X0X0X0X0X0X0X0X0X0X0X0X0X0XbXbXbXMXMXMXMXMXMXMXMXMXMXmXbXMXBXMX",
"3 3 3 3 3 2 2 2 3 o 2 u 3.5.5.5.5.5.5.5.5.5.5.5.5.5.5.4.4.4.4.4.4.4.4.4.4.5.4.5.,.=.u y y y y 0 7 5 s 5 q y y t y y y y t 0 5 3 7 0 t t @.<.7.d.u.u.u.u.u.u.u.u.u.u.u.u.u.u.u.u.s.u.u.u.2.9 - - ; , , , , , , , , , , ; , ; < f q.sXcXcXvXZXSXDXDXDXDXDXDXDXDXDXDXDXDXDXDXDXSXMXnXnXmXnXnXnXnXnXnXnXcXcXnXnXcXcXnXhXj.f j.2X2X$X$X$Xb._ ^ ^ z.v.v.v.b.v.v.v.v.v.6XHXGXFXGXGXGXGXFXFXFXHXHXHXAXHXHXHXHXHXAXAXAXHXHXHXGXKXGXAXvXcXcXvXvXcX2Xv.v.$X$X$Xv.b.v.v.6XSXFXDXDXDXDXFXDXDXDXDXDXDXDXSXMXnXcXhX6X6XhXcXvXcXhXhXhXhXhXcXcXcXcXcXcXcXcXcXcXcXcXMXBXDXDXDXDXDXDXDXDXDXDXDXDXBXNXmXmXcX0X2Xk.6XNXnXnXnX6X6X6X*Xv.j.j.v.v.v.v.v.v.v.x.x.c.c.c.c.c.c.c.c.c.c.c.q.q.q.q.q.q.q.q.X.X.X.X.X.X. . . .o. .@X@Xc.j.v.v.v.v.v.j.o./ H H G G G G S S A A A A A A V V V V C C V V V V C C C V V f & & < < % < % & q.sXHXKXLXLXKXKXKXKXKXHXcXvXvX6X$X3X6XhXhX4X3X$X@X@X*X4X3Xc.j. .X. .c.hXZXSXSXZXSXZXZXGX@XS 3XSXAXZXZXhX$Xn.c.n.n.z.n.z.z.q._ Q ) q.q.q.q.q.q.q. .hXCXCXCXvXvXvXvXvXZXAXHXGXGXAXZXCXvXvXvXvXvXCXCXCXCXZXAXHXKXLXKXKXHXHXAXZXZXZXZXZXHXGXKXKXKXKXKXKXKXKXKXKXGXGXGXZXvXcXhXhX6X2Xv.v.$X*X2X$X2XvXFXFXFXFXFXFXFXDXFXFXFXDXFXDXSXBXMXMXmXmXmXmXmXmXmXmXBXBXmXBXmXmXNXBXDX|.l.NXNXNXNXNXNXBXBXNX*Xj.m.$X$Xb.#X$Xb.V.b.v.j._ #X$X#X#X*X6XqX0X0X0X0X0X0X0X0X0X0X0X0X0X0X0X0X0X0X0X0X0X0XqXbXbXMXMXMXMXMXMXMXMXMXMXMXMXMXMXBXBX",
"2 3 2 3 3 3 3 2 1 o 6 =.3.5.5.5.5.3.3.,.3.3.5.4.5.5.4.4.4.6.4.4.4.4.4.4.4.5.4.3.=.+.u u y y q 0 5 3 3 6 q t t y y y y y q 7 5 5 7 q y y &.5.r.u.u.u.u.u.u.u.u.u.u.u.u.u.u.u.u.u.u.u.u.0.8.9 : ; ; ; , , , , , , , , , , , , < A @XsXcXcXvXZXSXDXDXDXDXDXDXDXDXDXDXDXDXDXDXSXNXmXnXnXnXnXnXnXnXnXcXnXnXcXcXcXcXcXcX6XK f v.2X3X$X$X$Xx.` x ` x.v.v.v.b.v.v.v.z.v.6XHXFXGXGXGXGXGXGXFXFXHXHXHXHXAXHXHXAXAXHXHXHXHXHXHXGXGXHXZXvXcXcXcXvXhX$Xv.$X$X$Xv.$Xv.c.@XhXDXFXFXFXDXDXDXDXDXDXDXDXDXSXNXMXvXcXhX6XhXhXcXvXcXcXhXhXhXhXcXcXcXvXvXcXcXcXcXcXcXcXMXSXDXDXDXDXDXDXDXDXDXDXDXDXBXmXnXnXnX0X#Xk.6XnXnXnX0X6X6X6X$Xv.j.k.v.v.v.v.v.v.v.v.x.j.j.c.j.c.c.j.c.c.c.c.c.@XX.q.q.X.X.q.q.X.X.X.X. . . . . .c.@X@Xv.c.c.v.v.v.v.c. ./ H H G G G S S S S S S A A S S A V A V V V V A V V A V V & V S G / {  .@XhXHXKXLXLXLXKXLXLXLXKXKXKXHXcXvXvX6X$X3XhXhXhX4X3X3X$X$X2X6X3Xc.j. . . .@XcXSXSXSXSXSXSXSXKX@Xf 3XSXSXMXZXhX$Xn.c.c.c.c.z.z.z.q.) Q ) q.z.q.q.q.n._ q.vXZXZXCXvXvXvXvXvXCXZXHXHXHXHXZXvXvXvXvXvXvXvXCXCXCXCXZXHXLXKXKXKXHXHXZXZXZXZXZXZXHXGXKXKXKXKXKXKXKXKXKXKXGXGXGXZXbXcXcXhXhX2Xj.m.2X2X2X*X2XvXFXFXFXFXFXGXGXGXGXFXFXFXFXFXFXDXDXDXSXSXBXBXBXBXBXBXNXNXNXNXBXBXBXmXDX+Xk.mXNXNXNXNXNXNXSXNX#Xk.#X#X$Xv.$Xm.V.b.v.v.j.h.$Xv.$X$X*XcXmXqX0X0X0X0X0X0X0X0X0X0X0X0X0X0X0X0X0X0X0X0XbXbXMXMXMXMXMXMXMXMXMXMXBXBXMXBXMXZXSXHX",
"3 3 3 2 3 3 2 3 o 3 r ,.3.5.5.5.5.5.3.,.3.3.5.4.5.5.4.4.4.4.4.4.4.4.4.4.4.5.5.3.&.+.y y y q 0 0 5 3 5 0 t t t y t y y t q 7 5 5 0 t y @.>.5.r.d.u.u.u.u.u.u.u.u.u.u.u.u.u.u.u.u.u.u.u.0.8.9 - , ; ; , , , , , , , , , , , < & | 3XhXvXcXMXSXSXDXDXDXDXDXDXDXDXDXDXDXDXDXDXBXmXmXnXnXnXnXnXnXnXnXnXnXnXnXnXcXcXcXnX$Xf S $X2X$X$X$Xb.j.^ ^ _ v.v.v.v.b.v.v.v.z.v.6XSXGXGXGXGXGXGXGXFXHXHXHXHXSXAXHXHXHXAXAXAXAXAXHXHXGXGXHXZXcXcXcXvXcX6X$X$X$X$X$Xv.v.v.c.$XcXFXFXFXFXDXDXDXDXDXDXDXDXDXSXMXnXcXcXhX6XhXhXcXvXcXhXhXhXhXhXcXcXcXvXvXcXcXcXcXcXcXcXMXSXDXDXDXDXDXDXDXDXDXDXDXDXBXmXmXmXqX6X#X#XnXnXnXnX0X6X6X2X$Xk.j.k.v.v.v.v.v.v.x.v.x.j.c.v.c.c.c.c.c.c.c.q.c.q.X.c.@Xq.q.q.q.X.X.X.X. . . . .j.v.$X$Xv.c.v.v.v.v.v.c. ./ H H H H G G G S S S G S S S A V V A V G A V V V V A V & | 4XZXFXKXHXKXKXKXKXKXLXLXLXKXLXLXLXKXKXKXHXvXvXvXhX$X$XhXxXhX2X2X2X$X$X4XhX3Xc.c.c. .{ $XMXSXSXSXSXSXSXSXKX@Xf $XSXSXNXAXhX$Xn.c.c.c.c.z.z.z.q.) Q 9.q.z.q.z.q.n.) q.ZXHXAXZXCXvXvXvXvXCXZXZXAXHXAXZXCXvXvXCXvXvXvXCXCXCXCXZXAXKXKXKXKXHXHXAXZXZXZXZXZXHXGXKXKXKXKXKXKXKXKXKXKXKXGXGXZXvXcXcXcXhX2Xk.$X2X2X2X2X2XvXFXFXFXFXFXGXGXGXGXFXFXFXFXFXFXDXFXDXDXDXDXDXSXSXSXBXBXNXNXNXBXBXmXmXDX+Xk.nXNXNXNXNXNXNXBXNX#Xk.$X$X$XV.$Xm.$X$Xb.b.j.h.$Xb.$X$X2XmXSXBXmXqX0X0X0X0X0X0X0X0X0X0X0X0X0X0X0XqXqXbXbXbXMXMXMXMXMXMXMXMXMXMXZXBXMXBXZXZXSXHX",
"3 2 2 3 2 2 2 3 o 3 +.3.5.5.5.5.5.5.3.3.3.3.5.4.5.4.4.4.4.4.4.6.4.4.4.5.4.5.3.>.&.u y y t q 7 5 3 5 6 q y y y y t y y q 0 5 5 7 q y u :.<.7.r.u.u.u.u.u.u.u.u.u.u.u.u.u.u.u.u.u.u.u.u.0.W 9 ; , ; ; , , , , , , , , , , , < S @XsXcXcXvXMXSXSXDXDXDXDXDXDXDXDXDXDXDXDXDXDXBXmXnXmXmXnXnXnXnXnXnXnXnXnXcXnXcXcXcXnXj.< ^ 3X2X$X$X$Xv.` K ^ z.v.v.v.v.v.v.v.v.z.b.hXFXGXGXGXGXGXGXFXFXHXHXAXAXAXHXHXHXZXAXZXZXHXAXHXGXKXGXAXvXcXhXhXvXhX2X$X$X$X$X$Xv.v.v.k.*XMXFXFXDXDXDXDXDXDXDXDXDXDXDXSXMXvXcXcXhX6XhXhXcXvXcXhXhXhXhXhXcXcXcXcXcXcXcXcXcXcXcXcXNXDXDXDXDXDXDXDXDXDXDXDXDXDXBXmXmXnX0X6X#X2XnXnXnXnX0X6X6X2X#Xj.j.v.v.v.v.v.v.v.x.x.c.k.v.$X$Xc.c.X.c.c.q.q.c.c.c.X.X.X.c.c.q.X.X.X. . . . . .j.@X3X$Xv.v.v.c.v.v.v.v.j./ H H H G G G G G G S S S G G G S S G S A V A G S V V f R 4XGXGXHXHXHXHXGXKXKXKXKXKXKXKXKXKXLXKXKXKXHXvXMXvXhX$X$X6XhXhX2X2X4X*X@X4X6X*XX. .q. .{ 5XZXZXSXZXSXSXSXSXKX@Xf $XSXSXAXAXhX$Xn.c.c.c.n.z.n.z.q.( ( q.n.z.z.z.q.q._ c.AXHXHXAXZXvXvXvXvXvXCXZXZXAXZXZXCXvXvXCXCXvXvXCXvXCXCXZXAXKXKXKXKXHXAXZXZXZXZXZXAXHXGXKXKXKXKXKXKXKXKXKXKXKXKXFXZXvXcXcXcXhX2Xk.$X6X4X2X2X2XvXFXFXFXFXGXGXGXGXGXFXFXFXFXFXFXFXDXFXDXDXDXDXDXDXSXBXBXNXBXNXmXmXmXmXDX+XI qXNXNXNXNXNXNXBXnXv.v.$X$X#X$X$Xb.$Xm.V.V.j.j.b.b.$X#X4XBXDXDXBXBXmXqX0X0X0X0X0X0X0XqXqXbXmXbXmXmXmXmXMXMXMXMXMXMXMXMXMXMXZXZXZXZXZXBXZXZXHXFX",
"2 2 2 2 2 3 2 1 2 r ,.5.5.5.5.5.5.5.5.5.5.4.5.4.4.4.4.4.4.4.6.6.4.4.4.5.5.5.3.*.+.u w w q 0 7 5 3 5 0 q y y y y y y t q 7 5 5 5 q t @.>.5.6.u.u.d.u.u.u.u.u.u.u.u.u.u.u.u.u.u.u.u.u.u.2.W 9 ; , ; ; ; , , , , , , , , , ; ,  .4XcXcXcXvXMXSXDXDXDXDXDXDXDXDXDXDXDXDXDXDXSXNXnXnXmXmXnXnXnXnXnXnXnXnXnXcXnXcXcXnX6XK f _ $X2X3X$Xb.z.^ x ` z.v.x.v.v.v.v.v.v.j.$XcXFXGXGXGXGXGXGXFXFXHXAXZXAXAXAXAXAXZXZXZXZXAXAXHXGXGXHXZXvXhXhXhXvX6X3X$X$X$X$Xv.v.v.c.j.*XZXFXFXDXDXDXDXDXDXDXDXDXDXDXZXMXbXcXcX6X6XhXhXvXvXcXhXhXhXhXcXcXcXcXcXcXcXcXcXcXcXcXcXNXDXDXDXDXDXDXDXDXDXDXDXDXBXBXmXmXqX0X6X*X6XnXnXnXnX6X6X6X2Xm.j.j.v.v.v.v.v.v.v.v.x.j.k.@X2X4X3Xc. . .c.c.c.c.c.c.k.k.c.c.X.X.c.q.X.X. . . . .c.$X2X3Xv.v.v.v.v.v.v.v.j./ H H H G G G G G G S S S S G G S A V G V S S V V A V f 1XAXGXHXHXZXAXHXHXKXKXLXKXKXKXKXKXKXLXKXKXKXHXvXMXMXhX$X$X6XhX6X2X2X4X*X$X4X4Xc. .| | / / 5XSXZXSXZXSXSXSXSXGX@Xf $XSXSXAXAXhX$Xb.c.c.c.n.z.z.z.9.( ( q.n.z.z.z.q.q._ c.HXGXHXHXAXZXvXvXvXvXvXCXZXZXZXZXCXCXvXCXCXvXvXvXvXCXCXCXAXKXKXKXKXHXAXZXZXZXZXZXHXHXKXKXKXKXKXKXKXKXKXKXKXGXGXGXZXvXcXcXcXhX2Xk.$X6X6X6X2X2XvXFXFXGXFXFXGXGXGXGXGXFXFXGXFXFXFXFXDXDXDXDXDXDXDXDXBXBXNXBXNXBXmXBXmXDX|.I 0XNXNXNXNXNXNXSX6Xv.v.2X$X$XV.b.b.$X$XV.$Xj.j.v.b.$X#X4XDXDXDXDXDXBXBXmXmXmXmXmXmXBXBXBXBXBXMXmXmXMXMXMXMXMXMXMXMXMXMXMXZXZXZXZXZXZXZXZXZXFXHX",
"3 3 2 2 2 2 2 1 6 +.3.5.5.3.5.5.5.5.5.5.5.5.4.4.4.4.4.4.4.4.4.4.4.4.4.5.4.5.>.@.u y q q 0 0 5 s 5 7 q t y y y y y y t 0 5 5 7 0 t t @.>.7.r.u.u.d.u.u.u.u.u.u.u.u.u.u.u.u.u.u.u.u.u.u.2.W , ; , ; ; , , , , , , , , , , < U @XhXcXcXcXbXMXSXDXDXDXDXDXDXDXDXDXDXDXDXDXDXBXmXnXmXmXnXnXnXnXnXnXnXnXnXcXcXcXcXcXnX2Xf f j.3X3X3X$Xv._ ^ ^ j.x.x.v.v.v.v.v.v.v.j.$XvXFXGXGXGXGXGXFXFXHXHXZXZXZXAXAXZXZXZXZXAXAXHXHXHXGXGXHXMXvXcXcXvXhX4X2X2X3X$X$Xb.b.v.j.j.2XSXFXFXFXFXDXDXDXDXDXDXDXDXDXBXMXbXcXcX6X6X6XhXvXvXcXhXhXhXhXcXcXcXcXcXcXcXcXcXcXcXcXbXBXDXDXDXDXDXDXDXDXDXDXDXDXBXBXmXmXqXnX6X*X6XnXnXnX0X6X6X6X2Xv.h.j.v.v.v.v.v.v.v.v.v.c.j.$X4XhX6X3Xc. .X.X.X.X. .X.X.X. . . .c.c.q.X.X.X. . . .c.3X4X2Xv.v.v.v.v.v.v.v.j.` K H H H G G H G G G G G S S S S S S S S A A S S V & q.vXHXAXAXAXAXAXHXHXKXKXKXKXKXKXKXKXKXLXKXKXKXHXvXMXMXhX$X$X6XhX6X2X2X4X*X@X4XhX4X4X4X4X5X5XcXSXSXSXZXSXAXSXSXGX@XS 3XSXSXAXAXhX$Xb.n.c.c.n.z.n.q.9.( ) q.z.z.z.z.z.q._ @XGXKXGXHXHXAXZXvXvXvXvXCXZXZXZXZXCXCXvXCXCXCXCXvXvXvXvXCXAXHXKXKXKXHXAXZXZXCXZXZXHXGXKXKXKXKXKXKXKXKXKXKXKXKXGXGXZXvXvXcXvXhX$Xk.2X6X6X6X2X2XbXFXFXFXGXGXFXGXGXGXGXFXFXFXFXFXFXFXGXFXFXDXDXDXDXDXBXBXNXBXmXmXBXNXNXDX|.K 6XBXBXBXBXNXNXSX6Xk.$X2X*X$XV.b.b.#X$X$X$Xj.j.b.$X#X*X6XDXDXDXDXDXDXDXDXSXBXBXDXDXDXDXDXDXSXBXMXMXMXMXMXMXMXMXMXMXMXMXMXZXZXZXZXZXZXZXZXZXHXFX",
"3 3 3 2 2 2 3 2 e *.5.5.5.3.3.5.5.5.4.5.5.4.4.4.4.4.4.4.4.4.4.4.4.4.4.5.5.3.=.+.y y q q 0 7 5 s 5 0 q t y y y y y y q 7 5 5 0 q y y @.3.7.r.u.u.d.u.u.u.u.u.u.u.u.u.u.u.u.u.u.u.u.u.0.2.W , = ; , , , , , , , , , , , , ; Y 3XhXhXhXcXvXMXSXFXFXDXDXDXDXDXDXDXDXDXDXDXSXNXnXmXnXnXnXnXnXnXnXnXnXnXnXnXcXcXcXcXcX$Xf f v.2X3X$XV.z.` ^ ` z.x.x.v.v.v.x.v.v.x.j.3XMXFXFXGXFXGXGXFXFXHXAXZXZXZXAXAXZXZXZXZXAXAXHXHXHXGXFXAXvXcXcXvXvX6X2X2X6X2X$X$Xv.v.c. .j.6XSXFXFXFXFXDXDXDXDXDXDXDXDXSXMXnXcXcXcX6X6XhXcXvXcXcXhXhXhXhXcXcXcXcXcXcXcXcXcXcXcXcXnXBXDXDXDXDXDXDXDXDXDXDXDXDXBXmXmXnXnXnX6X*X6XnXnXnX0X6X6X6X*Xv.` j.v.v.v.v.v.v.v.v.v.j.j.$X6XvXvX6X3Xv.c. . . . . . .c.@X@X@Xc.c.c.c.c.c.X.X.X.c.2X6X2X$Xv.v.v.v.v.v.v.j.` K H / H H H H H G G S G G G G G S A S G A V S & f { sXZXHXAXAXZXAXAXAXHXKXLXKXKXKXKXKXKXKXLXKXKXKXAXvXMXZXhX3X$X6XhX6X2X2X4X2X@X4XHXKXKXKXKXKXKXHXMXSXSXZXSXAXSXSXGX@XS 3XSXSXSXAXhX$Xb.n.c.c.n.z.z.q._ Q ) q.z.z.z.z.z.z._ 3XGXGXGXGXGXHXAXZXvXvXvXvXCXCXCXZXCXvXvXCXCXvXvXCXCXvXvXCXZXHXKXKXHXHXAXZXCXCXZXZXHXGXKXKXKXKXKXKXKXKXKXKXKXKXKXGXZXvXvXvXMXcX$Xk.2X6X6X6X2X2XcXFXFXGXFXGXGXGXGXGXGXGXGXGXFXFXGXGXGXFXFXFXFXDXDXDXBXBXNXBXmXBXBXBXNXDX|.K 6XBXNXBXBXNXBXSX6Xk.$X2X*X$Xb.b.b.b.$X$X$Xj.j.b.$X#X*X6XDXDXDXDXDXDXDXDXDXDXDXDXDXDXDXDXDXBXMXMXMXMXMXMXMXMXMXMXMXMXZXZXZXZXZXZXZXZXZXZXAXHXFX",
"2 3 3 3 3 3 2 6 &.3.5.3.5.5.3.5.5.5.4.5.5.4.4.4.4.4.6.4.6.6.4.4.4.4.4.4.3.,.&.+.w q q 0 7 5 s 5 6 q t t y y t t y q 0 5 5 7 q q t u >.5.6.r.u.u.d.d.u.u.u.u.u.u.u.u.u.u.u.u.u.u.u.d.7.8.p - ; ; , , , , , , , , , , , ; ; d @XsXhXcXvXvXZXHXFXFXFXFXFXGXGXFXFXFXDXDXDXSXmXnXnXnXnXnXnXnXnXnXnXnXnXcXnXnXcXnXcX6X .f ^ $X2X$X$Xb._ ^ ^ _ x.x.x.v.x.x.v.v.v.z.j.2XZXGXFXGXFXGXGXFXFXHXZXZXZXZXZXZXZXZXZXZXZXZXZXHXHXFXHXZXcXcXvXcXhX2X2X6X6X2X$Xv.v.v.j.` c.bXFXFXFXFXFXDXDXDXDXDXDXDXDXSXMXbXcXcXcX6X6X6XcXcXcXhXhXhXhXhXcXcXcXcXcXvXcXcXcXcXcXcXmXBXDXDXDXDXDXDXDXDXDXDXDXDXBXmXmXnXnXnX2X*X0XnXnXnX6X6X6X2X$Xj.` j.v.v.v.v.v.v.v.v.v.j.c.$XhXvXMXvXhX4X3X$X$X$X$X$X4XhXvXvX4X@Xc.c.c.c.c.c.X.X.c.2X6X4X$Xv.v.v.v.v.b.b.k./ H H / H H H H G G G G G G S V V V V & f & & < &  .hXHXAXAXAXAXAXAXZXHXKXKXKXKXLXLXLXLXLXKXLXKXKXKXAXvXMXZXvX2X3X6XhX6X2X2X6X2X2XvXKXKXKXKXKXKXKXMXbXSXSXZXSXSXSXSXGX3XS $XAXSXSXAXhX$Xb.c.c.c.n.c.n.q.) ( ) q.z.z.z.z.z.z.) 3XKXGXGXGXGXGXHXAXZXvXvXvXvXCXCXCXvXvXvXvXvXvXvXvXvXCXCXCXZXAXHXKXHXHXAXZXZXZXZXZXHXGXKXKXKXKXKXKXKXKXKXKXKXGXKXFXZXvXvXnXMXcX$Xk.2X6X6X6X2X2XcXFXFXGXGXGXGXGXGXGXGXGXGXGXGXGXFXFXFXFXFXDXDXDXDXDXBXBXBXBXNXNXNXBXNXDXk.K 6XSXNXBXNXNXBXSX2Xk.2X6X*X$X$X$Xm.$X$X$X$Xj.j.v.$Xv.*X6XDXDXDXFXFXDXDXDXDXDXDXDXDXDXDXDXDXBXMXMXMXMXMXMXMXMXMXMXMXZXZXZXZXZXZXZXZXZXZXZXAXFXFX",
"3 3 2 6 2 1 3 w ,.5.5.3.4.5.3.5.5.5.5.5.4.4.4.4.4.4.6.6.6.6.4.5.5.4.5.5.3.=.+.u q q q 0 7 5 s 7 0 q y t t t t t y q 7 s 5 0 q t t @.>.7.r.u.u.d.d.u.u.u.u.u.u.u.u.u.u.u.u.u.u.u.u.d.7.W 9 ; = , , , , , , , , , , d , ; , <  .4XhXcXvXvXAXFXFXFXFXGXGXKXKXKXKXKXFXDXDXBXmXnXmXnXnXnXnXnXnXnXnXnXnXcXnXnXcXnXcX6XS f j.2X2X$Xb.v.` ^ ^ j.z.x.x.z.z.z.z.v.v.z.z.2XSXGXGXGXFXFXGXFXFXSXZXZXZXZXZXZXZXZXZXZXZXZXZXHXHXHXHXMXcXcXcXcX6X2X2XhXhX3X$Xv.v.j._ / @XZXFXDXFXFXFXDXDXDXDXDXDXDXDXSXMXbXcXcXhX6X6X6XcXvXvXhXhXhXhXhXcXcXcXcXvXvXcXcXcXcXcXcXMXBXDXDXDXDXDXDXDXDXDXDXDXDXBXmXmXnXnXqX*X*XqXnXnXnX0X6X6X2X$Xj.` j.v.v.v.v.v.v.v.v.v.j.c.$XhXvXMXMXvXvXcXhXhXhXcXvXHXGXGXKXZX4Xc.c.c.c.c.c.c.X.v.2XhX6X3X$Xv.v.v.v.@X$Xc.{ H H H H H G G G G G G G S V V V G R S f C G  .4XZXHXAXAXHXAXAXAXZXHXHXKXKXKXKXLXLXLXKXLXKXLXKXKXKXAXvXMXZXvX2X3XhXhX6X2X2X6X4XhXHXKXKXKXKXKXKXKXhX4XSXSXZXSXSXSXSXGX2XS v.ZXSXAXZXhX$Xb.n.c.c.n.c.n.q._ ( ) z.c.z.n.z.z.z._ 4XKXGXKXGXGXGXHXHXAXZXvXvXvXvXvXCXCXvXvXvXvXvXvXvXvXCXCXCXZXAXHXHXHXAXAXZXCXZXZXZXHXGXKXKXKXKXKXKXKXKXKXKXKXGXKXGXMXcXvXnXMXcX$Xj.2X6X6X6X2X2XcXFXFXGXGXGXGXGXGXGXGXGXGXGXGXFXFXGXGXGXGXFXFXDXDXDXBXBXNXBXNXNXNXBXBXDXk.K 6XSXNXBXNXNXBXNX*Xk.2X6X$X$X#X$X#X$X$X$X$Xj.j.b.$X#X*XcXFXDXDXFXFXDXDXDXDXDXDXDXDXDXDXDXDXBXMXMXMXMXMXMXMXMXMXMXMXZXZXZXZXZXZXZXZXZXSXZXHXFXGX",
"3 3 3 3 3 3 0 =.5.5.5.3.5.3.5.5.4.4.5.5.5.4.4.4.5.4.4.6.6.6.6.4.4.4.5.5.3.*.#.y t q 0 7 5 s 5 0 q t y y y t t y t 5 5 5 7 0 t t t @.3.7.r.d.u.u.d.u.u.u.u.u.u.u.u.u.u.u.u.u.u.u.d.6.2.W 9 ; = ; ; ; , , , , , , , , ; , , < A 1XsXvXvXMXSXSXFXGXLXLXLXCXsX5XsXCXKXKXFXMXmXcXMXbXnXnXnXnXnXnXnXnXnXnXcXnXnXcXcX$Xf f b.2X$X$Xb.z.^ ^ ` z.x.v.z.x.z.z.x.v.x.z.c.6XSXFXGXFXFXFXGXGXFXZXZXZXZXZXZXZXZXZXZXZXZXAXAXHXHXGXZXvXcXcXcXhX2X3X6XxX6X3Xb.v.c.` K ` 4XSXFXFXDXDXDXDXDXDXDXDXDXDXDXBXMXbXcXcXhX6X6X6XcXvXvXcXhXhXhXhXcXcXcXvXcXvXcXcXcXcXcXcXMXSXDXSXDXDXDXDXDXDXDXDXDXDXBXmXmXnXnX0X*X2XnXnXnXnXnX6X6X2X#Xh.` v.v.v.v.v.v.v.v.v.x.z.v.3XhXvXvXvXvXvXvXvXvXMXAXHXGXGXKXKXHXMX3Xc.c.c.c.c.c.c.$X2XhX6X2X3X$Xv.v.v.v.b.c.{ H H H H G G G G G G H V V G @XhXAXAXZXZXZXZXHXHXHXAXAXAXAXAXAXAXAXHXHXKXKXKXKXKXKXKXLXLXLXKXKXKXLXAXvXMXZXvX2X$X6XhX6X2X2X6XhXZXKXKXKXGXKXKXKXKX4X$XSXSXSXSXZXSXSXKX4XS j.vXSXSXZXhX$Xv.c.n.c.c.n.n.q.) ) q.z.z.z.z.q.n.z._ hXKXGXGXGXGXGXGXHXHXZXvXvXvXvXvXCXCXCXCXvXvXvXvXvXCXCXCXCXZXAXHXHXHXAXAXZXZXZXZXZXHXGXKXGXGXKXKXKXKXKXKXKXKXKXKXHXMXvXcXvXvXhX#Xv.6XhX6X6X2X2XcXFXGXFXGXGXGXGXGXGXGXGXGXGXGXGXGXFXFXFXFXFXFXDXDXSXBXBXBXNXNXmXmXBXBXDXk.K 6XSXNXNXNXNXBXNX#Xv.6X2X2X#Xm.$Xb.$Xb.$X$Xj.j.v.#X$X*XbXFXDXFXFXDXDXFXFXFXFXFXDXFXDXFXFXSXMXMXMXMXMXMXMXMXMXMXMXZXZXZXZXZXZXZXZXZXZXSXSXHXKXHX",
"3 3 3 3 2 3 w ,.5.3.5.3.3.3.5.5.5.4.4.4.4.4.4.4.4.4.6.4.6.6.4.4.4.4.4.3.>.@.y y t q 0 7 s s 7 q t y y y y t t t q 7 s 5 7 q t y y >.5.6.r.d.u.u.u.u.u.u.u.u.u.u.u.u.u.u.u.u.u.u.d.7.2.W 9 ; = ; ; ; , : , , , , , , , , , < d @X4XvXvXZXFXKXKXKXfXi.; O . . O X U 4XHXnXnXMXcXnXnXnXnXnXnXnXnXnXnXnXcXnXnXcXhXj.f K $X2X$Xb.v. .^ ^ _ z.z.x.z.x.z.z.z.v.x.j.v.hXFXFXGXFXFXFXGXFXFXZXZXZXZXZXZXZXZXZXZXZXZXZXAXHXHXHXZXvXcXvXvX6X$X2XhXxX2X$Xv.v.j.` /  .6XFXFXDXDXDXDXDXDXDXDXDXDXDXDXNXnXcXcXcXhX6X6X6XcXvXcXhXhX6XhXhXcXcXcXcXcXvXcXcXcXcXcXcXMXSXDXDXDXDXDXDXDXDXDXDXDXSXBXmXmXnXnX6X*X6XnXnXnXnXnX6X6X2Xm.` j.v.v.v.v.v.v.v.v.v.v.x.v.2XhXvXMXvXvXvXvXvXMXMXHXGXGXHXHXKXHXZXhX3X@Xc.c.c.c.c.$X4X6X6X4X2X$X$Xv.v.v.$Xc./ S / H / / H G H G S f f  .hXHXKXGXGXHXHXHXHXHXAXAXAXAXAXAXAXAXAXAXHXHXLXLXLXLXLXLXLXLXLXLXKXKXKXKXAXvXZXZXvX2X$X6XhX4X3X2XhXvXHXKXKXKXKXGXKXKXKX4Xc.ZXSXSXSXSXSXSXKX6XK  .vXFXSXZXhX3Xv.c.n.c.n.n.z.q.) ) q.z.z.n.z.n.n.q. .vXKXGXGXGXGXGXGXGXHXZXZXvXvXvXvXCXZXZXCXvXvXvXvXvXCXvXvXCXZXAXHXHXAXAXZXZXZXZXZXZXHXGXKXGXGXKXKXKXKXKXKXKXKXGXKXSXMXvXcXvXMXhXv.v.6XhX6X6X2X2XcXFXGXGXGXGXGXGXGXGXGXGXGXGXGXGXGXFXFXFXFXFXFXDXDXSXBXBXBXNXBXmXmXBXNXDXk.I 6XSXNXNXNXBXBXNXv.m.6X2X*X#Xm.$Xb.$X$X$X$Xj.j.v.#X$X*XMXGXDXFXDXDXDXDXFXFXFXFXDXDXDXFXDXSXMXMXMXMXMXMXMXMXZXZXMXMXZXZXZXZXZXMXZXZXZXZXSXSXKXGX",
"3 3 2 3 3 0 &.3.5.5.5.3.3.3.5.5.5.4.5.4.4.4.4.4.4.4.4.6.6.4.4.4.5.5.5.3.*.#.y w q q 7 5 s 5 0 t t y y y y t y t 0 5 5 7 0 q t y @.>.4.r.r.d.u.d.u.u.u.u.u.u.u.u.u.u.u.u.u.u.u.u.6.7.1.W p a a - ; ; ; ; : : , ; , , , , , ; , n.4XvXAXHXKXCXn.; X . X % = % + % X . n.SXnXcXMXnXnXnXnXnXnXnXnXnXnXnXcXcXcXnX6XK f _ 3X2X$Xv.v.` ^ ^ j.z.z.z.z.z.z.z.z.z.z.j.b.cXFXGXGXGXFXFXFXFXFXZXMXZXZXZXZXZXZXZXZXZXZXZXAXHXHXZXvXvXhXvXhX2X$X6XvXhX2Xb.v.j._ ` / v.vXFXFXDXDXDXDXDXDXDXDXDXDXDXDXNXnXcXcXcXhX6X6XhXcXvXcXhXhX6XhXcXcXcXcXcXcXcXcXcXcXcXcXcXNXDXDXDXDXDXDXDXDXDXDXDXDXBXmXmXmXnXnX7X*X6XnXnXnXnX0X6X6X2Xl.` j.v.b.v.v.v.v.v.v.v.v.x.b.2XhXvXMXMXvXvXvXcXvXMXAXHXGXGXGXKXGXHXvXhX4X4X3X3X3X@X3X4X6X6X6X2X3X$Xv.v.v.$Xv./ f f S S S S S f & f R $XvXHXHXHXAXAXZXAXHXAXAXZXAXAXAXAXAXAXAXAXAXHXHXLXLXLXLXLXLXLXLXLXLXKXKXKXKXHXvXZXAXvX3X$X6XxX4X$X2XhXZXGXKXKXKXKXGXKXKXKXhX .MXHXSXSXSXSXZXGXvX/ ` cXFXSXAXhX3Xc.c.n.c.n.n.z.q.( ) q.n.n.n.z.n.z.q.c.AXKXGXGXGXGXGXGXGXHXHXZXZXZXvXvXvXCXvXvXvXCXvXvXvXvXvXvXvXCXZXAXHXAXAXZXZXZXCXZXAXHXKXKXGXGXGXKXKXKXKXKXKXKXGXGXHXvXvXcXvXZXhXv.v.6XhX6X6X2X2XcXFXGXGXGXGXGXGXGXGXGXGXGXGXGXGXGXFXFXFXFXFXFXDXDXSXBXBXBXBXBXBXmXBXBXDXk.g.0XSXNXNXNXBXSXnXk.$X6X2X$X#X$Xb.b.$X$X$X$Xk.j.v.v.$X2XSXFXDXDXDXDXDXDXDXDXFXFXDXDXDXDXDXSXZXMXMXMXMXZXMXMXMXMXMXMXMXMXMXZXZXZXZXZXZXSXHXHXGXFX",
"3 3 3 3 2 e 3.3.5.5.5.3.3.3.3.3.5.4.4.4.6.6.4.4.4.4.4.6.4.6.4.4.5.4.3.,.&.u y y q 0 5 s s 7 q y t y y y y y t q 7 5 5 7 q q t y @.3.6.r.r.d.u.d.u.u.u.u.u.u.u.u.u.u.u.u.u.u.u.u.6.2.1.:.E p 9 9 a ; ; - : , , ; , , , , , , , @XvXvXvX5X) X . + % < < % % < % % % + R vXMXnXcXnXbXnXnXnXnXnXnXnXnXnXnXcXcXnX2Xf f v.2X3X$Xv.x.` ^ ` z.z.z.z.z.z.z.z.z.z.z. .$XvXFXGXGXGXFXGXFXFXHXZXMXMXZXZXZXZXZXZXZXZXZXZXSXHXHXMXvXvXcXcX6X$X2XhXxX6X$Xv.c. .` ` ` $XMXGXDXDXDXDXDXDXDXDXDXDXDXDXSXNXnXcXcXcX6X6X6XhXcXvXcXhXhXhXhXcXcXcXcXcXhXcXhXcXcXcXcXvXBXDXDXDXDXDXDXDXDXDXDXDXDXBXmXmXmXmXcX2X*XnXnXnXnXnX0X6X6X*Xk.` k.b.b.v.v.v.v.v.v.v.v.v.$X6XcXvXMXMXvXvXcXcXMXZXHXHXGXGXGXGXHXZXZXvXvXcXhXhXhXhX6X6X6X4X4X4X2X$X$Xb.b.$X$Xc./ S f & & & < f | 5XZXHXHXZXAXAXAXAXAXAXZXAXAXAXAXAXAXAXAXAXAXAXAXHXHXLXLXLXLXKXKXLXLXLXLXKXKXKXGXHXvXZXAXvX2X2XhXvX6X$X2XvXHXKXKXKXKXKXKXKXKXKXvX{ hXFXSXSXSXSXZXFXMX/ / hXFXSXAXhX3Xb.c.n.c.n.n.z.9.( ) q.n.n.n.z.n.n.q.n.HXKXGXGXGXGXGXGXGXGXHXHXZXZXvXvXvXCXCXvXvXvXvXvXvXvXvXvXvXCXZXAXAXAXAXZXZXCXCXZXHXHXKXKXGXGXGXKXKXKXKXKXKXKXGXGXHXvXvXvXvXZXhXj.v.6XhX6X6X2X2XcXFXGXFXGXGXGXGXGXGXGXGXGXGXGXGXFXFXFXFXFXFXFXDXDXSXBXBXBXBXBXBXBXBXBXSXg.g.qXSXNXNXNXNXBXhXj.2X6X6X$X#X$Xb.b.$X$X$X$Xv.` v.v.$X4XDXFXDXDXDXDXDXDXDXDXDXFXFXFXDXDXDXSXMXMXMXMXMXMXZXZXZXZXMXMXMXZXZXZXMXMXZXZXZXSXSXHXGXFX",
"3 3 3 3 3 &.5.3.5.5.5.3.3.3.5.5.4.4.5.4.6.6.6.4.4.6.6.6.4.4.4.4.5.5.3.=.@.u y y q 7 s s 5 q t y t y y y y y q 0 5 5 5 0 q t t y :.5.r.u.r.d.u.d.u.u.u.u.u.u.u.u.u.u.u.u.u.u.u.u.6.5.1.<.:.W E E p 9 9 - - , , , , , , , , , d 1XhX1X! % X + % % % < < % % % % < % X f vXmXcXcXnXnXnXnXnXnXnXnXnXnXcXnXnXnXcXv.& f $X2X$X$Xv.z.^ ^ _ z.z.j.z.z.z.z.x.z.z.j. .3XZXGXGXGXGXGXGXGXFXHXZXMXMXZXZXZXZXZXZXZXZXZXZXZXSXSXMXvXcXcXhX2X$X6XcXhX2X$Xv.j.` ` `  .2XAXFXDXDXDXDXDXDXDXDXDXDXDXDXSXNXnXcXcXcX6X6X6XhXcXcXcXhXhXhXhXcXcXcXcXcXcXcXcXcXcXcXcXnXBXDXDXDXDXDXDXDXDXDXDXDXDXBXmXmXmXmXqX*X*XnXnXmXnXnX0X6X6X*Xj.` v.m.b.v.v.v.v.v.v.v.v.v.$X6XvXMXvXvXvXvXvXvXMXAXHXHXGXGXGXGXHXZXCXvXvXvXvXvXvXvXhXhX6X4X2X4X2X2X$X@X@X2XvXHXZXvXhX4X4X4XsXZXKXKXKXKXAXZXAXZXZXHXAXAXAXAXAXAXAXAXAXAXAXAXAXAXAXHXHXKXKXKXKXKXKXKXLXLXLXKXKXKXGXHXZXZXZXvX4X4XxXvX6X$X4XvXFXGXGXKXGXKXKXKXKXKXZX/ 2XFXSXZXSXSXSXFXZX/ / hXFXSXSXhX3Xb.n.n.c.n.c.q.) ( _ z.n.n.z.z.n.n. .@XGXKXGXFXGXGXGXGXGXGXFXHXHXZXZXCXvXvXvXvXCXvXvXvXvXvXvXvXvXCXZXAXAXAXAXZXZXCXCXZXHXGXKXKXGXGXKXKXKXKXKXKXKXKXGXGXHXvXvXvXvXZXhXj.v.6XhX6X2X2X2XcXFXGXFXFXGXGXGXGXGXGXGXGXGXFXGXGXFXFXFXFXFXDXDXDXSXBXBXBXmXNXBXBXBXBXBXI g.nXSXNXNXNXNXBX6Xj.2X6X6X$X#X$X#X#X#X$X$X$Xv. .v.v.$X6XDXDXDXFXFXDXDXDXDXDXDXDXFXFXFXDXDXSXZXMXMXMXMXMXMXMXMXMXMXMXMXMXMXMXZXZXZXMXZXSXSXHXGXGX",
"3 3 3 3 r ,.5.3.5.5.5.3.3.5.5.5.4.5.5.4.4.4.6.4.4.6.6.6.4.4.4.4.5.5.,.=.@.u y q 0 5 s s 0 t y t y y y y y y q 0 5 5 7 q q q t t >.5.r.u.r.d.u.u.u.u.u.u.u.u.u.u.u.u.u.u.u.u.u.r.6.5.1.<.<.<.<.<.W W p 9 - - - , , , , , , , , w.w.d @ % < < < < % % % % < < % @ < O / MXnXmXnXcXnXnXnXnXnXnXnXnXnXcXcXnXmX6X` % ` 3X2X$X$Xv._ ^ ^ j.z.z.z.z.z.z.x.z.z.z. .j.4XSXGXGXGXFXGXGXGXFXSXZXMXMXMXMXZXZXZXZXZXZXZXZXZXSXZXMXcXcXcX6X3X$X6XcX6X2Xv.j._ ` _ ` j.6XSXFXDXFXDXDXDXDXDXDXDXDXDXDXSXMXnXbXcXcX6X6X6XhXcXcXcXhXhXhXhXcXcXcXcXcXcXcXhXhXcXcXcXMXBXDXDXDXDXDXDXDXDXDXDXDXDXBXmXmXmXmX0X*X2XmXnXnXnXnX6X6X6X*Xj.h.v.m.v.v.v.v.v.v.v.v.v.v.3XhXvXMXvXvXvXvXvXvXZXAXGXGXGXKXKXHXZXvXZXZXCXvXvXCXMXvXvXhX4X4X2X4X6X4X3X$X$X6XAXKXKXKXKXKXLXLXLXLXKXKXKXGXAXZXAXHXAXZXZXZXAXAXAXAXAXAXAXAXAXAXHXHXHXHXKXLXLXLXLXLXLXLXLXLXLXLXKXKXGXAXZXZXZXvX4X4XvXvX4X$X4XZXGXKXKXKXKXKXKXKXKXKXHX{ c.ZXFXZXSXSXSXFXHX` / hXFXSXSXhX3Xb.n.n.c.c.z.q.) ) _ n.n.z.z.z.z.n. .3XKXKXGXFXGXGXGXGXGXFXGXFXHXHXZXZXvXvXCXvXCXvXvXvXvXvXvXvXvXvXZXZXAXAXZXZXCXCXCXZXHXGXKXKXGXGXKXKXKXKXKXKXKXKXGXGXAXMXvXvXMXMX6X .v.6XhX6X2X2X2XvXFXGXGXGXGXGXGXGXGXGXGXGXFXFXGXGXFXFXFXFXFXDXDXDXSXBXBXBXNXNXNXBXBXBXNXK k.NXSXNXNXNXNXSX6Xk.2X6X6X2X#X$X#X#Xb.$X$X$Xv.` v.#X$X6XFXDXDXFXDXDXDXDXDXDXDXDXFXFXFXFXDXSXMXMXMXMXMXMXMXMXMXMXMXMXMXMXMXMXZXMXZXMXZXSXSXHXGXGX",
"3 1 1 3 u 3.3.3.3.3.3.3.3.3.5.5.4.5.4.5.4.4.4.4.4.4.6.6.4.4.4.4.5.3.=.&.u y q 0 7 s s 7 q t t y y y y t t q 0 7 s 5 7 q t t y y >.7.u.u.r.d.u.d.u.u.u.u.u.u.u.u.u.u.u.u.u.u.u.r.7.5.1.1.1.1.<.1.<.<.E p 9 9 - , , , , , , , , Y , % % < < % % % < < % < % % % % X X 1XMXcXcXnXnXnXnXnXnXnXnXnXnXnXcXcXnXmX2Xf f z.2X2X$XV.x.` ^ ` j.j.j.z.z.z.z.x.z.z.z. .j.6XHXFXFXFXFXFXFXFXFXAXMXMXMXMXMXMXMXZXMXZXZXZXZXZXAXMXcXcXcXhX4X$X2XhXhX6X$Xc. ._ _ _  .v.hXSXDXDXDXDXDXDXDXDXDXDXDXDXDXSXMXnXcXcXcX6X6X6XhXcXcXhX6X6XhXhXcXcXcXcXcXcXcXhXcXcXcXcXMXBXDXDXDXDXDXDXDXDXDXDXDXBXBXmXmXmXmX6X X6XmXmXnXnXnX6X6X6X*Xj.j.b.m.v.v.v.v.b.v.v.v.c.v.2XhXvXvXMXvXvXvXvXZXAXHXLXLXLXLXLXKXHXAXZXAXZXZXCXZXZXZXvXhX4X4X2X2X6X4X2X3X3XhXHXGXKXKXKXKXGXKXKXKXKXKXKXHXZXZXZXZXZXHXAXAXAXAXAXAXAXAXHXHXHXHXHXHXPXPXLXLXLXLXLXLXLXLXLXLXLXLXKXKXGXAXZXZXZXcX4X6XvXvX6X$X4XAXKXKXKXKXKXKXKXKXKXKXFXc.o.bXFXSXSXSXSXFXHX` K hXSXSXSXhX$Xb.n.n.c.n.z.q.) ( 9.n.n.z.n.z.n.z. .4XKXGXGXGXGXGXGXGXGXFXFXFXHXHXZXZXZXvXvXvXCXvXvXvXvXvXvXvXvXvXCXZXZXZXZXZXCXCXCXAXHXGXKXGXGXKXKXKXKXKXKXKXKXKXGXGXAXvXvXvXMXMXhXj.v.hXhX6X2X2X4XvXFXGXGXGXGXGXGXGXGXGXGXGXGXGXGXGXFXFXFXFXFXDXDXDXSXBXBXBXNXNXNXBXNXBXmXJ k.NXSXNXNXNXNXSX2Xk.2X6X2X*X#X$X$X#X#X$X$X$Xv.` j.$X$XcXGXFXDXFXFXFXDXDXDXDXDXFXFXFXFXFXDXSXZXZXZXMXMXMXMXMXmXBXmXmXmXBXBXBXBXBXBXZXZXZXHXHXGXFX",
"3 1 1 6 &.3.3.5.3.3.3.3.3.3.5.5.4.5.5.5.5.4.4.4.4.4.4.6.4.4.4.4.5.3.=.+.u y q 0 5 s s 0 q t t y y y t q q q 7 s s 5 0 q q q y u <.7.u.u.r.r.u.d.u.u.u.u.u.u.u.u.u.u.u.u.u.u.d.6.7.1.1.<.1.1.<.1.1.1.1.<.W p 9 a , , , , , > , & < % < % % < < < % % % < % < % X O ) ZXMXMXnXnXbXnXnXnXnXnXnXnXnXnXnXnXnXnX$Xf j $X2X3X$Xv.j.^ ^ ` z.j.z.z.j.z.z.x.j.z.z._ c.hXSXFXFXFXFXFXFXFXFXAXMXMXMXMXMXMXMXMXMXMXZXMXMXZXZXMXcXcXcX6X2X$X6XcXhX6X$Xj. ._  . . .$XcXSXDXDXDXDXDXDXDXDXDXDXDXDXDXBXMXnXcXcXcX6X6X6XhXcXcXhX6X6XhXhXcXcXcXcXcXcXcXhXcXcXcXcXMXBXSXDXDXDXDXDXDXDXDXDXDXBXBXmXmXmXnX6X X6XmXmXnXnX0X6X6X6X$Xh.j.m.m.v.v.v.v.b.v.v.v.v.v.4XhXvXvXMXvXMXMXZXAXGXLXLXLXLXPXCXsXsX4XhXCXHXHXHXAXAXAXvXhX4X4X2X4X6X4X2X3X2XhXHXGXKXKXKXKXLXKXKXLXLXKXKXAXZXZXZXAXAXZXAXAXAXAXAXHXHXHXHXHXHXHXPXPXPXPXLXLXLXLXLXLXLXLXLXLXLXLXLXKXGXAXZXZXZXcX4X6XvXvX6X3X6XHXGXKXKXKXKXKXKXKXKXKXKX3XH hXFXSXSXSXSXFXHX/ S 6XSXSXSXhX$Xb.n.n.c.n.z.q.) ( q.n.n.z.n.n.n.z._ hXKXGXGXGXGXFXFXFXFXFXFXFXGXHXHXZXZXZXCXvXvXvXvXvXvXvXvXvXvXvXCXZXZXZXZXZXZXCXCXAXHXGXKXGXGXKXKXKXKXKXKXGXKXKXGXFXZXvXvXvXMXMXhXv.$XhXhX6X2X2X4XvXFXGXGXGXGXGXGXGXGXGXGXGXGXGXGXGXFXFXFXFXFXDXDXDXSXBXBXBXBXNXBXBXNXBXnXV k.NXNXNXNXNXNXSX*Xk.2X6X2X*X#X$X#X#Xm.$X$X$Xv.` j.$X$XbXGXFXDXFXFXFXDXDXDXDXFXFXFXFXFXFXDXSXZXZXMXMXMXMXBXmX7X:XXX|.|.|.-X7XbXBXSXZXZXZXHXHXGXHX",
"o o 2 e =.3.4.3.5.3.3.3.5.5.5.5.4.4.5.4.4.4.4.4.4.6.6.6.4.4.4.5.5.,.&.u u q 0 7 s s 7 q y y t t t t t t q 6 3 1 s 7 q q t q y @.5.r.u.u.u.u.d.u.u.u.u.u.u.u.u.u.u.u.u.u.u.u.r.6.7.5.5.3.3.1.1.3.1.1.2.8.1.<.p 9 a , , , , , < < * * * < < < % < % < % < % % % . S vXAXcXMXnXmXnXnXnXMXMXnXbXnXbXnXcXnXmXcXk.f ` 3X2X3X$Xv.j.^ ^ ` z.z.j.j.z.j.j.z.z.z. ._ @XMXFXFXFXFXFXFXFXFXSXZXMXMXMXMXMXMXZXZXZXZXZXZXZXZXMXcXhXhXhX6X$X2XhXxXhX4Xv._ _  ._  .j.$XnXSXDXDXDXDXDXDXDXDXDXDXDXDXSXNXMXcXcXcXhX6X6X6XcXcXcXhX6X6XhXcXcXcXcXcXcXcXcXcXcXcXhXcXMXBXSXDXDXDXDXDXDXDXDXDXDXBXNXnXmXmXmX>X X6XNXNXnXnX0X6X6X6X#X` k.$X$Xb.v.v.v.v.v.b.v.c.$X4XhXMXvXZXZXZXAXKXPXCXpXw.! 8 X O .   . X = W S.jXHXGXHXZXhXhX4X2X4X4X4X2X2X4XcXHXKXGXKXKXKXKXKXLXLXLXLXKXAXCXZXZXZXAXHXAXAXAXAXHXHXAXAXHXHXPXLXLXLXLXLXLXLXLXLXLXLXLXLXLXLXLXLXLXKXHXHXZXAXZXhX4X6XvXvXhX3X4XHXGXKXKXKXKXKXKXGXKXKXKX4X/ 2XFXSXSXSXSXFXHXK f 4XFXSXHXhX$Xb.c.c.c.c.n.q.( ) q.n.z.n.n.q.n.q. .vXKXGXGXGXGXGXGXGXGXGXFXFXFXFXHXHXZXZXZXvXvXvXvXvXvXvXvXvXvXvXvXCXZXZXZXZXCXCXZXAXHXKXKXKXKXKXGXKXKXKXKXKXKXGXKXGXZXvXMXvXMXMXhXj.3XhXhX6X2X2X4XcXFXGXFXFXGXFXFXGXGXGXFXFXFXFXFXFXFXFXFXFXDXDXDXDXSXBXBXBXmXBXBXmXNXSX0Xf k.BXNXNXNXNXNXNX#Xl.6X6X2X$Xm.$X#X#X#X$X$X$Xv.` j.v.*XBXDXDXDXDXFXFXDXDXFXDXDXDXFXDXDXDXDXSXZXMXMXMXmXqX>X|.}.}.U.}.}.}.U.I.}.|.7XBXBXBXSXHXFXHX",
"o o 6 %.3.4.5.3.5.3.3.3.5.5.5.5.4.4.5.4.5.4.4.4.4.6.6.4.4.4.4.5.3.*.+.u y q 6 5 s 5 7 q y y t y t y t q 0 5 s 1 5 0 q t t q y @.5.r.u.u.u.u.d.u.u.u.u.u.u.u.u.u.u.u.u.u.u.u.r.7.5.5.3.1.1.1.3.1.3.5.2.2.2.1.<.E 9 9 - - , , < < < < < < < < % < * < % % < % X , hXHXZXMXNXMXMXbXMXnXbXnXnXnXmXnXmXcXnXnX6X` f j.2X2X$Xv.x._ ^ ^ _ j.j._ j.z.z.z.z.z.z. . .$XZXFXFXFXFXFXFXFXFXSXZXMXMXMXMXMXMXZXZXZXZXZXMXZXMXvXcXhXhXhX2X$X6XhXxXhX2Xc.` `  .j.j.j.2XMXDXDXDXDXDXDXDXDXDXDXDXDXDXSXNXnXcXcXcXhX6X6X6XhXcXcXhX6X6XhXcXcXcXcXcXcXcXcXcXhXcXcXcXMXSXDXDXDXDXDXDXDXDXDXDXDXSXmXnXmXmXnX*Xl.6XNXNXnXnX6X6X6X2Xv.` k.$X$Xb.v.b.b.b.v.v.v.j.$XhXcXMXAXMXZXHXCX1XW =                           X h 1XdXCXvXhXhX4X6X6X4X2X4XhXMXHXKXKXKXKXKXKXKXKXLXLXKXKXAXZXAXHXHXHXAXAXHXHXPXLXLXLXLXLXLXLXLXLXPXVXfXgXtX,Xs.6.6.a.aXPXLXLXLXLXLXLXAXZXZXZXhX4X6XvXMXhX3X4XHXKXKXKXKXKXKXKXKXKXKXKXcX/ @XFXSXSXSXSXFXHX/ f 3XHXSXSXhX$Xb.n.c.c.c.z.9.( ) q.n.n.n.z.q.n.q.q.vXKXGXGXGXFXGXGXGXGXGXFXFXFXFXFXHXHXZXZXvXvXvXvXvXvXvXvXvXvXvXvXCXCXCXZXZXCXCXZXAXHXGXKXKXKXKXGXGXKXKXKXKXKXGXKXFXZXvXMXnXMXMX6Xj.3XhXhX6X2X2X4XcXFXGXGXGXGXGXFXGXGXGXGXGXFXFXFXFXFXFXFXFXDXDXDXDXSXBXBXBXBXNXBXmXBXDX6Xf k.BXNXNXNXNXNXNXm.v.6X6X2X$Xm.m.#X#X#X$X$X$Xv.` ` v.4XSXDXDXFXDXDXFXFXDXDXDXDXFXDXDXDXFXDXSXMXMXmXmX4X|.}.}.|..X.X.X.X.X|.|.|.|.}.|.0XSXBXSXGXZX",
"O 1 w *.3.4.3.3.5.5.3.5.5.5.5.5.4.4.5.5.5.4.4.4.4.4.4.4.4.4.4.4.3.*.+.u w 0 5 3 5 5 0 t y t t y t y t q 0 5 s 1 7 q t t t q y @.7.r.u.u.u.u.d.u.u.u.u.u.u.u.u.u.u.u.u.u.u.d.6.7.5.3.3.3.1.3.3.1.1.5.7.7.7.7.2.1.E p 9 - - : ; < < < < < < < % % < % % < < X U hXHXHXZXAXHXSXSXSXAXMXMXMXMXMXnXnXnXcXbXnX2Xf f v.2X$Xb.v.j.` ^ ^ _ j.j._ j.j.j.z.j.z.j._  .4XSXFXFXFXFXFXFXFXFXSXMXMXMXMXMXMXMXZXZXMXZXZXMXMXMXvXcXhXhX6X#X3X6XcXhXhX$Xj.` _  .j.j.c.2XAXDXDXDXDXDXDXDXDXDXDXDXDXDXSXNXnXcXcXcXhX6X6X6XcXcXcXhX6X6XhXcXvXcXcXcXcXcXcXhXhXcXcXnXBXSXDXDXDXDXDXDXDXDXDXDXDXBXmXnXmXmX0X Xl.6XNXnXnXnX6X6X6X*Xk.` v.$X#Xb.b.b.b.v.v.b.c.v.$X6XMXZXZXHXCX1X9 .                                   . o Q S.sXsX2X4X4X4X3X3X6XZXKXKXKXKXKXKXLXLXLXLXKXKXLXHXCXAXAXPXLXLXLXLXLXLXLXPXVXdXtXa.7.p o .     .               . d.dXLXLXLXLXHXAXZXZXhX4X6XvXMXhX2XhXFXKXKXKXKXGXKXKXKXKXGXKXZX`  .SXFXHXSXHXSXFXj.f $XHXSXHXhX$Xb.n.n.c.c.q.) ( _ z.n.q.n.z.q.z.q.q.ZXKXGXGXGXFXGXFXFXGXFXGXFXFXFXFXHXHXHXZXvXvXvXvXvXvXvXvXvXvXvXvXCXZXZXZXCXCXvXCXAXHXGXKXGXKXKXKXGXKXKXKXKXKXKXKXGXMXvXnXnXvXMX4X .2XhXhX6X2X2X4XcXSXGXGXGXGXGXGXGXGXGXGXGXGXGXFXFXFXFXFXFXDXDXDXDXBXBXBXNXBXBXNXBXmXDX7Xf *XSXNXNXNXNXBXNXv.v.6X6X2X$Xv.m.b.#X#X$X$X$Xv.` ` #X6XDXDXDXFXDXGXFXDXFXGXGXFXDXFXFXDXSXSXSXBXmX0X-X}.}..X|.|.Y..XXX.X.X.X.X.X|..X.X}.>XmXDXDXBX",
"O 3 +.=.3.4.5.4.5.5.5.5.5.5.5.5.4.5.5.5.5.4.4.4.4.4.4.4.4.4.4.5.,.=.+.u q 6 5 3 5 7 q t t t t y q t t 0 7 s s 3 0 q t t t q y :.7.r.u.u.u.u.d.u.u.u.u.u.u.u.u.u.u.u.u.u.u.r.7.5.5.3.3.3.3.3.3.3.3.5.7.7.7.7.7.2.1.W p 9 a : : : : : : < < * * % % < % < % , @XhXsX5X5X1X@X@X5X4XhXvXZXSXSXMXMXMXnXnXnX6Xk.f f b.2X$Xv.v.j.^ ^ ^ _ j.j._ _ j.j.j.j.z.j._ j.hXFXFXFXFXFXFXFXFXHXZXMXMXMXMXMXMXMXZXMXMXMXMXMXMXMXcXcXhXhX2X#X2XhXhXhX6X$X ._  .j.z.j.c.6XSXDXDXDXDXDXDXDXDXDXDXDXDXDXSXMXnXcXcXcXhX6X6X6XcXcXcXhX6XhXhXcXvXvXcXcXcXcXcXhXhXcXcXnXSXSXDXDXDXDXDXDXDXDXDXDXDXBXmXnXmXNX0Xk. X6XNXnXnXnX6X6X6X*Xj.` v.$X$Xm.b.b.b.v.v.v.v.v.3XhXZXAXAXsXW .   . .       O % , T ] 0.0.~ : O               a w.3XsX4XhX2X2XhXZXGXKXLXLXLXLXLXLXLXLXLXLXLXLXLXLXLXLXLXLXPXVXaXi.W = .                           . . .         7.PXLXLXKXAXZXCXhX2X6XvXMXhX4XhXGXKXKXKXKXKXKXKXGXKXGXKXFXc.K vXFXSXSXSXSXGX@Xf $XHXSXSXhX$Xb.n.n.c.n.q.) ( _ z.n.z.z.z.z.z.q.c.HXKXGXGXGXGXGXGXGXGXGXGXFXFXFXFXFXHXHXZXZXvXvXvXvXvXvXvXvXvXvXvXCXCXZXCXCXvXvXCXAXHXGXGXGXKXKXGXKXGXKXKXKXKXKXGXFXMXvXnXvXMXMX2X .2XhXhX6X2X2X4XcXSXGXGXGXGXGXGXGXGXGXGXGXGXFXFXFXFXFXFXFXFXDXDXDXBXBXBXNXNXNXNXBXmXDX*XJ 7XSXBXNXNXNXSXcXl.#X6X6X2X$Xm.b.b.#Xb.#X$X$Xv.` ` #XcXFXDXDXFXDXGXDXGXGXFXDXFXGXDXDXDXDXDXDXmX0XXX|.}.|..X.XY.XX.X.X.X.X.X.X.XXX.XXXXX.X;XmXDXDX",
"O 6 &.3.4.4.5.4.5.3.3.3.5.5.5.5.4.5.5.5.4.4.4.4.4.4.t.4.4.4.4.5.>.&.u q 0 7 5 3 6 0 w y w y y y t y q 0 5 s s 5 q q t t t q y >.7.r.u.u.u.u.d.u.u.u.u.u.u.u.u.u.u.u.u.u.u.r.7.5.3.3.<.3.3.3.1.3.3.5.5.7.7.7.7.7.2.1.W p 9 : = = : : < * < * % % % < < % < U ) C < % + X . X X X % g  .1XhXMXMXMXMXMXnX2X` f K c.3X2X$Xv.j.` K ^ _ j._ _ _ z.z.j.z.j. .` v.vXFXFXFXFXFXFXFXFXSXZXMXMXMXMXMXMXMXMXMXMXMXMXMXMXMXvXcXhX6X$X3X6XhXhXhX4Xv._  .j.j.z. .v.cXFXFXDXDXDXDXDXDXDXDXDXDXDXDXSXMXnXcXcXcX6X6X6XhXcXcXcXhX6X6XhXcXcXvXcXcXcXcXcXhXhXcXcXnXSXSXDXDXDXDXDXDXDXDXDXDXDXBXmXnXmXMX6Xk.#X0XNXnXnXnX6X6X6X#X` ` v.$X$Xb.v.v.v.v.v.c.v.c.2XhXAXAX1X+ .         X ~ w.@X4X0XJXJXJXJXJX0X5Xw.n X           . a S.sX4X3X4XvXHXKXKXLXLXLXLXLXLXLXLXLXLXPXVXaX,Xu.8.p 7 O .                                 .                 . o aXPXHXAXZXvXhX2XhXMXZXvXhXvXGXKXKXKXKXKXKXKXKXKXGXKXKX@XS 4XFXSXSXSXSXGX$Xf $XHXSXSXhX$Xn.n.n.c.n.q.) ( q.z.z.z.z.z.z.z.q.n.GXKXGXGXFXGXGXGXGXGXGXGXGXFXFXFXFXHXHXZXZXCXvXvXvXvXvXvXvXvXvXvXCXCXCXCXCXvXvXCXHXHXGXGXGXGXGXGXGXGXGXGXGXKXGXGXFXMXnXnXnXvXMX$Xj.6XhXhX6X2X2X4XcXSXGXFXGXGXGXGXGXGXGXGXGXGXGXFXFXFXFXFXFXDXDXDXDXBXBXBXNXNXBXBXNXmXSXk.K 6XSXNXNXNXNXSX6Xk.#X6X6X2X$X#Xb.b.$Xb.#X#X$Xv.` K @XMXFXDXDXFXFXDXFXFXFXDXGXDXJX0X0X0XmXqX9X-XXX}.|..X|.}.|..X.X|.XX.X.X.X.XXXXX|.Y.XXXX.X7XDXDX",
"O r *.3.4.4.3.4.5.5.3.5.5.5.5.5.5.5.5.5.5.4.4.t.t.4.4.4.4.4.4.3.=.@.y q 6 5 5 5 7 0 y y y y y y y y q 7 s s 5 7 q t t t q q y >.7.r.u.u.u.u.u.u.u.u.u.u.u.u.u.u.u.u.u.u.u.r.7.5.3.3.3.3.3.3.3.3.5.5.5.7.7.7.7.7.7.2.1.W p 9 : : = * * * * * * * % % < < < < @ X X X X X % % X X X X X X A c.4XvXcXcXhX2Xv.c.` ^ v.$X2X$Xv.j.` ^ ` j.z.j._ _ j.j.j.j. .` $XAXFXFXFXFXFXFXFXFXSXZXMXMXMXMXMXMXMXMXMXMXMXMXMXMXMXvXhX6X2X#X4XhXhXhXhX2Xj.`  .j.j.z. .$XMXFXFXDXFXDXDXDXDXDXDXDXDXDXDXBXMXcXcXcXcX6X6X6XhXcXcXcXhX6XhXhXcXvXvXcXcXcXcXcXhXhXcXcXMXSXSXDXDXDXDXDXDXDXDXDXDXDXBXmXmXmXNX6Xk.#XcXNXmXnXnX6X6X2Xv.` ` v.$X$Xb.v.b.v.v.v.v.c.v.2XCXCXn..         . T 1X4XbXJXJXqX0X0XqXJXqXqXJXJXbXpX0.*           = w.pXsXzXAXLXLXLXLXLXLXPXVXaXiXs.1.t o .                 . .                                                   . <XAXAXAXvXhX4XhXMXZXMXvXZXGXGXKXKXKXKXKXKXKXKXKXGXKX4XS @XGXHXSXSXSXGX3Xf b.SXSXSXhX@Xn.c.n.n.n.q.) ( q.z.z.z.z.z.z.z._ $XKXKXGXGXFXGXGXGXGXGXGXGXGXFXFXFXFXFXHXHXZXvXvXvXvXvXvXvXvXcXvXvXvXCXCXCXCXvXvXCXHXHXGXGXGXGXGXGXGXGXGXGXGXKXGXGXFXMXnXnXnXMXMX$Xj.6XcX6X6X2X2X4XcXSXGXFXGXFXFXGXGXFXFXFXFXGXGXFXFXFXFXFXFXDXDXDXSXBXBXBXNXBXBXNXNXBXBXK K nXSXNXNXNXNXSX2Xk.$X6X6X2X$X#Xb.m.#Xb.b.b.$Xv.` K $XZXFXDXDXFXDXFXFXFXFXBX:X}.L P P P }.}.}.}.|.|.}.}..XXX.X}.|.Y.|.|..XXX.XXXY.XXXXXX.X.X.X0XDX",
"o u 3.3.4.4.3.4.5.5.5.5.5.5.5.5.4.5.5.5.5.4.4.t.t.t.4.4.4.4.4.3.*.@.y 0 7 5 5 5 0 q w w w w y y y q 0 5 1 s 5 0 t y t t t q y >.7.r.u.d.u.u.d.u.u.u.u.u.u.u.u.u.u.u.u.u.r.6.7.5.3.3.<.3.3.3.3.3.3.5.7.4.7.6.6.6.7.7.7.<.W 9 a : = = = * = * * * < % < % % < % * < % % % % + % % % % % X X X S @X4X6X6X4X4X2Xb.^ ` v.2X2X2X$Xv.` ` j.v.v.j._ j.z.z._ _ ` 2XSXFXFXFXFXFXFXFXFXHXZXMXMXMXMXMXMXMXMXMXMXMXMXMXMXvXcXhX6X$X$X6XhXhXhXhX$X .` j.j.z.z. .$XZXFXFXDXDXDXDXDXDXDXDXDXDXDXSXNXnXcXnXcXcX6X6X6XhXcXcXcXhX6XhXhXcXvXvXvXcXcXcXcXhXhXcXcXMXSXSXDXDXDXDXDXDXDXDXDXDXDXBXmXmXmXNX6Xo.#XnXNXNXnX0X6X6X*Xk.` j.b.$X$Xb.v.v.v.v.v.v.c.b.4XCXS..         @ 0.4XbXJXJXJX0X0X0X0X0X0XqXqXJXJXJXHXCXsX0.=   . .   . 9 w.<XyXpXyX<X2.W 7 o                                                 . O o o o o O .             .             yXCXAXvXhX6XhXZXZXMXMXAXKXGXKXKXKXKXKXKXKXKXKXGXKXhXS  .SXFXSXSXSXGX$Xf $XAXSXHXhXb.c.c.c.c.z.q.( ( q.z.z.z.z.z.q.z._ 3XKXGXGXFXFXGXGXGXGXGXGXGXGXFXFXFXFXFXFXHXZXCXvXvXvXvXvXvXvXcXcXvXvXvXCXCXCXvXvXCXHXGXGXGXGXGXGXGXGXGXGXGXGXGXGXGXHXMXnXnXnXMXMXv.j.hXcX6X6X2X2X4XcXFXGXFXGXFXFXGXFXFXFXFXFXGXFXFXFXFXFXFXFXDXDXDXBXBXBXNXNXBXmXBXNXBXnXf K NXBXNXNXNXNXBX*Xk.$X2X6X2X#X#X#Xm.#Xb.#X#X$Xv.` K $XDXFXFXDXFXFXDXGXSX>X} I P }.}.}.}.}.}.}.|.}.}.|..X|.|.|.XX.XY.|..X.X.X.X.X.XXX|..X.X.X.X;XqX",
"2 %.3.3.5.4.3.4.5.5.5.5.5.5.5.5.4.5.5.5.5.4.t.t.t.t.4.4.4.4.4.3.*.#.q 6 5 5 5 7 0 q w q q w y w q 0 7 s 1 s 5 t q q t t t t u <.7.r.u.d.u.u.d.u.u.u.u.u.u.u.u.u.u.u.u.u.r.7.5.5.3.3.<.3.3.3.3.5.3.5.7.4.7.7.6.6.4.7.7.2.<.N 9 : = = = * * * * % % < % % % % < % % % % % % % % % % % % % % X % S @X2X2X2X4X6X2Xv.S ` $X6X2X2X2Xv.` ` v.$X$Xv.x.z.z._ _ ` 6XSXFXFXFXFXFXFXFXFXHXZXMXMXMXMXvXvXMXMXMXMXMXMXMXvXvXcX6X2X@X2XhXhXhXhX6X@X` ` j.z.z.j. .3XHXFXFXDXDXFXDXDXDXDXDXDXDXDXSXMXnXcXcXcXhX6X6X6XhXcXcXcXhX6XhXhXcXvXvXvXcXcXcXcXhXcXcXcXMXDXSXDXDXDXDXDXDXDXDXDXDXDXBXmXnXmXNX6Xo.#XnXNXNXnX0X6X7X*Xk.` j.b.$X$Xb.v.v.v.v.v.v.c.b.4Xn.X         = L.IXbXJX0X0X0X8X0X8X0X0X0XJXJXJXJXJXHXHXCXsX!     .       . X X .                               . . O o o o # 7 7 8 t t t :.:.>.>.>.,.>.>.:.:.i t 7 5 o       .   .     = vXCXhXhXhXhXMXZXvXZXHXKXGXKXKXKXKXKXKXKXGXKXFXKXZX/ / ZXFXSXSXSXGX@Xf $XZXSXSX6Xb.c.c.c.c.z.q.Y ( z.z.z.n.z.z.q.q.) 4XKXGXGXFXGXGXGXGXGXGXGXGXGXFXFXFXFXFXFXHXZXvXvXvXvXvXvXvXvXhXcXvXvXvXCXCXCXvXvXCXHXGXGXGXGXGXGXGXGXGXGXGXGXKXGXGXHXMXvXnXcXMXvXk.j.hXhX6X6X6X6X6XvXFXGXFXGXFXFXFXFXFXFXGXGXGXGXFXFXFXFXFXFXDXDXDXBXBXBXBXNXBXmXBXNXBX6X< j.BXNXNXNXNXNXBX*Xk.*X2X6X2X$X#X#Xm.m.b.#X$X$Xv.` K *XFXFXFXDXDXFXGXbX|.L P }.}.I.}.}.}.}.}.}.}.|.}.}.}.}.Y.XX.XU.}.|.|.|.|.|..X.X.X.X.X.X.X.X.X;X",
"6 %.3.3.3.4.4.5.3.3.3.3.5.5.5.5.5.5.5.5.4.4.4.4.4.e.t.4.4.4.5.3.&.u q 7 5 2 6 0 q w w w y q q q y 0 5 1 1 5 0 q w y y w t t u <.6.r.u.u.u.u.u.u.u.u.u.u.u.u.u.u.u.u.u.u.r.7.5.3.3.3.3.3.3.3.3.3.5.5.4.4.6.6.6.6.6.7.7.7.1.<.N 9 : = = * * * * < * % % % % % % % % % % % % % % % % % % % % % % <  .2X2X2X2X4X4X2X_ f v.6X6X2X6X$Xj.` ` $X2X2X3X$Xv.z.` c.hXFXFXFXFXFXFXFXFXFXSXZXMXMXMXMXMXMXMXMXMXMXMXMXMXvXcXhX6X$X#X6XhXhXhXhX4X .`  .j.j.z. .j.4XFXFXSXDXDXFXDXDXDXDXDXDXDXDXSXMXnXcXcXcXhX6X6X6XhXcXcXcXhX6XhXhXvXvXcXcXvXcXcXcXcXcXcXvXNXSXDXDXDXDXDXDXDXDXDXDXDXDXSXMXnXmXBX6Xo.#X0XNXNXnX0X6X2X#Xh.` k.$X$X$Xb.v.v.v.v.b.v.c.1Xn.;   .     8 1XIXbXJXJXqXJXJXJXJXJX0X8X8X8X8X4X5X5X1XK.K.1.o                                       O o = 7 t t p i E :.:.:.:.:.:.:.:.:.:.:.:.:.:.:.:.:.:.f.:.:.:.:.:.i p o               i.CXhXhXhXvXvXMXvXZXFXGXKXKXKXKXKXKXKXKXKXGXGXGXHX .S hXGXSXFXSXKX@Xf @XZXAXAX6Xb.c.c.c.c.z.) Y ) q.n.z.z.z.z.z.q./ sXKXGXFXFXGXGXGXGXGXFXFXFXFXGXFXFXFXFXFXSXZXZXvXvXvXvXvXvXvXvXhXvXvXvXCXCXvXvXvXZXHXGXGXGXGXGXGXGXGXGXGXGXGXGXGXGXHXMXMXvXvXMXMXk.j.hXhX6X2X6X6X6XMXSXFXFXFXGXGXGXGXGXGXGXGXGXFXFXFXFXFXFXFXDXDXDXBXBXBXNXmXmXNXBXmXDX*X+  XSXNXNXNXBXNXNXl.k.2X6X6X2X$Xb.$Xb.$Xm.m.m.$Xv.` K 4XGXFXGXGXDXGXqX} P }.g.}.g.}.}.}.}.}.}.}.}.}.}.}.}.U.Y.Y.|.|.}.|.|.|..X.X.X.X.X.X.X.X|.|.XX-X",
"0 &.3.3.3.4.4.5.5.5.3.5.5.5.5.5.4.5.5.5.5.4.4.4.4.t.t.4.4.4.5.3.+.y 0 5 5 5 7 0 q w w w q q q q t 7 s 1 s 7 q y w y w w t t @.<.r.r.u.u.u.u.u.d.u.u.u.u.u.u.u.u.u.u.u.d.r.7.5.3.3.3.3.3.3.3.3.3.5.5.4.4.7.6.6.6.6.7.7.7.7.1.W p : = = * * = * * % % % % % % % % % % % % % % % % % % % % % % % % ^ 3X4X4X2X2X6X6X$XK ` 3X2X2X6X6Xm.` K j.2X6X4X2X3X$Xc.$XcXFXFXSXFXSXSXFXFXSXSXMXMXMXMXMXMXMXMXMXMXMXvXvXMXvXcXhX6X#X$X6XhXhXhX6X$X` `  .j.j.z. . .6XFXFXDXDXDXDXDXDXDXDXDXDXDXDXSXMXcXcXcXcXhX6X6X6XhXcXcXcXhX6XhXhXvXvXvXvXvXcXcXcXcXcXcXvXNXSXSXSXDXDXDXDXDXDXDXDXDXDXBXmXmXmXNX6Xj.*XnXNXNXnXnX6X2X#Xh.` v.$X$Xb.b.$Xb.v.v.v.v.n.q.-         = w.vXZXJXbXIX8X8X8X5X5X5X@XK.H.0.] v % X .                               . o o 7 8 t t p p E E i E E :.:.E E i N N E E E l :.:.:.:.:.:.:.:.:.:.@.:.@.i :.:.:.N i 8 o           9 sXsXhXhXvXZXZXvXZXGXKXKXKXGXKXKXKXKXKXKXGXGXGXKX@Xf 3XGXSXSXSXKX$Xf $XZXSXSX4Xv.c.c.n.c.z._ Y ) q.n.z.z.z.z.z.q./ sXKXGXFXFXFXGXGXGXGXFXFXFXFXGXFXFXFXFXFXSXZXZXvXvXvXvXvXvXvXvXhXvXvXvXvXCXvXvXvXZXHXGXGXGXGXGXGXGXGXGXGXGXGXGXGXGXSXMXMXvXvXMXnXj.k.xXhX6X6X6X6X6XMXFXFXFXFXGXGXGXGXGXGXGXGXFXFXFXFXFXFXFXFXDXDXDXBXBXBXNXmXBXNXNXBXSX .+ 7XSXNXNXNXNXNXNXk.k.2X6X6X2X$Xm.$Xb.$Xm.m.$X$Xv. .S 4XGXFXDXDXGXmX|.I }.}.g.}.I.}.}.}.}.}.}.}.}.}.}.}.}.|.Y.Y.|.}.}.}.|.|.|.|.|.|.|.|.|.|.|.|.XXXX",
"r *.,.3.4.4.4.3.5.5.5.5.5.5.5.5.4.5.5.5.4.4.4.4.4.t.4.4.4.4.3.,.+.q 6 5 s 5 6 q w w w w q q q q 0 7 s s 5 0 y y w y w w t t @.3.r.r.u.u.u.u.u.u.u.u.u.u.u.u.u.u.u.u.u.r.r.7.3.3.3.<.<.<.3.3.3.3.5.5.4.4.7.7.6.6.4.6.6.7.7.2.<.E 9 = = = = * % * * * % % % % % % % % % % % % % % % % % % % % + % / 3X4X4X4X4X4X4X2X` x v.2X2X2X6X2Xj.K ` $X6X6X6X2X2X$X3XhXAXSXFXFXFXFXFXSXHXHXMXMXMXMXMXMXMXMXMXMXMXvXMXvXcXcXhX2Xv.3XhXhXhXhX6Xj./ `  .z.z.z.`  .vXFXDXDXDXDXDXDXDXDXDXDXDXDXDXBXMXcXcXcXcXhX6X6X6XhXcXvXhXhX6XhXhXvXvXcXcXvXcXcXcXcXcXcXvXZXSXDXDXDXDXDXDXDXDXDXDXDXBXBXBXmXmXBX6Xj.*XcXNXmXnXnX6X2Xv.` ` v.$X$X$Xb.b.b.v.b.$X1Xw.z .       . ~ 1XsX5X@Xw.0.] T n : : @ @ X O                               . o = 8 p E :.<.<.:.:.:.E E E E E E E E E i i i i i i i i E :.:.:.:.:.:.:.:.:.:.:.:.:.:.@.i E E E :.:.i 7 .       . <XsXsXhXvXZXMXvXZXGXKXKXKXKXKXKXKXKXKXKXGXGXGXKX4Xf c.FXFXSXSXKX3Xf 3XZXHXAX2Xn.c.n.n.c.q.) Y ) q.n.z.z.z.z.z.q.) hXKXGXFXFXFXGXGXGXGXFXFXFXFXGXFXFXFXFXFXHXZXZXvXvXvXvXvXvXvXhXhXvXvXvXvXvXvXvXvXZXHXFXGXGXGXGXGXGXGXGXGXGXGXGXGXGXSXMXMXvXvXMXcXh.v.cX6X6X6X6X6XcXZXFXGXFXFXGXGXGXGXFXFXFXFXFXFXFXFXFXFXFXFXDXDXSXBXBXNXNXmXBXBXNXBXmXf f mXSXNXNXNXNXNXnXk.v.6X6X6X2X$X$X$Xb.b.b.$X$XV.v. .S 6XGXGXDXDXDX+XI P }.g.I.}.I.}.}.}.}.}.}.}.}.}.}.}.}.|.|.|.}.}.|.|.}.}.}.U.}.}.U.U.U.U.}.}.|.|.",
"e *.,.3.4.4.4.5.5.5.5.5.4.5.5.5.4.5.5.4.4.4.4.4.4.t.4.4.t.4.3.=.u q 5 3 s 6 0 w y w w w w q q q 0 5 1 s 0 q y y w y y w y y @.3.r.r.u.u.u.u.u.u.u.u.u.u.u.u.u.u.u.u.d.r.6.5.3.3.3.<.<.<.3.3.3.3.5.5.4.6.6.6.6.6.4.6.6.6.7.7.1.<.p 9 = * = * * * * * % % % % % % % % % % % % % % % % % % % % % % _ 4X4X2X2X2X2X4X4Xv.S j.2X6X2X6X6X$X` K j.2X6X6X2X2X2X2X6XcXNXFXHXFXFXSXSXSXSXZXMXMXMXMXMXMXMXMXMXMXvXMXvXcXcXhX3Xc.6XxXhXhXhX2X ./  .j.z.z. ./ ` ZXGXHXFXDXDXDXDXDXDXDXDXDXDXDXNXmXcXcXcXcXhX6X6X6XcXvXcXhXhXhXhXhXvXvXcXvXvXcXcXhXcXcXcXbXZXSXSXDXDXDXDXDXDXDXDXFXDXDXSXmXnXNXNX6Xj.*XnXNXNXNX0X6X2Xv.j.j.b.$XV.$X$Xb.$X$X1Xn.9.a .           X 7 = X O                                       . O O o 7 7 8 t W :.<.<.E N i i N i i p i i i l i i i E E :.:.:.N N E E :.:.:.:.:.:.:.:.:.:.:.:.:.:.:.:.:.:.E i i E <.:.5 .       w.3X4XhXCXZXvXMXZXGXKXKXKXKXKXKXKXKXKXKXGXGXFXKXhXf  .HXSXSXSXGX4Xf 3XZXSXZX3Xc.c.n.n.c.q.( Y _ q.n.z.z.z.z.z.q.) vXKXGXFXFXFXGXGXGXGXFXFXFXFXGXFXFXFXFXFXHXAXZXvXvXvXvXvXvXvXhXhXhXvXvXvXvXvXCXvXZXHXFXGXGXGXGXGXGXGXGXGXGXGXGXGXGXSXMXMXvXcXMXcX` v.nX6X6X6X6X6XcXZXFXGXGXGXGXGXGXGXFXFXFXFXFXFXFXFXFXFXFXFXDXDXSXBXNXNXNXmXmXBXNXSX>X+ j.SXBXNXNXNXNXNXnXk.#X6X6X6X2X$X$X$Xb.b.b.$X$Xb.v. .S hXGXGXDXDX4XP P }.I.g.}.I.I.}.}.}.}.}.U.}.}.}.U.U.U.U.|.}.}.}.}.}.}.U.I.I.I.I.I.U.U.U.I.}.}.}.",
"u *.=.3.4.4.4.4.5.5.5.4.4.5.5.5.4.5.4.4.4.4.t.t.4.4.4.4.4.4.3.*.u r 5 3 5 7 0 w y y w w w q q q 5 s 1 5 0 w y w w y y y y y @.3.r.r.u.u.d.u.u.u.u.u.u.u.u.u.u.u.u.u.d.r.7.5.3.3.3.3.<.<.<.3.3.5.5.4.4.7.6.6.6.6.6.6.6.6.6.7.7.1.W 9 8 = * * * * * * * * % % % % % % % % % % % % % % % % % % % % | 4X4X4X2X4X4X2X6X$X/ K $X6X6X6X6X2Xk.K ` $X6X6X2X2X2X2X2X2X6XbXSXFXHXSXFXHXZXZXMXMXMXMXMXMXMXMXMXMXvXMXMXcXcX6X$X@XhXxXhXhXhX3X .`  .j.j.z. .^  .SXGXDXFXDXDXDXDXDXDXDXDXDXDXSXNXnXcXvXcXcX6X6X6X6XcXvXcXhXhXhXhXcXvXvXvXvXvXcXcXcXcXcXcXMXSXSXDXDXDXDXDXDXDXDXDXFXSXSXSXMXMXZXNX6Xk.*XnXNXNXmXnX6X*Xj.` j.b.$X3X3X$Xn.n.w.Q a X                             .                     . O o 7 8 p i :.:.:.<.E E <.E E i p i N E :.i i i :.:.:.E i E E E E E :.:.E E E E :.:.:.:.:.:.:.:.:.:.:.:.:.i i i :.:.:.:.E :.i :.:.t O       2.1X3XhXCXZXvXMXAXGXKXKXKXKXKXKXKXKXKXKXGXGXFXKXvXS / AXFXSXSXGX4Xf 3XZXAXMX$Xz.c.n.n.c.q.Y Q q.n.z.z.z.z.z.q.q.) vXKXGXFXGXFXFXFXFXFXFXFXFXFXGXFXFXFXFXFXFXSXZXvXvXvXvXvXvXvXvXhXvXvXvXvXvXvXvXvXZXFXGXFXGXFXFXFXGXGXGXGXGXGXGXGXGXSXMXnXcXcXMXcX` $XnX6X6X6X6X6XcXSXFXGXFXGXFXFXFXGXGXGXFXFXFXFXFXFXFXFXDXDXDXDXBXBXNXNXmXmXmXBXBXBXg.< 2XSXNXNXNXNXNXNXcXk.$X6X6X6X2X$X$XV.b.b.b.$X$Xv.c. .S cXGXDXGXBX} P P P P }.}.g.}.}.}.}.}.}.}.}.}.}.U.U.}.U.}.}.}.}.}.U.I.I.g.g.g.g.g.g.g.g.g.g.g.g.",
"u *.*.3.4.5.4.4.3.5.5.5.4.5.5.5.4.4.4.4.4.t.t.t.4.t.4.4.4.4.3.*.y 0 5 3 5 6 q y y y w w w q q 0 5 s s 7 q y y y w y y y y y @.3.6.r.d.u.d.u.u.u.u.u.u.u.u.u.u.u.u.u.r.r.7.3.3.3.3.3.<.<.3.3.3.3.5.7.4.7.6.6.6.6.6.6.6.6.7.7.7.7.1.N 8 = * * * * * * * * = = = = % % % % % % % % % % % % % % % % ! 3XhXhXhX6X2X2X4X2X .K b.2X6X2X6X6X$X` K v.2X6X6X2X2X6X2X*X*X*XhXSXGXHXHXHXZXMXMXMXMXMXMXMXMXMXMXMXvXMXvXcXcX4Xv.3XhXhXhXxXhX$X_  .z.z.z. . .S c.FXGXDXDXDXDXDXDXDXDXDXDXDXDXSXNXnXcXvXcXcX6X6X6XhXcXcXcXhXhXhXhXcXvXvXvXvXvXcXcXcXcXcXcXMXSXSXDXDXDXDXDXDXFXGXDXGXKXKXDXMXmXBXBX6Xk.*XnXNXNXNXnX6X$Xc.q.z.n.n.q.) z ; X .                                                 . O = 8 t p i E E E :.:.i i i i N E i i i i E E i p :.E E E E i i p i i i i i i i i E E l l i i @.@.i i @.i :.:.:.i :.i i :.:.:.:.:.:.E :.:.7 o     . Q n.3XhXvXZXMXMXAXGXKXKXKXKXKXKXKXKXKXKXGXGXFXKXZXG / MXFXSXSXGX4Xf $XZXSXvX$Xz.c.c.n.z._ Y Q q.n.z.z.z.z.z.q._ / vXKXGXFXGXFXFXFXFXFXFXFXFXFXFXFXFXFXFXFXFXSXZXvXvXvXvXvXvXvXvXhXvXvXvXvXvXvXvXvXZXFXGXGXGXFXFXFXFXFXGXGXGXGXGXGXGXSXMXnXcXcXMXcX` $XnX6X2X6X6XhXvXSXFXFXFXGXFXFXFXFXGXGXFXFXFXFXFXFXFXDXDXDXDXSXBXBXNXNXmXBXNXNXBX0XV f qXSXNXNXNXNXNXBX6Xk.$X6X6X6X2X$X$Xm.b.#Xb.$X$Xv.c.` V MXGXFXFX:XL g.P P P I.I.I.}.I.}.}.}.}.U.U.}.}.U.U.}.}.}.}.}.}.U.U.g.g.g.g.P P P g.g.g.g.g.g.g.",
"u *.*.3.4.3.5.5.3.3.5.5.5.5.5.5.4.4.4.4.4.t.t.t.t.t.4.4.4.4.3.&.w 6 3 3 5 6 q w y q q w y q q 0 s s s 0 q w w y y y y y y t @.3.r.r.d.y.d.u.u.u.u.u.u.u.u.u.u.u.u.d.r.r.4.3.3.3.3.3.3.3.3.3.3.3.5.7.4.4.6.6.6.6.6.6.6.6.7.6.7.7.7.<.p 8 = * * * * * * * * = = = % % % % % % % % % * % % % % % < d Y ) n.3XhXhX4X4X4Xv.K k.2X2X2X6X6X2Xj.K ` $X6X6X2X2X6X2X2X$Xk.v.6XSXFXHXHXSXMXMXMXMXMXMXMXMXMXMXMXMXMXvXcXhX2Xc.2XhXhXxXhX6Xv. . .z.z.z. ._ f 5XGXFXDXDXDXDXDXDXDXDXDXDXDXDXSXMXcXcXvXcXhX6X6X6XhXcXcXcXhXhXhXcXvXcXvXvXvXvXvXvXcXcXcXcXMXSXSXSXSXDXDXDXGXKXGXHX4X5XsXvXZXBXMXBXhXc.3XMXSXHXHXMX6X3Xw.) W a = .                                                 . O o s 7 t @.E :.:.:.:.@.@.@.i i E E E E E p :.E E i i E E E i i i p p i i i i i i i i i i i p p p p p u u u p p i i i i i i :.:.:.:.:.i i :.i i :.i 5 .     = 2.q.3XhXvXZXMXZXHXGXKXKXKXGXKXKXKXKXKXKXKXGXFXKXZX/ / MXFXSXSXGX6X& c.vXSXvX$Xz.c.n.c.z._ Y ( q.n.n.n.z.q.q.q._ Y vXKXGXFXGXFXFXFXFXFXFXFXFXFXFXFXFXFXFXFXFXSXZXMXvXvXvXvXvXvXvXhXhXvXvXvXvXvXvXvXZXFXGXGXGXFXFXFXFXFXFXFXFXFXGXFXGXSXMXnXcXcXnXhX` 2XnX6X2X6X6XhXMXSXFXFXFXGXFXFXFXFXGXGXGXFXFXFXFXFXFXDXDXDXDXSXBXBXmXmXmXBXNXNXBX*Xf k.BXBXNXNXNXNXNXBX6Xk.$X6X6X6X2X2X$Xm.b.#Xv.#X$Xv.k./ S SXGXFXmX} I g.}.I.I.P g.I.I.I.}.}.U.U.U.U.}.}.}.}.}.U.}.}.g.g.g.g.P P P P P P P P P P P g.g.g.",
"u *.*.3.4.3.5.5.5.5.5.5.5.5.5.5.4.4.4.4.4.t.t.t.t.e.4.4.4.4.3.&.r 6 s s 5 0 q w q q q q w q 0 6 s s 5 0 q q q y y y y y t t @.5.r.r.u.u.d.d.u.r.y.u.u.u.u.u.u.d.d.r.r.r.7.3.<.3.3.3.3.3.,.3.3.3.5.7.4.4.6.6.6.6.6.6.6.6.6.7.7.6.7.1.N 9 = = * * * * * * = = = = % % % % % % % % % = * % % % % < % + X + ; Y c.2X4X6X$XK ` 2X2X2X2X6X6Xv.K K v.6X6X2X2X6X2X6X2Xv.K j.6XSXFXSXZXMXMXMXMXMXMXMXMXMXMXMXMXMXcXcXhX2Xc.6XcXxXvXhX6Xj. .j.z.j. . .` f 4XKXFXDXDXDXDXDXDXDXDXDXDXDXDXSXMXcXcXvXcXhX6X6X6XhXcXcXcXhXhXhXcXvXvXvXvXvXvXvXvXcXcXcXcXMXSXSXDXDXDXDXFXKXFXcXa   .   < 4XHXHXSXcX@X2XZXHXZXvX3Xq.d + .                                               . . o s = a p N E E E E E p p N E i i @.E p i E i i E E i i E E i i i i i i :.:.i p t t t t t t t t t t t t t t t t t t t t p p i i i i i i :.:.:.i :.:.E p p t o       l 9.q.3XhXvXZXvXZXHXGXKXGXKXGXKXKXKXKXKXKXKXGXFXFXAX` / vXFXSXSXGXhX&  .cXSXvX$Xc.c.n.c.z._ Y ) q.n.n.z.z.q.q.q._ Y vXKXGXFXGXFXFXFXFXFXFXFXFXFXFXFXFXFXFXFXFXSXZXZXvXvXvXvXvXvXvXhXhXvXvXvXvXvXvXvXZXFXGXGXFXFXFXFXFXFXFXFXFXFXFXFXGXSXMXMXcXcXnXhX` 2XxX6X2X6XhXcXMXFXGXFXFXGXFXFXFXFXGXGXFXFXFXFXFXFXFXDXDXDXDXBXBXBXmXmXmXmXmXNXmXg.f *XSXNXNXNXNXNXNXSX6Xk.$X6X6X6X2X2X$Xv.b.$Xb.b.#Xv.j./ { DXGXFX4XL }.P P I.I.P I.}.g.}.I.U.U.U.U.U.U.}.}.}.U.U.I.g.g.P P I I P P P P I I I P P P P P P ",
"#.+.=.3.5.5.5.4.4.4.5.5.4.5.5.5.5.5.5.4.4.4.4.t.4.e.t.4.t.4.,.+.0 6 s 5 7 0 q t q w q q q t 0 5 o s 7 0 t q q q y t y y y y :.3.r.r.d.d.d.u.u.u.u.u.u.u.u.u.u.u.u.u.d.7.5.3.3.<.3.,.,.3.3.<.3.3.5.5.4.6.6.6.6.e.e.e.e.6.6.6.6.6.6.7.<.p : * * * = * * * * * % = * * * * * * * * % % % = % % % % % % @ X X . + z z.4X3X` ^ $X2X2X2X6X6X$Xh.K j.2X6X6X2X2X6X6X2X$X` K c.vXHXSXZXNXZXZXZXZXMXMXMXvXMXvXMXvXvXcXhX$Xb.hXvXxXxXxX3Xj.j.j.c. . . .G V bXFXGXFXDXDXDXDXSXDXFXFXSXFXSXBXMXcXvXcXcXhX6X6X6XcXvXvXcXhXhXhXhXvXvXvXAXAXAXAXvXcXcXcXvXZXSXFXFXFXGXGXFXKXCX%       .   X CXLXLXCX1Xq.w.9.h +                                               . O X = 8 9 p E W E W E i i E E N E E l i i i i i :.:.l i @.i :.:.:.:.:.l i i i i i i i i i p t 7 7 7 7 t 7 t t t t 7 7 7 7 7 7 7 7 7 t p i i i i i i :.:.i i E :.:.y p o   .   o 9.w.w.1XsXvXZXvXZXHXGXKXKXKXKXKXKXKXKXKXGXGXGXGXFXZX/ / cXFXSXSXFXcXS  .hXAXvX$Xz.z.c.n.z.) Y ) q.q.z.z.z.n.z.q._ S vXKXGXFXFXGXFXFXFXFXFXFXFXFXFXFXFXFXFXFXFXHXZXMXvXvXvXvXvXvXvXhXhXvXvXvXvXvXvXvXZXHXFXFXFXFXFXFXFXFXFXFXFXFXFXFXFXSXMXcXnXcXMX4X` 2XhX6X4X6X6XcXAXFXFXGXGXGXGXGXFXFXFXFXFXFXFXFXFXFXDXDXDXDXDXBXBXNXmXmXNXmXmXBX6Xf K nXBXBXNXNXBXNXNXBX6Xk.$X6X6X6X6X2X$X$X#X#Xv.$Xb.v.v.K o.GXDXDX}.L } P P P I.I.I.I.U.I.I.U.U.U.U.U.}.}.}.U.I.I.g.P P P P I P P P P P P I I I P P P g.I ",
"+.+.=.3.5.5.5.4.4.4.5.5.5.5.5.5.5.5.5.4.4.t.4.t.4.e.t.4.t.5.>.+.0 6 s 5 7 0 q y q w w q q q 5 s o s 7 q t q q q y y y y t t :.5.r.d.d.d.u.u.u.u.u.u.u.u.u.u.u.d.u.u.d.7.5.3.3.<.3.3.,.3.<.<.3.5.5.4.4.4.6.6.6.6.e.e.e.6.6.6.6.6.r.6.5.E 9 = * * = = = * * = = * * * * * * * * * % % * % % % % % % * < % % + X X < q.$X .K b.6X2X2X6X6X2Xj.K h.*X6X6X2X2X2X6X2X2Xj.K / 3XvXHXAXZXMXMXMXMXMXMXMXMXMXMXZXvXvXcXhX@X$XhXvXhXhXhX$X .z.z.c.z. ._ S Y FXGXFXFXFXDXDXDXDXSXFXDXFXSXSXMXnXcXcXcXcXhX6X6X6XcXvXvXcXhXhXhXvXhXZXhX) - Q i.CXhXcXvXMXHXHXGXFXGXGXKXKXLXw.          O   X i.i.Q X       .                                             O o 7 t i <.<.:.N E :.E E N E E E N N E E l l E E E E i l l i i i i @.l l i l i i i i i i i i i p t t 7 7 7 7 7 7 7 7 7 7 7 7 7 7 7 7 7 7 7 t p i i i :.:.i :.:.:.:.i i u 7   .     W 1Xn.n.3XhXvXZXvXZXHXGXKXKXKXKXKXKXKXKXKXGXGXGXGXFXZX/ ^ cXFXSXSXFXvX/ 3XZXAXhXb.z.c.c.c.z.) Y ) q.q.q.z.z.z.q.q.) d vXKXFXFXFXGXFXFXFXFXFXFXFXFXFXFXFXFXFXFXFXHXAXMXvXvXvXvXvXvXvXhXhXhXvXvXvXvXvXvXZXFXFXFXFXFXFXFXFXFXFXFXFXFXFXFXFXSXMXcXcXcXMX2X` 2XhX6X6X6XhXnXSXFXFXGXGXGXGXFXFXFXFXFXFXFXFXFXFXFXDXDXDXSXSXBXNXmXmXNXmXNXBXNX Xf l.BXSXNXNXNXBXNXNXBX6Xk.$X6X6X6X6X2X$X$X#X#Xv.$Xb.v.k.K @XGXFX0XL P P P P P I.I.I.I.I.U.I.I.U.U.}.U.}.}.U.U.I.g.P P P P I I I I I L I I I I I I P P P I ",
"+.+.=.3.3.3.5.4.4.4.5.5.5.4.5.5.5.5.5.4.4.t.t.t.4.e.t.t.4.5.=.u 0 6 3 s 7 0 q t w w w q t q 5 1 1 s 5 q t t y q t y y y t u :.5.r.d.u.u.u.u.u.u.u.u.u.u.u.u.u.u.u.u.r.7.5.3.<.<.3.,.,.<.<.3.3.5.4.4.4.6.6.6.6.6.6.6.e.6.r.r.r.r.r.r.6.1.p 8 = * = * * * * * = * * * * * * * * % % % = % % % % % % % % + % % % X . S $Xc.S j.2X6X2X2X6X2Xk.K ` #X6X6X2X2X2X2X2X2Xv./ K j.hXAXAXAXMXMXMXMXMXMXvXvXvXZXZXMXvXhX4Xv.2XxXhXhXhXhX$X .z.z.c.z._ _ f q.KXGXFXFXFXDXDXDXFXFXSXDXDXDXSXZXcXcXcXnXcXhX6X6XhXcXcXvXcXhXhXhXhXZXjX=         h CXCXCXZXHXKXKXKXKXLXLXLXPX7             .                                                                 . O 7 t p E :.:.:.E E i i E E N i E E E E E E E E E i i i i i @.@.i i i i i i i i i i i i i p y t t 7 7 7 7 5 5 o s o o o o o 5 5 5 7 7 t p i i i i p i i i i :.i p i 0 o     . = <X1Xn.w.3XhXvXvXZXZXHXGXKXKXKXKXKXKXKXKXKXGXGXFXFXGXZX/ ^ cXFXSXSXFXvX .4XAXAXhXb.c.c.n.c.q.) Y _ q.q.z.z.q.z.q.9.^ d vXKXFXFXFXFXFXFXFXFXFXFXFXFXFXFXFXFXFXFXFXFXSXZXvXcXvXvXvXvXvXhXhXhXvXvXvXvXvXvXZXGXGXFXFXFXFXFXFXFXFXFXFXFXFXFXFXSXMXcXcXcXnX2X .6XhX6X6X6XcXMXSXFXFXFXFXGXFXFXFXFXFXFXFXFXFXFXFXDXDXDXDXSXSXBXNXmXmXBXmXNXBX6XK V 6XSXBXNXBXNXNXNXNXBX6Xk.$X6X6X6X6X2X$X$Xb.#Xv.$Xv.v.k.K +XFXFX:XL } P g.P P P I.g.I.I.I.I.I.}.}.}.U.}.}.U.I.g.P P I P P L I I I I I I I I P I P P P g.I ",
"+.+.*.,.3.3.5.4.4.4.5.5.5.5.5.5.5.5.5.4.4.t.t.t.4.4.t.t.4.3.=.u 0 6 3 s 5 0 q t w w q q t 0 s o s 5 0 t t y y q y y y y t u >.7.r.d.u.u.u.u.u.u.u.u.u.u.u.u.u.u.u.u.r.7.5.3.<.,.3.>.>.,.<.3.3.7.4.4.4.6.6.6.6.6.6.6.e.e.r.r.r.r.6.6.6.7.<.9 = = = = * * * * * * * * * * * * * * = = % % % = = % * % % % % % % % + f $X@XK ` 2X6X2X2X6X6Xv.K K v.6X6X2X2X6X2X2X3Xv. .S / @XvXAXAXZXZXMXMXZXZXZXZXZXZXMXvXvXhX4Xb.2XcXhXhXcXhXb.j.z.z.z.j. .` f 4XKXFXGXFXDXFXDXDXFXGXFXGXFXHXHXZXvXvXvXvXcXhXhXhXhXcXcXcXcXhXhXcXCXCX@   .   .     7.LXLXLXLXLXLXLXPXVXgXs.p   .             . .                 . . o X o = 7 o X         .         .             . O = 8 p E W E i i i i i i E :.:.:.:.:.:.:.:.i i @.l i @.i i i i i i i i i i i i i i p p t t t 7 7 7 7 7 7 7 7 7 7 7 7 7 7 7 7 t p p i i i i :.:.:.i :.>.:.p t O   .   . i.pX1Xn.n.4XhXvXvXZXZXHXGXKXKXKXKXKXKXKXKXKXKXGXGXFXGXvX/ ^ vXGXSXSXGXcXS @XcXZX6Xb.c.c.n.c.q.( Y _ z.q.z.z.z.z.q.) Y d vXKXFXFXFXFXFXFXFXFXFXFXFXFXFXFXFXFXFXFXFXFXSXZXvXcXvXvXvXvXvXhXhXhXvXvXvXvXvXvXHXGXFXFXFXFXFXFXFXFXFXFXFXFXFXFXFXSXMXcXcXcXnX*Xj.6XhX6X6X6XcXMXSXFXFXFXFXGXFXFXFXFXFXFXFXFXFXFXFXDXDXDXDXSXBXNXBXmXmXNXmXBXBX*Xf j.mXSXNXNXBXNXNXNXBXNX2Xh.$X2X6X6X6X2X$X$Xb.b.b.$Xv.v.k.K +XGXMX} I } } P P P P P g.g.I.I.I.I.}.}.}.}.}.}.I.g.P P P L I L I I L L I I I P P P P g.g.g.g.P ",
"+.+.&.,.3.3.5.4.4.5.5.5.5.4.5.5.5.5.5.4.4.t.t.t.t.t.t.t.4.3.&.u 0 6 3 s 5 0 q q w q q q q 7 s o s 5 t t y y y t y t t y y u >.7.r.r.u.u.u.u.u.u.u.u.u.u.u.u.u.u.u.u.r.7.3.3.,.,.,.>.>.,.3.3.5.5.5.4.4.6.6.6.6.6.6.6.e.e.r.r.r.r.6.6.r.6.5.N 7 # = = = = = * * * * * = = * * * * * * = % % % % % % % % % % % % @ X d $X$X/ / $X6X2X2X6X6X$X` K k.2X6X2X2X6X2X2X$Xb. ./ S  .6XZXZXAXAXZXZXZXZXZXZXMXZXMXvXvXhX3Xj.4XcXhXhXcX6Xv.z.c.c.c. . .^ f vXKXFXGXFXFXGXFXFXFXFXLXLXLXLXKXHXZXMXvXcXvXhXhXhXhXcXvXvXvXcXvXCXLXw.  .         .   2.aXyX<Xs.<.9 o                                   . X = 7 8 t p p p 9 8 7 o .               . . .                     O = t p i N i i i i E i i i i i i i i i i i :.:.:.E l @.@.i i i i i i i i u u i p p p p t t t t t t t t t t t t t t t p p i i i i i i p :.:.i i i i p o .       0.pX5X1Xn.1X4XvXvXvXZXZXFXGXGXKXKXKXKXKXKXKXKXKXGXGXFXGXcX/ / MXFXSXSXFXcXf ^ 4XvX4Xb.c.n.n.c.q.^ Y q.z.z.z.z.z.z.q._ Y d vXKXGXFXFXFXFXFXFXFXFXFXFXFXFXFXFXFXFXFXFXFXSXZXvXvXvXvXvXvXvXvXhXhXvXvXvXvXcXvXHXGXFXGXFXFXFXFXFXFXFXFXFXFXFXFXFXSXnXcXcXcXnXv.j.6XhX6X6X6XcXMXSXFXFXFXFXGXGXGXGXFXFXFXFXFXFXFXFXDXDXDXSXSXBXNXmXmXmXmXmXBXqXK f *XBXBXNXBXNXNXNXNXBXNX*X` $X2X6X2X6X2X$X$Xb.v.v.b.v.v.k.` } >X|.L P P P P P P P P g.g.g.I.g.I.I.}.}.}.I.I.g.P P I I I I I I I I L I I P P P g.g.g.g.g.}.g.",
"+.+.&.*.3.3.3.4.4.5.3.5.5.4.5.5.5.5.5.4.4.t.4.t.t.t.t.t.4.3.&.u 0 6 3 s 5 0 q q w q q w 0 5 1 1 5 0 t t t y y y y t t y y @.>.7.r.r.u.u.u.u.u.u.u.u.u.u.u.u.u.u.u.d.r.7.5.3.,.,.,.>.>.,.<.3.3.5.5.5.4.5.6.6.6.6.6.6.6.e.r.r.r.r.6.6.e.r.6.<.t = = = = = * * * * * * * = = = * * = = * = % % = % % % % % % % % + + ) 3X$X` ^ v.6X6X2X6X6X$X` K j.2X6X2X2X2X2X2X$Xc. ._ S ^ 3XZXHXHXFXHXHXHXAXZXZXZXZXZXZXMXhX$Xv.6XhXhXhXcX4Xv.c.c.c. . . .S S HXKXFXGXGXFXGXGXKXKXLXCXi.2.i.sXLXHXHXZXMXZXMXCXvXZXAXHXPXLXAXCXCX<X.                           .                 .         . o o 0 t i :.:.<.:.:.i E E p 9 = O         . X < T ..K.K.K...T b $ X             . o = 8 p p i i i i i i i i i i i i i N &.&.:.:.E E :.:.i i i i i i i i i i i i i i i i i i i i i i i i i i i i i i i i i i i i i i :.:.i :.:.i 5 .         8.pXsX1X1Xn.3XhXvXMXMXZXZXFXGXGXKXKXKXGXKXKXKXKXKXKXGXGXGX4XS ` MXFXSXSXFXvXf S 2XvX2Xb.c.c.n.z.q.^ Y q.z.z.z.z.z.z.q.) Y d vXKXFXFXFXFXFXFXFXFXFXFXFXFXFXFXFXFXFXFXFXFXSXZXvXvXcXvXvXvXvXvXhXhXvXvXvXvXcXvXHXGXFXFXFXFXFXFXFXFXFXFXFXFXFXFXFXZXnXcXcXcXnXk.j.6X6X6X6X6XcXMXSXFXFXFXFXGXGXFXFXFXFXFXFXFXFXFXFXDXDXDXSXSXBXmXmXmXmXmXNXBX*Xf K 6XBXBXBXBXNXBXNXNXSXnXv.h.$X2X6X2X2X2X$X$Xb.v.v.v.v.v.k.o.L O.L g.g.P P F.P P P P g.g.g.g.g.g.I.}.}.I.I.I.P P P I I I I I L I I I I P P P P g.g.}.U.}.}.g.",
"+.+.+.*.,.3.3.4.4.5.5.5.5.4.5.5.5.5.5.4.4.e.e.t.t.t.t.4.5.,.+.w 0 6 5 s s 5 q q w w w w 0 s 1 s 7 q y y t y y y y t y y y @.>.7.r.r.d.y.y.u.u.u.u.u.u.u.u.y.y.u.r.r.r.7.3.3.,.,.>.>.>.,.<.<.3.5.5.5.5.5.4.4.6.6.6.6.6.e.r.r.e.e.r.e.e.e.6.5.N 8 = = = = = * * * * * = = = = * * * = * * = = = = % = % % % % + % R $X2X$X .K c.2X2X2X6X6X2Xj.K h.3X6X6X2X2X2X2X$Xc. ._ Y Y q.sXCXAXAXHXPXLXLXLXLXLXLXKXHXZXhX$X@XhXcXcXcXvX2Xb.n.c.c.q. .) f q.KXGXGXGXKXKXKXLXLXLXi..       . w.sXCXAXPXPXCXCXsXsXpX<XS.w.W + .                   .   .   .               . . O o 7 7 p E E <.<.>.:.:.l i i p i N :.i 7 o       . @ T ..5X8XJXJX0X0XqX0X8X:X=XH.w.] U * X       . o 7 t p p i i i i i i i i i i i i &.:.:.:.N N :.:.i i i i i i i i i i i i i i i i i i i l i i i i i i i i i i i i i i i :.:.:.:.<.<.i 5 O           2.yX1X3X3X1X1X4XhXvXMXMXZXZXGXKXKXKXKXKXKXKXKXKXKXKXKXKXGXFX2XS  .ZXSXSXSXGXvXf ^ 4XvX2Xv.c.c.n.z._ ^ Y q.z.z.z.z.z.q.q.) Y d vXKXFXFXFXFXFXFXFXFXFXFXFXFXFXFXFXFXFXFXFXFXHXZXvXvXcXvXvXvXvXcXhXhXhXvXvXvXcXvXHXGXFXFXFXFXFXFXFXFXFXFXFXFXFXFXDXZXbXcXcXcXhX` k.6X6X6X6X6XcXMXSXFXFXFXFXGXFXFXFXFXFXFXFXFXFXFXFXDXDXDXSXBXBXBXmXBXmXBXBX6Xh.f l.NXBXBXBXNXNXBXNXBXBXnXk.h.2X6X6X6X2X2X3X$X#Xb.v.v.v.v.j.o.} P k.} I P P P P P P P P P g.g.g.g.g.I.I.I.g.g.P P I I I I I I L I I I I P P g.g.g.g.}.}.}.}.g.",
"@.+.+.*.,.3.3.4.4.5.5.5.5.5.5.4.5.5.5.4.t.e.e.e.t.t.t.4.3.*.#.w 0 6 5 s s 5 q q y w y w 7 s 1 s 0 t t y t y y y t t y y y @.<.7.r.r.d.u.y.u.u.u.u.u.u.u.u.y.u.u.r.r.r.7.3.<.,.,.>.>.>.,.<.<.3.3.5.5.5.5.5.6.6.6.6.6.6.6.r.r.e.e.6.e.e.r.r.6.,.N 7 = = = = * * * * * * * = = = * * * * * = = = = = = @ % < + % U @X4X2X$X .S j.$X2X2X6X6X2Xj.K ` $X2X6X2X2X2X3Xb.z._ ( Y d ; ; z a a ; ; a W 9.i.sXCXAXLXKXCX2X2XvXvXvXvXvX3Xn.c.c.c.q.q.) & 1XLXGXKXKXKXLXLXLXPX<.    .         o 9 9 ; = O .                                           .       O o = 8 t p i :.:.:.:.<.i >.:.i p p E p p E p p p N 8 O       = ..5X0XqXqXqX0X0X0X0X0X0X0X0X0X0X8X8X4X@X] : O       o 7 t p p l :.:.:.:.:.i i i i i N &.:.:.N i :.:.i i i i i i i i i p i p i i i i i i i i i i i i i i i i :.:.:.:.i :.:.:.:.:.p 7 O             . u.pXpX4X3XpX1X1XsXvXvXvXvXZXHXGXKXKXKXKXKXKXKXKXKXKXKXKXKXGXSX$XS c.HXSXSXSXGXcXS ` 6XvX2Xn.c.n.n.z._ ^ Y q.z.z.z.z.z.q.9.) Y d vXKXFXFXFXFXFXFXFXFXFXFXFXFXFXFXFXFXFXFXFXFXFXSXMXvXvXcXvXvXvXvXhXhXhXvXvXvXcXvXHXGXFXFXFXFXFXFXFXFXFXFXFXFXFXFXDXBXbXcXcXcX6X` k.hX6X6X6X6XcXMXSXFXGXFXFXFXFXFXFXFXFXFXFXFXFXFXDXDXDXDXSXBXBXBXmXBXmXBXmX2Xf K 6XSXBXNXNXBXNXBXNXBXBXnXk.j.2X6X6X6X2X2X3X$X#Xv.v.v.v.v.j.o.P } P P g.P P P P P P P P P P g.g.g.g.g.I.g.g.P P I I I I I I L L I I P P P g.g.g.}.}.}.}.}.}.g.",
"+.+.&.&.=.3.3.5.4.4.4.4.5.5.4.4.4.4.4.4.e.e.t.t.4.4.4.4.3.*.u y 0 0 5 s s 7 q q y q q q 7 o 1 5 0 t y y w w y y y y y y u :.3.7.r.r.u.u.u.u.u.u.u.u.u.u.u.u.u.d.u.r.r.5.<.<.,.>.>.>.>.>.>.,.,.3.3.5.5.5.4.6.6.4.6.6.6.6.e.e.e.e.r.r.6.6.6.7.5.1.N t = = = = = = * * * * = = * = = = = = = = = * % = = = % @ < ! @X2X4X3Xc.K ` $X2X2X2X6X2Xk.K ` $X6X4X6X2X2X3Xq.Q h = O .                           o a W 2.9.w.3XhXCXvXhX2X$X$X1Xn.c.q./ Y AXLXLXLXLXLXPXVXS.=                                                                     . o o 7 8 t p u i i i i l l l l i i i i i i i i p p i p p p &.7 o .   O v =X0XqXqX8X8X8X0X0X0X0X0XqXqXqXqXJX0XqX0X0X8X@XT $ .   . o = p p :.@.&.:.:.@.@.@.@.@.@.@.@.@.@.@.@.@.@.@.@.@.l i i @.@.i i i i i i i i :.i i i i i i :.i i i i i i :.:.:.:.p 7 o .                 = S.pXpX4X4XsX3X1X5XhXvXMXvXZXZXHXGXKXKXKXKXKXKXKXKXKXKXKXGXGXGXHX$XS $XHXSXSXSXFXMX/  .hXvX2Xb.c.c.c.z._ Y ( q.n.n.z.z.z.q._ ! A S vXKXGXFXFXGXGXGXFXFXFXFXDXFXGXFXFXFXFXFXFXFXHXSXMXcXcXcXcXvXvXcXhXhXhXhXvXvXcXMXHXFXFXFXFXFXFXFXFXFXFXFXFXFXFXDXSXMXbXcX0XmX6XK v.nX6X2X2X6XcXNXSXFXFXFXDXFXGXGXFXFXFXFXFXFXDXDXDXDXDXSXBXBXBXmXNXNXBXBXnXk.f #XNXBXNXBXBXNXBXNXBXBXSX6Xj.k.2X6X6X2X2X2X$X$X#Xb.v.v.v.c.k.} } } } P P P P P P P P P P g.g.g.P P g.g.g.P P P P L I I I I I L I I I P P P g.g.U.U.}.}..X}.|.g.",
"@.+.@.&.*.3.3.5.4.4.4.4.5.4.4.4.4.4.4.4.e.e.t.t.4.4.4.4.3.&.u y 0 0 5 s s 7 q q y q q q 5 o s 7 0 t y y w w y y t y y t @.>.5.6.r.d.u.u.u.u.u.u.u.u.u.u.u.u.u.d.r.r.6.5.3.,.,.>.>.>.>.>.>.,.,.,.3.3.5.5.4.6.6.6.6.6.6.6.e.e.e.e.r.r.r.6.6.6.5.5.<.p 8 = = = = = * * * * * * * * * * * = * * = = % = = = % % % d R  .c.b.z./ ` $X2X2X2X6X2Xv.K ` $X2X2X4X6X2Xn.j + .                                             . + ; a W h h Q Q Q Q Q Q 9.fXjXyXi.1.7 .       .                                                         O o 7 t t p p p p i E i i i i i i i i i i i i i i i i i i p i i p p p 8 o     $ ] 5X0X0X8X8X8X8X0X8X8XqX0X0XqXqXqXqX0XqX0X8X0X0X0X5X..*     . o 7 p @.@.&.:.:.:.@.@.@.@.@.@.@.@.@.@.@.@.@.@.@.@.i i i :.@.@.@.i i i i i :.:.i i :.:.i p p p i :.i i :.u t 7 O                 .   o 7.1XsXpXpXsX4XsXsX1X3XvXCXMXvXZXZXHXGXKXKXKXKXKXKXKXKXKXKXKXGXGXGXHX$XS $XSXSXSXSXFXAX .j.hXcX3Xb.c.c.c.z._ Y ) q.z.n.z.z.z.q._ Q U Y vXGXGXGXFXFXFXFXGXGXGXDXDXDXDXFXFXFXFXFXFXDXFXSXMXvXvXcXcXvXvXcXhXhXhXhXcXvXcXMXSXFXGXGXFXFXFXFXDXDXDXDXFXFXFXDXDXMXcXcX0XnX6XK #XnX6X2X2X6XcXNXSXFXFXFXFXFXFXFXFXFXFXGXFXFXDXDXDXDXDXSXBXBXNXNXNXmXBXNX6XK K 7XBXBXNXBXBXBXBXBXNXBXSX6Xj.v.2X6X6X2X2X2X3X$X#X#Xv.v.v.c.k.o.} } } P P P P P P P P P P P P g.g.g.g.g.g.P P I I I I I I I I L I I I P P g.g.}.}.U.}.}..X}.|.g.",
"+.+.&.&.*.=.3.5.4.4.4.4.5.4.5.5.4.4.4.4.e.e.4.4.4.4.4.5.,.@.u y q 0 5 s 1 5 0 q q q t 0 5 o s 0 q y y w w y y y y y t u :.3.7.r.r.d.u.u.u.u.u.u.u.u.u.u.u.u.d.d.d.r.7.5.,.,.>.>.>.>.>.>.>.>.,.,.3.3.5.5.5.6.6.6.6.6.6.6.6.6.6.e.r.r.6.6.6.6.6.5.5.<.p 8 = = = = = = = = * * = = = = * * * * * * % * = = = % % % % ; f Y R S / v.2X2X2X2X2Xv.K ` $X2X4X2X6X3X( X .                                             .         .           . . . . .                 .                                                 O o o 7 t i :.:.E E i i i p p p i i i i i i i i i i i i i i i i i i p i i p i 9 @ .   @ ..8XqX0X8X8X8X8X8X0X0X8X:X=X=X=X5X8X8X8X8X8X8X8X0XqX0X8X| %       o t u @.&.:.:.&.@.@.@.@.@.@.:.:.&.@.@.@.@.@.@.@.i i i @.@.@.@.i i i i :.i i p p i i i i :.i i :.:.p 7 O                 .     o 2.iXaXsXsXpXpXsXsXsXsX1X4XvXZXMXvXZXZXHXGXKXKXKXKXKXKXKXKXKXKXGXGXGXGXAX@XS $XFXSXSXSXFXAX . .hXvX3Xv.c.c.z.z.) Y ) z.q.z.z.z.z.q._ Y d Y vXKXGXKXGXKXKXKXGXFXFXGXGXFXGXFXFXFXFXFXFXFXFXSXMXvXcXcXcXcXvXvXhXhXhXhXhXvXvXZXHXGXFXFXFXFXDXDXDXDXDXDXDXFXFXDXSXbXcXcXcXnX2XK $XnX6X*X2X6XcXMXSXDXFXFXDXFXDXDXDXDXDXDXDXDXDXDXDXDXDXSXBXBXmXBXNXmXBXBX*XV k.mXBXNXNXNXNXBXBXNXNXBXSX2Xh.v.2X6X6X2X2X2X2X$X#Xb.v.v.v.k.k.o.P } } P P P P P P P P P P P P P g.g.g.g.P P P I I I I I I I I L I I I P P g.g.}.}.}.|.}..X.X|.g.",
"+.+.@.&.&.=.3.5.4.4.4.4.5.5.5.5.4.4.4.t.e.t.t.4.4.4.4.5.,.+.e w q 0 5 s o 5 0 q y y t 0 s 1 5 0 q y y w w y y y y y y @.<.7.6.r.r.u.u.u.u.u.u.u.u.u.u.u.u.u.d.r.r.r.7.3.,.>.>.>.>.>.>.>.>.>.,.,.3.3.3.5.5.6.6.6.4.6.6.6.6.6.6.6.e.6.6.6.6.6.6.5.5.3.&.p 8 7 = = = = = = * * = = * = = * * * * * = = = = = % % X X X + % < & S c.3X2X2X2X2Xv.K / $X2X6X4X4Xn.-                                         .                                                                                                 O o 7 t i :.:.:.:.i i p i i i i i i i i i i i i i i i i i i i i i i i i p l p i i p p 7 .   @ ..8X8X8X8X9X8X8X8X8X8X@X..c , % % : T K.=X>X8X8X8X0X8X8X0X5X' O     O q p @.&.:.:.:.&.@.@.@.@.:.:.&.&.&.@.&.@.@.@.@.@.i i @.@.@.@.i i i i i i :.:.:.i i p :.p p :.i 7 O                   .     <.rXaXsXsXsXsXsXsXsXhXvX4X1XsXCXZXvXvXvXZXHXGXKXKXKXKXKXKXKXKXKXGXGXGXKXKXZXc.S 2XGXSXSXSXDXAX ./ 4XcX3Xb.n.c.z.q.) Y _ z.z.z.z.z.z.q.) Y d / vXGXGXGXbX4X5X5XcXHXGXGXFXDXFXFXFXFXFXFXFXFXDXSXZXvXcXhXcXvXvXvXhXhXhXhXhXhXcXZXSXFXFXFXFXFXDXFXDXDXDXFXDXDXDXSXMXbX0XcXcXnX*XK 2XnX6X*X*X6XcXNXSXDXFXFXDXFXDXDXDXDXDXDXDXDXDXDXDXDXDXSXBXBXmXBXmXmXBXmXk.K *XBXBXNXBXNXNXNXBXBXNXSXBX*X` #X6X6X6X2X2X2X2X$X#Xb.v.b.v.k.k.o.P P P P P P P P P P P P P P P P P g.g.g.P P P I P L P I P P L L I I P P P g.g.U.}.}.}.}.}.}.|.g.",
"+.+.@.%.&.=.3.5.4.4.4.5.5.5.5.5.4.4.4.t.t.t.4.4.4.t.4.5.,.+.w w q q 7 s 1 s 0 q q y q 6 s 1 5 q y y y w y u y y y t @.>.5.7.r.r.r.r.u.u.y.y.u.u.u.u.u.u.u.u.u.r.r.6.7.3.,.>.>.>.>.>.>.>.>.>.,.<.3.3.3.5.5.5.6.6.4.4.6.6.6.6.6.6.6.6.6.6.6.6.5.5.5.3.,.&.N p 8 = = = = = = = * * * = * * * * * % = = = * % % % % % % + + % % f ` $X2X2X2X2Xv.K / $X2X6X6X2X_ X                 . . . O o o o o o 7 7 7 = = = = = o o O                 .                                                   . O o 5 7 t i :.:.:.:.i i i i i i :.:.i i i i i i i i i i i i i i i i i i i i i i i i p l i i N N p o   . w.8X0X8X8X9X8X8X9X8X=X[ $ .             . @ R =X8X8X9X9X9X0X8XK.<       o t @.:.:.:.:.:.@.@.@.:.:.:.&.&.@.@.&.&.@.@.@.@.@.@.@.@.@.@.i i i i i i i p i :.:.:.i :.:.7 .                         O u.fXdXsXsXsXsXsXsXvXvXvXvX4X@XhXZXZXvXvXvXZXFXGXKXKXKXKXKXKXKXKXKXGXGXGXKXKXvX .S 6XFXSXSXSXSXHXj.^ 3XhX3Xb.n.c.z.q.( Y _ z.z.z.z.n.q.q.) Y f | bXZX4Xo.V V J V V o.5XZXGXGXFXDXDXFXFXFXFXFXFXHXZXvXcXhXhXvXvXcXhXhXhXhXhXhXcXMXHXFXGXGXGXGXFXFXFXDXDXDXDXDXSXMXbX0X0X0XcXcXv.K 2XnX6X*X*X6XcXNXSXDXDXDXDXDXDXDXDXDXDXDXDXDXDXDXDXDXDXSXBXNXBXBXmXBXBX0XI K 7XBXBXNXBXNXNXNXNXBXBXSXNXl.` $X6X6X6X2X2X2X3X$Xv.v.v.v.v.k.j.o.P } P P P P P P P P P P P P P P P g.g.g.P P P P P P P P P P P P P P P P P g.g.}.}.}.}.}.}.}.|.g.",
"+.+.&.&.&.=.3.3.4.4.4.5.5.5.5.5.4.4.4.t.t.t.4.4.4.t.4.5.*.u w q w q 7 s 1 s 5 q t y q 5 s s 7 q y y y w y u y y t @.>.5.7.6.r.r.r.d.u.u.u.y.u.u.u.u.u.u.u.u.u.r.r.6.5.<.>.>.>.>.>.>.>.>.>.<.<.3.3.5.5.5.5.5.5.6.4.4.4.6.6.6.6.6.e.6.6.6.6.4.5.5.3.3.,.,.,.&.p 8 = = = # = = = = * * * * * * * * * % = * * % % = % % % % % % < Y @X2X2X2X2Xv.K / $X4X6X4X3XQ .           . . X o 7 7 a t p p p p t t t a 8 9 9 9 l p 7 o                                               . O O o o 7 7 t i :.:.:.:.:.:.:.E i i l i i i i :.:.i i i :.:.:.:.:.:.i i i i i i i i p p i i i i i i i i p i i p N N 7     T 8XqX8X8X8X9X9X0X8X..: .                     . v @X8X8X8X9X9X8X:XR .     . t @.:.:.:.:.:.@.@.@.@.:.:.&.@.@.@.N N i @.@.@.@.@.:.@.:.@.i i i i :.:.:.:.:.:.:.i i 5 .                           = ,XfXsXsXsXsXsXsXsXvXCXCXCXvX4X3XcXMXZXvXvXvXZXFXGXKXKXKXKXKXKXKXKXKXKXKXKXKXKXhX/ / cXFXSXSXSXSXSXc.S 3XhX3Xb.c.c.z.q.^ ^ q.z.z.z.z.n.q.q.) Y Y X.@Xo.J D H O.O.{ O.J F @XbXGXGXGXFXDXFXFXFXFXFXHXZXvXcXhXhXvXvXvXhXhXhXhXhXhXvXMXSXSXSXSXSXBXSXDXDXDXFXDXDXBXnX0X6X0X0X0XnXcXk.K 2XnX6X*X*X6XcXMXSXDXDXDXDXDXDXDXDXDXDXDXDXDXDXDXDXDXSXBXBXNXBXBXmXBXBX6XK K 6XBXBXBXNXNXBXNXNXBXBXSXnXj.` $X6X6X6X2X2X2X3X$Xv.v.v.v.v.k.} o.P } P P P P P P P P P P P P P P P P P P P P P P P P P P P P P P P P P P P g.g.I.}.}.}.}.}.}.}.g.",
"+.@.@.&.&.*.3.3.4.4.5.5.4.4.4.4.4.4.4.t.t.4.4.4.4.t.4.3.&.w w q q q 6 5 1 s 7 q q q 0 5 s 5 0 q y y y y y u y y u :.3.7.7.6.r.r.r.d.u.u.u.u.u.u.u.u.u.u.u.u.d.u.r.7.5.<.>.>.>.>.>.>.>.>.,.3.3.3.5.5.5.5.5.5.5.5.5.5.5.5.6.6.6.6.6.6.6.6.6.5.5.3.,.,.,.,.,.,.&.N 8 8 7 = = = = # * * = = * * * * = = * * = % % = % % % % % + % S v.2X2X2X2Xv.S / $X4X4X4X3Xg .           O # 7 a a a p p p p p p p p p p p p p 9 7 5 o .                           . . . o = 7 7 t t p :.:.<.<.<.:.:.:.:.:.:.:.:.E E E E E E i i :.:.i i i i i :.i i i i i i i i i i i i i i i i i i i i i i i i l p E p N p o   X 5XqX9X8X8X8X9X8X>X| X       .                   . B =X8X8X8X8X8X8X..@       7 :.:.:.:.&.&.@.@.@.@.@.@.@.@.@.i i i i @.@.@.@.@.:.:.i i i i :.:.i :.:.:.:.t 7 o                       .     O p yXaXsXsXsXsXsXsXCXCXCXZXCXZXvX4X3XvXZXMXvXvXMXZXGXGXKXKXKXKXKXKXKXKXKXKXKXKXKXKX4XG o.MXSXSXSXSXSXSXc.S $XhX3Xn.n.c.z.q.Y ( q.z.z.q.z.n.q.9.( Y Y  .| H H ' ' O.O.O.O.O.H J X.cXDXGXGXDXFXFXDXFXDXDXZXvXvXhXhXvXvXvXcXhXhXhXhXhXcXcXcXcX0X0X6X4X7X0X0XmXmXBXmX0X7X7X7X0X0X0XnX0Xj.K 2XnX6X#X*X6XnXNXSXDXDXDXDXDXDXDXDXDXDXDXDXDXDXDXDXDXSXBXBXBXBXNXmXNXBX6XI K 6XBXBXNXNXBXNXBXNXNXBXSXnXh.h.2X6X6X6X2X2X2X3X$Xv.v.v.v.v.k.} o.} } P P P P P P P P P P I P P P P P P P P P P } g.g.g.g.g.g.P P P P P P P g.g.g.U.U.}.}.I.g.}.g.",
"+.@.&.&.%.*.3.3.5.5.5.5.4.4.4.4.4.4.t.t.t.t.4.4.4.4.4.,.+.w r q w q 6 5 1 s 7 q q q 0 5 s 5 0 t y y y y y u y y @.>.5.6.6.6.r.r.d.r.u.u.u.u.u.u.u.u.u.u.u.u.d.u.r.7.3.<.>.>.>.>.>.>.>.>.<.3.5.5.7.5.5.5.5.5.5.5.5.5.5.5.6.6.6.6.6.6.6.6.5.5.3.3.=.,.,.=.=.,.,.>.N p 8 7 7 = = # = = = = = = = = * * * % = = * = % % % % % % % S v.2X2X2X2Xv.S / $X4X4X4X$Xd .         . o 7 8 7 9 9 9 9 9 9 9 9 9 p p p i p 7 7 O .             O O O o 5 7 7 u p i :.>.>.<.<.>.:.:.:.:.i i i i i i i i i i i i i i i i i i i i i i i i :.:.i i :.i i i l E E i i i i i i i l l l l i i i i i i :.p E i N r     T bX0X9X9X8X8X8X8XH.$     .                     .   $ H.8X8X8X8X8X8X@X%       = &.:.:.:.&.@.@.&.@.@.@.@.@.@.@.@.i i i @.@.@.@.@.i i i @.i :.:.>.>.i 7 o .                                 8 s.pXpXsXsXsXsXsXvXCXCXAXAXAXAXAXvX3X2XMXMXMXMXMXvXAXGXGXKXKXKXKXKXKXKXKXKXKXKXKXGXGX5XS  .ZXSXSXSXSXSXFX$X^ b.4X3Xc.c.c.z.q.Y ( q.z.q.q.z.z.q._ ( Y ) q.| { { ' ' ' O.' O.O.' F H X.bXDXGXDXFXFXDXFXDXHXZXvXvXhXhXvXvXvXcXhXhXhXhXhX4X4X:X=X+X+X+X|.|.|.+X-X>X0X4X>X>X7X7X0X0X0XnX6Xj.K 2XnX6X#X2X6XcXMXBXBXBXmXmXmXmXmXBXBXSXDXDXDXDXDXDXDXSXBXBXBXmXBXNXmXBXqXk.L 7XBXBXNXNXSXNXBXNXNXBXSXcX` h.2X6X6X6X2X2X2X2X$Xv.v.v.v.v.j.} o.} } } P P P P P P P P P I I I I P P P P P P P g.P P g.g.g.g.g.g.P P P P P g.g.g.}.I.}.g.g.g.}.P ",
"%.%.&.&.&.*.=.3.5.5.5.5.4.4.4.4.4.4.4.4.t.4.4.4.t.t.5.*.+.w r q w q q 7 1 o 5 0 q q 0 5 s 7 q q y y y u y y y u >.3.7.6.7.r.r.d.u.u.u.u.u.u.y.y.y.u.u.u.u.u.r.r.6.7.3.>.>.>.>.>.&.>.>.,.3.5.5.5.7.5.5.4.5.5.7.5.5.4.4.4.6.6.6.6.7.7.7.4.5.5.3.3.,.,.=.=.=.=.,.,.>.&.N p 8 7 = # # = * * * = = = * * = = = = = = % = % % * @ < Y @X2X2X2X2Xj.f ` $X4X4X2Xn.>           . # 7 7 t 8 8 t t t 8 7 7 7 # o o o O .             5 7 E :.:.:.:.:.:.:.:.:.:.i i i i i i i i i i i i i i i i i i i i i i i i i i i i i i @.@.i i i i :.:.i i i i i i i i l l l i i i i i i i i i i i i i p p E p E o   . =XqX8X9X8X9X9X8X=Xv                                 O ' :X8X8X8X8X8X=Xv .     # &.:.:.i &.&.N :.@.@.@.@.@.&.@.@.:.:.@.@.@.i i @.:.:.:.:.:.:.p t o .                                 O 9 i.yXsXsXsXsXsXsXhXCXCXAXAXHXHXAXAXZXvX3X4XMXZXvXMXvXZXHXGXKXKXKXKXKXKXKXGXKXKXKXKXKXKXFX@Xf j.AXSXSXSXSXSXFX3X/ c.2X$Xc.c.c.z._ Y ) q.z.z.z.z.z.q._ Q Y /  ...{ ' ' { ' ' ' ' ' ' O.H D @XbXGXFXGXGXDXDXDXDXSXMXcXcXcXvXvXvXcXhXhXhX4X4X=X+X+X+X+X+X|.|.|.|.XX-X>X>X>X>X>X>X7X0X0X0XmX7Xh.K 6XnX6X#X2X6XcXnXmXqX0X7X7X7X7X9X9X0XmXBXDXDXDXDXDXSXBXBXBXBXBXmXNXmXNXBX>XL *XSXBXNXNXNXNXNXNXBXBXDX6XK v.2X6X6X2X2X6X2X3X$Xb.v.v.v.c.j.} o.} P } P P P P P P P L L L L L I P P P P P P P g.g.g.} g.g.g.g.g.g.P P P P P g.g.g.}.g.g.g.g.k.P ",
"%.%.%.&.&.&.=.3.5.5.5.5.5.4.4.4.4.4.4.4.4.4.4.4.t.4.3.*.u w r q w q q 7 s o s 6 q q 0 s s 7 q t y y y u y y u &.<.5.7.6.6.r.r.d.u.u.u.u.u.u.u.d.u.u.u.u.u.u.r.r.7.5.3.>.>.>.>.>.>.>.>.,.3.5.5.5.7.5.5.4.5.5.7.5.4.4.6.6.6.6.6.4.7.4.4.4.4.5.3.3.,.,.,.=.=.=.,.,.,.=.=.&.N p 8 7 * = # = = = = = = * * * = = = = * = % % % % f  .$X2X2X2X2X .f  .3X4X2X3Xn.z .           o 7 7 7 8 8 8 8 7 = o O .                       o :.:.i l l :.:.:.:.i @.:.i i i i i i i i i i i i i i i i i i i i i i i i i i i i i i i @.@.&.i i i i :.i i i i i i i i l l l i i i i i i i i i i i i i l p i p p o   % 4X0X9X8X8X8X8X8XJ.$                                   D :X8X8X8X8X8X:XU       o p &.:.:.:.:.N N :.:.@.i i @.@.:.:.@.i i i :.:.:.:.i t t 7 o .                                   7 2.<XyXpXpXpXsXsXsXsXvXCXCXAXPXKXHXHXHXAXZXcX3XhXZXZXMXZXvXZXHXGXKXKXKXKXKXKXKXKXGXKXKXKXKXKXHX@Xf c.SXSXSXSXSXSXFX4X/ j.3Xb.c.c.c.z._ Y ) q.z.z.z.q.q.q._ Q Y /  ...{ ' ' { ' ' ' ' ' ' ' H G ' 5XZXGXFXDXDXFXGXFXSXMXcXcXhXcXvXvXvXhXhX4X4X5X+X+X+X+X+X+X+X-X-X-X-X-X>X>X>X>X>X>X>X7X0X0XmX7X` ` 6XnX6Xv.*X6X0XqXqX0X7X7X>X>X>X>X7X9X0XmXBXDXDXDXSXSXBXBXBXBXmXmXNXmXNXBX6Xk.#XBXBXNXNXNXNXNXNXBXBXSX2X` #X6X6X6X2X2X2X2X$X$Xv.v.v.v.c.j.} o.} } } P P P P P P L L L L L L L P P P P P P g.g.P P } } g.g.g.g.g.P P P P P g.g.g.g.g.P P g.k.P ",
"+.+.%.&.%.&.*.,.3.5.5.5.5.4.4.4.4.4.4.4.4.4.4.4.t.4.,.@.w r r q q q q 0 s 1 1 5 0 0 7 5 s 0 t y y y u y y t @.,.5.7.6.r.r.r.r.d.u.u.u.u.u.u.u.u.u.u.u.u.u.u.r.r.4.5.<.>.>.>.>.>.>.>.>.,.3.5.5.5.5.5.5.5.5.5.5.5.4.7.6.6.6.6.6.4.4.7.5.4.4.5.3.,.,.,.=.=.=.=.,.,.=.,.,.,.&.N p 8 8 7 = = = = = = * * * * * = * * * = = % < , / b.3X2X2X2X2X .S j.3X2X3X$Xn.U X           O 7 8 8 7 7 7 s o .                             o :.:.E i i i i i i i i i i i i i i i i i i i i i i i i i i i i i i i i E l i i @.@.i i @.l i i l i i i i i i i i i i i E E i i i i i i i i i i i i i i l p i l p O   U 0X0X8X8X8X8X8X8X..X                                   D :X8X8X8X8X9X8XT .     o i :.:.i i i i &.i @.@.:.:.:.&.@.:.:.>.<.>.@.t q o o .                                         O w.1XyX1X5XpXsXsXsXsXvXCXAXHXLXLXKXKXGXHXHXZXhX3XhXZXZXMXMXvXZXHXGXGXKXKXKXKXKXKXKXKXKXKXKXKXKXHXc.f @XSXSXSXSXSXSXFXhX` _ b.b.c.n.n.z._ Y ) q.z.z.z.q.q.q._ Y Y /  ...{ { ' ' ' ' ' ' ' ' ' ' R D X.0XFXGXFXFXDXFXFXSXMXvXhXhXcXvXvXcXhX4X4X:X+X+X+X+X-X-X-X-X-X-X-X-X>X;X>X>X>X>X>X7X0X0XcXmX4X` ` 6XnX2Xk.*X6X0X0X0X0X7X>X>X>X;X>X;X;X7X0XmXDXDXDXSXBXBXBXBXmXmXNXmXmXmXBXqXk.k.NXBXNXNXNXNXNXNXBXSXBX#X` $X6X6X2X2X2X2X2X$Xb.v.v.v.v.k.j.} o.} } } } P P P P L L L L L L L I I P P P P P P P P P g.} } g.g.g.g.P P P L P P g.k.k.} P P P } L ",
"+.+.+.%.%.&.*.=.3.5.5.5.5.5.4.5.4.4.4.4.4.4.4.4.t.5.*.+.w r r q w q q 0 s 1 1 3 0 0 7 5 5 0 t y y y y y t @.>.3.7.7.r.r.r.d.u.d.u.u.u.u.u.u.u.u.u.u.u.u.u.u.r.6.5.3.>.>.>.>.>.>.>.>.>.>.,.3.5.5.5.5.5.5.5.5.5.5.4.7.6.r.r.r.6.4.5.5.5.5.4.5.3.,.,.,.=.=.=.=.,.,.=.=.=.=.=.N N N p 8 8 7 = = = = = = * * * = * * = = = ; , U q.3X2X2X2X2X3X` S c.3X2X3X@Xn.Q =           . = 8 8 7 s O .                               . t :.p p l l i i :.:.@.i @.i i i i i i i i i i i i i i i i i i i i i i i i i i i @.@.i i l l i i i i i i i i i i i i i i E &.@.@.i i i i i i i i i i i i i p i :.9 .   ] 0X8X8X8X8X8X8X8X..O                                 . [ >X8X9X8X8X8X8XR .     o u N :.:.:.:.:.:.:.:.:.:.:.:.>.<.>.@.t 7 o O                               . o o o O           = w.1X1X1X5XsXsXsXvXvXCXAXHXKXLXLXKXGXHXHXAXZXhX3XcXZXMXMXMXvXZXGXKXKXKXKXKXKXKXKXKXKXKXKXKXKXKXHX .f *XFXSXSXSXSXSXFXMX .^ n.n.c.n.n.z._ Y ) q.z.z.z.q.q.q._ Y Y )  ...{ { ' ' ' ' ' ' ' ' ' ' ' H ' @XbXBXDXFXFXGXGXFXZXvXhXhXcXvXcXcX6X4X:X+X+X+X+X-X:X-X-X-X-X-X-X>X;X;X>X>X>X>X>X7X0X0XnXmX2XK ` 6XnX*Xk.*X6X0X0X0X7X7X>X7X7X;X7X;X;X;X9XqXBXDXDXBXBXBXBXmXmXmXNXmXmXmXBXmXl.k.nXBXNXNXNXNXNXNXNXSXNXk.` 2X6X2X2X2X2X2X2X$Xv.v.v.v.v.k.} } o.} } } } P P L L L L L L L L P P I P P P P P P P P g.g.g.} g.g.g.g.P P I L L L P } } P P P L P L ",
"+.+.+.%.%.%.&.*.3.3.5.5.5.5.5.5.4.4.4.4.4.t.t.4.t.3.*.+.w r r q w y q 6 3 1 1 3 7 7 7 5 7 q y y y y y y u :.3.5.7.6.r.r.r.u.u.d.u.u.u.u.u.u.u.u.u.u.u.d.d.r.r.7.5.3.>.>.>.>.>.>.>.>.>.>.<.3.3.5.3.5.3.5.5.5.4.4.4.7.6.6.r.r.6.4.5.5.5.5.5.5.3.,.,.=.=.=.=.=.,.,.=.,.=.=.=.&.N N N N t 8 = = = = = = = = * = * * * = = : , Y c.3X2X2X4X4X$X/ K c.3X3X$Xn.q.Q - .           O o o o .                                 O 5 :.:.i :.i i i i :.i i i i i i i i @.@.@.i i i i i i i i i i i i i i i i i i i i l l l l l l l l i i i i i i i i i i i i i i @.@.i @.i i i i l l i i i i i i i @.8     0.qX8X9X8X8X8X8X8X..X                                 $ K.8X8X8X8X8X8X:XT       s :.:.:.N N i i &.i :.<.<.:.i q 7 O O                             o o 7 7 7 t p i p 8           9 w.1X5X5X5XsXsXCXCXZXHXKXKXKXKXKXGXHXHXHXZXZX4X3XvXMXvXMXMXvXZXGXKXKXKXKXKXKXKXKXKXKXKXKXKXGXKXZX .S 2XSXSXSXSXSXSXFXZXc.^ c.n.c.n.n.z._ Y ) q.z.z.z.q.q.q._ R Y / q. .{ ' ' ' ' ' ' ' ' ' ' R D D D ' X.@X:X4XbXZXSXFXHXvXhXhXhXvXcXcX4X5X+X+X+X+X=X:X-X-X-X-X>X>X>X;X;X;X;X>X>X>X>X7X0X0XmXnX*XK ` 6XnX2Xk.*X6X0X0X0X7X7X7X7X7X;X;X;X;X;X>X0XmXBXBXBXBXBXBXmXmXNXmXmXmXNXBXBX*XL 6XSXNXNXNXNXNXNXNXSXnXj.j.2X6X2X2X2X2X2X2X$Xv.v.v.v.v.k.j.} o.} } } } P L L L L L L L L L P P I I P P P P P P g.g.g.g.} } } } g.g.P L O.O.L L L L L L L L L K ",
"%.+.+.&.&.%.&.*.,.3.5.5.4.4.4.5.4.4.4.4.4.4.4.4.4.3.&.+.w w r q w y q 6 5 1 1 s 7 7 5 7 0 q y t y y y t @.<.5.7.6.r.r.r.d.u.u.u.d.d.u.u.u.u.u.u.u.u.u.d.d.r.6.7.3.<.>.>.>.>.>.=.>.>.>.>.<.3.3.3.3.3.5.5.5.5.4.4.4.7.6.6.6.6.6.4.4.5.5.5.5.5.3.,.,.=.=.=.=.=.,.,.=.=.,.,.=.&.N N N N p 8 8 = = 8 = = = = = = = * = = = = ; T c.3X2X2X2X2X$X/ / v.3X3X@Xn.q.) h +             .                       . O o 7 7 t p :.<.:.:.i p :.i i i i i i i i i i i i i @.@.@.i i i i i i i i i i i @.l i i i i i i i l l l l l l l l i i i @.i i i i i i i i i i @.@.@.i i i i i i i i i i i i l i E 7     U 0X0X8X8X8X8X8X8X+X%     .                           b =X8X8X8X8X0X0X5X>       o i :.:.:.:.:.:.<.:.i 7 s O .                             . o = 7 t p i E E E E E :.E .       . W w.1X5X4XsXIXvXCXHXHXKXKXKXKXKXKXGXFXHXHXZXZX4X3XvXMXvXMXMXvXHXGXKXKXKXKXKXKXKXKXGXKXGXGXGXGXKXMX{ S 4XSXSXSXSXSXSXSXHX$X^ z.c.c.n.n.z._ j ) q.z.z.n.w.w.q._ Q Y )  .| { ' ' ' ' ' ' H H D D D D D D D A D A H ..@X5XcXbXvXvXcXhXcXvXcX4X5X+X+X+X=X:X:X:X-X-X;X>X>X>X>X;X;X>X>X>X>X>X7X0X0XmXnX*XK ` 6XNX2Xk.*X6X0X0X0X7X7X7X7X7X7X9X;X;X;X;X9XqXmXBXBXBXmXmXmXmXBXmXmXmXNXBXBX*XK 7XSXNXNXNXNXNXNXNXSXnXh.k.2X6X2X2X2X2X2X2X$Xv.v.v.v.v.k. .} o.} } } P L L L L L L L L L P P I I I P P P P P P P P g.g.} } } } P P L L J J J J J O.J J J J K J ",
"&.%.%.&.%.%.%.&.*.,.3.5.5.4.4.5.4.4.4.4.4.4.4.4.3.=.+.u w w e q q q q 0 5 1 1 1 5 5 5 7 0 t y t t y y @.>.3.7.6.r.r.r.r.d.u.u.d.r.d.d.u.d.u.u.u.u.u.u.d.d.r.7.5.3.<.>.>.,.,.>.>.>.>.>.<.3.3.3.3.5.5.5.5.5.4.4.4.4.4.6.4.6.6.7.4.4.4.4.4.5.5.3.,.=.=.=.=.=.=.,.,.=.=.,.,.=.&.N u p p p p 8 8 8 8 7 7 = = = = = = = * * = < U q.1X3X2X2X3Xc./ ` b.3X$Xn.z.q.9.! a .                         O 5 7 p p i :.:.<.<.<.:.:.i p p :.l i i i i i i i i i l i i i i :.@.@.i i i i i :.:.:.i i i i i i i E i @.i i @.l @.@.&.@.N N i i i i i :.i i i i @.@.i i l l i i i i @.i i i E i i i p l i E 8     O =X0X8X8X8X8X8X8X:XO.X                             $ ..8X0X8X8X8X0X8XX.#       o i :.:.p t 7 s o                                 . O o 7 t p i E i E E E E :.:.:.:.t .       = 0.@X1X5X4XsXvXZXHXGXKXKXKXKXKXKXKXGXFXHXZXZXvX3X2XvXMXvXvXMXvXHXGXGXKXKXKXKXKXKXKXGXKXGXGXGXGXKXbX/ K hXSXSXSXSXSXSXSXHX3X^ _ c.c.n.n.z.) d ^ q.z.z.n.q.q.q.9.Q Y ) q...| ' ' ' ' R H D D D D D A A D D A A v v A D ' K.5X4XcXcXcXcXvXhX4X=X+X+X+X+X:X:X:X>X>X>X;X>X;X;X;X;X>X;X;X>X>X7X9X0XqXmX*XK ` hXBX6Xk.2X6X0X0X0X7X9X7X7X7X7X7X9X;X;X;X7X9XqXqXqXqXmXmXmXmXmXmXBXmXBXBXBX*XK 2XSXNXNXNXNXNXNXNXSX6Xh.v.6X6X2X2X2X2X2X2X$Xv.v.v.v.c.j. .} } } P P L L L L L L L L L L L P P I I I I P P P P P } g.g.g.P } } P P L J J F F J J F J F F F F J ",
"&.&.&.&.%.%.%.&.&.=.3.5.4.4.4.4.4.4.4.4.4.5.5.5.3.=.+.e w w e q q q q q 6 1 1 1 5 5 5 7 q y y t t y @.f.>.3.7.7.r.d.r.d.d.d.u.d.r.r.d.d.d.d.u.u.u.u.u.d.d.r.4.3.<.<.,.,.,.,.>.=.>.>.>.<.3.3.3.3.5.5.5.5.7.4.4.4.4.4.4.4.4.7.7.4.4.4.6.6.5.5.,.,.=.=.=.=.=.=.,.,.,.,.,.,.=.=.&.N u p p p 9 8 8 8 7 7 8 = = = = = * * = % % ; Q n.3X3X3X3Xc./ _ $X3X$Xn.q.q.q.9.W o                     o t :.<.:.:.:.l i i i i p p i p E p i i i i i i i i i i i l l l i i i @.i i i i i :.:.:.:.:.:.:.:.:.:.:.:.i @.@.i @.@.@.@.&.:.@.@.i i i i i i i i i :.:.:.i l E :.i i i i @.@.i i E i i i l l i p 8 . .   v 8X0X8X8X8X8X8X8X@Xm O                         . T :X8X8X0X8X9X8X=Xc         = 7 5 O                                   O o 5 7 t t i i i i i i i E E E :.:.:.:.i s       . W i.@X5X5X4XcXvXHXGXKXKXKXKXKXKXKXKXGXHXAXZXZXcX@X4XvXMXvXMXvXvXHXGXGXGXKXKXKXKXKXGXGXGXFXFXFXGXGX4XG / cXFXSXSXAXSXSXFXFX2X^ _ z.c.n.n.z.) g ^ q.z.z.z.q.q.q.9.Q Y ) q...| { ' R R R H D D D A A v A v v A A A D D D D D | @X4XsXcXvXvX4X5X@X+X+X+X:X:X:X:X>X>X;X-X>X;X;X;X;X;X;X;X;X;X7X9X0XqXqX*XK j.nXBX7Xk.2X6X0X0X0X9X9X7X7X7X;X9X7X;X;X;X;X>X0X0X0XqXqXmXmXmXmXmXBXmXBXBXBX>XK *XBXNXNXNXNXNXNXNXSX6X` #X6X2X2X2X2X2X2X2X$Xb.v.v.v.c.j. .} } } P P L L L L O.L L L L L L L P I I I I P P P P P P P P P P } } P P L J J F H F F H H H F F H F ",
"%.*.*.&.&.%.%.%.&.*.=.3.5.4.5.5.5.5.5.5.5.3.3.3.*.@.+.e w w w e w q q q 6 3 1 1 3 5 7 0 q t t y t f.>.<.3.5.7.6.r.r.r.u.u.u.u.d.u.d.d.d.u.u.u.u.u.u.u.u.r.6.5.3.,.,.,.,.,.>.>.>.>.,.<.3.3.5.5.5.5.5.5.5.7.7.7.7.4.4.4.4.4.6.4.4.6.6.6.6.5.5.3.,.=.=.,.=.=.=.=.=.=.,.,.,.,.=.&.N p r p p p 8 8 8 8 8 8 8 = = = = = = = = * % , q.1X3X3X1Xq.) q.n.1Xn.n.q.9.9.9.9.7                   o :.:.i :.:.i i i i i i i l i i i i i i i i i i i i i i i i i i i i i i i l :.:.:.:.:.:.:.:.:.:.l l l i @.@.i i @.@.@.@.@.@.:.:.:.:.i i i i i i i i :.:.:.:.:.:.:.:.i i i i i i i i i i i i i E i i p o       w.0X9X8X8X8X0X8X8XK.v X                     O B =X8X8X8X8X0X0X4XT .         .                                 O o 7 t p p i N i i i i i E E E l E E E :.:.i t #   .     , w.@X1X5X5X4XcXMXSXFXGXKXKXKXKXKXGXGXFXHXAXZXZXhX@X4XMXMXMXvXvXMXHXGXGXKXKXKXKXGXGXGXGXMXbX4X0XSXGX5XS / nXDXNXSXSXAXSXSXGXhX^ ^ z.c.c.n.z.( d ( q.z.z.z.q.w.q.9.( Y )  . .| ' ' R R D D D A A A v v v v v A A A D D D D R D { @X4XcXcXcX4X=X+X+X=X+X=X:X:X:X>X>X-X;X;X>X>X;X;X;X>X;X;X;X7X9X0XqXmX#XJ k.nXSX2Xk.2X6X0X0X7X7X7X7X7X7X9X9X7X;X;X;X;X;X9X9X9X0XqXmXmXmXmXmXmXBXmXBXBX>XK  XBXNXNXNXmXNXNXBXSX2X` $X2X2X2X2X2X2X2X2X$Xv.v.v.c.c.k.} } } o.o.L L L L L O.L L L L P P P P L L L L P P P P P P P P P P P P } L H J F F F F G H F G F G H S ",
"+.%.*.&.&.%.+.+.%.&.*.,.3.3.3.3.5.3.3.3.3.3.,.,.*.+.+.e w w w q w q r q 6 3 1 1 s 5 7 0 q q y u :.>.3.3.3.5.7.r.r.r.u.u.u.u.r.d.r.r.u.u.u.u.u.u.u.u.d.r.r.7.5.<.,.,.,.,.,.>.>.>.>.,.3.3.5.5.5.5.5.5.5.4.5.7.4.7.4.4.4.4.4.4.4.4.6.6.6.6.5.5.,.,.=.=.=.=.=.=.=.=.=.,.,.,.,.=.&.N p t r p p 9 9 8 8 8 8 = = = = = = = = # # % ; ! 1X1X3X1X9.Q 9.w.w.w.9.Q W l l 9 o                   7 :.:.i i p i i i i i i i l i i i i i i i i i i i i i i i i i i i i E E N l :.:.:.:.:.:.:.:.:.@.l l i i @.@.i i i l @.@.i @.i i @.@.i i :.:.i i i i i :.:.:.i i i i i i i i i i i i i i i i i E i i p 7 .     O K.JX9X8X8X8X8X8X8X=X[ : X .         . @ n w.=X8X0X0X0X0X0X:X' @                                     . o 7 8 t p i N N N E E E E E i i i E E i :.:.N i p 7 o         - 0.w.@X@X5X4X4XcXMXSXFXFXGXGXGXKXGXGXFXHXSXZXZXZXhX@X6XvXvXMXvXvXMXHXGXKXGXKXKXKXKXGXZX6X=X|.k.:XSXFX@XS / MXDXSXSXSXAXBXSXFXhX` ^ z.c.c.n.z.( d ( q.z.z.z.q.q.q.q.( Y )  . .| ' ' R T D D A A v v v v v v v A A A D D R H H D G | @XsXcXcX4X@X@X+X+X+X:X:X:X-X>X>X>X>X-X-X-X;X;X;X;X;X;X7X9X9X0XqXmX|.J  XnXNX*Xk.2X6X0X0X7X7X7X7X7X9X9X9X7X;X;X;X;X;X9X9X9X0XqXmXmXmXmXmXmXmXmXBXBX>XK  XBXBXNXNXNXNXNXBXSX*X` $X2X2X2X2X2X2X2X2X$Xb.v.v.c.c.k.} } } o.o.L L L L L O.L L L L L o.P P L L L L P P P P P } P P P P } } o.L J J F F F F G H G H F G R S ",
"+.%.*.&.%.%.%.%.+.%.&.*.,.3.3.3.3.3.3.,.,.=.*.*.@.+.$.w w w w q w q e q 0 5 1 1 s 5 7 0 q t @.>.3.5.7.5.3.5.6.r.r.u.u.u.u.d.r.r.r.d.u.u.u.u.u.u.r.r.r.r.7.7.3.,.3.,.>.,.,.>.>.>.,.,.3.5.5.5.4.5.5.5.5.4.4.4.4.4.4.4.6.7.4.4.4.4.6.6.e.6.4.5.,.,.,.,.=.=.=.=.,.,.=.,.,.,.,.,.=.&.p r t p p p p 9 8 8 8 8 8 = = = = = = = = = = h 9.w.w.Q - + + + O O .                               p :.i i i :.i i i i i i i l i i i i i i i i i i i i i i i i i i i i l l i @.:.:.:.:.l E :.:.@.@.@.@.i i i @.i E E E E E i i i i i i i :.:.:.@.i i i i i i i i i i i i i i i i i i i i i i i i i i i i t o       @ @X0X8X9X8X0X0X0X8X8X=XX.[ T T T R ..@X:X0X0XqX0X0X0X0X4X| X     . .                       . O = 8 t p i i E E E N i i l E N E N E E E E E :.:.i i 9 = .         = ! w.@X@X=X:X4X4X0XbXMXBXSXDXDXFXFXFXFXHXSXZXZXMXMX6X@XhXvXvXvXMXvXMXHXGXKXGXKXKXGXGXMX4X|.} P } 4XSXFX@XS o.SXSXSXSXAXSXNXSXFXcX_ ^ q.c.n.n.z.( d ( q.z.z.z.q.w.q.q.) Y !  ...| ' R R D A A C v A v v c v v v A A D D R R R ' H G G ..4XcXcX4X@X@X+X+X=X:X:X:X:X>X:X-X>X-X-X-X;X;X;X;X;X7X9X9X9X0XqXqX|.J #XmXmX*Xk.2X6X0X0X7X7X7X7X7X9X9X9X9X;X;X;X;X;X;X;X9X0XqXmXmXmXmXmXmXmXmXBXBX>XK  XBXBXNXNXNXNXNXBXBXk.h.2X2X2X2X2X2X2X2X2X3X$Xv.v.c.k.j.} o.o.o.o.L L L L L O.L L L L L L P P L P L L P P P P o.P P P } } o.o.L O.J J J F F G G H F H G G R S ",
"+.%.*.%.&.%.%.&.%.%.%.&.*.*.=.=.*.*.*.*.*.*.&.&.+.+.u w w w w w e q q q 0 5 1 1 1 3 6 q y @.>.5.7.7.7.5.3.5.6.r.d.d.u.u.u.u.d.d.r.d.u.u.u.u.d.d.r.r.r.r.4.5.<.,.3.,.,.>.,.>.>.>.,.3.5.5.5.5.5.5.5.5.5.5.4.7.4.4.4.4.6.7.4.7.4.7.6.6.e.6.4.5.,.,.,.,.,.=.=.=.,.,.=.,.,.,.,.,.,.&.u t t p r p p 8 8 8 8 8 8 8 8 8 = = 7 # # X O X X X X .                                           O :.i p i i :.i i i i i i i i i i i i i i i i i i i i i i i i i i i i l i i @.:.:.:.:.i E :.:.i i i @.i i i @.l l E E E N i i i i i i i i :.:.@.i i i i i i i i i i i i i i i i i i i i i i i i i i i i i 7 O       X w.8X0X0X0X0XqXJXqX0X8X8X8X8X8X8X0XqXqX0X0X0X0XqX0X=XT X                           O = 7 t p i E E E E E i i N E E E E :.:.E N i N E E E :.E t 7 O           9 0.w.@X@X@X=X:X4X4X0X0XqXmXmXBXBXBXSXSXSXSXSXZXMXMXMX4X$XhXvXvXvXvXvXMXHXGXKXGXKXKXGXMX4X|.} } } k.6XDXDXc.S  .SXSXSXSXAXSXNXSXFXvX .^  .c.c.n.z.( d ( z.z.z.z.q.q.q.q.) Y !  . .| ' R D A A A A v v v v c v v A A D H R ' R ' ' ' H A ' 5XsXcX4X@X@X=X=X:X:X:X:X:X>X:X-X>X-X-X-X;X;X;X7X9X9X9X9X0X0XqX0X*XI *XnXqX*Xk.*X6X0X0X7X7X7X7X7X9X9X9X9X>X;X;X;X;X;X;X9XqXqXmXmXmXmXmXmXmXmXBXSX>XK #XBXBXNXmXNXNXNXSXNXh.j.2X2X2X2X2X2X2X2X2X3X$Xv.v.c.j.j. .o.o.o.L L L L L O.H L L L L L L P P P P L L L P P P o.o.P P P o.o.L L H J F F G F G G G G H G G G S ",
"+.+.*.&.&.&.&.&.&.&.%.%.&.*.*.*.*.&.&.&.&.&.+.+.+.+.u w w w w w r r r q 0 7 s o 1 3 6 y @.>.5.6.7.6.7.5.3.5.6.d.r.d.d.u.u.u.u.u.u.u.u.u.u.u.d.d.r.r.r.7.5.3.,.,.<.,.>.,.,.>.>.>.,.3.5.5.5.5.5.3.5.5.5.5.5.5.5.7.4.4.7.7.4.5.4.6.6.6.e.6.4.3.,.,.,.=.=.=.=.=.=.,.=.,.,.,.,.,.,.=.N t t p p p p t 8 8 8 8 8 7 = = o o O . . .               .                                       . :.p p i p p i i i i i i i i i i i i i i i i i i i i i i i i i i i i i i i @.:.:.:.:.:.:.:.:.i i i i @.@.@.@.l l l E l l i i @.i i i i i i i :.:.i i i i i i i i i i i i i i i i i i i i i i i i i i p i t 5   .       9 K.5X8X0X0XqXqXJXJXqXqXqXqXJXJXJXJXqXJXqX0X>XK.: .               O o o = 7 t p i E :.>.:.E i E E E E E E E E E E E E :.E i i :.:.:.E t 7 o .         O U 0.w.@X@X@X=X:X>X>X9X0X0X0X0XqXqXqXmXmXmXMXBXBXMXMXMXMX4X*XhXvXvXvXvXvXMXSXGXKXGXGXGXSX4X|.}.} } } k.6XDXFXk.F c.FXSXSXSXNXSXAXSXFXMXj.S _ c.c.n.z.( d ( z.z.z.z.q.q.q.q.) Y ! | w.| ' R A A v v A v v c c c v A D D R R ' ' ' ' R H D A D w.sXcX4X@X@X@X@X@X5X5X:X:X:X:X;X-X-X-X;X;X9X9X9X9X9X9X0X0X0X0X0X>X*X7XqXqX*Xk.*X0X0X0X9X7X7X7X7X9X9X9X9X7X;X;X;X;X9X7X9XqXqXqXqXmXmXmXmXmXmXBXSX7XL *XBXBXNXmXNXNXmXSXnXK k.2X2X2X2X2X2X2X2X2X$X$Xv.v.c.j.j. .o.o.L L L L O.O.H H L L L L L L L L P L L L L L L L P P L L L L L L H F F G G G G G S G G G G G G A ",
"+.+.*.&.&.&.&.&.&.&.%.%.%.&.&.&.%.%.%.%.%.%.+.+.u u u w w w w w r r r q q 6 3 o 1 3 0 u >.5.7.r.6.6.7.5.5.4.r.u.r.r.d.u.u.u.u.u.u.u.u.u.u.d.r.r.r.r.6.7.3.<.,.,.<.,.>.>.,.>.>.,.3.5.5.7.5.5.5.3.5.5.5.5.5.5.7.7.4.4.7.7.4.4.4.6.6.6.6.6.5.3.,.,.,.=.=.=.=.=.=.=.,.,.,.,.,.,.,.=.N r r r p p p t p t 8 7 7 o O .                                                                 O o i t p i i i i i i i i i i i i i i i i i i i i i i i i i i i i i i i i i i i :.:.:.:.:.:.:.:.i l i i i @.@.@.l l E E l l @.i :.:.i i i i i i l :.i i i i i i i i i i i i i i i i i i i i i i i i i i p p p t =       . .   , ..=X8XqX0XqXqXJXJXJXJXJXqXqXqX0X0X5XK.v .           . o 7 7 t i i i i i i i E :.i i E :.:.E E E E E E N E E E E E :.:.<.<.E t 7 O             o ! w.w.w.@X@X+X:X>X>X7X9X9X9X9X0X0X0X0X0X0XqXmXmXMXMXMXMXnX2X*XhXbXvXvXvXvXMXFXGXGXGXGXGXMX+X} J.} } } |.0XDXDXk.F @XFXSXSXSXNXBXAXSXSXAXj.S _ c.c.n.z.( d ( z.z.z.z.q.q.q.q.) Y R ) q.| ! T A c c c c c c c c c v A D R R R ' ' ' ' R D R A v R w.w.| D A A v V & A { X.@X:X>X>X>X>X>X9X9X0X0X0X0X0X0X0X0X0XqX0X0X0XqXqX>X|.-X0X0X0X9X9X7X7X9X9X9X9X9X7X;X;X;X;X9X9X9XqXqXqXqXmXmXmXmXmXmXBXBX7XL *XBXNXmXmXBXNXNXSX6XK k.2X2X2X2X2X2X2X2X2X$X$Xv.v.c.j. . .o.o.L L L O.O.O.H H O.L L L L L L L L L L L L L L L L L L L L L L O.H G G G G S G G S G S G G G G A ",
"%.*.*.&.%.&.&.&.&.%.+.%.&.&.%.%.%.%.%.%.%.+.+.+.u u u w w w w w w e e q q 0 5 1 1 5 q &.3.4.6.r.r.7.7.5.5.7.r.d.r.r.u.u.u.u.u.r.u.d.u.u.r.r.r.r.r.r.7.5.3.,.,.,.,.>.>.>.,.,.,.,.3.5.7.4.5.5.5.5.5.5.5.5.5.7.4.4.4.4.4.4.4.4.4.4.6.6.6.6.5.3.,.,.=.=.,.,.,.=.=.=.,.,.,.,.,.,.,.,.N r r r r y p 8 8 8 7 o O                           O o 5 7 7 t p p p t t t t t 7 7 7 7 7 7 7 7 i i :.i i :.i i i i i i i i i i i i i i i i i i i i i i i i i i i i i i i i i i :.:.i @.:.:.:.:.E E l i i i @.:.l i i i @.@.@.@.i i i i i i i i i i i i i i i i i i i i i i i i i i i i i i i i i i i i i i i p t o               @ T K.5X8XJXJXJXJXJXJXJX0X8X=Xw.b O           . o 7 p E :.:.<.E :.:.:.:.:.E E :.:.E i E E W :.E E E E W :.:.:.:.:.:.i t = O               : 0.w.w.@X@X@X+X:X:X>X9X9X9X9X9X9X0X9X9X9X0X0X0XqXmXMXMXMXMXbX*X*XcXbXbXbXbXvXZXFXGXGXGXGXSX4X|.} } } } } +XmXDXSXj.J *XFXSXSXSXNXBXAXSXSXAXc.S _ z.c.n.z.( d ) z.z.z.z.q.q.q.q.) Y Y ) q.| R A c c v c c c c c c c v D R R R ' R R ' R ' R R A , b < < % % % % % % < % X % & G H.:X>X8X0X0X0XqX0X0X0X0XqX0X0XqXqXqXqXqXqX0X7XXX-X7X0X0X9X9X7X7X9X9X9X9X9X7X;X;X;X;X9X9X0XqXmXmXmXmXmXmXmXmXmXNXBX>XP *XBXNXmXmXBXNXNXSX2XK v.2X2X2X2X2X2X2X2X2X$X$Xv.c.j.j. .o.o.L L L L O.O.O.H H O.L L L L L L L L L L L L L L L L L L L L O.H H G G G G S S S S S G S G G S G A ",
"%.*.*.&.%.&.%.&.%.%.%.%.&.&.%.%.&.&.%.%.%.+.+.+.u u u w w w w w w w w q q 0 5 1 1 6 y >.4.6.6.6.r.7.7.7.7.7.r.r.d.d.u.u.u.d.r.r.u.d.u.r.r.r.r.r.r.7.5.3.,.>.,.,.,.>.>.>.,.,.,.3.5.5.7.4.4.4.7.5.5.5.5.5.5.5.4.4.7.4.4.4.4.4.4.4.6.6.6.6.5.,.,.,.=.=.,.,.,.=.=.=.,.,.,.,.,.3.,.,.N u r r r r t r 7 # O               . O o s 7 q p i :.:.:.:.:.E :.:.:.:.>.<.<.>.<.1.1.1.<.<.1.1.:.:.@.i i :.i i i i i i i i i i i i i i i i i i i i i i i i i i i i i i i i i i :.:.i i :.:.:.:.E E i i i i :.:.i i @.@.@.@.@.@.i i i i i i i i i i i i i i i i i i i i i i i i i i i i i i i i i i i i i :.:.i p t o         .       . # U w.@X5X5X5X@XK.] b X               o 0 i <.:.:.:.E E :.:.:.:.:.:.E l :.l i i E E E E :.:.:.:.:.W E N i t 7 o .               = ~ w.w.w.@X@X|.|.+X>X>X0X0X0X9X9X9X9X0X0X9X9X0X0X0XqXmXmXBXBXMXcX*X2XcXbXbXbXbXMXZXFXKXGXGXGXMX+Xk.}.} }.} } +XmXDXSX .V :XFXSXNXNXNXNXNXSXSXSXc.S _ z.c.n.z.( d ) z.z.z.z.q.q.q.q.) Y Y )  .| T A v c v c c c c c c c v D R ' R ' ' H ' R R R D v & , , < % < , , , , < < < < % X & H >X9X0XqXqXqXqX0XqXqXqX0X0XqX0X0XqXqXqXqX0X7X9X0X0X0X9X7X7X7X9X9X9X9X9X7X;X;X;X;X;X9X0XqXmXmXmXmXmXmXmXmXmXNXBX7XP *XBXNXmXmXBXNXBXSX*XK v.2X2X2X2X2X2X2X2X2X$X$Xv.v.j.j. .o.o.L L L L O.O.H H H O.L L L L L L L L L L L L L L L L L L O.H H H F F A A A G A S G G G S G G G G A ",
"%.%.%.%.&.*.&.%.%.%.&.&.%.%.%.%.%.&.&.%.+.+.+.+.+.u e w w w w w w w w w w 0 5 s 3 6 @.3.4.7.r.r.r.r.7.7.4.7.r.r.u.u.u.d.r.r.r.r.r.r.r.r.d.r.r.6.7.5.3.,.,.,.,.,.,.>.>.>.>.>.,.3.5.5.4.6.6.7.4.7.5.5.5.4.4.4.4.4.4.4.4.7.7.4.4.4.6.6.6.5.3.,.,.=.,.,.,.,.,.,.,.,.,.,.,.,.,.,.,.,.%.e r y r p r 5 o             O s 7 t @.l i l :.i i i i i i i i i i i u p p p p i i i i i i i i i i i i i i i i i i i i i i i i i i i i i i i i i i i i i i i i i i i i i i i i i i i i i i i i @.@.E l :.:.:.:.@.@.@.@.:.:.@.@.i i i i i i i i i i i i i i i i i i i i i i i i i i i i i i i i p i i i i i :.:.:.t o                         . X X X .                   O 7 t E E :.:.W W E E E i i i i i @.:.:.:.:.:.:.<.<.<.<.:.i t t 7 = o O .                 * ! w.w.X.X.q.X.X.|.+X-X>X9X9X9X9X9X0X0X0X0X9X9X0X0X0X0XqXqXmXMXBXBXcX*X2XcXvXbXbXvXMXSXFXGXGXGXBX4X|.} } } } } } :XBXDXSXo.f 2XGXSXSXBXNXNXSXNXSXSXc.^ ) z.c.n.z.( d ) z.z.z.z.q.q.q.q.9.Q Y ) q.! U Z c c c c c c c c c c A T R ' ' ' R R ' R T T Z c > , , , , , , , , , > , , < , , % & |.>X0X0XqX0X0XqXqXqXqXqXqX0X0X0XqXqXqXqXqX0X0X0X0X0X9X7X>X7X9X9X9X9X9X;X;X;X;X;X7X9X0XqXmXmXmXmXmXmXmXmXmXBXBX>XP 2XBXNXmXNXNXmXBXSXk.K #X2X2X2X2X2X2X2X2X2X$X$Xv.v.k.j. .o.o.{ L L O.H H H H H O.L L L L L L L L L L L L L L L L L L H H H G G A A S A S S G G S S G G G A G C ",
"%.%.%.&.&.&.&.%.%.%.&.&.%.%.+.+.%.%.%.%.+.+.+.+.u u e w w w w w w w w w w 0 7 3 5 0 @.3.4.7.r.r.r.7.4.7.7.6.r.r.u.u.u.u.r.r.r.r.u.r.r.r.r.r.r.6.5.5.<.,.>.,.,.,.>.>.>.,.,.,.<.3.4.4.4.6.7.4.4.4.5.5.5.4.4.4.4.4.6.4.4.4.4.4.4.4.6.6.6.5.3.,.=.=.,.,.,.,.,.,.,.,.,.,.,.,.,.,.,.,.&.u r r t t 7 o         . o 7 t i :.:.:.i p p u i i i i i i i i i i i i i i i i i i i i i i i i i i i i i i i i i i i i i i i i i i i i i i i i i i i i i i i i i i i i i i i i i i i i i i i i i i N E @.:.:.:.@.@.i i l l i i :.:.i i i i i i i i i i i i i i i i i i :.:.i i i i i i :.:.i i >.:.i :.:.:.p t 7 o O                                                 O 5 t p i :.:.E i i p p p p p i i E :.:.:.:.<.<.<.:.p 8 7 O .                           . 9 2.w.@Xw.q.X.o.X.X.|.@X:X>X8X9X9X9X9X9X0X0X0X9X0X0X0X0X0X0X0XqXmXmXMXMX0X:X4XbXvXvXbXbXMXDXGXFXSXbX>X|.} } J.} } } } >XBXDXSX{ V 2XGXNXSXNXBXNXAXNXSXHXc.^ ` z.c.c.z.^ d ( q.q.z.z.q.q.q.q.q.) Y ! | ! A Z c c c c c c c c c c A T R R ' ' ' R R R T A c c > , , , , , , , , , , , v , , , % & +X>X>X>X9X0X0X0XqXqXqX0X0X0X0X0XqXqXqXqXqXqXqXqX0X0X9X7X;X;X9X9X9X9X9X;X;X;X;X;X7X9X0XqXmXmXmXmXmXmXmXmXmXBXBX-XI 7XBXNXNXNXNXNXSXBXk.` $X2X2X2X2X2X2X2X2X2X$X$Xv.v.k.j. .o.o.{ { L H H H H H H O.L L L L L L L L L L L L L O.O.L H H H H F G G A A A A S A S S S S G S S A G C ",
"+.+.%.&.&.&.&.&.%.&.&.&.%.%.%.%.+.+.%.+.+.+.+.+.u u e w w w w w w w w w w r 6 3 5 0 @.5.4.r.r.r.6.7.4.7.4.6.r.u.u.u.u.u.u.u.r.r.u.r.r.r.r.r.6.7.3.<.>.>.>.,.,.>.>.>.>.,.,.,.3.3.4.4.4.6.7.4.4.4.5.5.5.5.5.5.5.5.4.4.7.4.4.4.4.7.6.6.6.5.3.,.=.=.,.,.=.,.,.,.,.,.,.,.,.,.,.,.,.,.&.u e r r r o         o 7 p i p @.@.i i i i i :.i i i i i i i i i i i i i i i i i i i i i i i i i i i i i i i i i i i i i i i i i i i i i i i i i i i i i i i i i i i i i i i i i i i i i i i i i i l l i @.@.:.i i i i l i i i i i i i i i i i i i i i i i i i :.i i p p i i i :.:.i p i i i i i i i t 7 o O O                                               . . o 7 t p i :.:.i i N E E E E E N N E :.:.<.<.<.:.i 7 o O                                 X W w.K.@XK.w.X.X...o.X.|.@X:X>X>X8X9X9X9X9X9X0X0X0X9X9X9X0X9X9X9X0X0X0XqXqXqX6X:X:X0XbXbXbXbXMXBXbX4X+X|.} } } J.} } } } k.6XBXDXNX{ J 4XGXNXBXNXNXNXNXNXSXHXc.^ ) z.c.c.z.( d ( q.z.z.q.q.q.q.q.q.) Y ! | R Z Z c c c c c c v c c c A T R R R R ' R T T A c > > > , , , , , , , , , , , c > > < % C :X0X>X;X;X9X9X9X0X0X0X0X0X0X0X0X0X0XqXqXqXqXqXqX0X0X9X7X;X;X>X9X9X9X9X;X;X;X;X;X;X9X0XqXmXmXmXmXmXmXmXmXBXBXBX*XL 6XBXNXNXNXNXNXDXmX` j.*X2X2X2X2X2X2X2X2X2X3X$X@Xv.j. .o.o.{ { L L H H H H H H O.O.L L L L L L L L L L L H H H H H H F F G S S A A A A A A A A G S S S S A R C ",
"%.+.&.&.&.&.&.&.%.&.&.&.%.%.%.%.+.%.%.%.+.+.+.+.u u e w w w w w w w w w w q 6 5 5 0 @.5.7.r.r.r.6.7.7.4.7.r.r.u.u.u.u.u.u.u.u.d.u.r.r.r.r.6.7.3.,.,.>.>.>.>.,.,.>.>.>.,.,.,.3.5.7.4.4.6.6.4.4.4.5.5.5.5.5.5.5.5.5.5.5.5.5.5.4.4.e.6.6.5.3.,.=.=.=.=.=.=.,.,.=.,.=.,.,.,.,.,.,.,.&.u r r r 5 O       s t u p y i i u i u p i i p i i i i i i i i i i i i i i i i i i i i i i i i i i i i i i i i i i i i i i i i i i i i i i i i i i i i i i i i i i i i i i i i i i i i i i i i i i l l i @.@.@.i i i l i i i i i i i i i i i i i i i i i i i i p p i i :.:.i i p i i i :.<.<.:.p 7 o                                               . . O o o 7 t t i E i i i :.E E E E E :.:.:.<.<.<.:.E t 7 = O .                                 O : ! w.i.w.@XX...X.X.X.X.@X@X+X:X:X>X>X>X7X9X9X9X9X9X9X9X9X9X9X9X9X9X7X7X7X>X9X>X>X>X-X:X>X6X0X0X0X0X4X+X} L P } J.J.} } J.} } k.0XBXDXMX{ J 4XGXNXNXNXNXNXNXNXSXSXc.Y ) z.c.c.z.( d ( q.z.z.q.q.q.q.q.q.9.Q ! ) R Z c c c > c > > , c c c v D T R R R R T U Z c , > > , , , , , , , , , , , > > , > , < C 4XqX9X>X;X;X;X9X9X9X0X0X0X0X0X0X0X0X0X0X0XqXqXqX0X0X9X7X>X;X>X>X7X7X;X;X;X;X;X;X;X9X0XqXmXmXmXmXmXmXmXmXBXmXBX XI 6XBXmXNXNXmXNXSX0XK k.2X2X2X2X2X2X2X2X2X2X3X$X@Xc.j. .o.{ { { O.O.H H O.H H H H H O.L L L L L L L L L H H H H H H G G G G A A A A A A A A A A G A S A A A R C ",
"%.%.&.&.&.&.&.&.&.&.&.&.%.%.%.%.&.&.%.&.+.+.+.+.u e e w w w w w w w w w w r 0 5 5 6 @.5.r.r.r.r.r.r.r.4.7.r.r.u.u.u.u.u.u.u.u.u.u.r.r.r.r.4.3.,.>.>.>.=.,.,.,.=.,.>.,.,.,.3.3.5.5.7.4.4.4.4.4.5.5.5.5.5.5.5.5.5.5.3.3.3.3.3.5.4.e.6.6.5.3.,.=.=.=.=.=.=.=.=.,.=.=.=.,.,.,.,.,.,.&.e r r 6 o .     . 7 :.i p p @.@.i @.@.i i i p i i i i i i i i i i i i i i i i i i i i i i u u i i i i i i i i i i i i i i i i i i i i i i i i i i i i i i i i i i i i i i i i i i i i i i i i i i i i i i i i l l l i i i i i i i i i i i i i i i i i i i i i :.i i i i i i i i :.3.<.:.p 7 o                                   . O o o o o 5 7 7 t t p E E :.E E i i E :.:.i E N i i E E E E i p 8 = o .                           .         O 9 w.i.K.K.w.X.X.X.X.X.|.@X@X+X:X:X:X:X>X>X>X>X>X7X7X9X9X9X9X9X9X>X>X>X;X;X;X;X-X-X-X-X-X-X-X-X>X>X:X:X-X|.}.P J.J.J.} } } } } } } |.nXBXDXMX{ V 4XFXNXNXNXNXNXNXNXSXSXj.S /  .c.n.c.) d ( q.z.z.q.q.q.q.q.q.q.Y Q ! T Z > > c > > > > > > c c v Z T T T T T A c c , , , , , , , , , , , , , , 9 , , , > , < & :XJX0X9X9X7X;X;X;X7X9X9X0X0X0X0X0X0X0X0X0XqX0X0X0X0X0X9X;X;X;X;X;X;X;X;X;X;X;X;X;X7X0XqXmXmXmXmXmXmXmXmXNXBXBXk.P 0XBXmXmXNXmXNXDX6XK #X2X2X2X2X2X2X2X2X2X2X3X$X@Xc.j. .o.{ { / L O.O.H O.H H H H H H H H L L L L L L O.H H H H H H G G G G S A A A A A A A A D A A A A D A R C ",
"%.%.&.&.&.%.%.%.&.&.&.&.%.%.%.%.&.%.%.%.+.+.+.+.u e e w w w w w w w w w w e r 6 3 6 @.7.r.r.r.r.r.r.r.e.r.r.r.u.u.u.u.u.u.u.d.d.r.r.r.6.4.5.,.,.>.,.,.,.,.=.=.=.,.,.,.,.,.,.3.5.7.4.4.4.4.5.5.3.3.3.3.3.3.3.3.3.3.3.3.3.3.3.5.4.e.6.6.5.3.,.=.=.=.=.=.=.=.=.=.=.=.=.,.,.,.,.,.,.=.u r r 6 o       . 0 @.@.:.:.p i i i @.&.&.&.&.i i i i i i i i i i i i i i i i i i i i i i i i i i i i i i i i i i i i i i i i i i i i i i i i i i i i i i i i i i i i i i i i i i i i i i i i i i i i i i i i i i i i i i i i i i i i i i i i i i i i @.@.:.:.i i i i :.:.:.:.:.p 7 o O                     O O o o 5 7 7 t t i E :.:.i i i :.i E E E E E N N E E E E :.:.E @.i i E E i p 7 7 o o .                                       @ 9 w.w.@X@XX.X.X.X.X.X.X.X.@X+X:X-X-X-X-X-X:X>X>X>X>X>X>X>X7X7X>X>X>X>X>X;X-X-X-X-X-X-X-X-X-X-X-X-X-X-X-X-X+X|.}.}.J.J.} } J.J.} } } P |.mXBXDXnX/ V 4XFXNXNXNXNXNXNXNXSXZXj.S /  .c.n.c.) d ( q.z.z.q.q.q.q.q.q.q.Q Y ! T Z Z > > > > > > > > > c v c Z U A Z Z c > > > > , , , , , , , , , , , , > > , > > , < < X.bXmX0X0X9X7X7X;X;X;X7X7X9X0X0X0X0X0XqX0X0X0X0X0X0X0X9X>X;X-X-X-X;X;X>X;X;X;X;X;X;X7X0XqXqXmXmXmXmXmXmXBXBXmXg.g.0XBXNXmXNXmXNXSX*XK *X6X2X2X2X2X2X2X2X2X2X3X$X$Xc.j. .{ { { O.O.O.O.O.O.H H F H H H H H H L { { O.O.H H H H H H G G G S A A A A A A A A A D D A A A A A A T C ",
"+.&.&.&.%.%.%.%.&.&.&.&.%.%.+.+.+.%.%.+.+.+.+.+.u e e w w w w w w w w w w w r 6 5 0 @.4.r.r.r.r.r.r.r.r.r.r.r.u.u.u.u.u.d.r.r.r.r.r.6.4.5.3.,.=.,.,.,.,.=.=.=.=.,.=.=.,.,.,.3.5.4.4.4.4.5.5.3.3.3.3.3.3.3.3.3.3.3.3.3.3.3.3.5.6.e.6.5.5.,.=.=.=.=.=.=.=.=.=.=.=.=.=.,.,.,.,.,.,.=.u 0 r r o       . q :.u u i u @.@.@.@.i i i i i i i i i &.N N i i i i i i i i i i i i i i i i i i i i i i i i i i i i i i i E i i i i i i i i i i i i i i i i i i i i i i i i i i i i i i i i i i i i i i i i @.@.@.@.@.@.@.@.i i i i :.:.:.:.:.:.:.:.:.:.:.i :.:.:.i t 7 s o                     . o 7 7 7 7 t t p p i i :.:.E :.:.:.:.:.:.:.E E i i i N E E i E :.:.i i i @.E i p t 7 o O                                           @ U w.K.@XK.X.X.X.X.X.X.X.}.@X+X=X:X-X;X-X-X-X-X>X>X>X>X>X>X>X>X>X>X>X>X>X>X;X-X-X-X-X-X-X-X-X-X-X-X-X-X-X-X-X-X+X|.}.}.J.J.J.J.} } } } } P +XmXBXDXbX/ f 4XFXAXNXNXNXNXNXNXSXNX .S ^  .c.c.c.) g ( q.z.z.q.q.q.q.q.q.q.! Q R U d Z > > > > > > > > > > , c c c c c c > > > > > , , , , , , , , , , , , , > , > > , < % F 4XqXqX0X0X0X9X9X9X;X;X;X7X9X9X9X9X0X0X0X0X0X0X0X0X9X9X7X;XoXXXXX-X;X>X;X;X;X-XoXoX-X;X7X9XqXqXmXmXmXmXmXBXqXg.k.0XBXNXmXNXNXBXmX|.K #X2X6X2X2X2X2X2X2X2X2X3X$X$Xc.j. .{ { / O.O.O.O.O.H H H H H H H H H H H H H H H H H H H H G G G G S A A A A A A A A A A A A A A A A A T C ",
"+.&.&.&.%.%.%.%.%.&.&.&.%.%.%.%.+.+.+.+.+.+.+.u u e e e e w w w w w w w w w r 0 5 0 &.4.r.r.r.r.r.r.r.r.r.r.u.u.d.d.d.d.r.r.r.r.r.r.6.5.3.,.=.,.>.,.,.=.=.=.=.,.,.=.=.,.,.3.5.5.4.4.7.5.5.5.3.3.3.3.3.3.3.3.3.3.3.3.3.3.3.3.5.6.r.6.5.3.,.=.=.=.=.=.=.=.=.=.=.=.=.=.,.,.,.,.,.,.=.u 0 0 r 3 .       o p i :.:.@.u i @.:.:.N N N i i N N N N N N i i i i i i i i i i i i i i i i i i i i i i i i i i i i i i i i :.:.:.:.:.:.:.:.i i i i i i i i i i i i i i i i i i i i i i i i i i i i i i i i @.@.@.@.@.@.:.:.:.:.:.:.:.:.<.<.<.<.<.<.:.i p t 7 7 o O                       O 7 7 t i i i i :.:.:.:.:.:.:.:.:.E E E E i i i @.i i :.:.:.E E i E N i i i :.@.i t 7 o O .                                         . = n 0.K.@XK.H.X.X.X.X.X.H.@X|.+X+X+X:X:X:X-X-X-X-X-X:X:X:X:X-X-X-X>X>X>X>X-X>X>X;X-X-X-X-X-X-X-X-X-X-X-X-X-X-X-X+X|.|.|.|.}.J.J.J.J.J.} } } } L -XNXBXDXbXK f 4XFXAXSXNXNXNXNXNXSXMX .j ^  .z.c.c.) d Y q.z.n.z.q.q.q.q.q.q.) Q R U d > > > > > > > > > > > > > c > , > > > > > , , , , , , , , , , , , , , , > , , , , , % & |.0XqXqX0XqX0X9X9X9X9X;X;X;X;X9X9X9X9X0X0X0X0X0X0X0X9X7X;XXXXXXXoX;X>X;X;X;XoXXXXXXXXXXX-X7X0XqXmXBXBXNXBXqX}.|.qXBXBXmXBXmXNXqX X X2X2X6X6X2X2X2X2X2X2X2X3X$X$Xc.j. .{ / O.H O.O.H H H H H H H H H G G H H H H H H H H H G G G G G G G S A A A A A A A A A A G A A A A A G d ",
"+.+.%.%.%.%.&.&.%.&.&.&.&.%.+.+.%.%.%.%.%.+.u u e e e e e e w e y w w e w w r 0 2 0 &.4.r.r.r.r.r.r.r.r.r.r.r.r.r.d.d.d.d.d.d.r.r.6.4.3.,.=.=.=.=.,.,.=.=.=.,.,.,.,.,.,.,.3.5.5.4.4.4.5.5.3.3.3.3.3.5.5.4.4.5.5.5.5.5.5.5.5.5.6.e.4.3.3.,.=.=.*.=.=.=.=.=.=.=.=.=.=.,.,.,.,.,.,.=.e r r r 6 o       . 7 p N i i :.@.i i @.@.@.@.i i i i N N N N i i i i i i i i i i p i :.i i :.i i i i i i i i i i i l l i @.@.i i i i :.:.:.:.i i i i i i i i :.:.i p i i i i i i i i i i i l i i i i i i i i @.@.:.@.@.@.:.:.:.:.:.:.:.i p t 7 7 o o O .                         . O o 0 p :.@.@.:.:.:.:.:.:.:.:.>.:.:.:.:.:.:.:.:.i i i i i :.:.:.i i N E E :.:.:.i p t 5 o O .                                           X > T w.K.@X@X@XK.X.X.X.X.}.|.|.+X+X=X:X-X-X:X-X-X-X;X:X-X-X=XXX|.|.H.|.|.=X-X:X:X:X:X-X-X-X-X-X>X-X-X-X-X-X-X-X-X-X-X+XXX+XXX|.}.J.J.} } } } } } } P >XBXNXDXbXK f 4XFXNXNXNXNXNXBXNXSXMX/ S / q.z.n.z._ d Y q.z.q.q.q.q.q.q.q.w.9.) Y U Z 9 > > > > > , , , > > > > > , > > > , , , , , , , , , , , , , , , , , , , , , , , < < < { :X0X0XqX0X0X0X0X9X9X9X9X9X;X;X7X7X9X9X9X9X0X9X0X9X9X7X;X-XXXXXXX-X>X>X>X-X-XXXXXXXXXXXXX-X>X7X9XqXqXqXqX7X|. X0XBXmXmXmXqX0X6X2X-X2X7X2X2X6X2X2X2X2X2X2X3X3X$Xc. .o.{ { { H H H H H H H H H F F F F F G H H H H H H H H G G G G G G S A D A D D A A A A A A A D A D A D D C ",
"+.%.%.%.%.+.&.&.%.%.&.&.&.&.%.%.%.%.%.%.%.+.u u y e e e e e w w y w w e e w e 0 2 0 &.4.r.r.r.r.r.r.r.r.r.y.y.r.d.r.d.r.d.d.y.r.6.4.3.,.>.=.=.>.=.,.,.=.=.=.,.,.=.,.,.,.3.3.5.5.4.4.4.5.5.5.3.3.3.3.5.5.5.5.5.4.5.5.5.5.5.4.4.6.e.4.3.,.,.=.=.*.=.=.=.=.=.=.=.=.=.=.,.,.,.,.,.,.=.e r r r 6 o .       O 7 i :.&.@.@.@.&.:.:.@.@.:.:.i i i i i i i i i i i i i i i i i p i i p i i i i i i i i i i @.i i i i @.&.i i i i :.:.:.:.i i i i i i i i p i i :.:.i :.:.i i i i i i i i i i i i i i i i :.:.:.:.:.:.:.:.p t 7 o O .                                     o 7 t :.<.>.:.i :.:.:.:.:.:.:.:.>.>.:.:.@.i :.l i i :.:.:.@.i i @.i :.:.:.E E E p t 7 o .                         .               X = 9 W ~ 0.w.K.@X@X@X@X@XH.X.X.X.}.|.|.@X+X+X:X:X:X:X:X:X:X-X-X-X-X=X|.|.J.} O.O.O.P J.XX-X>X:X:X-X-X-X-X:X>X:X:X:X-X-X-X-X-X-X-X+XXX+X|.|.}.J.J.J.} } } } } P } 4XBXBXDXbXK f 4XFXBXBXNXNXNXNXNXSXvX^ S /  .z.c.c._ d Y q.q.q.q.q.q.q.q.q.w.q.9.Q U Z > > > > > > > > , , > , > > , , , > > , , , , , , , , , , , , , , , , , , , , , , < < % F |.>X0X0XqXqXqXqX0X0X0X9X9X9X7X7X7X7X7X9X9X9X9X9X9X9X7X>X-XXX|.XX-X>X>X;X-XoXXXXXXXXXXXXX-X-X-X-X>X7X>X7X>X|.-X7X0X0X6X7X7X7X7X>X>X>X4X2X2X2X2X2X2X2X2X2X2X3X@Xc. .o.{ { { H H H H H H H H F F F F G F F G G H H G G G G G G G G G G G G G G D A A A A A A A A D A A A A D C ",
"%.%.%.%.%.%.&.&.+.%.%.&.&.&.&.&.%.%.%.%.+.+.+.u y e e e e e e w y w w u e e w 0 6 0 &.4.r.r.r.r.r.r.r.r.y.y.y.d.r.d.r.d.d.d.r.6.5.3.>.=.=.>.,.,.=.=.,.=.=.=.,.,.=.=.,.,.3.5.5.4.4.4.4.5.5.5.3.3.3.3.5.5.5.5.5.5.5.5.4.4.5.4.6.e.e.5.3.,.=.=.=.*.=.=.=.=.=.=.=.=.=.=.=.,.,.,.,.,.=.e r r r r 3 o         O 5 t @.@.@.@.@.i i i @.u i @.&.:.:.:.:.i i i i i i i i p >.:.i i p i :.i i i i i i i i i @.i i i i i @.:.:.:.:.l i @.@.i i i i i i i i i i i i i i i i :.:.:.:.:.:.:.:.i i i i i :.:.<.:.:.:.:.@.t 5 o                                       . o 7 p :.<.>.:.@.i @.:.:.:.:.:.:.:.:.:.:.@.@.:.@.@.i i i :.i i i i i i :.i i :.i p 8 = o .                           . . X X # * = , n ~ w.1X5X4X4X5X1X@X@X@X@X@XH.H.|.H.|.|.|.+X+X:X:X:X:X:X=X=X=X:X-X-X-X-X+X|.} L O.O.J J J J L |.=X:X:X:X:X:X>X:X:X=X+X+X=X=X=X=X-X-X-X-X+X+XXX|.|.}.J.J.} } } } } } P } 6XBXBXSXcXH f 4XFXNXNXNXNXNXNXNXFXhXS S / q.c.c.c._ d Y q.q.q.q.q.q.q.q.w.w.q.q.! U > > > > , > > > , , , , , , , , , , , , > , , , , < < < ; ; : < ; ; ; ; < < % % % < % % C { }.XX-X>X0X0XqXqXqXqX0X0X9X9X9X9X7X;X;X7X7X7X9X9X9X9X7X>X-XXX|.XXXX-X-X-X-X-XXXXXXX-XXXXX-X-X-XXX-X-XXX-X-X-X>X7X7X7X>X:X-X:X>X>X>X>X>X4X2X2X4X2X2X2X2X2X*X$Xv.j. .{ { / O.H H H H H H H H H H G G G F F G G G G G G G G G G G G G G D D D D D A A A A A A A A A A A A A D C ",
"%.%.%.%.%.%.&.&.+.%.%.&.&.&.&.%.%.%.%.+.+.+.u u y e e e e e e e y w w u e e w 0 6 0 &.4.r.r.r.r.r.r.r.y.y.y.y.d.r.d.d.d.d.r.6.5.,.>.=.=.>.,.=.=.=.=.,.=.=.=.,.,.,.,.,.,.3.5.5.4.4.4.5.5.5.5.5.3.3.5.5.5.6.4.4.5.5.4.6.6.4.6.e.r.r.4.3.,.*.=.=.=.=.=.=.=.=.=.=.=.=.=.=.,.,.,.,.,.=.e 6 r e e 0 3 .         . o 0 i @.:.&.@.i @.&.@.@.&.@.@.i u p i i i i i i i i @.i p t :.:.i i i i i i i i i i i i i i i i @.@.:.:.:.E l i @.@.i i i i i i i i :.i i i :.:.:.:.:.i i i i i i i i :.:.:.:.:.p t 0 5 o .                                         O o 7 i :.:.:.:.u @.:.:.:.:.:.@.@.:.:.:.:.:.@.@.:.:.:.@.i i i i i i i i :.:.:.i t t 7 o O .                             = ! w.1X1X1X5X5X5X5X5X4X4X4X4X4X:X@X@X@X@X@X|.}.H.|.|.|.+X+X+X+X-X:X:X:X+X|.|.|.+X+X=X:X=X+XH.o.O.O.F F F F F F O.} +X:X>X>X>X:X=X+XH.o.' L L o.J.|.=X=X=X-X-XXX+X|.|.J.J.J.} } } } } } P } 0XBXBXSXcXK & 4XFXNXNXNXBXBXNXNXFX4XS S / q.c.c.z. .g S q.q.q.q.q.q.q.q.q.q.q.q.! U > > > > , > > > , , , , > , ; ; , , , , ; < < < < < < < < < < < , & , , & & , d A A R R X.@X|.|.}.|.XX;X7X9X0XqXqXqXqX0X0X0X9X9X9X7X7X7X7X7X7X7X7X>X;X-XXXXXXX-X-X-X-X-X-XXXXXXX-X-X-X-X-X-X-X-XXXXX-X>X>X>X>X>X>X-X-X>X:X>X>X>X>X4X2X2X2X4X2X2X2X2X*X$Xv.j.o.{ { O.H H H H R H H H H H H G G G G G G G G G G G G G G G G G G D D D D D D A A A A A A A A A A A A A D C ",
"%.%.%.%.%.%.&.&.%.&.&.&.&.&.&.&.&.&.%.+.+.u u y y e e e e e e e w w w e e u w r 6 0 &.4.r.r.r.r.r.r.r.y.y.y.y.d.d.d.d.d.y.e.5.3.,.=.=.=.,.,.=.=.=.=.,.=.=.=.=.,.,.,.,.,.3.5.4.4.6.6.5.5.5.5.5.3.5.5.5.5.5.4.5.5.5.4.6.6.e.r.e.e.e.4.3.=.*.=.=.=.=.=.=.=.=.=.=.=.=.,.,.,.,.,.,.,.,.e 6 r e w r 6 3 O           O o # t &.:.<.:.:.:.:.@.i u i &.:.i i i i i i i i i @.:.:.:.i p :.i i i i i i i i i i i i i i i :.:.:.:.:.i i i i i i i i i i i i i i i i :.i i p i i i i :.:.:.:.:.i t 7 o O                                             . o 7 t i @.:.:.@.i i @.:.:.@.@.@.@.:.>.:.:.:.:.:.@.@.@.u u p p i i :.:.:.:.:.i p 7 7 o O O                                 X U w.5X5X5X4X4X4X4X4X4X4X4X4X4X:X+X|.k.}.|.@X@X|.|.|.|.+X+X+X+X-X-X-X-X+X|.k.} L L } |.|.+X|.J.L O.J F F O.O.O.O.O.F O.H.:X>X:X=X|.J.{ J v v b b V O.J.|.+X=X=X-XXXXX|.}.J.} } } } } } } } L }.cXNXSXSXbX/ f 6XFXBXNXNXNXMXNXSXFX*XS S ` q.c.z.n.q.Y S ) q.q.q.q.q.q.q.q.q.q.q.! U > > > > > , , , , , , , , , , , , < < < % < , d U ! | q.@X@X@X@X$X1X1X1X@X@X@X1X@X@X@X@X@X+X|.|.}.}.}.}.|.XX-X;X9X0X0X0X0X0X0X0X0X9X7X7X;X>X>X>X7X>X;X-XXXXXXXXX-X-X-X-X-X-X-X-XXXXX-X-X-X-X-X-XXX+X-X-X>X>X>X>X-X-X-X-X:X:X:X>X>X4X2X>X4X4X2X2X2X2X*X$Xv.j.o.{ { H H H H H R R H H H H H H G G D D D D D D D G G G D D D D D D D A A A A A A A A A A A A A A A A A A C ",
"%.%.&.&.%.%.&.&.&.&.&.&.&.&.&.%.&.&.%.+.+.u u y e e e e e e w e w w w e e e w r 6 0 &.5.r.r.r.r.r.r.r.y.y.y.y.d.d.d.d.r.e.4.3.,.=.=.=.,.,.,.=.=.=.=.,.=.=.=.=.,.,.,.,.,.3.5.4.4.6.6.5.5.5.5.5.5.5.5.5.5.4.4.4.4.4.4.4.6.e.r.r.e.4.5.,.=.=.=.=.=.=.=.=.=.=.=.=.=.=.,.,.,.,.,.,.,.,.e 6 0 r w w r 0 3 o                 . o 5 t i :.>.>.>.>.:.:.:.:.:.:.:.:.l :.i :.:.:.:.:.p i :.i i i i i i i i i i i i i :.:.:.:.:.:.:.i i i i i i i i i i i i i i :.i p p i :.:.:.:.:.i y t 7 o O                                               O o 7 t u i i i @.:.:.:.:.:.:.:.:.:.:.:.@.i u :.:.:.:.:.:.:.:.@.:.:.:.:.:.i p t 7 7 o o O                         . X = = = 9 : c ! @X5X4X4X4X4X4X4X4X4X4X>X4X4X>X:X+X|.|.|.+X+X+X+X+X+X+X+X+X+X-X-X-X-X+X|.} L J J J J L } J.J.L O.J D D D O.O.D D O.D O.H.:X:X+XJ.O.J v b b b b b b V O.J.+X=X=X=X+X|.|.}.J.J.J.} } } } } } L |.bXNXBXSXbX/ V 6XFXSXSXNXSXNXSXSXAXc.S Y  .q.z.q.c.q.Y Y ) q.q.q.q.q.q.q.q.q.q.q.) U > > > > > > , , , , , , , : < % % < d Y  .q.w.n.@X3X4X4X4X4X4X4X4X4X4X4X4X3X@X@X@XX.X.} k.|.-X-X-XXXXXXX|.XXXXXXXX-X;X;X>X7X9X9X9X7X>X>X>X>X>X>X>X>X;X-XXX|.XXXX+XXXXXXX+X-X-X-X-X-X-X-X-X-XXXXX-X-X-X-X>X>X>X-X-X-X-X-X:X-X-X:X>X2X>X>X4X4X2X2X2X2X*X*X@Xk.o.o./ H H H H H H H H H H H H H H H G D D D D D D D D D D D A A D A A A A A A A A A A A A A A A A A A A A C ",
"+.+.&.&.%.%.%.%.%.&.&.&.&.%.%.%.&.&.%.%.+.u u y e e e w e e w w w w w e e e w 0 2 0 @.4.r.r.r.r.r.r.r.y.y.y.d.d.d.d.d.r.4.5.,.=.=.=.=.=.,.,.=.=.=.,.,.=.=.=.=.,.,.,.,.,.5.5.4.4.4.4.5.5.5.5.5.7.4.4.4.4.4.t.4.4.4.4.4.4.6.6.e.6.5.3.,.*.*.=.=.=.=.=.=.=.=.=.=.,.,.,.,.,.,.,.,.=.,.e 6 r q w y q r 0 5 o .                       o o 7 7 t p p i :.:.:.:.:.i i p t 7 5 7 7 i :.t i i i i i i i i i i i i i E :.:.:.:.:.:.i i i i i i i i i i i i i i @.:.:.:.:.:.p t 7 5 o O                                               o 5 7 i @.:.:.@.:.@.@.:.:.:.:.:.:.@.i i i @.:.:.:.:.:.:.:.:.:.:.:.:.:.>.:.:.i t 7 o o .                               O W i.1X5X1XK.@XK.@X=X5X4X4X4X4X4X4X4X>X:X:X:X>X4X>X-X|.|.|.+X:X:X:X=X+X+X+X+X+X+X-X-X-X+X|.} L J J V V V J O.O.O.O.O.F O.O.D D O.D D D D O.o.@XH...F v b b v v v v b b b J o.|.=X=X=X+X|.|.}.} J.} } } } } } } L +XbXNXBXDXcX/ V 6XFXSXSXMXMXcX6X6X4X .Y /  .q.q.q.q.q.) Y ) q.q.q.q.q.q.q.q.q.q.q.) U > > > > > > , > > , , < < < < & S / @X3XsXsX4X3X3X3X2X4X2X2X2X2X3X3X@X@Xc. .{ / H H L } +X:X7X9X9X7X7X9X>X>X;X-XXXXXXXXXXXXX-X-X;X;X;X;X-X;X;X;X;X;X-XXX|.|.|.|.|.|.|.|.|.|.XX-X-X-X-X-X-X-X-X-X-X+X-X-X-X-X-X-X+X+XXX|.|.|.|.|.*X*X:X>X2X>X>X2X2X2X2X*X@Xk.o.{ / R R H H H H H H H H H H H H H D D D D D D D D D D D A A A A A A A A A A A A A A A A A A A A A A A A c ",
"%.+.%.&.%.%.%.%.%.%.&.&.&.&.%.&.&.&.%.%.%.u u u e e e e w w w w y w w e w w w 0 2 6 @.4.r.r.r.r.r.r.r.y.y.y.d.d.d.d.r.6.5.3.,.=.,.,.,.=.=.,.=.=.=.,.,.,.=.=.=.,.,.=.,.3.5.4.4.4.4.4.5.5.5.7.4.4.4.4.4.6.e.e.t.t.4.4.4.4.4.6.6.6.5.3.*.=.*.=.=.=.=.=.=.=.=.=.=.,.,.,.,.,.,.,.,.=.,.e 6 r q w y y w 0 6 6 1 O                                   . . . .                     7 :.i i i i i i i i i i i i i :.:.:.:.:.:.:.:.i i i i i i i i i i i i i i i :.:.p 7 o .                                                 . o 7 p :.:.:.:.:.:.:.@.@.@.:.:.@.@.i @.:.:.:.:.:.:.@.@.@.@.:.:.:.>.>.>.:.i p 0 5 o .                                         U 1XsX4X4X4X5X5X4X5X5X4X4X4X8X0X0X0X0X>X:X-X-X>X>X>X>X-X+X+X-X:X:X-X+X+X+X=X-X+X-X-X-X+X|.k.L J J J J J J J J J O.F O.O.O.O.D D D D D D D D L o.[ D v v D B v B B B v b b V L |.+X=X=X+X|.|.J.} } } } } } } } } P +XMXNXBXSXcX/ V 6XDXNXnX4X*Xk. .o.{  . . . .q.q.q.q.q.| R ) q.q.q.q.q.q.q.q.q.q.q.) U > > > > > > > > > , < ; < > ! n.3X4XhXhXsX4X2X3X$X3X3X3X3X3X$X$Xb.c.q. ./ S S H o.k.-X7X0X0X0X0X0X0X0X9X0X0X9X7X;X-XXXXX|.|.XXXXXXXXXXXXXX-X-X-X-X-XXXXX|.}.}.}.}.}.g.g.}.|.|.|.|.+X-X-X-X-XXX-X-X|.XX-X-X|.|.|.}.}.}.}.g.g.g.k.}.+X*X*X:X:X:X2X2X2X2X:X@Xk.o.{ / H R R H H H H G G H H G G H G D D D D D D D D D D A A A A A A A A A A A A A A A A A A Z A C A C Z A > ",
"%.%.%.+.&.&.&.&.&.&.&.&.&.&.%.%.&.&.%.+.+.+.u u e e e w w w e e w w w w w w w 0 2 6 u 5.r.e.e.e.r.e.r.y.y.d.y.y.d.d.6.5.3.,.,.=.=.=.=.,.,.=.=.=.=.=.=.=.=.=.,.,.=.=.,.3.5.5.4.4.4.4.5.4.5.5.4.4.4.4.6.e.e.e.4.4.e.4.4.4.5.4.4.5.4.3.=.*.*.*.=.=.=.=.=.=.=.=.,.,.=.=.,.,.3.3.,.,.=.u 0 r e w w w r r r 0 6 2 1 o .                                                           t i i i i i i i i i i :.:.:.:.:.:.:.i i :.:.i i i i :.i i p :.i i i i :.:.t o .                                                 . o t p :.:.:.:.:.:.:.@.:.:.:.:.:.:.:.@.@.@.@.@.@.@.:.:.:.:.:.>.>.:.i t 7 5 o O .                                 O o .           . | 5X4X4X4X4X4X4X4X>X>X>X8X0XqXbXmXmXqX0X9X>X-X-X>X7X9X>X>X-X+X|.+X+X+X+X-X-X-X+X+X+X+X|.}.L L J O.L L L L o.L O.O.F F O.O.O.D D D D D D D O.O.O.D D D D D B B B v v v v b v O.H.+X+X=X+X|.J.J.} } } } } } } } o.o.:XmXBXBXSX6XO.J 2XcX2X@X . . .X.X.X. . . . . .q.q.q.q. ./ ) ) q.q.q.q.q.q.q.q.q.q.| > > , > n > > > > , , < d _ n.4XhXhXsX4X4X4X2X3Xn.c.b.@X@Xv.c.c.q. .) G S V H } *X4X0XqXqX0X0X0X0X0X0X0X0X0X9X>X;X-X-X-X-X-XXXXXXX|.|.|.XXXX-X-X-X-X-X|.|.}.}.}.}.} } F.F.g.}.}.|.|.-X-X-X-X+X+X|.|.+X+X+X|.}.}.} P L I I I P P P P g.|.+X*X*X*X*X*X2X2X*X@XX.o.{ R G H G F J D H D D D D F F F G G G G D D D D A A D D A D D A A A A A A Z Z Z Z A A A A Z A C Z Z Z U Z ",
"%.%.&.&.&.&.&.&.&.&.&.&.%.&.%.%.%.%.+.+.+.+.u u e e e w w w w e w w w w w w r 0 2 6 u 4.e.r.e.e.r.r.y.d.y.d.y.y.d.r.6.5.,.,.,.=.=.=.=.=.,.,.,.,.=.,.=.=.=.=.,.,.=.,.,.3.5.5.4.4.4.4.5.5.5.5.4.4.4.4.r.e.r.e.e.4.4.4.4.4.5.4.4.5.4.3.=.*.=.=.=.=.=.=.=.=.=.=.,.,.=.=.,.,.3.3.,.,.=.y 0 r w w w w e e r r r 0 6 3 o o . .                                                     7 :.i i i i i i i i i i :.:.:.:.:.:.i i :.i i i i i :.p :.i i i :.:.:.t o                                                 O o 7 p <.i :.:.:.:.:.:.:.>.:.@.i i @.@.:.:.:.@.@.@.:.@.@.:.:.:.@.t 7 o O                                       O o = 8 p 7 o           o w.5X5X4X4X4X0X0X8X>X>X>X9X0XmXmXBXBXBXqX0X9X>X;X>X>X9X9X7X>X|.L O.L k.|.+X+X+X-X-X-X|.|.P L L L k.|.|.|.+X|.|.J.o.O.O.O.O.O.D D D D D D D D D D D D D D D D B v v v v v b b O.H.+X+X+X+X|.J.} } } } } } } } o.o.L :XmXBXBXSX6Xo.{ @X@X ...X...X.X.X.X. . . . . .q.q.q.q. .| |  .q.q.q.q.q.q.q.q.q.w.| > > c n > > > c , < & ! @X4XhXhXhX4X4X4X4X2X3Xb.z. .q.z.z. ._ / ( Y S C S / @X4X0XqXqXqXqX0X0X0X0X0X9X9X9X>X-X-XXXXX-X-X;X;X-XXXXX|.|.|.|.|.XX-X-XXX|.|.}.}.}.k.} } } } } } } g.}.|.XX-X-X-X-XXXXX|.|.|.|.|.}.}.k.} P P P P P k.}.|.|.|.+X*X*X*X*X*X*X*X*Xk.o./ H G A G D A A D A A A D D A D D D A V A D C v C D D A A D A A A A A A A A A A A A A A Z Z Z Z C Z Z Z U Z ",
"%.%.%.&.&.&.&.&.&.&.%.%.%.%.%.%.%.+.+.+.+.u u e e e e w w w w w w w w w w w r 0 2 6 u 5.r.r.r.r.r.r.y.d.y.d.y.y.r.e.5.3.,.=.=.=.=.=.=.=.=.,.,.,.=.=.=.=.=.,.,.,.=.,.,.3.5.5.4.4.4.5.5.5.5.4.4.4.4.6.r.r.r.r.e.e.t.4.4.4.4.4.5.5.5.3.=.=.,.=.,.,.=.=.,.,.=.,.,.,.=.=.,.,.,.,.,.=.=.y r r w w w w w w w r r 0 0 6 5 3 3 3 o o O .                                             7 i u i i i i i i i i i i :.:.:.:.:.i i :.i i i i i i p :.i i i :.p o .                                             O 5 t i :.:.:.p :.:.:.@.@.:.:.:.i @.:.@.@.:.:.@.i i @.:.>.:.i p 7 5 o .                                       O o 5 7 t t t p t t o           9 w.@X=X:X4X0XmXmX0X>X>X>X8X0XqXBXBXBXBXBXqX0X9X;X>X>X7X9X0X7X|.L V J L }.XX+XXX-XXX|.|.}.} } }.|.|.+X+X+X=X=X+X+X|.} O.O.D D D D D D D D D D D D v v D D D D B v v B B B b b O.H.|.@X|.|.J.} } o.o.o.} o.o.o.o.o.o.4XMXBXBXSX0XX.X.c.X.X.X.X.X.X.X.X. . . .q. . .q. .q.q. . .q.q.9.9.q.q.q.q.q.q.q.q.| > , > > > > , , < d  .3XhXhXhX4X4X2X4X2X3X3Xb.q._ _ _ _ _ ` ) ^ Y Y S G o.+X4X0XqXqXqX0X0X0X0X0X0X9X7X;X;XXXXXXXXX-X;X>X>X>X;XoXXXXX|.|.|.|.XXXX|.|.}.g.g.k.} } } } } } } } } P P }.|.|.XX+X+XXXXXXX|.|.}.k.}.|.|.}.|.|.|.}.|.|.+X:X:X:X:X:X>X2X2X2X:X*X@X} H V V V V V v & v c v & & & & , v C v v A A v C A C v v C C C C C C v C A Z Z A A A A Z Z Z Z Z A C Z Z Z U c ",
"%.%.%.%.&.&.%.&.&.&.%.%.%.%.%.%.%.+.+.+.+.u u e e e w w w w w w w r w w w w r 6 2 2 y 5.r.r.r.e.r.r.y.d.y.d.y.r.e.6.5.,.=.=.=.=.=.=.=.=.,.,.,.,.,.,.,.,.,.,.,.,.,.,.,.3.5.5.4.4.5.5.5.5.5.5.4.4.4.6.r.r.r.r.e.e.t.4.4.4.4.4.5.4.3.,.=.=.,.=.,.,.=.,.,.,.,.,.,.,.,.=.,.,.,.,.,.=.=.y 0 0 e w w w w y w e r r 0 6 2 6 0 r r 6 5 3 3 o o o O . . . . .                       . t i p i i i i i i i i i i i :.:.:.:.i i i i i i i i i p :.i p i i o                                         . o 7 t i :.:.i p i :.i i i i i @.:.:.:.i :.@.i @.:.:.:.i p t 0 5 o O                                       O o 5 7 t t p p i p t p p 7 o           X ! w.@X+X:X4XqXBXBXmX9X>X>X>X0XqXqXmXBXBXBXBXqX9X;X>X>X>X9X0X0X>X+X} L I }.XX-XXXXX+X|.|.|.|.|.+X+X-X+X+X+X+X+X:X:X:X+X} O.D D D B D D B B v v D D B B D D D D B B B v v v b v O...H.H.H.J.} o.o.o.L o.o.o.o.o.o.o.} 4XmXBXSXMX4Xk.X.X.X.X. .| ..X. ... . .q.q. . .q.q.q.q.w.| | 9.9.9.q.q.q.q.q.q.q.q.) c , , > Z > , , Z q.4XhXhX4X4X4X2X2X2X3X$Xb.z.) ( ) ) ( ( ( ( ( Y Y R  .@X4X0X0X0X0X0X0X0X9X9X9X7X>X-XXXXXXXXX-X;X>X7X7X7X;X;XXXXXXX|.|.|.|.XX|.|.}.g.g.k.} } } } } } } } } } P P g.|.|.XXXXXXXXXX-X|.|.}.g.g.}.|.|.XX-X-X+X+X+X-X>X>X4X4X4X4X6X6X6X4X:X*X@X} H V & V V & v & < < & v & & @ % % & & v v v v v v A A C C A v v c c c c Z Z c c c c c c c c c Z c Z Z Z Z c ",
"%.%.%.%.%.%.%.&.%.%.%.%.&.%.%.%.%.%.+.+.+.+.u e e e e e w w w w w w w w w w r 6 2 2 w 5.r.r.r.r.e.r.r.r.y.d.y.r.6.5.3.,.=.=.=.,.,.,.,.,.,.,.,.,.=.=.=.,.,.,.,.,.,.,.3.5.4.5.4.4.5.5.4.4.4.4.4.4.6.6.r.r.r.e.e.e.t.t.4.4.4.5.4.4.3.,.=.=.=.*.*.*.=.=.=.,.=.,.,.,.,.=.,.,.,.,.,.=.=.e 0 0 e w w e q w y e w e r 6 6 6 0 r r 0 0 0 0 0 0 q y u @.&.t t s .           .     o t i i i i i i i i i i i i i i :.:.:.:.i :.i i i i i i i i :.p p :.p                                   . O 5 7 t p i i u i i i i i i i p i i @.@.@.@.i i i :.i p t 7 7 o O                                         . O 5 7 t p p p t t t t t t t p t 5 .         . 9 w.@X@X+X:X4XbXBXBXBX0X>X>X7X9X0XqXqXmXBXBXBXmXqX9X>X;X>X7X0X0X0X0X>X-X|.|.XX-XXXXX+X+X|.|.+X+X=X+X=X=X=X:X:X+X=X:X:X=X+Xo.F D D v v v D D D D D D B v v v B B v v B B B v b v D ..X.X...o.o.L { L { { o.o.o.o.o.o.} 4XMXSXBX0X=X..X.X.X.....X. ....... .q.q.q.q. .w.q...w.w.w.w.w.9.9.w.w.q.q.w.w.q.q.! Z , c > > , d R q.3X4X6X4X4X4X2X3X3X$Xb.c. .` ^ ^ ( ( ( ! Q ( Q Y /  .@X4X0X0X0X0X0X0X0X9X9X7X>X-XXXXXXXXX;X>X>X9X9X9X7X>X;X-XXX|.|.|.|.XXXXXX|.|.}.} } } } } k.} k.} } } } } } P g.}.|.|.XXXXXX-X-X+X|.|.}.k.k.|.|.+X+X-X+X+X|.+X-X-X:X:X>X4X6X0X0X0X0X0X0X6X5X .V & V v & & v ' @X4X4X5X@X{ v & % % % & & v v v & v c v v v v v c v c c c c c c c c c c c c v c c c Z c ",
"%.%.%.%.%.%.%.&.%.&.%.%.&.%.%.%.%.%.+.+.+.+.e e w w w w w r r r w w w w w w r 6 2 2 e 3.6.r.r.r.r.r.r.r.r.y.y.e.6.5.3.=.=.=.,.,.,.,.,.,.,.,.,.,.=.=.,.,.,.,.,.,.,.,.3.5.5.4.4.4.4.4.4.7.4.4.4.4.6.6.6.e.e.e.e.e.e.e.4.4.4.5.4.5.3.,.=.=.=.*.*.*.=.=.,.,.,.,.,.,.,.=.,.,.,.,.,.=.=.e 6 r w w w w e w y y w w r 6 2 6 0 w r r 0 0 q r q q q y u u &.>.t o               o p :.i p i i i i i i i i i i i i i :.:.:.:.:.i i i i i i i i i u i :.p                             O o 7 p p i i i i i :.:.i p p p p i i i i i @.@.@.@.i p t t 7 5 o .                                             . 5 t t p p t t t t t t t t t p p 7 O           = | w.@X@X+X:X4XbXBXBXmX9X>X>X7X9X0X0XqXqXBXBXBXBXqX9X>X;X;X>X9X0XqXqXqX0X>X-X+XXXXXXX+X+X-X+X+X+X+X=X+X+X+X=X+X+X+X+X=X:X=XH.F V v v v b b b b v v v v B v v v B v v v B b b b v D [ ......{ { ' { { { { o.o.{ o.o.o.} 4XBXBXcX=XX.o.X.X.q.X.X.q.X. .....q.w.w.w.w.w.w.......w.w.w.w.| 9.w.w.q.w.9.| q.w.! , , Z , < d | n.3X4X4X4X2X2X3X3X$Xb.c.q._ ) ( Y ^ ( ( Q Q ( ( Y R  .@X4X6X0X0X0X0X0X0X9X7X>X>X-XXXXXXX-X;X9X9X9X9X9X7X>X>X-X-XXX|.|.|.XXXXXXXX|.|.k.} } } k.} } } } } } } } } } P k.|.|.|.|.XXXX-X-X-X+X|.|.g.} }.|.XX-X+X+X+XXX|.|.XX+X+X+X+X-X:X4X4X0X0XMXSXZX4XL V V V V { @X=X4X0X0X0XbXJX0X5XH.R & % < & & v v c v v v v v v v v v v v c v v v v v v c c v c v c Z c ",
"%.+.%.%.&.&.%.&.&.&.&.&.&.&.%.+.&.+.+.+.+.u e e w w w w w w r r w w w w w w 0 6 2 2 r ,.4.6.r.r.r.r.r.r.r.y.r.e.6.5.,.=.=.=.=.,.,.,.,.,.,.,.,.,.,.,.,.,.,.,.,.,.,.,.3.5.5.4.4.4.4.4.4.4.4.4.4.6.6.6.6.e.e.e.e.e.e.e.e.e.4.5.5.3.,.,.=.,.,.=.=.,.=.=.=.=.,.,.,.,.,.,.,.,.,.,.,.=.=.w 6 r w w w w w y y e w e r 6 2 6 e u y w q 0 r q r q y y u @.y &.q O           O 7 <.:.p t :.i i i i i i i i i i i i i i :.:.:.:.i i i i i i i i i i i i i O                     O 5 7 t i :.p i i :.:.i i i i i i :.:.i i i i i i i @.:.@.u t 7 O                                                     o 7 t t t t t t t t t u u t t t t 5 O         = ! w.w.@X@X:X:X9XqXmXBXqX9X>X>X>X9X9X9X0XqXqXBXBXBXqX0X7X;X;X;X>X9X0XqXqX0X0X>X-X+X|.XX+X+X+X+X+X+X-X-X=X-X+X+X+X+X:X=X=X:X=X}.O.V v b v b b b b v v b v v v v v v v b b b b b b b D [ [ ' [ [ [ [ [ [ [ { { { { o.o.o.}.4XbX0X5XX...| ..X...| | | ..w.w.w.w...w.w.w.........| | | | | | | | | 9.| | | | w.T , > > < Z q.1X1X$X2X4X4X2X3X3Xb.c.q._ ) ( ( ( Q ( Q ( ( ( ! Y Y { @X:X4X6X0X0X0X0X0X9X>X;X-XXXXXXX-X;X7X9X9X9X9X9X>X;X;X;X-XXX|.|.XXXX-X-X-X-X-X|.} } } } k.} } } } } } } } } } } }.|.|.|.|.|.XXXX-X-X+X+X|.|.g.g.}.|.+X+X-X-XXXXX|.XX|.|.|.}.} P o.} |.@X:X4X0X5X{ J J V H =X8X>X=X=X:X>X8X0XqXJXJXJX4X@XV % @ & c & & v v v b b b v b b v v v v v v v v c c v c v c c , ",
"%.%.%.%.&.%.&.&.&.&.&.&.&.&.%.+.+.+.+.+.+.u e w w w w w w w r r w w r r w w 0 6 2 2 r >.5.4.r.e.r.r.r.e.e.y.r.6.5.3.,.=.=.=.=.=.=.=.,.,.,.,.,.,.,.,.,.,.,.,.,.,.,.,.3.5.5.4.4.4.4.4.4.4.4.4.4.6.6.6.6.e.e.e.e.e.e.e.e.e.4.4.5.3.,.=.=.,.,.,.,.,.=.=.=.=.=.=.,.,.,.,.,.,.,.,.,.=.&.w 6 r w e w w u y w w e e r 0 6 0 r y q q q q q q q q q y t t u @.5           o i >.p p :.p i i i i i i i i i i i i i i i i E :.:.i i i i i i p i i i i p :.7             O o 7 t p @.:.i i p p p p i i i i i i i i p i i i p i i i @.:.:.p t o .                                     . .             O 7 p t t t t t t t t t t y t t u 7 O   .     O ~ w.w.@X@X+X:X>X9X0XqXqX0X7X;X;X7X9X9X9X9X0XqXqXBXBXBXqX9X;X;X;X;X7X9X0X0X0X0X0X>X-XXX|.+X+X+X+X+X+X+X+X+X+X-X+X+X=X+X+X+X=X=X|.L V V D D D O.O.O.O.D D b v v v b v b b b b b b b B D [ [ [ [ [ [ ' ' ' [ { { { { o.o.o.|.4X4X:Xk.{ { ..| | ' ' | ......w.w.w...w.w...........| | | | | | | | | | | | | ! ! U > , , < | 4X4X$X@X2X4X2X3X$Xn.q._ ) ) ) ( Q Q Q Q Q ( ( ( R Y / c.:X4X6X7X7X7X7X7X>X;X-XXXXXXXXX;X9X9X9X9X9X9X9X>X>X;X-XXX|.|.|.XXXX-X-X-X-X>X-X|.k.} } } k.} } } } } } } } } } } }.|.|.|.|.|.|.XX+X-X-X+X+X|.|.g.g.|.-X+X-X-XXXXX|.XXXX|.XX}.L J V V J J O.L o.{ F J J V V =X0X8X-X-X-X-X>X>X9X0X0XqXJXJXJX5XR % % , v & v v v b b b b b v b b b v v v v c c v c v c c , ",
"%.%.&.&.&.&.&.&.&.&.&.&.%.%.+.+.%.+.+.+.u e e e w w w r w w r q w r 0 w w q 0 6 2 3 0 @.5.4.r.r.6.r.e.r.e.e.e.e.5.3.,.,.=.=.=.,.=.=.,.,.=.,.,.,.=.,.,.,.=.=.,.,.,.3.5.4.4.4.4.4.4.4.4.4.4.4.4.6.e.e.e.e.t.t.e.e.e.e.e.e.t.4.3.,.=.=.=.=.,.,.,.,.,.,.,.,.,.,.,.,.=.,.,.,.,.,.,.,.&.r 6 r w w y y u u u w y y r 6 5 0 y y q q w w e e e e e y u u @.p o         O i u i i i i i i i i i i i i i :.i i i i i i i i i i i i i i i i i i i i i i i i t 7 5 5 7 t p p :.:.i i i i p p i i i i i i i i i i i i i i i i i p i i i i p o                               . O 5 i 3.7.7.o           o u t y t t t t t t t t u t t t t o         . U w.w.c.@X@X=X:X>X>X9X0X0X0X9X;X;X;X9X9X9X9X9XqXqXqXBXBXmX0X9X;X;X>X7X9X9X0X0X0X0X9X;X-XXXXX+X+X+X+X+X+X+X+X+X=X=X=X=X=X=X+X+X+X@XX.o.o.} H.H.K.@X@XK.K.H.o.O.v b v b b b b b b b b v T [ [ [ ' [ [ [ [ ' [ [ [ { { { o.o.|.=X=XX.{ | [ [ [ T D D T R ] w.w.w.......w.w.0.0.0.] ] ] ] ] ] 0.0.] ] ] ] ] ! ! U U , , < / 4XhX2X$X$X2X2X3X@Xz. ._ ) ( ( ( ( ( Q Q ( ( ( ( ( Y R  .=X4X4X6X4X>X>X>X>X-X-XXXXX-X;X>X9X9X9X9X>X>X;X>X;X>X-XXX|.|.|.XX-X-X;X;X;X>X>X-X|.} P } } } } } } } } } } } } } k.|.|.|.|.|.|.|.XX-X-X-X-X+X|.|.}.g.}.|.XX-X+X+X+XXXXXXX+X-X+X|.O.V V V V V V V J J V J F v L 0X0X4X-X-X-X-X>X>X8X9X0X0X0XqXJXJX:XV % , > b b b & v v , c b b b b b b b b b , b c b c c , ",
"%.%.%.&.&.&.&.&.&.&.%.%.%.%.%.+.%.+.+.+.u e e w w w w r w w r q w r r w w q 0 6 2 3 0 @.3.4.6.r.6.r.r.r.e.e.e.e.5.5.,.,.=.=.,.,.=.=.,.,.=.=.,.,.,.,.,.,.=.=.,.,.3.3.5.4.4.4.4.4.4.4.4.4.4.4.4.6.e.e.e.e.t.t.e.e.e.e.e.e.4.5.3.,.=.=.=.=.,.,.,.,.,.,.=.,.,.,.,.,.=.=.,.,.,.=.,.,.&.r 6 r w w u y u u u y y y r 6 5 0 y y q w w w e w y t t y u u @.t .       O 7 i i p i i i i i :.i p i :.:.i i i i @.@.i i i i i i i i i i i i i i i i i i i i :.:.i p i i i i i i i i i i i i i i i i i i i i i i i i i i i i i i :.i :.i 7 O                         . o 7 t 5.u.u.p.p.s.7           0 t t y t t t t t t t t y t t i 7           = 0.K.w.w.@X@X:X:X>X>X>X>X9X0X9X>X;X;X7X9X9X9X9X0X0XqXBXBXBXqX9X7X;X>X>X;X;X9X0X0X0X0X7X-XXX+X+X+X+X=X+X+X+X+X=X+X+X+X+X+X+X=X=X=X+X+X+X@X+X=X=X=X@X@X@X@X@X@XK.' D b b b b b b b b v D T T R [ [ [ R R T T ' ' [ [ [ { o.o.H.@XK...| ' ' T D B v v B D R | ..w.....w.w.0.0.] ] ~ T T T T U T ~ ] ] ] ! T T U U Z , & S @XhXhX2X3X3X3X3X@Xc. ._ ( ( ( ( ( ( ( ( Q Y Q Q Y Y Y  .@X4X4X4X4X>X:X-X-X-X-XXX-X-X>X>X9X0X9X9X9X9X>X;X;X>X-XXXXX|.XXXX-X-X;X;X;X;X>X>X-X|.k.} } } } } } } } } } } } } } k.|.|.XX|.|.|.|.XX-X-X-X-X-X+X|.|.}.g.|.|.+X+X+X+XXXXXXXXX-X-X-X|.L V V V V V V V J J J V V & @XMX0X>X-X-X-X-X-X>X8X8X0X0X0X0X0XJXJXX.@ < b b , b v b < c b b , b b b b b b b b b b c c , ",
"+.%.%.%.%.%.%.%.&.%.%.%.%.%.%.%.+.+.+.+.u e w w w w w r w w w w w w w w w r 0 6 2 2 6 u 3.4.4.6.6.6.r.e.r.e.e.r.5.3.,.,.=.=.=.,.=.,.,.,.=.=.,.,.,.,.,.=.=.=.,.,.3.5.5.4.4.4.4.4.4.4.4.4.4.4.4.6.e.e.e.e.4.e.e.e.r.r.e.e.4.5.3.>.,.,.=.=.=.,.,.,.,.,.=.=.,.,.,.,.=.=.=.=.=.=.,.,.&.r 6 r w u u u u u u u u y r 6 5 0 y y q w y w e w y y y y t u u t         5 :.i i i p p i i i p p i :.i i i :.l l @.@.i i i i i @.i i i i i i i i i i i i i i i i :.:.i i i i i i i i i i i i i i i i i i i i i i i i i i i i i i :.@.i i 5                     O o 7 i >.7.u.s.a.a.a.a.p.7         O y y t p t t t t t t t t t t t t O         O ~ w.i.c.w.@X+X:X>X>X>X>X>X>X9X9X>X;X;X;X9X9X9X9X9X9XqXqXBXBXmX0X9X7X>X>X>X>X7X9X0X0X0X0X>X-X+X+X+X+X=X+X+X+X+X+X+X+X+X+X=X=X+X+X+X+X=X=X=X=X=X@X+X@X@X+X@X=X=X=XK.[ v v b b b b b B T T T T [ R [ T T D D D D D R [ [ ' { ..X.....| | ' T D v v v v v v U ] | ......| ] ] ] T T B v v b b b v m T T T U U U m c c , d q.sXhX6X2X3X3X3X$Xc. .) / ( ^ ( ( ) ) ) ) Q Q Y Q Y Y R c.5X4X4X>X:X-X-X-X-X-X+X-X>X>X9X0X0X0X9X9X9X>X>X>X;X-XXXXX|.XX-X-X>X>X;X;X-X-X-X>X-X|.}.} } } } } } } } } } } } } } |.|.+X-XXX|.|.|.XXXX-X-X-X-X-X-XXX|.g.}.|.|.XX-X+XXX+X-XXX+X-X-X-X|.L V v V J F J V V J J V & V :XJX0X>X>X-X-X-X-X>X>X8X0X8X0X0X0XJXZX=X% @ b , : b & & , , , , , , , b b b b v b , c c , ",
"+.%.%.%.%.%.%.%.%.%.%.%.&.%.%.%.+.+.+.+.u e w w w w r r w w w q w w w w w r 6 2 3 2 6 y >.4.4.6.6.6.r.e.r.r.r.r.5.3.,.,.=.=.=.,.,.,.,.,.=.,.,.,.,.,.,.=.=.=.,.3.3.5.4.4.4.4.4.4.4.4.4.4.4.4.4.6.e.e.e.e.4.4.e.e.r.r.r.e.4.3.,.*.*.*.*.=.=.,.,.,.,.,.,.=.,.,.=.=.=.=.=.=.=.,.,.,.%.r 6 r y u u u u u u u u w r 6 6 r y y y w y y w w u u y y t y i 7       O t i t i :.:.:.i i i :.i :.:.i i :.:.i i i i i i i i i i i i i i i i i i i i i i i i p p i i i i i :.i i i i i i i i i i i i i i i i i i i i i i i i i i i i i :.o             . O o p :.3.5.7.6.r.u.p.eXeXeXeXp.5         7 p p t y t t t t t t t t y t t o         . U w.w.w.w.q.@X=X:X:X>X>X>X>X>X9X0X7X;X;X;X9X9X9X9X9X9X0XqXBXDXDXmXqX0X7X>X;X;X>X7X0X0X0X0X>X:X-X+X+X+X+X+X+X+X+X+X+X+X+X+X+X+X+X=X=X=X=X+X+X=X+X+X+X@X+X@X@X+X@X=X@X..D v b b b b B T T [ [ T T T T T T T D D T D T ' [ ' ' | ....| ' ' T B B B B B B v b m ] ] | | | ] ] ~ T B b b b b b b b b b m m v c c n U v c , ! 3XhX6X6X2X3X$X$Xn.q._ ) ) ( ( ) ) ) ) Q Q Y Y Y Y Y d R @X4X4X:X:X-X-X-X-X-X-X-X>X>X9X9X0X0X0X9X9X>X;X>X-X-XXXXXXXXX-X;X>X>X>X-X-X-X;X-X-X-XXX}.} } } } } } } } } } } } } k.|.|.+X-X+X+X|.|.|.XX-X+X+X+X-X-X-X|.}.g.}.|.|.+X+XXX+XXXXXXX-X-X:X-X+X} L v v V V J V V V V A & J 0XJX0X8X>X-X+X+X-X:X>X8X9X8X0X0X0XJXJX=X& % b : & & b : , , , , , , , , b b b b , , > , ",
"+.%.+.+.+.%.%.&.&.&.%.%.%.%.%.%.%.+.+.u u e w r w w r r w w w w r w w w w r 6 2 2 3 3 w *.3.4.4.t.t.r.r.r.r.r.e.5.3.,.=.=.=.=.,.,.,.,.,.,.,.,.,.,.,.,.,.=.,.3.3.5.4.4.4.4.4.7.4.4.4.7.7.4.4.4.4.e.e.e.4.t.t.t.e.e.e.e.e.4.3.,.*.*.*.*.=.=.=.,.,.,.,.,.,.,.,.=.=.=.=.=.,.,.,.,.,.u 0 6 r u u u u u u u u u w 0 6 6 q y y y y y y y u u u u u u u &.3       5 i p i i i i u i :.:.:.:.:.:.:.>.:.p i i i i i i i i i i i i i i i i i i i i i i i i i i i i i i :.:.i i i i i i i i i i i i i E l l :.i i i i i i i i i i i i :.7           . t :.2.7.7.7.6.r.u.s.a.eXUXrXrXrXp.o       O t t t p t t t t t t t t t t p 7 .       O N 0.w.9.| | @X+X:X:X>X;X;X-X;X7X9X9X9X;X;X;X9X9X9X9X9X9X9X0XmXqX7X7XmXmX0X7X>X>X>X>X9X0X0X0X4X>X:X=X+X+X+X+X+X+X+X=X=X=X=X=X=X=X+X=X=X=X=X+X+X+X+X+X+X+X+X+X+X@X@X=X@X..D b b b b B T [ [ [ T T T T T T T D B D B B D D D D ' ' ' | [ [ D B b v B b b b b b v T ] ] ] ] [ T B v b b b b b b b b b b b b b v c n v v , Z q.4X4XhX6X3X$X$Xb.c. .) ) ) ( ( ) ( ) ) Q Q Y Y g > , , / $X4X4X:X:X:X-X+X-X-X-X>X>X9X9X9X9X9X9X9X>X>X>X-XXXXXXXXX-X-X>X>X>X;X-X-X-X-X-X-X-X-X-X}.} } } } } } } } } } } } } |.|.-X-X-X-X-X-X|.|.XXXXXX-XXX-X-X-X-X|.g.P g.|.|.-X+X+X+X+X-X-X-X-X;X>X:X:X|.L v & V V V J V V V & o.bX0X0X8X>X-X+XXX-X-X>X>X8X0X0X0X0XbXJX@X% < b < b < , b b b b , , , , b b b b , b b , ",
"&.%.%.+.%.%.&.&.&.&.%.&.%.%.&.&.%.%.+.u u e w r w w r r w w w w r w w w w r 6 2 2 3 2 r @.3.4.4.e.e.e.r.r.r.e.e.5.3.,.=.=.=.=.,.,.,.,.,.,.,.,.,.,.,.,.,.,.,.3.3.4.4.4.4.4.4.4.4.4.4.4.4.4.4.4.4.e.e.e.4.4.4.4.t.e.e.e.4.4.3.,.*.*.*.*.*.=.=.,.,.,.,.,.,.,.=.=.=.=.=.=.=.,.,.,.=.e 0 6 w u u u u u u u u y q 6 2 0 r e w w w w w y u u u u u u u &.o       s p :.p i i :.:.<.:.i 7 o O   . o t :.i i i i i i i i i i i i i i i i i i i i i i i i i i i i i i i i i i i i i i @.i i i i i i i l l i i i i i i i i i i i :.i :.7           O 1.6.6.6.6.6.r.u.u.p.a.rXUXrXrXuXu.        5 t p t i t t t t t t t t t t p o       X N 0.0.9.| { ..@X=X:X:X>X-X-X-X;X7X9X9X9X>X;X;X7X9X9X9X9X9X9X0X0X|.V J @X0XmX0X7X>X>X>X4X0X0X0X4X4X:X:X=X+X=X=X=X:X=X=X=X=X=X=X=X=X=X=X+X+X=X=X=X+X=X=X@X+X+X+X+X+X=X5X@X..D b b v B T [ [ [ T T B T T T T B B B B B B D D D D T [ [ [ [ D B B v b b b b b B b B T ~ ~ T T B B b b b b b b b b b b b b b b b b v v b c , / 1X4X4XhX4X$Xb.b.n.z._ ) ( ( ) ) ) ) ) Q Q g , , ; < , Z q.5X4X5X:X:X+X+X+X-X-X>X>X8X9X9X8X9X8X>X>X>X>X-XXXXXXXXX-X;X>X>X>X-X-X-X-X-X-X-X;X-X-X-X}.} } } } } } } } } } } } }.|.-X-X-X-X>X>X-XXX|.|.XX+X-XXX-X-X+X-XXX}.P I g.|.+X-X-X+X+X+X-X-X-X-X-X:X>X8X4X+XL v & V V V v V V & @XJXqX0X4X>X-X+XXX+X-X>X>X8X0X8X0X0X0XbXX.@ < b : < b : b b b : , : : b : b , : b b : ",
"&.&.%.%.%.%.&.&.&.&.&.&.%.%.&.&.%.%.+.u u e w w w w r r r r w w r r w w w r 6 6 2 3 2 0 +.3.4.t.4.e.e.r.r.r.e.e.3.,.,.=.,.=.,.,.=.,.,.,.,.,.,.,.,.,.,.=.,.3.3.5.4.4.4.4.4.4.4.4.5.4.7.7.4.4.4.4.e.e.e.t.4.4.4.4.4.4.4.4.5.3.,.*.*.*.*.*.=.=.,.,.,.,.,.,.,.=.=.=.=.=.=.=.,.,.=.=.r 6 0 e u u u u u u u u u q 6 5 0 e e w w w y w y u u u u y y y u 5       O o 7 i :.:.:.i 7 O               o >.i i i i i i i i i i i i i i i i i i i i i i i i i i i i i i i i i i i i i i i i i i i i i i @.@.i i i i i i i i i i i :.i i p           O 3.6.7.r.d.r.u.u.p.a.rXtXtXtXuXgX6.      O 7 t p t t t t t t t t t t t i 7       O N 0.w.9.| | | @X=X=X:X:X-X-X-X-X>X9X9X9X9X;X;X;X;X9X9X9X9X9X9X9X7Xg.& % V @X0XmXqX4X>X4X4X4X4X4X4X4X5X:X=X=X5X5X5X5X=X=X@X@X5X5X5X5X5X5X5X=X5X5X=X=X=X=X=X=X=X=X=X=X5X=XK.[ D v v b B T T T T T B B B B B B B B B B B B B B D D T T [ [ T D B B b b B B b b B b B B B B B v b b b b b b b b b b b b b b b b b b v v v v U n.3X3X4X6X4X$Xc.c.c.q._ ) ( ) ) ) ) ) Q Q h - ; , 9 U ! 9.@X5X5X5X:X=X+X+X=X:X:X>X>X>X8X>X>X>X>X>X>X;X-X+XXXXX-X-X>X>X>X;X-X-X-X-X-X-X-X-X;X-X>X-X|.} } } } } } } } } } } k.|.+X-X-X-X>X>X>X>X-X|.|.+X-X+X-X-X+X+X-X-X|.g.L P k.|.+X-X-X-X-X-X:X>X-X-X-X-X>X7X0X0X=XO.& & V V v V & V 4XbX0X0X>X>X-X+XXX+X=X>X>X8X0X0X0X0XJX0XA % b < & , : : : b : : : : , : : b : : , , ",
"&.&.%.%.%.&.&.&.&.&.&.&.%.%.&.&.%.%.+.+.u e w w w w r r r r r w r r w w w r 6 6 2 2 2 0 +.3.4.t.4.4.e.r.r.r.e.e.3.,.,.=.,.=.,.,.,.,.,.,.,.,.,.,.,.,.,.,.,.3.3.5.5.4.4.4.4.4.4.4.4.4.7.7.4.4.4.4.e.e.e.t.4.4.4.4.4.4.4.4.5.3.,.*.*.*.*.*.=.=.,.,.,.,.,.,.,.=.=.=.=.=.=.=.,.,.=.*.r 6 r u u u u u u u u u y r 6 5 0 e e w e w y w y y y y y y y t u t             . O O                       O :.i i i i i i i i i i i i i i i i i i i i i i i i :.:.i i i i i i i i i i i i i i i i i i i i @.@.i i i i i i i i i i i :.i i :.O           :.6.u.r.u.u.p.a.a.rXrXtXuXuXgXgX@.      o t t t i t u t t t t t t t t p O     . p 0.0.w.9.| w.@X5X=X:X:X:X-X-X:X:X>X>X9X9X9X7X;X;X;X9X0X9X9X9X9X0X0XXXH f & & L >XqX0X4X4X4X4X4X4X5X5X5X5X5X5X5X5X5X5X5X@X1X5X5X5X5X5X5X5X5X5X5X5X5X5X@X=X=X=X=X=X=X5X5X@XH.T v B B B B B B B B B B B B B B B B B B B B B B B B B B B T T T D B b b b b b b b b b b b b b v b b b b b b b b b b b b b b b b b b b b b v , q.3X@X3X4XhX4X@Xc.c.z. ._ ( ( ) ) ) ) Q Q h h Y Q 9.s.i.1X1X1X5X5X5X5X=X=X:X:X:X>X>X>X>X>X>X>X>X>X>X-X-X+X|.XX-X>X>X>X>X>X-X-X-X-X-X-X-X-X-X;X-X>X-X|.k.} } } } } } } } } } |.+X-X-X>X>X>X-X>X>X-X|.|.|.-X+X+X+X+X+X+X-X+X|.L L I } |.|.+X-X:X:X:X>X-X-X-X-X>X>X>X0XqX0X@XV v V V v v v } 0XqX0X0X>X>X-X+X+X-X-X>X>X>X8X0X0X0X0X@X& < : b < : : : : : : : : : : : b : b , : ",
"+.%.%.%.%.%.%.%.%.%.%.%.%.%.%.%.%.%.%.u u e w w w w r r w w w w w r w w e 0 6 6 6 2 2 6 +.,.4.t.t.e.e.r.r.r.e.4.3.3.=.,.,.=.,.,.,.,.,.,.,.,.=.,.,.,.,.,.,.3.5.4.t.4.4.4.4.4.4.4.4.4.4.4.5.4.4.4.e.e.e.e.4.4.4.4.4.4.4.5.5.3.*.*.=.*.*.*.*.,.,.=.,.,.,.,.,.=.=.=.=.=.,.,.,.3.,.%.6 0 q y u u u u @.u y u t 0 5 6 q q y w w w w w w w w w w y y y u u 5       .                               O @.p @.p :.:.p i p :.@.:.:.p i :.i i i i i @.@.@.@.@.@.i i i @.@.i i i i i i i :.:.@.i i i l i i @.:.i i i :.i i i :.i i :.p :.:.7           o 6.u.u.p.p.p.UXrXrXuXuXgXgXfXtX1       7 t t p t t t t t t t i t 8 E s       9 u.0.w.w.w.w.@X@X:X:X:X-X:X-X-X-X-X>X7X9X0X0X7X>X;X;X7X9X9X9X0X9X0X0X>X} V V & & S @X4X4X4X5X5X5X5X5X1X5X5X5X5X5X5X5X5X1X@X@X1X1X5X5X5X5X5X5X5X5X5X5X5X5X5X5X5X=X5X5X5X@Xw.[ B v B B b B B B B B B B B B B B B B B B B B B B B B B B B T T B B v b b b B B b b b b b b b b b b b b b b b b b b b b b b b b b b b b b b : c @X3X@X@X4XhX4X$Xc.z.z.q.) ( ) ( ) ) Q Q ! 2.w.i.<XyX1X<X1X1X1X1X5X5X5X5X:X:X:X4X4X4X>X>X>X>X>X>X>X:X:X+X|.+X-X>X>X>X>X>X;X-X-X-X-X-X-X-X-X-X-X-X-X-X+X}.k.|.}.k.} } } } }.|.+X-X:X>X>X>X>X>X>X>X-X|.|.|.XX+XXXXX-X-X-X-X+X+X} L L L L } |.|.+X+X:X>X>X-X-X-X-X>X>X>X8X0X0X+XV & V V V & V +X0XqX0X9X>X-X-XXXXX+X-X:X>X8X0X0X0X0X4XH % : : b , : : : b b : : : b : b : : b : ",
"%.%.%.%.%.%.%.%.%.%.%.%.%.%.%.%.%.%.%.u u e w w w r r r w w w w r r w w r 0 6 2 6 2 2 6 u ,.4.4.t.e.e.r.r.r.e.4.3.3.=.=.,.=.,.,.,.,.,.,.,.,.,.,.,.,.,.,.,.3.5.4.t.4.4.4.4.4.4.4.4.4.4.4.5.4.4.4.e.e.e.e.4.4.4.4.4.4.5.5.5.,.*.*.*.*.*.*.*.,.,.=.,.,.,.,.,.=.=.=.=.=.,.,.,.,.=.u 6 0 q y u u u u u u u u t 0 5 6 q q y w y w w w w w w w w y y y e y t 5 O                                   O :.i i l t i >.y :.i :.i :.<.p i p i i i i i i @.@.i i l l i @.i i i i @.@.i i E l i i i i l E i i i i i i :.:.i i i i i :.p i :.7           O <.u.u.p.a.a.rXrXiXuXgXgXgXgXp..     O 7 t t t t t p y t t p t t l 7 .     7 7.u.0.w.w.w.@X@X5X:X:X:X-X:X-X-X-X-X>X>X9X0X0X7X>X;X;X;X9X9X9X0X9X0X0X9X+XJ f V f & F 4XsXsXsXsXsX5X4X5X5X5X5X5X5X5X4X4X5X1X1X1X1X5X5X5X5X5X5X5X5X5X5X5X5X5X@X@X@X@XK.X.' D v B B b b B B B B B B B B B B B B B B B B B B B B B B B B B B B B B b b b b b b b b b b b b b b b b b b b b b b b b b b b b b b b b b b b b < T 5X3X@X@X4XhX4X$Xc.z.z. .) ( ( ( ( ) 9.w.i.S.<XyXyXyXyX<X1X1X1X1X5X5X5X5X5X5X:X4X4X4X4X>X>X>X>X:X:X=X+X+X+X-X>X>X>X>X>X>X;X-X-X-X-X-X-X-X-X-X-X-X-X-X+X|.|.@X|.|.|.|.|.|.@X+X:X-X:X-X-X>X;X>X>X>X-X|.|.|.|.|.XX+X-X-X+X-X:X+X|.L J O.O.L L L o.} |.:X>X>X-X-X-X>X>X8X>X>X0X0X@XV & V v V & O.:X0XqX0X0X8X>X-X=X=X=X=X:X>X8X0X0XqX0X..% : : & : : : : b b : : : b b b : : b : ",
"%.%.%.%.%.%.%.%.%.%.%.%.%.%.%.%.%.%.%.+.u e w r w w r w w w w w r r w w r 0 5 2 6 2 2 6 e ,.5.4.4.e.e.r.r.r.e.4.3.3.=.=.,.=.,.,.,.,.,.,.,.,.,.,.,.,.,.,.,.3.5.4.t.t.4.4.4.4.4.4.4.4.4.4.4.4.4.4.e.e.e.e.4.4.4.4.4.5.5.5.3.,.*.*.*.*.*.*.*.*.,.,.,.,.,.,.,.,.=.=.=.=.,.,.=.,.&.w 6 0 w u u u u u u u u u t 6 5 6 w y y w e w w w w w w w w y y y w t y u 0 o .                       .     . 7 :.i p i i p :.:.7 . . . 5 :.l :.:.i i i i E i E l i E E E l i i i i i i i i i i i i i i i E E i i i i i i :.:.i i i :.:.:.i i :.i .           7 u.s.p.a.UXrXrXtXuXgXgXgXaX>.      o t t t t t y p t t t p t p t .     o 2.s.u.w.w.w.K.@X5X:X:X:X-X-X:X-X-X-X;X>X>X9X9X9X9X>X;X;X;X7X9X9X0X9X0X0X0X>XP V V S f V 4XvXvXCXdXjXsXsXsXsXsXsXsXdXdXjXjXsXpX1X5XpXpXpX5X5X5X5X5X5X5X5X5X1X5X@XK.w.' T A v v m B B B B B B B b b b b B B B B B B B B B B B B B B b b B B B B B b b b b b b b b b b b b b b b b b b b b b b b b b b b b b b b b b b b b : % w.4X2X$Xv.3XhX6X$Xc.z.q._ ) ) ) ) Q Q 9.S.<XyXyXyXyXiX<X<X<X<X1X1X1X1X5X5X5X5X4X4X4X4X4X4X4X:X:X5X=X@X@X+X:X>X>X>X>X>X>X>X;X-X-X-X-X-X-X-X-X-X-X-X-X-X+X|.|.@X@X@X@X@X@X@X+X:X:X:X:X-X-X>X>X>X>X>X+X|.}.|.|.|.XXXX+X+X+X=X:X-X|.P L L O.H J J J J } :X>X>X-X-X-X>X>X>X8X>X4X0X0Xo.v V v V & & o.:X0XqX0X0X0X4X-X-X=X=X=X:X>X4X0X0X0XK.% : : & : : : : b : : : : b b b : : b : ",
"%.%.%.%.%.%.%.%.%.%.%.%.%.%.%.%.%.%.%.+.u e w r w r r r w w w r 0 w w w r 6 5 2 6 6 2 6 w *.5.t.4.t.e.r.r.r.e.4.3.3.=.=.=.=.,.,.,.,.,.,.,.,.,.,.,.,.,.,.3.3.4.4.t.t.t.4.4.4.4.4.4.4.4.4.4.4.4.4.e.e.e.t.4.4.4.4.4.5.5.5.3.,.*.*.*.*.*.*.*.*.=.=.,.,.,.,.,.,.=.=.=.=.=.,.,.=.%.r 6 r w u u u u u u u u y q 7 6 0 y w y y y w e w w w w w w y y y y w e y u t 7 o .                   .     5 :.i p i p :.i :.t         O 7 :.:.u i i i i l E E l i i E E l @.@.i i i i i i i i i i i i i E E l i i i i i :.:.:.i i :.i :.i i :.:.o           o 6.s.p.a.UXrXrXtXuXgXgXgXuX7       7 t t t t t p t t t p 7 t p o     O <.u.u.s.w.w.i.@X5X:X:X:X:X-X-X:X-X-X-X-X>X>X9X9X9X9X7X;X;X;X7X0X9X0X9X9X0X0X7Xk.V V V V V @XCXCXVXCXCXVXVXVXVXVXVXVXVXVXVXVXCXfXsXsXfXfXaXpXpXpXpXpXpXpXpX5X5X5X1X1Xw.! U , b v B B b b b b B B b b b b b b b b b b B B B B B B B B B b B B B B b b b B b b b b b b b b b b b b b b b b b b b b b b : b b b b b b b b : : : % @X4X3X$Xc.3XhXhX3Xc.z.q._ _ ) ) ) Q Q 9.S.yXyXyXiXiXrXrXiX<X<X<X1X1X1X1X5X5X5X5X5X5X4X5X5X5X5X5X@X@X@X@X=X:X>X>X>X>X>X>X>X>X;X;X-X-X-X-X-X-X-X-X-X-X:X+X|.@X@X@X@X@X@X@X@X=X:X:X:X:X-X-X>X>X>X>X>XXX}.}.}.}.|.|.|.+X+X+X-X-X+X|.L L L L O.H J V V L =X>X>X-X-XXX;X>X>X>X9X>X>X0X:XF & V V V v & { =X0XqX0X0X0X>X>X-X-X-X-X:X>X4X0XbXK.< < b : : : : : : : : : : b : b b b b , ",
"%.%.%.%.%.%.%.%.%.%.%.%.%.%.%.%.%.%.%.u u e w r w r r r w w w r r w w w r 6 2 2 6 6 6 6 r *.5.t.4.t.e.e.r.r.e.4.3.3.=.=.=.=.,.,.,.,.,.,.,.,.,.,.,.,.,.,.3.5.4.4.t.e.4.4.4.5.4.4.4.4.4.4.4.4.e.e.e.e.e.t.t.4.4.4.4.5.5.5.3.*.*.=.=.=.=.=.=.=.=.=.,.,.,.,.,.=.=.=.=.=.=.,.,.=.u 0 6 r y u u u u u u u u t q 7 6 0 w y y w y y y w w w w w w y y y e y y y y u u t u t t 8 8 o             7 i i p i i :.p :.p .             :.:.@.i i i i i i i l :.:.l l l i i @.i i i i i i i i E @.l l l E @.i i i i i :.:.:.i i i i i :.i i :.7             <.p.p.a.eXUXrXtXuXgXgXfXa..       7 t t t t t p t y t y 7 p 7       i d.0.u.i.w.i.K.@X@X:X:X:X:X-X-X-X-X-X-X;X;X>X>X9X9X9X7X;X;X;X7X9X9X9X9X0X0X0X7XL V V V V & A sXCXCXCXCXVXCXCXCXCXCXCXVXVXVXVXVXdXfXjXVXVXjXfXpXpXpXpXpXpXpXpXpXyX5X5X1X1Xw.0.m b b v B b b B B B B b b b b b B B B B B B B B B B b b b b B B B B b b B B b b b b b b b b b b b b b b b b b b b b b b b b b b b b b b : : : : < 1X4X2X$Xc.@XhXhX3Xc. . ._ _ ) ) ) ) Q 9.<XyXyXyXyXyXiXiXrX<X<X<X<X<X1X1X1X1X1X1X1X1X1X1X1X1X1X1X1X1X@X5X:X4X>X>X>X>X:X>X>X>X;X-X-X-X-X-X-X-X-X-X>X:X=X@X@X@X@X@X@X@X@X@X+X:X:X:X:X:X-X-X>X>X>X>X-X|.}.k.k.}.}.|.|.|.+X+X-X-X|.} L O.O.O.O.O.F J V H +X>X>X>X-X-XXX>X>X>X>X>X4X>X0XX.& V V V V & & L =X0XqX0X0X0X9X>X:X-X:X:X:X4X0X4X' < < b : b b b b : : : : : : b b b : b : ",
"%.%.%.%.%.%.%.%.%.%.%.%.%.%.%.%.%.%.+.+.u e w r w r r r r r w w r w w w 0 6 2 6 6 6 6 2 0 &.3.4.4.t.e.e.r.r.e.4.3.3.=.=.,.=.,.,.,.,.,.,.,.,.,.,.,.,.,.,.3.5.4.4.t.e.4.4.4.4.4.4.4.4.4.4.4.4.4.4.t.t.e.t.4.4.4.4.4.5.5.5.3.*.*.*.=.=.=.=.=.=.=.=.,.,.,.,.,.,.=.=.,.=.,.,.=.&.u 6 6 e u u u #.u u u u u y 0 7 6 q y y y w e y e w w w w w w y y y y y y y y t u i t p i p i 7           7 :.i p i i i @.:.i o         .     :.:.i i i i i i i i i l :.l l l l @.@.i i i i i i i i @.@.l l E E @.@.i i i i :.:.i i :.i i i :.:.i :.p             t s.p.a.a.UXrXtXuXgXgXfX5.      O t t t t t t p t t t t p 8 .     t d.0.u.s.s.i.i.i.@X@X:X:X:X:X:X-X-X-X>X>X-X-X-X>X7X9X9X7X>X;X;X>X9X9X9X0X0XqX0X|.J V V V V C & q.CXCXCXVXCXCXCXVXVXVXVXVXVXVXVXCXdXfXVXVXVXVXVXfXsXpXpXpXpXpXpXpXpXpXpXaXpXyX1XL.0.m b b b b B B B B B b b b b B B B B B B B B B B B B b b B b B b B b b b b b b b b b b b b b b b b b b b b b : : b b b b b b b b b b : : : : % @XhX4X3Xc.c.4XhX2Xc. . .q._ ) ) ) ) Q w.<XyXyXyXyXiXiXrX<X<X<X<X<X<X<X<X1X1X1X1X1X1X1X1X1X1X1X1X1X1X1X5X5X4X4X>X>X>X:X>X;X-X-X-X-X-X-X-X-X-X;X>X>X:X=X@X@X@X@X1X1X@X@X@X=X:X>X:X:X-X-X-X>X>X>X>X-X|.}.} } } k.k.k.}.|.|.+X|.k.L O.O.O.J H H F J V J |.4X>X>X-X-XXX>X>X>X>X>X>X>X4X+XV v V V V V & & F @X>X0XJXJXqX0X4X4X>X:X=X5X@X..& & & : : : : b b : : : : : : : b : : b : ",
"%.%.%.%.%.%.%.%.%.%.%.%.%.%.%.%.%.%.+.u u e e w w w r 0 0 r w w r w w w 6 2 2 6 6 0 6 2 6 +.3.4.4.e.e.e.e.e.4.4.3.,.=.=.,.=.,.,.,.,.,.,.,.,.,.,.,.=.,.,.3.4.4.t.t.t.t.4.4.4.4.4.4.4.4.4.4.4.4.4.4.4.4.4.4.4.4.4.4.5.5.5.3.*.*.*.=.=.=.=.=.=.=.,.,.,.,.=.,.,.,.=.,.=.,.,.=.%.w 6 0 w u u u u u u u u t t 0 7 0 q y y y e y e e w w w w w w y y y y y y t t t t t i i i i i t         O :.i p i :.i i p :.5               7 :.:.i i i i i i i @.i N i l l @.@.i i i i i i i i i i @.i i i i @.@.@.i i i i :.:.i i :.i :.i i :.i :.:.O           O 6.p.a.a.UXrXiXuXuXaXgXq       o t t t y t t p t t t p t o     = 6.u.0.s.s.s.<X<Xi.w.@X=X:X:X:X:X-X-X-X:X:X|.|.|.-X>X9X9X7X>X;X;X;X7X9X0X0X0X6X=XH V V V V V A & C sXCXCXCXVXVXVXVXVXVXVXVXVXVXVXVXfXfXVXVXVXVXVXkXdXfXaXpXpXpXpXpXpXpXyXyXyXpXaXpX1Xi.~ m M b b b b B B B B B b B B B B B B B B B B B B b b b b b B b b b b b b b b b b b b b b b b b b b b b b b b b b : b b b b b b b : : : : % w.sX4X3Xc.j.$XhX4X@X_ _ q._ ) ) ) ) Q w.<XyXyXyXyXiXiXiXrXrXrX<X<X<X<X<X<X<X<X<X<X<X<X<X<X<X1X<X<X1X1X1X5X4X4X>X>X>X>X-X-X-X-X-X-X-X-X-X;X-X>X:X:X:X@X@X@X1X@X1X1X1X1X@X=X:X4X:X:X:X:X>X>X>X>X>X-X|.k.} } } } } } } } } } o.L J L } } O.J F F J V V } 4X4X>X;X-XXX-X>X>X>X>X>X9X>X>XH & V V V V v & < v ' H.:X8X0XbX0X4X4X=XK.' A % % & & < : : : : : : : : : : : : b : : , : ",
"+.%.%.%.%.%.%.&.%.%.%.%.%.%.%.%.%.%.+.u u e e w w w 0 0 0 r w w r w w r 6 2 2 6 6 0 6 2 6 +.3.4.4.e.e.e.e.e.4.5.3.,.=.,.,.=.,.,.,.,.,.,.,.=.,.,.=.=.,.,.3.4.4.t.t.t.4.4.4.4.4.6.4.4.4.4.4.4.4.4.4.4.4.4.4.4.4.4.4.5.5.5.3.*.*.*.,.=.=.=.=.=.=.,.=.=.=.=.,.,.,.=.,.=.,.,.&.u r 3 0 w u u u u u u u u y q 5 7 0 w y y y y y e e e w w w w w y y y t t t y t t u u i :.E W E p         O :.:.i i :.:.:.i 5               O :.i p :.i i i i i i @.@.i i @.@.@.@.N N :.:.i i i i i i i i i i @.@.@.@.:.i i i :.i i i :.i :.i i :.i :.<.o             <.u.p.a.eXUXrXuXgXaXrXO       o y t t p t t p t p t p o     O 2.u.d.u.s.i.S.<X<Xi.w.q.@X:X:X:X:X:X-X-X-X+X}.P P |.-X7X9X>X>X;X;X;X>X>X>X>X-X}.J f V V V A C C A & sXCXVXCXCXVXVXVXVXVXVXVXVXVXVXVXfXfXVXVXVXVXVXVXVXVXdXsXaXpXpXyXyXpXpXpXpXyXyXpXpXpX1Xw.~ b M b b B B B B B b B B B B B B B B B B B b b b b b b B b b b b b b b b b b b b b b b b b b b b b b b b b b b b b b b b b b : : : : @ w.4X4X3X$Xj.@X6XhX$X_ _ q._ ) ( ) ) ) w.<XyXyXyXyXiXiXiXrX<X<X<X<X<X<X<X<X<X<X<X<X<X<X<X<X<X<X<X<X<X1X1X4X4X4X>X>X>X:X-X-X-X>X-X-X-X-X-X-X:X>X:X:X+X@Xc.@X1X1X1X1X1X1X5X5X:X4X:X:X:X:X>X>X>X>X>X-X|.} } } } } } o.L L O.O.H J L |.:X*Xo.J J J V V & o.>X0X>X>X-X-X-X>X>X>X>X4X>X>X0X} & V V V J J A < < % % V O.X.@X+X@X..J & % < < < < : < : : : : : : : : : : : : : : : : : ",
"%.%.%.&.&.&.&.&.&.&.%.%.%.%.&.&.&.%.%.u u e w r w w r r r w w w r w e w 6 3 2 6 0 0 6 2 6 u ,.4.t.t.e.e.e.6.5.3.3.,.=.,.,.,.,.,.,.,.,.,.,.,.,.,.=.=.=.3.3.5.4.t.e.e.e.e.e.t.4.4.4.4.t.e.t.4.4.4.t.t.t.4.4.4.4.4.4.4.5.5.3.=.=.=.=.,.=.=.=.=.=.,.,.,.,.,.=.,.=.=.,.=.=.=.&.w 6 6 q y u u u u u u y y y 0 7 7 0 y y y y y y y y y y y y y t y y y y t t y t t u i i l :.l :.E O       . 7 :.:.:.:.t 7 O               o i :.i p i i i i i i i i i @.@.l l l i i i i i i i :.:.:.:.i :.:.:.l l :.:.@.i i i E l i i i i i i i i i i :.7             7 u.p.a.a.eXiXuXgXfXr.        7 t p t t t t t p y @.7     . E u.u.u.s.i.i.<X<X1Xn.....@X+X:X:X=X+X|.|.|.}.P L I |.-X>X>X>X;X;X-X;X;X>X>Xk.J V f V V J V A C C A & sXPXVXVXVXVXVXVXVXVXVXVXVXVXVXVXsXfXVXVXVXVXVXVXVXVXVXVXdXfXaXpXpXpXpXyXyXyXyXyXpXyXyXyX<X0.M b b M b b B B b B b b B B B B B b B B B b b b M b b b b b b b b b b b b b b b b b b b b b b b b b b b b b b b b b b : : : : : : $ T 4X4X4X$Xz.c.2XhX3X ._ _ _ _ ) ) Q Q 9.<XyXyXyXyXiXiXrX<X<X<X<X<X<X<X<X<X<X<X<X<X<X<X<X<X<X<X<X<X<X<X1X5X4X4X4X>X:X>X:X-X-X-X;X;X-X;X-X-X:X:X:X@Xc.w.@X1X1X1X1X1X1X1X5X5X:X:X:X:X:X>X>X>X>X>X>X+X}.} } } } o.o.o.o.L O.J J J } :X4X>X|.J V J V V & H :X0X>X>X-X-XXX-X>X>X>X>X4X>X0X+X& V V V V { |...o.H c % @ @ % < % % % % & & & & : b : : : < : : : b b b b : : b : : : : ",
"+.%.%.%.%.&.&.&.&.&.%.%.%.%.&.&.&.%.%.u u e w r w w r r r w w w r w w 0 6 2 2 6 r 0 6 5 6 u >.5.t.t.e.e.e.4.5.5.3.,.=.,.,.,.,.,.,.,.,.,.,.,.,.,.=.,.=.3.3.5.4.t.e.e.e.e.e.t.4.4.4.4.e.e.4.4.4.4.t.t.t.4.4.4.4.4.4.4.4.5.3.,.=.=.=.=.=.=.=.=.,.,.=.=.,.,.=.=.=.=.,.=.=.=.%.r 6 6 y u u u u u u u y y q 0 7 0 q y y y y y y y u u y y y y y y y y t y y t y t u @.N :.E :.<.<.7           . O . . .                 o i :.i :.:.i i i i i i i i i @.@.E l l i @.i i i i :.:.:.:.:.l :.:.:.&.:.:.:.i i i i :.E @.@.i i i i i i i i :.p O           O 5.s.p.a.UXrXtXgXaX:.      . 7 t t t t p y t t @.t . .   s d.u.u.u.s.i.S.<X1X1Xn.| { o.X.}.|.}.} } }.|.}.} I P |.-X-X;X;X-X;X;X;X>X;XXXP V f f V V V A C A S f & sXCXVXVXVXVXVXVXVXVXVXVXVXVXVXVXaXfXVXVXVXVXVXVXVXVXVXVXVXjXdXaXaXyXuXpXpXpXpXyXyXyXyXpXpXyX<X~ M b B B b B B B B B M B B B B B B B B b b B M b b b b b b b b b b b b b b b b b b : : : : b b : : : : b b b b : : : : : : : : : U 5X4X4X3Xc. .b.hX4Xz.`  ._ ) ) ) Q Q w.<XyXyXyXyXiXiXrX<X<X<X<X<X<X<X<X<X<X<X<X<X<X<X<X<X<X<X<X<X<X<X1X5X4X4X4X:X:X>X>X>X:X:X-X-X-X>X-X:X>X:X=Xc.q.w.@X1X1X1X1X1X1X1X1X5X4X4X:X:X:X:X:X>X>X>X>X|.} } o.o.} o.o.o.L L O.J J L |.>X4X4X+XL J V V V & J =X0X>X>X>X-XXX-X>X>X>X>X>X>X0X:X& V V V V { +X:X4X4X=Xw.A % @ % < % % & & & : < : : : & : : : : : : : : : : b : : : : * ",
"+.+.%.%.%.%.%.%.&.&.%.%.%.%.&.&.&.%.+.u u e e w w w r r r w w w w w w 0 2 2 2 6 r r 0 5 6 w >.4.t.e.e.e.e.6.5.5.3.,.=.,.,.,.,.,.,.,.,.,.,.,.,.,.,.,.,.3.3.4.4.t.t.t.e.e.e.e.4.4.4.4.4.4.4.4.4.4.4.4.4.4.4.4.4.4.4.4.4.4.3.,.=.=.,.=.=.=.=.,.,.,.=.=.=.=.=.=.=.=.,.=.,.=.u 6 6 0 y u u u u u u y y y q 6 7 q y y u y y u u u u u u u u u y y y y y y y u u t u @.:.:.E <.<.<.l .               .                 7 i :.:.i i i i i i i i i i i i @.i i :.@.@.@.@.i i i :.:.:.:.:.i i :.:.:.:.:.:.i i i l i i @.@.i i i i i i i i i :.s             t u.s.a.rXrXuXgXuX5       o t t t t t t t p t t O     O 1.s.u.u.s.i.i.<XiX1X1Xn.| R { { { L L L L } |.+X|.} } |.-X-X-X-X-X-X;X;X>X;XXXL V V V V V V V C A & & Z CXCXVXVXVXVXVXVXVXVXVXVXVXVXVXjXaXfXVXVXVXVXVXVXVXVXVXVXVXVXVXdXfXaXuXuXuXyXyXpXyXyXyXyXuXgXgXyXs.~ M b M B b M B B B B B B M B B b b b b b b b b b b b b b b b b b b b b b b b b b b : : : : b b b : : : : : b b : : : : : : $ , @X4XhX4X3X . .2X4Xb._ _ _ _ ) ) Q Q 9.<XyXyXyXyXiXiXiXrXrX<XrXrXrXrXrX<X<X<XrX<X<X<X<X<X<X<X<X<X<X<XyXsXsX4X4X4X:X:X:X:X:X:X:X:X:X:X:X:X4X5X@X .w.i.1X<X<X<X<X<X1X1X1X5X5X4X:X:X:X>X>X>X>X>X-X|.} o.o.o.o.o.o.o.L L H J L k.:X>X>X4X:XX.J V V V & V |.0X9X>X>X-XXXXX-X>X>X>X>X>X0X:Xv v V V C H +X>X>X8X0X0X:X..& % % % % & : : , : : : : : : : : : : b b b : : : : : : : : ",
"+.+.%.%.%.%.%.%.%.%.%.%.%.%.&.&.%.%.+.u u u e w w w r r r w w w q w w 6 2 2 2 0 r r 0 6 6 q *.4.t.e.e.e.6.6.5.5.3.,.=.,.,.,.,.,.,.,.,.,.=.,.,.,.,.,.,.3.3.4.4.t.t.t.e.e.e.e.4.4.4.4.4.4.4.4.4.4.4.4.4.4.4.4.4.4.4.4.4.4.3.,.=.=.=.=.=.=.=.,.,.=.=.=.=.=.=.=.=.=.=.=.=.&.w 6 6 w u u u u u u y t y y 0 6 6 w u t u u u u u u u u u u u u u u u y u y u u u u u @.i :.<.<.<.<.8.7                               7 <.:.p p :.i p :.i i i i i i i i @.@.i i @.@.@.@.i :.:.:.:.:.:.:.:.i :.:.:.:.:.:.@.i i i i i @.@.i i i i i i i i i :.t             o 6.s.p.eXrXuXgXUX.       o t t t t p t t t t o       t s.d.u.s.i.a.,XrXyXyX1X@X| { { { { L L L L |.:X-X|.} g.XX-X-X-X-X-X-X-X>X>X>X-X} J V S V C A V C A & & w.AXVXVXVXVXVXVXVXVXVXVXVXVXVXVXdXaXfXVXVXVXVXVXVXVXVXVXVXVXVXVXVXVXjXfXaXpXuXyXpXpXuXpXyXyXyXyXaXgXyXi.1.M M M B B B B B B B b B B B B B B B b b b b b b b b b b b b b b b b b b b b b : : b : : : : : : : b b : : : : : : : : : : ! @XsXsX3Xj./ b.2X3X_ ) _ _ ) ) ) Q 9.S.yXyXyXyXyXyXiXiXiXrXrXrXrXrXrXrXrXrXrXrXrXrXrX<X<X<XL.<XyXpXsXsXsXsX4X4X:X:X:X:X:X:X:X:X:X:X:X5X4X5Xw.9.w.S.<X<X<X<X<X<X<X1X1X5X5X4X4X:X:X>X>X>X>X:X+Xk.o.o.o.{ { o.{ o.L O.O.L }.+X>X>X>X>X4X+XH V V V V V } 4X>X9X>X>X-XXX-X>X>X>X>X>X0X>X& v V V V J @X>X:X-X>X8X0X0X=XD @ @ % % < < < : : < < < : : : : : : : : , : : : : * : : ",
"+.%.%.%.%.&.&.&.%.%.%.%.%.%.&.&.%.%.+.u u u e w w w w r r w w w r r r 0 2 2 2 0 r r 0 6 6 r *.5.t.t.e.e.e.6.5.5.3.,.,.,.,.,.,.,.,.,.,.,.=.,.,.,.,.,.,.3.3.4.4.e.t.t.t.t.e.e.4.4.4.4.4.4.4.4.4.4.4.4.4.4.4.4.4.4.4.4.4.5.3.,.=.=.=.=.=.=.=.,.=.=.,.=.=.=.=.=.=.=.=.=.=.+.0 2 6 w u u u u u u y t y q 0 5 0 y u t u u u u u u u u u u u u u u y y #.#.u u u u u @.l E <.W <.<.8.:.7 O                           :.@.:.i p i i i i i i i i l l E i i i i i i i i l :.:.:.:.:.:.:.:.:.:.:.:.&.:.:.:.l i i i i N E E i i i i i i i i i i :.O             <.u.s.a.rXtXgX6.      . 7 t t t t t t t 7 o       o 6.u.s.u.i.a.<XrXiXyXyX<X1Xw.| { o.| { { L } +X:X+X}.} }.-X-X-X-X-X-X-X-X-X-X:X-X} J V V C V V V C C C & sXPXVXVXVXVXVXVXVXVXVXVXVXVXVXVXdXaXdXVXVXVXVXVXVXVXVXVXVXVXVXVXVXVXVXVXkXdXaXaXyXyXyXuXuXuXuXuXpXyXuXpXyXL.2.M M b b B B B B B b B B B b b b b M M b b b b b b b b b b b b b b b b b b b b b b : b b b b : : : : : b b : : : : : * < ! 1XsX4X$X_  .3X2Xz.) _ ) ) ) ) Q 9.i.iXyXyXyXtXyXtXtXiXiXiXrXrXrXrXrXrXrXrXrXrXrX<X<X<X<X<XyXaXfXdXjXsXsX4X4X5X:X:X:X:X4X:X:X:X:X5X5X5X5Xw.w.w.S.<X<X<X<X<X<X<X1X1X1X5X4X4X4X4X>X>X4X>X:X@X} L { { { { { L { L H L |.=X:X>X>X>X>X4X:Xo.V V V V f H :X>X>X>X>X-XXX-X;X>X>X>X>X0X:X& & V V V V X.4X>X:X:X:X8X0XJX0X@XD & % % % % % % $ $ $ % % % % % % * * : * * : : * 9 @ ",
"%.%.%.%.%.&.&.&.%.%.%.%.&.%.&.&.%.%.+.u u u e w w w w r r w w w r r r 6 3 2 6 0 r r r 6 6 0 @.3.4.4.e.6.e.6.5.5.3.,.,.,.,.,.,.,.,.,.,.,.=.=.,.,.,.=.,.3.3.4.4.e.t.t.t.t.e.e.4.4.4.4.4.4.4.4.4.4.t.4.4.4.4.4.4.4.4.4.5.5.3.,.=.=.=.=.=.=.=.=.=.=.,.,.=.=.=.=.=.=.,.=.&.y 6 5 0 w u u u u u u u t y 0 6 6 q t u y u u u u u u u u u u u u u u u y #.#.u @.u p u i E E <.W 8.8.<.8.<.t o                         i i i i i i :.i i i i i i i i E E i i i i i l E :.:.:.@.:.:.:.:.:.:.:.:.:.:.:.:.:.E i i i i i E E i i i i i i i i :.y <.5             t u.s.p.rXiXtX@.      o 7 t t t t t t t o         <.u.7.s.s.a.,XrXiXyXyXyX<X1Xw.| { | | { { L } +X:X+X}.} }.-X>X-X-X-X-X-X-X-X-X-X+Xo.J V V C V C C C C % w.PXCXVXVXVXVXVXVXVXVXVXVXVXVXVXVXfXaXdXVXVXVXVXVXVXVXVXVXVXVXVXVXVXVXVXVXVXVXVXdXfXaXaXuXyXyXyXyXyXyXyXyXuXyXL.w.~ M b b b b b B M M B B b b b b b b b b b b b b b b b b b b b b b b b b : : : : b b b b : : : b : : : $ $ # * : 9 W 9 ; Y n.4X2Xn._ n.4X3X_ ( ) ) ) ) ) 9.w.<XyXyXtXyXtXtXtXtXyXtXiXrX<X<X<XrXrXrXrX<X,X,X,X<X<XyXaXdXdXjXdXdXsXsX4X4X5X4X5X5X5X5X4X5X5X5X5X5X1Xw.w.i.a.S.<X<X<X<X<X<X<X1X1X5X5X4X4X4X4X4X4X:X+XX.o.{ { { { { { { L H L }.:X>X:X>X>X>X>X>X>X}.V V V V & J @X4X>X>X>X-X-X-X-X>X>X>X>X0X=X& V V V V V O.:X8X:X:X:X:X>X0XqXbX0X5X@XX...| ] | | w.w.w.w.w.w.0.w.i.i.L.<X<X<X<X<XyXw.",
"+.+.%.%.%.%.%.%.%.%.%.%.&.&.&.&.%.%.+.u u u w w w w r r r w w w r r r 6 2 2 6 0 r q r 0 6 0 @.3.4.4.e.e.e.6.5.5.3.,.,.,.,.,.,.,.,.,.,.,.,.,.,.,.,.,.,.3.3.4.4.e.e.e.e.e.e.e.t.t.t.4.4.4.4.t.4.4.t.t.4.4.4.4.4.4.t.4.5.5.3.,.=.=.=.=.=.=.=.=.=.,.,.,.=.=.=.=.=.=.=.=.+.0 5 6 w y u u #.u u u y y q 0 7 0 t y u u u u y u y y u u u u u u u u u u u u #.@.u p p i :.E <.<.<.8.W <.<.<.l p 7 o o .               7 <.i p i i i i i i i i i i i i @.i i i i i :.E :.:.:.:.:.:.:.:.:.:.:.:.:.:.:.:.:.E l @.@.@.@.l l i i i i i i i i i p :.t             o 5.s.p.rXrXa.5       o 7 t t t t t t 7 O       7 7.d.u.u.i.,XrXiXyXyXyXyX<X<Xn.q.| | | { { L k.:X>X+X|.} k.-X>X-X-X-X+X+X-X-X>X:X+XL V V A A C C f A & d jXPXVXVXVXVXVXVXVXVXVXVXVXVXVXVXVXfXaXdXVXVXVXVXVXVXVXVXVXVXVXVXVXVXVXVXVXVXVXVXVXVXVXdXfXaXaXpXyXyXuXyXyXiXyX<Xs.s.w.0.N M : 8 b M M M M M M M M b b b b b b b b b b b b b b b b b b b b b b : : : * * $ $ $ $ # : : 8 M W 0.s.L.<XyX<X2.- Y @X2X3Xq._ $X3Xn.) ) ) ) ) ) ) 9.S.yXtXyXyXyXyXuXaXaXpXyXtXiXrXrXrXrX<X<XrXrXrXyXuXaXfXdXjXjXjXdXdXsXsXsX4X4X4X4X5X5X5X4X5X5X5X5X1Xn.w.w.i.S.a.,X,X,X<X<X<X<X<X1X1X5X5X4X4X4X4X4X=X@Xo.{ O.{ { { L L L H O.} +X>X:X:X>X>X>X>X>X4X+XJ v V V & V } 4X>X>X>X>X-X-X-X>X>X>X>X0X|.& C V V v V J :X0X4X:X:X-X-X>X0XbXJXbX0X4X5X@X@X@X@X1X1X1X1X1X<Xw.i.<X<X<X<XyX<XiXiXuXs.",
"u +.+.%.%.%.%.%.%.%.%.%.%.&.&.&.%.%.+.u u u w w w w w w r w w w w r r 2 3 2 6 w e q r 0 6 6 #.3.4.4.e.e.e.6.5.3.3.,.,.,.,.,.,.,.,.,.,.,.,.,.,.,.,.,.,.3.3.4.4.e.e.e.e.e.e.e.t.t.t.4.4.4.4.t.t.4.t.t.4.4.4.4.4.4.t.4.5.3.3.,.=.=.=.=.,.,.=.=.=.,.,.,.=.=.=.=.=.=.&.=.u 6 5 0 u u u #.#.u u u t y q 6 5 0 y y y u u u y y y y y u u u u u u u u u #.u u u u u p i W W <.8.l W W <.W W l l l p p t 5 .           o :.i i :.p p :.i i i i i i i i @.i i i i :.:.:.:.E E :.:.:.:.:.:.:.:.:.:.:.:.:.:.l l @.@.@.@.i l i i i i i i i i i :.i :.O             :.u.s.a.rX7..       5 t t t t t t 7 o       . 1.6.u.s.s.a.rXiXyXyXyXyXyX<X<X1Xw.| | ..o.{ o.|.:X:X+X}.} k.-X>X-X+XXX|.XXXXXX-X>X+XL V V V C V C C & % 5XPXCXVXVXVXVXVXVXVXVXVXVXVXVXVXVXVXfXaXjXVXVXVXVXVXVXVXVXVXVXVXVXVXVXVXVXVXVXVXVXVXVXVXVXVXVXkXdXfXaXuXyXuXyX<Xi.w.i.<XtXiXL.0.N 8 $ $ # : b M M M M M M M M M M b b 8 : # $ X X O O O O X X $ $ $ $ # 8 M W 2.0.s.i.L.L.,XrXrXiXtXyXiXpXyX9.; ( b.3Xb._  .3X3Xq.( ) ( ( ) Q 9.i.iXyXyXyXyXyXaXaXfXfXaXaXuXyXtXiXiXiXtXyXuXaXaXdXdXkXkXdXdXdXdXdXsXsXpXsXsXpX4X5X5X1X5X5X5X5X4X1XS.w.u.i.a.,X,X,X,X<X<X<X<X<X<X1X1X5X5X4X4X4X5X@XX.{ O.H ' { { L H H F L |.>X>X:X:X:X>X>X>X>X4X:XO.v V V V & J :X0X>X>X>X-X-X-X>X>X>X>X0XX.< C C V C V & +X0X8X>X>X-X-X:X4X0XqXqX0X0X4X=X@X@X@X1X1X1X1X<X<Xw.i.<X<XiX<X<XiXiX<XuXa.",
"+.%.%.%.&.&.%.%.%.%.%.&.&.&.&.%.%.%.%.u u u e w w r r r r r r r w r 0 2 1 2 6 w $.e w 0 6 6 u 3.4.4.e.r.e.6.5.3.,.,.,.,.,.,.,.,.,.,.,.,.,.,.,.,.,.,.,.,.3.4.4.e.t.e.e.e.t.e.e.e.e.4.4.4.4.4.4.4.4.4.4.4.4.4.4.4.4.5.5.3.,.>.*.*.=.=.=.=.=.=.=.=.=.=.=.=.=.=.=.=.=.&.e 6 6 q y t u u u u u u y q 0 7 0 q y u u u u u u u u u u u u u u @.@.u u u u u u u u u i l W :.<.<.W W <.8.W W W l l l t t 8 =             t :.:.i i i :.@.l i i i i i i :.:.:.:.:.i i i i :.:.:.:.:.l l l :.:.:.:.:.:.:.:.i i i i i i i @.i i @.:.i i i i i :.i :.5             7 u.s.p.p.7       . 7 t t t t p t 5 .       t 7.d.s.s.i.<XtXtXtXtXyXtXtXyX<X1X1Xn.w.X.X...X.+X:X:X+Xk.} k.-X>X-X|.|.|.|.|.|.+X:X@XL V V V V V C C d sXLXVXVXVXVXVXVXVXVXVXVXVXVXVXVXVXVXjXfXfXlXVXVXVXVXVXVXVXVXVXVXVXVXVXVXVXVXVXVXVXVXVXVXVXVXVXVXVXVXVXkXdXaXaXuX<Xs.0.i.<XyXuXgXuXtX<Xs.0.W 9 # $ $ $ $ X X X X X X X X $ $ # 8 M 1.0.w.i.i.i.L.<X<X<XyXuXuXgXuXyXyXtXrX<X,XL.a.a.a.S.<X<X<XyX<XQ d ) n.3Xn.^ z.3X1Xq.( ( ( Q Q 9.w.<XyXyXyXyXpXaXfXdXdXdXfXfXfXaXaXaXfXfXfXdXdXdXdXdXdXdXdXdXdXdXfXaXsXpXpXpX4X4X5X1X1X1X1X5X5XpX1XS.u.s.i.,X,X,X,X,X<X<X<X<X<X<X<X<X1X1X5X5X5X5X@X..{ R H { { / H H H H }.:X:X:X:X:X-X>X>X>X>X4X:Xo.& V V f & V X.4X0X>X>X>XXXXX:X>X>X0X0XO.& V V V C V v X.4X0X0X>X>X-X-X-X>X8X0X0X0X0X4X5X5X1X1X1X1X1X1X<Xs.a.rXrXrXiXiXtXiXiXuXa.",
"+.+.%.%.%.%.%.%.%.%.%.&.&.&.&.%.%.%.%.u +.u e w w r r r r r r r w w 0 2 1 2 6 w e e w 0 6 6 u 3.4.4.e.r.e.6.5.3.,.,.,.,.,.,.,.,.,.,.,.,.,.,.,.,.,.,.,.,.3.4.4.e.t.t.e.e.e.4.4.4.4.4.4.4.4.4.4.4.4.4.4.4.4.4.4.4.4.5.5.3.,.>.*.*.=.=.=.,.,.,.=.=.=.=.=.=.=.=.=.,.&.u 0 5 0 y u u u u u u u y t q 0 7 0 t y u u u u u u u u u u u u u u u u u u u u y u u u u u i W <.<.W W W W W W <.W l l l l l p 7 .           7 :.i :.i i :.i i i i i i i i i i i i i :.:.:.:.:.:.:.:.:.:.l l :.:.:.:.:.:.:.:.i i i i i i i i i @.l l i i i i i :.i :.7             o 6.u.p.6.o       o t t t p t t 0 o       . E d.d.u.i.a.rXtXtXyXyXtXtXtXtXyX1X1X1X@X@X@XK.|.+X:X:X+X} } }.-X>X-X|.|.|.|.|.|.|.@Xk.H V V A A C A A vXLXCXVXVXVXVXVXVXVXVXVXVXVXVXVXVXVXVXjXaXfXVXVXVXVXVXVXVXVXVXVXVXVXVXVXVXVXVXVXVXVXVXVXVXVXVXVXVXVXVXVXVXkXfXaXuX<Xs.0.i.<XtXtXtXyXuXyXaXaXaXaXpXyXyX<XL.L.i.s.i.L.L.<XuXgXfXkXVXVXVXVXVXVXVXkXfXfXaXaXuXuXyXtXiXrX,XL.,X,XL.a.a.a.a.S.,X<X<XiX<Xw.Y g q.3X1X_ ) z.$Xb.q.( Y Q Q Q 9.S.yXyXyXyXgXaXfXdXdXdXdXdXdXdXdXdXdXdXdXdXdXdXdXdXdXdXdXdXdXdXfXaXaXpXpXpXpX5X1X1Xi.1X1X1X5XpX<Xi.u.s.i.,X,X,X,X,X<X<X<X<X<X<X<X<X1X1X1X1X1X1Xw.| ' R R ' R R H H H L @X:X:X:X-X:X:X>X>X>X>X4X4XX.V V V V & & O.+X0X4X>X>X-X-X-X>X>X0X:XV & C V C C V & { 4X0X0X8X>X:X-X-X:X>X8X0X0X0X0X4X5X5X1X1X1X1X1X<Xw.a.rXrXiXtXiXtXiXiXuXS.",
"+.%.%.%.%.%.%.%.%.%.%.&.&.&.&.%.%.%.%.+.+.u e w w w r r r r r w w r 0 2 1 2 6 r e e w 0 6 6 u 3.4.4.e.e.e.6.5.3.,.,.,.,.,.,.,.,.,.,.,.,.,.,.,.,.=.,.,.,.3.4.4.e.e.e.t.e.4.4.4.4.4.4.4.4.4.4.4.4.4.4.4.4.4.4.4.4.4.5.5.3.,.>.*.*.=.=.=.,.,.,.=.=.=.>.=.=.=.=.=.,.+.r 5 6 q t u u u u u u u y q 0 5 0 q y y u u u u u u u u u u y u u u u u u u u y t y u u y p i :.<.<.W W W W W W W W W W l l l p t o           O :.i :.i i :.i i i i i i i i i i i l l :.:.:.:.:.:.:.:.:.:.:.:.:.:.:.:.:.:.:.:.i i i i i i i i i i l l i i i i i :.:.:.i               <.u.u.t         5 t t t t t 7 o         7 7.u.u.s.i.<XiXyXyXyXyXyXtXtXtXyXyX1X1X1X1X@X@X|.+X:X=X|.} k.|.-X>X-X|.|.|.|.|.|.}.k.o.F V V V C V & & sXPXCXVXVXVXVXVXVXVXVXVXVXVXVXVXVXVXVXdXaXfXVXVXVXVXVXVXVXVXVXVXVXVXVXVXVXVXVXVXVXVXVXVXVXVXVXVXVXVXVXVXVXVXdXaXyX<Xw.0.i.iXyXtXtXtXyXyXtXtXyXuXaXdXVXPXPXPXPXPXPXPXPXPXVXVXVXVXdXdXdXdXfXfXaXaXaXgXgXuXuXtXiXrXrX<X,X,Xa.a.L.,X,X,X,X,X<XrX<X<X<X<X9.Y Y q.1Xn.^ ^ n.3Xn.q.) ( Q Q 9.S.iXyXuXuXaXaXfXdXdXdXdXdXdXdXdXdXdXdXdXdXdXdXdXdXdXdXdXdXdXfXaXaXaXpXpXpXpXyX<X<Xi.<X1XyXyXpX<Xi.w.s.S.<X<X,X,X<X,X<X<X<X<X<X<X<X<X<X1X1X1X@Xw.! R R R R R R H H H } =X:X:X:X-X-X-X:X:X:X>X>X4X|.V & V V V & V { :X0X0X>X>X-X-X>X0X0XH.& V C V C C V & J =X0X8X0X4X>X:X-X-X-X>X8X0X0XbX0X4X5X1X1X1X1X1X<Xw.i.rXrXiXtXiXtXtXiXuXS.",
"+.%.%.%.%.%.%.%.%.%.%.&.%.&.%.%.%.%.%.+.+.u e w w w r r r w w e w r 0 2 1 2 6 r e e w r 6 6 y ,.4.e.r.e.e.6.5.3.,.,.,.,.,.,.,.,.,.,.,.,.,.,.,.,.=.,.=.,.3.4.e.e.e.e.t.e.4.4.4.4.4.4.4.4.4.4.4.4.4.4.4.4.4.4.4.4.4.5.3.3.,.>.=.=.=.=.=.=.,.,.=.=.>.,.=.=.=.=.>.=.y 6 2 0 y t y u u u @.u y t q 0 7 0 t y #.#.#.#.u u u u u u u y u y y y u y u u y u y y u y p i W <.<.8.W W l l W W W W W W l l l p =             p :.@.i :.i :.i i i i i i @.@.i i i i :.:.:.:.:.:.:.:.:.:.:.&.:.:.:.:.:.:.:.:.:.:.:.i i i i i i i N i i i i i i i :.i :.o             t u.7.O       . 7 t t p t t 5 .       . i 6.u.u.s.a.rXtXuXuXyXyXyXyXtXtXyXyX1X1X1X1X@X@X|.+X:X:X|.k.k.|.+X:X:X|.|.|.|.|.|.}.} o.H J V V C A f & < sXCXCXVXVXVXVXVXVXVXVXVXVXVXVXVXVXVXdXaXfXVXVXVXVXVXVXVXVXVXVXVXVXVXVXVXVXVXVXVXVXVXVXVXVXVXVXVXVXVXVXVXkXdXaXyXa.u.0.i.iXuXuXtXiXtXiXiXyXyXuXaXdXVXdXdXdXkXkXkXdXdXdXdXdXdXdXdXdXdXdXfXfXaXaXaXaXaXgXuXuXtXiXrX<XrX<X,X,X,X<X<XrXrXrXrXrX<X<X<XS.w.9.g Q n.n.q.Y _ n.b.n.q.) Q Q 9.i.<XyXpXaXaXfXfXdXdXdXdXdXdXdXdXdXdXdXdXdXdXdXdXdXdXdXdXdXdXfXaXaXaXpXyXyXyXyX<Xa.i.<XyXyXyXyX<Xi.w.i.,X<X<X<X,X<XrXrXrX<X<X<X<X<X<X<X<X<X<X@Xw.! R R R R R R H H O.|.:X:X:X-X-X-X-X-X:X:X>X>X4X|.J V V V V V & V o.=X4X4X4X>X:X4X4X@XF & V C V V C V V V H.4X0X0X8X>X>X:X-X-X:X>X4X8X0X0X4X4X5X1X1X1X1X<Xw.i.<XiXtXtXtXtXtXtXaX,X",
"u +.%.%.%.%.%.%.%.%.%.&.%.&.&.%.%.%.%.+.+.u e w w w w r r w e e w r 6 2 1 2 6 r e u w r 6 6 y ,.4.e.r.e.6.5.5.3.,.,.,.,.=.,.,.,.,.,.,.,.,.,.,.,.=.,.=.,.3.4.e.e.e.e.e.4.t.t.t.e.4.4.4.4.4.4.4.4.4.4.4.4.4.4.4.t.4.5.3.,.>.>.*.*.=.=.=.=.=.=.=.=.>.,.=.=.=.=.&.@.0 5 5 q u y y u y u #.u y q 0 5 0 q y u #.#.#.#.u u u u u u u u u u y y y t y y u u y y y y p i <.<.8.8.W W W l W W W W W W <.W W l 7 .           7 <.p :.:.p :.@.@.i i l l i i :.:.:.:.i i i i l l :.:.:.:.&.&.:.:.:.:.:.:.:.:.:.:.:.:.i i i i i i l l l l @.@.:.p :.i :.7             5 5.t         o 7 t t p t t O         = 1.6.d.u.i.S.iXtXuXuXuXyXyXyXyXyXyXyX1X1X1X@X@Xq.|.=X:X=X|.}.}.}.+X:X:X|.|.|.|.+X+X|.k.} { G V C C V C & % ! PXVXVXCXVXCXVXVXVXVXVXVXVXVXVXVXVXfXpXfXVXVXVXVXVXVXVXVXVXVXVXVXVXVXVXVXVXVXVXVXVXVXVXVXVXVXVXVXVXVXkXjXfXaXyXi.u.u.L.iXtXtXtXtXuXtXuXuXtXyXaXdXVXVXVXkXkXkXkXVXVXVXdXdXdXdXdXdXdXfXaXaXaXaXaXaXaXaXgXuXtXrXrXrXrX,XrXrX<X<X<X<XrXrXrX<X<XrX<X<Xn.w.) Y ) n.n._ ^ 9.z.n.n.q.) Q 2.w.<XyXpXaXaXfXfXdXdXdXdXdXdXdXdXdXdXdXdXdXdXdXdXdXdXdXdXdXdXfXaXaXpXpXyXyXyXyX<Xi.i.1XyXyXyXyX<Xs.w.i.<X<XrX<X,XrX<X<X<X<X<XrX<X<X<X<X<X<X<X1Xw.! R R R R R R H H o.+X:X:X:X:X-X-X-X-X:X>X>X>X>X|.G V V V C V & V & H }.+X:X:X=X+XX.F & V V V V C C V V & O.:X8X0X8X8X>X>X-X-X-X:X>X4X0X0X0X4X5X1X1X1X1X<Xs.i.rXiXtXtXtXtXtXtXaX,X",
"u +.%.%.%.%.%.%.%.%.%.&.%.%.&.%.%.%.%.+.+.u e e w w w r r w w e w e 6 1 1 2 0 q e u w r 6 6 u 3.t.e.r.e.6.5.5.3.,.,.,.=.=.=.,.,.,.,.,.,.=.,.,.,.=.=.=.,.3.4.e.e.e.e.e.4.t.t.t.e.4.4.4.5.5.4.4.4.4.4.4.4.4.4.4.t.4.5.3.,.>.=.*.*.=.=.=.=.=.=.=.=.=.=.=.=.=.>.@.u 5 5 0 y y y t u y u y y q 0 7 7 0 y y #.#.#.#.#.u u u u u u u u u u y y t y y y u u u y y y p l <.<.W W W W W l W W W W W l <.<.<.l t O           o :.u :.:.p :.@.@.i i l l :.:.:.:.:.:.i i i i :.E :.&.l :.&.:.:.:.:.:.:.:.:.:.:.:.:.:.:.i i i @.i E E l l @.@.:.i :.i i i             O t o         5 t t p t t s         . p 2.6.d.s.a.rXiXtXuXuXuXuXyXyXyXyXyXyX1X1X1X@X@Xq.@X:X:X+X|.} } }.|.+X+X|.}.}.|.+X+X|.}.} o.H A V C V C C < > VXCXVXVXVXVXVXVXVXVXVXVXVXVXVXVXVXfXpXdXVXVXVXVXVXVXVXVXVXVXVXVXVXVXVXVXVXVXVXVXVXVXVXVXVXVXVXVXVXVXVXdXfXpX<Xi.u.u.,XiXtXtXtXtXuXtXtXuXtXuXfXVXVXVXVXVXVXVXVXkXdXdXVXkXdXdXdXdXfXfXaXaXaXgXuXuXuXuXuXtXrXrXrXrXrXrXrXrX<X,X<XrXrXrX<X<XrXiX<X<XS.w.q.) Q ) n.q.( ( _ q.n.n.9.) 8.9.S.yXpXaXaXfXfXdXdXdXdXdXdXdXdXdXdXdXdXdXdXdXdXdXdXdXdXdXdXfXaXaXpXpXyXyXyXyX<Xi.i.<XyXyXyX<Xi.w.w.a.<XrXrX<X,XrX<XrXrX<XrXrXrX<X<X<X<X<X<X1Xw.! R R R R R R H H H.=X:X:X:X:X-X:X-X-X:X:X>X>X:X|.G & V C V V & V & & V F { o.{ H V & V V C V V V V V C & V H.4X0X8X8X8X>X>X-X-X-X:X>X8X0X0X0X4X1X1X1X1X<Xs.a.iXiXtXtXtXtXtXtXgX,X",
"+.+.%.%.%.%.%.%.%.%.%.%.&.&.&.%.%.%.%.+.+.u e e w e w r r r w w w e 6 1 1 5 0 w e u w r 6 6 u 3.t.e.r.r.6.5.5.,.,.,.,.=.=.=.=.,.,.,.,.,.=.,.,.,.=.=.=.,.3.4.e.e.e.e.e.4.t.4.4.4.4.4.4.4.4.4.4.4.4.4.4.4.4.4.4.4.4.5.3.,.>.=.=.=.=.=.=.=.=.=.=.=.=.=.=.=.,.>.u q 3 6 q y t y u u y y t t 0 7 5 0 q y y #.#.@.#.#.u u u u u u u u u u u y t y y y u u u y t y p E <.<.<.W W W W l W W W W W W W 8.8.W l =             p :.i i i i i @.i i i i @.i i @.@.i :.:.:.:.:.:.:.&.l l l E :.:.:.:.:.:.:.:.:.:.:.:.:.i i i @.@.@.:.i i i @.:.i :.:.i :.o             O         O 7 t t t t 7 .         o :.2.d.u.p.S.rXtXtXuXuXuXuXyXyXyXtXyX1X1X1X1X@Xc.X.@X:X:X+X}.} } } }.|.|.k.} } |.|.|.|.|.X.} { G A V V f C d % sXPXVXVXVXVXkXkXkXkXkXVXVXVXVXVXlXaXpXdXVXVXVXVXVXVXVXVXVXVXVXVXVXVXVXVXVXVXVXVXVXVXVXVXVXVXVXVXVXVXkXdXaXyX<Xs.u.s.,XtXyXyXuXtXtXtXtXtXtXuXfXVXVXVXVXVXVXdXdXVXVXVXdXdXdXdXdXdXfXfXaXpXuXuXuXuXgXaXuXtXrXrXrXrX<X,XrXrXrXrXrXrXrXrX<XrXiX<X<XS.S.i.q.9.) ) q.n.9.( ) ) q.n.q.9.) 9.i.<XpXaXaXfXfXdXdXfXfXdXdXdXdXdXdXdXdXdXdXdXdXdXdXdXdXdXfXfXaXpXpXuXyXyXyXyXiXa.i.<XyXyXyX<Xi.w.u.,XrXrXrXrX,XrXrX<XrXrXrXrX<X<X<X<XrX<X<X1Xw.! R R R { R R H { @X:X:X:X:X=X:X=X-X-X:X:X:X>X:XX.J V V V C V V V C & & & & & & & & V C V V C V V V V C & & H =X4X8X8X8X8X>X>X-X-X-X:X>X8X0XcX4X5X1X1X1X<Xs.a.iXtXtXtXtXtXtXtXuXS.",
"+.%.%.%.&.&.%.%.%.%.%.&.&.&.&.%.%.%.%.+.+.u e e w w w r r r r w w e 6 1 1 5 0 w e u w r 6 6 u 3.t.e.r.r.6.5.5.,.,.,.,.=.=.=.=.,.,.,.,.,.=.=.=.=.=.=.=.,.3.4.e.e.e.e.e.t.t.4.4.4.4.4.4.4.4.4.4.5.4.4.4.4.4.4.4.4.4.5.3.,.>.=.=.=.=.=.=.=.=.=.=.=.=.=.=.=.=.&.y 7 5 q t y y y u y u y y q 5 7 7 0 y t y u #.@.@.#.u u u u @.u u u u u u y t y y y u y u y t y p E <.<.8.W W W W l W W W W W W 8.8.8.W E 7             7 :.i i :.i i i i i i i @.@.i @.@.i :.:.:.:.:.:.:.&.l l l l :.:.:.:.:.:.:.:.:.:.:.:.:.i i i @.@.@.:.i i i i i :.i :.i <.7                       o 7 t p t t o         . t :.2.d.s.i.,XiXuXtXuXuXuXuXyXyXtXtXyX1X<X1X@Xn.q.X.@X:X:X+X}.} } } } } } } } } }.|.|.|.|.k.} o.H G V C V C A % 1XPXjXjXkXjXjXjXjXjXkXkXVXVXVXVXkXaXaXjXVXVXVXVXVXVXVXVXVXVXVXVXVXVXVXVXVXVXVXVXVXVXVXVXVXVXVXVXVXlXkXdXaXyXS.w.0.s.<XtXtXtXtXtXuXyXuXuXtXgXdXVXkXVXVXVXkXkXkXkXdXdXVXdXdXdXdXdXfXaXaXaXuXuXyXyXuXgXuXtXrXrXrXrXrXrXrXrXrXrX<XrXrXrXrXrX<XrX<X<Xi.w.i.q.9.) 9.q.q.) ) ( ) q.q.q.) 9.s.<XpXaXaXfXfXfXdXdXdXdXdXdXdXdXdXdXdXdXdXdXdXdXdXdXdXdXfXaXaXpXuXuXuXyXyXyXiXa.s.iXyXyXyX<Xi.u.s.<XiXrXiXrX,XrX<X<XrXrXrXrX<X<XrXrXrXrX<XS.w.! R R R { R H { o.+X:X:X:X=X=X:X=X=X:X:X:X:X:X:Xo.V V C V V C V V C C V V V V f C C C V C V V V C V V V C & V X.4X0X8X8X8X>X>X:X-X+X-X:X4X0XcXsX4X5X1X1X<Xs.a.iXtXiXtXtXtXtXtXuXS.",
"+.%.%.%.%.&.&.&.%.%.%.%.%.%.%.%.%.%.+.+.+.u e e w w w w w w w w w w 6 1 o 2 0 w $.e w 0 7 6 #.3.e.e.e.6.4.5.3.3.,.,.,.,.=.=.=.=.=.,.,.,.=.=.=.=.,.,.,.,.3.4.e.r.e.e.t.t.e.4.4.4.4.4.4.4.4.4.4.5.4.4.4.4.t.t.t.t.4.5.3.>.>.&.=.=.=.=.=.=.=.=.=.=.=.,.=.&.=.+.6 5 0 q y y y y y y y y y 6 5 7 q t y t y y u u u u u u u u u u u u u y y y u u u y w w y y t u i l <.<.<.W W W W W W l W W W W 8.8.<.<.E 7 .           O :.i i i :.i i i i i i i i i i i i i i i i E E i i i i :.:.:.:.:.:.:.:.:.:.:.:.:.:.:.:.:.:.:.:.l l i i &.:.i :.i :.p :.i O                   . 7 t t t t 5           = i <.7.u.s.a.rXiXiXtXuXuXuXyXyXtXyXyX<X1X1X1X@Xq.X.|.+X:X:X|.k.} } } } } o.o.o.} }.|.@X@X|.}.X.o.' G C C A C C < | AXjXjXdXdXdXdXdXfXjXdXkXkXVXVXdXaXaXkXVXVXVXVXVXVXVXVXVXVXVXVXVXVXVXVXVXVXVXVXVXVXVXVXVXVXVXVXlXlXjXfXpXrXi.0.u.i.rXiXtXtXtXtXtXtXtXuXtXaXdXdXVXkXkXkXVXkXkXkXkXkXdXdXdXdXdXfXaXaXgXgXuXuXuXuXuXuXuXiXrXrXrXrXrXrXrXrXrXrX<X<XrXrXrXrXrXrX<XS.S.w.w.w.w.9.9.n.n.q.9.) ( ) 9.9.9.Q w.S.yXaXfXfXfXfXdXdXdXdXdXdXdXdXdXdXdXdXdXdXdXdXdXdXdXdXdXaXaXaXpXyXuXyXyXuXyXS.s.<XyXuXyX<Xi.w.i.<XiXiXiXrXrXrXrXrXrXrXrXrXrX<XrXrXrXrX<Xi.9.! R R R H R H O.} +X:X:X:X:X=X:X=X:X:X:X:X:X:X@XL V V C C C C C C C C C C C C C C C C C C C C C V C A A C f & F @X4X0X0X8X8X4X>X:X-X-X-X:X4X4X4X4X5X1X1X<Xu.a.iXyXiXtXtXtXtXtXgXL.",
"+.%.%.%.&.&.&.&.%.%.%.%.%.%.%.%.%.%.+.+.+.u e e w w w w w w w w w w 6 1 o 2 0 w $.e w 0 7 6 #.3.e.e.e.6.4.5.3.,.,.,.=.=.=.=.,.,.=.,.,.,.=.=.=.=.,.,.=.>.3.4.e.r.e.e.t.t.4.4.4.4.4.4.4.4.4.4.4.5.4.4.4.4.4.t.t.t.4.5.3.>.>.&.=.=.=.=.=.=.=.=.=.=.=.=.=.=.&.w 7 6 q y y y y y y y y u q 7 7 0 q t y t u u u u u u u u u u u u u u u y y y u u u y y y y y t p l E <.<.<.W W W W W W 8.W l W 8.8.W <.<.p o             O t :.i i :.i i i i i i i i i i i i i i i i E E i i i i :.:.:.:.:.:.:.:.:.:.:.:.:.:.:.:.:.i :.:.l i i i &.:.i :.i :.i i :.7                   o 7 t t t 7 .         o 8 i 1.7.u.s.a.rXiXtXuXuXuXuXyXyXtXyXyX<X1X1X@Xw.q.X.@X+X:X=X|.k.} } } } } o.L o.} } }.|.|.|.|.k.X.{ H A C A C C < T CXjXdXdXfXfXfXfXfXfXfXjXjXVXVXdXaXfXkXVXVXVXVXVXVXVXVXVXVXVXVXVXVXVXVXVXVXVXVXVXVXVXVXVXVXVXVXlXkXdXaXtX,Xu.2.u.a.rXiXuXuXtXtXtXtXyXuXuXfXdXkXVXkXkXkXVXkXkXkXkXkXdXdXdXdXfXfXaXaXaXgXuXuXuXuXuXuXyXiXrXrXrXrXrXrXrXrXrX<X<X<XrXrX<XrXrXiX<XS.i.w.w.w.w.9.q.n.S.n.q.9.) ) ) ) ) Q 9.i.yXaXfXfXfXfXfXfXfXdXdXdXdXdXdXdXdXdXdXdXdXdXdXdXdXdXfXaXaXaXpXyXuXyXyXyXyXS.i.<XyXyXyX<Xi.w.a.iXyXtXtXiXrXrXrXrXrXrXrXrXrXrXiXrXrXrX<Xi.w.! ! ! ' R R R O.} +X:X:X:X:X=X:X=X:X:X:X:X:X:X|.F V C C C C C C C C C C C C C C C C C C C C C C V V A C C V & V o.:X4X8X8X0X8X4X>X>X:X=X:X4X4X4X4X5X1X1X<Xu.a.iXiXiXtXtXtXtXtXaXL.",
"%.%.%.%.&.&.&.%.%.%.%.%.%.%.%.%.%.%.+.+.+.u u e w w w w w w w w w w 6 1 o 2 0 e $.e w 0 6 6 +.3.e.e.e.6.4.5.3.,.,.=.,.=.=.=.=.=.=.=.,.=.=.=.=.=.=.,.=.>.3.4.e.r.e.e.4.4.4.4.4.4.4.4.4.4.4.4.4.4.t.4.4.4.4.4.t.t.4.3.3.>.=.&.=.=.=.=.=.=.=.=.=.=.=.=.=.=.u 6 7 0 q y y y y y y y y q 0 7 7 q t y y y u u u u @.@.u u u u u u u u u y u y u u y y u y y y y i l E <.<.<.<.W W W W l 8.W l 8.8.W 8.<.p # .               5 :.i i :.i i i i i i i i @.@.i i i i i i E E i i i i :.:.:.:.:.:.:.:.:.:.:.:.:.:.:.:.i i :.:.i i i i :.:.i :.i :.:.i :.p                   5 t t p 7 o         . 7 p i 1.d.s.i.S.rXiXtXuXuXuXuXyXyXtXyXyX<X1X1X@Xw. .X.@X:X:X+X|.} } } } } } o.o.o.o.} }.|.|.|.|.}.k.o.R G V C C C & , jXjXfXfXfXfXfXfXsXsXfXfXdXjXkXfXaXdXVXVXVXVXVXVXVXlXlXlXlXlXlXVXlXlXlXVXVXVXVXVXVXVXVXVXVXVXVXkXkXdXaXrXi.0.2.s.,XiXtXuXuXtXtXtXtXuXuXuXfXVXVXVXVXkXkXkXkXkXkXkXkXdXdXdXdXfXfXaXaXaXaXuXuXuXuXuXuXtXrXrXrXrXrXrXrXrXrX<X<XrXrXrXrX<XrXiXiX<XS.w.9.9.w.9.9.q.S.1X1Xn.n.q.9.) ) Q Q ) w.<XaXfXfXfXdXdXdXfXfXdXdXdXdXdXdXdXdXdXdXdXdXdXdXdXdXfXaXpXpXpXyXuXyXyXyXyXS.i.<XyXyXyX<Xs.u.,XyXuXuXuXuXtXrXrXrXrXiXrXiXyXiXiXrXrX<X<X<Xw.! ! ! R R R R H o.+X:X:X=X:X=X:X=X=X:X:X:X:X+Xo.V C C C C C C C C C C C C C C C C C C C C C C C C C A C A C & & F @X4X4X8X8X8X0X4X4X:X=X=X5X4X4X4X5X1X1X<Xw.a.iXiXtXtXtXtXtXtXgXL.",
"%.%.%.%.&.&.&.%.%.%.%.%.%.%.%.%.%.%.%.+.+.u u e e w w w w w w w w w 6 1 o 2 0 e w w w 6 6 0 @.5.e.e.e.e.4.5.3.,.=.=.,.,.=.=.=.=.=.=.,.=.=.=.=.=.=.,.=.*.3.4.e.r.e.e.4.4.4.4.4.4.t.t.t.t.4.4.4.4.t.4.4.4.4.4.4.4.4.3.,.>.=.&.=.=.=.=.=.=.=.=.=.=.=.=.>.&.q 5 6 q y y y y y y y y y q 7 5 0 t t t t y u @.@.@.u @.u u u u u u u u u y y y u u u y u y y y u i E E :.:.<.<.W W W W W l W 8.8.W W <.p o                   O :.i p i i i i i i i i i @.@.i i i i i i E E i i i i :.:.:.:.:.:.:.:.:.:.:.:.:.:.:.:.i i :.:.i i i i :.:.:.:.i i :.i :.:.o               . 7 t p t o           o 8 p i 1.d.s.a.,XrXiXtXuXuXuXuXyXyXtXyXyX<X1X1Xw.q.X.X.@X:X:X+Xk.} } } } } o.o.o.o.o.} } }.|.|.|.|.|.o.H S V C C C f < dXjXfXfXfXfXsXsXsXsXsXfXfXdXdXaXaXdXVXVXVXlXVXVXVXlXlXlXlXlXlXlXlXlXlXlXlXVXVXVXVXVXVXVXVXVXlXkXjXfXpX<Xs.0.0.i.rXiXtXuXuXyXtXuXtXuXuXuXdXVXVXkXVXkXkXkXkXkXkXkXkXkXdXdXdXfXfXfXfXfXaXaXaXaXaXuXyXiXrXrXrXrXrXrXrXrXrX,X,X,X,XrXrX<XrXrXrX<XS.w.9.9.9.9.9.9.S.1X1XS.n.n.q.9.9.) Q Q 9.S.aXfXfXdXdXfXfXfXfXdXdXdXdXdXdXdXdXdXdXdXdXdXdXdXdXaXaXpXuXpXyXuXyXyXyXyXS.i.<XyXyXyXS.s.s.iXuXgXgXgXuXuXuXyXyXyXuXuXaXaXgXyXiXrX<X<X<Xw.! ! R R R R R H o.@X=X:X=X=X=X:X=X=X=X:X:X:X@XH V C C C C C C C C C C C C C C C C C C A A C A C V C A A C C C & V o.=X4X4X4X8X0X8X8X4X:X5X5X5X5X5XyX1X<X<Xu.a.iXiXtXtXtXtXtXtXgXL.",
"%.%.%.&.&.&.&.%.%.%.%.%.%.%.%.&.&.%.%.+.+.+.u e e w w w w w w w w w 0 s o 2 0 e e e r 6 6 0 &.5.e.e.e.6.5.5.3.,.,.,.,.=.=.,.,.,.=.=.=.=.,.=.=.=.=.=.=.*.3.4.e.e.e.e.e.4.t.4.4.4.t.t.t.4.4.4.4.4.t.t.4.4.4.4.4.4.5.3.>.>.=.&.=.=.=.=.=.=.=.=.=.=.=.=.=.u 6 7 q y y y y y y y y y y 0 7 7 0 y y y y u u @.u u u @.u u u u u u u @.u y y t u u u u y w w y u i E W W W W W W W 8.W W l W 8.W 8.8.p o                       p i i i i i i i @.i @.:.l i i i i i i :.E E i i i i :.:.:.:.:.:.:.:.:.:.:.:.:.:.:.i i i :.:.i @.l i :.:.i :.i i :.i :.:.7               O 7 t t 7 .         O 7 t p E 2.s.i.a.,XrXiXtXuXuXuXuXyXyXyXyXyX<X1X1Xw.q.X.@X@X:X:X+Xk.} } } } } o.o.o.o.o.} X.k.|.|.|.@X|.o.H A C C C C & & dXjXfXsXfXsXsXsXsXsXsXsXfXfXfXaXaXjXVXVXVXVXVXVXVXlXlXlXlXlXlXlXlXlXlXlXlXlXVXVXVXVXVXVXVXVXVXkXdXaXyXa.u.2.u.i.rXiXtXuXyXtXuXuXuXuXuXaXdXVXVXkXVXVXVXkXkXkXkXkXkXdXdXdXdXdXdXdXdXdXfXaXaXaXaXuXtXrXrXrXrXrXrXrXrXrXrXrXrXrX,X,X<X<XrXrX<XS.S.w.9.9.9.9.9.w.S.1X1XS.S.n.n.w.q.9.Q Q 9.i.pXfXfXdXdXdXdXfXfXdXdXdXdXdXdXdXdXdXdXdXdXdXdXdXfXaXaXaXpXuXyXuXyXtXyXiXS.i.,XyXyX<Xi.s.i.yXaXaXaXaXaXaXaXaXaXaXaXfXdXdXaXtXiXrXrX<X1Xi.9.! R R ' R R H { }.=X:X:X=X=X=X=X=X=X+X+X@Xo.G C C C V A A A A C C C C C C C C C C C C C V V V V A C C f C V C V { @X5X4X4X4X4X4X4X4X4X5X5X5X5X1XyXyX<X<Xu.,XiXiXtXtXtXyXtXtXuXS.",
"%.%.%.%.%.%.%.%.%.%.%.%.%.%.&.&.&.%.%.+.+.+.u e e w w w w w w w w w 6 s o 2 0 e $.w 0 6 6 q *.5.e.e.e.4.4.3.3.,.,.,.=.=.>.>.,.,.,.,.,.,.,.>.>.=.=.=.=.*.,.5.e.e.e.e.e.4.t.4.4.4.t.t.4.4.4.4.4.4.t.t.t.4.4.4.4.4.3.,.>.>.=.>.=.=.=.=.=.=.=.=.=.=.&.=.@.0 7 0 y y y y y y y y y y q 0 7 0 q y y y y u u u u u u @.u u u u u u u u u y t t u u u u y w t t u l E W W W W W <.8.8.W 8.W W W W 8.E o                         7 i :.i i i i i i @.:.:.l i i i i :.:.:.E E i i i i :.:.:.E E :.:.:.:.:.:.:.:.:.:.i i i :.:.i i l l :.:.i :.:.i :.:.:.i i O             O t t 7 o           = t t p <.7.s.a.S.,XrXiXtXuXuXuXuXyXyXyXyXiX<X1X1Xw.q.X.@X=X:X=X@X} } } } } } o.o.o.o.o.} X.k.|.|.|.@X|.o.F V C C C f & Z dXdXsXsXsXsXsXsXaXsXsXsXsXfXsXpXsXkXVXVXVXVXVXVXVXlXlXlXlXlXlXlXlXlXlXlXlXlXVXVXVXVXVXVXVXVXVXjXfXpXrXi.0.0.s.a.iXtXtXtXtXtXuXuXuXuXuXfXdXVXVXkXVXVXVXkXkXkXkXkXkXkXdXdXdXdXdXdXdXdXdXfXfXaXuXtXrXrXrXrXrXrXrXrXrXrXrXrXrX,X,X,X<X<X<X<X<XS.i.9.9.9.9.) 9.w.<XyX<X<XS.n.n.n.n.q.9.( ) w.yXfXdXdXdXdXdXdXfXdXdXdXdXdXdXdXdXdXdXdXdXdXdXdXfXaXaXaXpXuXyXuXyXtXyXiXS.s.i.tXyX<Xi.u.a.gXaXaXaXaXaXfXaXfXaXfXfXdXdXdXaXyXiXrXrXrX<X<Xw.! T R R R R G H X.@X=X5X=X=X=X=X@X@X@XX.{ G V V V V A V A A A A V V C C C C C V A C A A A A V C C A R R A C V C { @X5X5X5X5X5X5X5X5X5X5X5X1X1X1XyXyXyX<Xu.,XiXiXtXtXtXyXtXtXuXS.",
"%.%.%.%.%.%.%.%.%.%.%.%.%.%.&.&.&.%.%.+.+.+.u e e e w w w w w w w w 0 s 1 2 0 w $.w 0 5 6 w >.4.e.e.t.5.5.3.,.,.,.=.=.=.>.>.>.,.=.>.=.=.>.>.=.=.=.=.=.=.,.5.e.e.e.e.e.t.4.4.4.4.4.4.4.4.4.4.t.t.4.t.t.t.4.4.4.4.3.>.*.>.>.>.=.=.=.=.=.=.=.=.=.=.&.=.y 6 0 q y y y y y y y y y y 0 7 7 q q y u u y u u u u u u u @.@.u u u u u u @.u y t u u u w w w y t i E E W W W W W W 8.8.W W 8.W W <.<.7 .           . .           O p :.i i i i i i :.:.:.N N i i i :.:.:.E E i i i i :.:.:.:.:.:.:.:.:.:.:.:.:.:.i i i i :.:.i i l l :.:.:.i :.:.:.:.@.:.:.5             O t t o           o t t t i <.d.i.a.S.,XrXiXtXuXuXuXuXyXyXyXiXiXyX1X1Xn.q.q.@X5X5X+X|.} } } } } } o.{ { o.o.o.} } k.|.|.|.X.{ A C C C C C < ! jXdXsXsXsXsXaXsXsXaXsXsXsXsXaXpXfXkXVXVXVXVXVXlXVXVXVXVXlXlXlXlXlXlXlXlXlXlXlXVXVXVXVXVXVXVXkXdXaXyX<Xs.0.0.i.<XyXtXtXtXtXtXuXuXtXuXuXdXkXkXkXkXVXkXkXkXkXkXkXkXkXkXdXdXdXfXfXfXdXdXdXfXaXaXyXiXrXrXrXrXrXrXrXrXrXrXrXrXrX,X,X,X,X<X<X<XS.i.w.9.9.9.8.) 9.w.<XyXyX<XS.S.n.n.n.w.q.) ) 9.<XfXdXdXdXdXdXdXdXdXdXdXdXdXdXdXdXdXdXdXdXdXdXdXaXaXaXaXuXuXyXuXyXtXyXiXS.s.i.iXyX<Xi.u.a.aXfXaXaXaXfXfXfXfXfXfXfXdXdXfXuXiXrXrXrXiXiX1X1Xw.! R R R R R R X.@X1X5X5X5X5X@X@XX.o.{ G A A A V V V V A A A A V V V C C C V V A A A A A A C C & R @X@X..V & A  .1X5X1X1X1X1X1X1X1X1X1X1X1X1X1XyXyXyX<Xu.,XyXtXtXtXtXyXtXtXuXS.",
"%.%.%.%.%.%.%.%.%.%.%.%.%.%.&.&.&.%.%.+.+.+.u e e e w w w w w w r w 0 s 1 5 0 e u w 6 5 6 u ,.4.e.e.4.5.5.3.,.>.,.=.=.=.>.=.>.,.=.>.>.=.=.=.=.=.=.=.=.=.,.5.e.e.e.e.e.t.4.4.4.4.4.4.4.4.4.4.4.t.4.4.t.t.t.4.4.4.,.>.&.:.>.>.=.=.=.=.=.=.=.=.=.=.&.&.0 7 t t q y y y y y y y y q 0 7 0 q y y u u y y u u u u u u @.@.u u u u u u @.u u t u y w w w q y y i :.:.:.W W W W 8.8.W W W 8.W <.8.9 .         . o o o             t @.i i i i i i i :.:.@.E E i :.:.:.:.E E i i i i :.:.:.:.:.:.:.:.:.:.:.:.:.:.i i i i :.:.i i i :.:.:.:.i i :.i i i :.:.t               7 7 O           7 i 9 p W 1.u.i.a.a.,XrXiXtXuXuXuXuXyXyXyXiXiXyX1X1Xn.w.q.@X5X:X@X|.} } } } X.} o.L L L o.o.o.o.} }.|.k.o.H V C C C C C < w.VXfXsXsXsXsXaXsXsXaXaXsXsXsXpXpXdXkXVXVXVXVXVXlXVXVXVXVXVXlXlXlXlXlXlXlXlXlXlXVXVXVXVXVXVXlXkXfXaXrXS.w.2.u.i.rXtXtXuXuXtXtXuXuXtXuXuXdXVXkXkXkXVXkXkXkXkXkXkXkXkXdXdXdXfXfXaXaXfXdXfXfXaXuXiXrXrXrXrXrX<X<XrXrX<X<X<XrX<X,X,X,X,X<X<XS.i.s.9.9.9.8.8.8.9.w.<XyXyX<XS.S.n.n.n.n.q.9.) 9.S.aXdXdXdXdXdXdXdXdXdXdXdXdXdXdXdXdXdXdXdXdXdXdXaXaXaXaXuXuXyXuXyXtXyXiXS.s.i.<XyX<Xi.u.a.aXfXaXaXfXfXfXfXfXfXdXdXfXfXaXyXiXrXiXrXrX<X<X1Xi.w.! ! R ! / | w.@X1X1X5X5X1X@X@XX.{ R A A S C V V V V A A C A V V V C C C V V A A A A A A C C & R 4XcX@XS & C w.1X1X1X1X1X1X1X1X1X1X1X1X1X<XyXyXyXyX<Xs.,XyXtXtXtXtXyXtXtXuXS.",
"%.%.%.%.%.%.%.%.%.%.%.%.%.%.%.%.%.%.%.%.+.+.u u e e w w w w w w e r 6 3 o 2 q u w 0 6 6 0 +.3.4.e.e.4.5.3.,.,.,.=.=.>.>.=.=.=.=.,.,.,.,.=.>.>.>.>.=.=.*.,.5.e.e.e.e.4.4.4.4.t.t.4.4.4.4.4.4.t.t.4.4.4.t.t.4.5.3.,.>.&.&.>.>.=.=.=.=.=.=.&.&.=.>.>.y 7 0 t y y y y y q q y t y q 7 7 0 t y y u y u u u u u u u u u u u u u u @.u @.u u u u y y y y y t u i :.<.<.W W W <.<.8.8.8.8.8.<.<.:.O         O o 7 7 7 .           o :.i i i i i i i i i E E E l :.:.:.:.:.:.:.:.i i i i :.:.:.l i i @.@.i i l i @.@.@.@.l i i E l l @.@.:.:.:.:.:.:.:.E p :.o             o 5           o 8 p i i :.6.s.a.a.a.,XrXiXtXtXtXyXyXyXyXtXtXiXyX1X1Xw.q.w.@X5X5X@Xk.} } } X.} o.{ L L { { { o.o.o.} } o.L F C C C C C & < 1XVXfXfXsXaXaXsXsXsXaXfXaXaXaXyXyXdXkXVXVXVXlXlXlXlXVXVXlXlXlXlXlXlXlXlXlXlXlXlXlXVXVXlXlXlXkXkXfXyX<Xi.0.2.u.a.iXuXtXuXtXtXtXtXuXuXuXfXdXVXVXkXVXkXkXkXkXkXkXkXkXkXdXdXdXfXaXaXaXaXaXfXfXuXtXrXrXrXrXrX<XrXrXrXrXrX,X,X,X,X,X,X,X,X,X,Xi.w.9.9.9.9.8.Q 9.9.S.<XyXyX1XS.n.n.n.n.n.w.q.9.9.S.aXdXfXdXdXdXdXdXdXdXdXdXdXdXdXdXdXdXdXdXdXdXdXaXaXaXaXuXuXuXuXyXyXyXiXrXi.s.<XiX<Xs.u.i.gXaXaXaXfXfXfXfXfXfXfXfXfXfXaXuXrXrXrXrXrXrXrXrX1X<Xw.w.w.w.w.i.1X1X1X1X1X1X1X1X@Xq.{ R G A A A A A A A A C C C C C A C C V V V A C A A C C A C & { 5X4X5X..C G @X1X1X1X1X1X1X<X<X<X<X<X<XiXiXiXiXyXiXiXw.,XtXtXtXuXtXtXtXtXuXa.",
"%.%.%.%.%.%.%.%.%.%.%.%.%.%.%.%.%.%.%.%.+.+.u u e e w e w w w w e w 0 3 1 2 0 w q 0 6 6 r *.5.e.e.4.4.5.3.,.>.,.=.=.>.>.=.=.=.=.=.=.=.=.>.>.>.>.>.=.=.=.,.5.e.e.e.e.4.4.4.4.t.t.4.4.4.4.4.4.t.t.4.4.t.t.t.4.5.3.>.:.&.&.>.>.=.=.=.=.=.=.=.=.=.>.@.q 6 0 y y y y y y t t y t t q 7 5 0 t y y u y u u u u u u u u u u u u u u @.@.#.u u u u y y y w y t y i :.<.<.W W W W <.8.8.8.8.8.<.<.p .       O o 7 7 7 7 o           O p i i i :.:.i i i :.N l E l :.:.:.:.:.:.:.:.i i i i :.:.E l i i @.@.i i E E @.@.@.@.@.@.l E i i @.@.:.:.:.:.:.:.:.E i i 7             o .           8 i E i i <.u.i.a.a.a.,XrXiXtXtXuXuXyXyXyXiXiXiXyX1X1Xw.w.@X@X5X5X@XX.X.} } } o.o.L L L L { { { { { o.o.O.G V C f C C f d U sXdXsXsXsXaXsXaXsXsXaXfXaXaXaXyXyXfXkXVXVXVXlXlXVXlXVXVXlXlXlXlXlXlXlXVXVXVXlXlXlXVXVXlXlXlXkXdXaXiXi.s.0.0.i.<XiXtXtXtXtXtXtXtXuXuXuXdXkXVXVXkXkXkXkXkXkXkXkXkXkXkXdXdXdXfXaXaXaXaXaXaXaXuXrXrXrXL.rXrX<XrXrXrXrXrX,X,X,X,X,X,XS.S.S.S.s.9.2.9.9.9.8.Q 9.w.S.yXyXyX1X<XS.n.n.n.n.q.q.9.9.i.pXdXdXdXdXdXdXdXdXdXdXdXdXdXdXdXdXdXdXdXdXdXdXaXaXaXpXuXuXuXuXyXyXyXiXrXi.s.<XiX<Xs.u.i.uXaXaXaXfXaXfXfXfXfXfXfXfXfXgXyXrXrXrXrXiXiXrXiX<X1X<X<Xi.<X1X<X1X1X1X1X1X1X1X1X@Xq.! R G A A A A A A A A C C C C A A A A V V V C C A A A A C C & R @X4X5Xc.R | 1X1X1X1X1X<X<X<X<X<X<X<X<XiXiXiXrXyXiXiXu.,XtXtXtXtXtXuXtXtXgXa.",
"%.%.%.%.%.%.%.%.%.%.%.%.%.%.%.%.%.%.%.%.%.+.u u u e e w w w w w e w 0 5 1 3 0 w r 6 5 6 u ,.4.e.e.4.4.5.3.>.*.=.=.=.,.,.>.=.=.=.=.=.=.=.=.=.=.=.>.=.=.=.,.5.e.e.e.e.4.4.4.t.t.t.4.4.4.4.4.t.t.t.4.4.t.t.t.4.3.,.>.&.&.&.>.>.=.=.=.=.=.=.=.=.&.&.y q 0 q y y y y y y t y t t q q 7 5 q y y u y y u u u u u u u u u u @.u u u u @.#.u u u u y y y y y y p l :.<.<.W W W W <.8.8.8.8.<.<.8.7       O o 7 t t 7 7 5             7 :.i i i :.:.:.:.i @.l @.@.i :.:.:.:.:.:.:.i i i i :.:.:.:.i i i i i i i l E i @.@.@.@.i i N i i @.:.:.:.:.:.:.:.:.:.p :.O                       O i <.E i E 7.u.i.a.a.a.,XrXiXtXtXtXtXyXyXyXyXiXiX<X1X1Xw.w.@X5X5X=X@XX.} } } } o.o.L L L { { { { { { { { H S A A A C f C < w.CXfXsXsXaXsXsXaXsXsXsXaXaXaXyXiXpXfXkXlXVXVXVXVXVXlXlXVXlXlXlXlXlXlXVXVXVXVXlXlXlXVXVXlXlXlXdXfXuX<Xs.0.2.u.a.rXtXtXtXtXtXtXtXtXuXuXuXdXVXVXVXkXkXkXkXkXkXkXkXkXkXkXdXdXdXfXaXaXaXaXaXaXuXtXrXrXrX,XrXrXrXrXrXrXrXrXrXrX<X<X<X,XS.S.S.i.w.2.8.9.9.9.8.8.9.i.<XyXyXyX1X<XS.n.n.n.w.w.q.9.9.w.yXdXdXdXdXdXdXdXdXdXdXdXdXdXdXdXdXdXdXdXdXdXfXaXaXaXuXuXuXuXyXyXyXyXyXiXa.s.,XiX<Xi.s.,XuXaXaXaXfXaXfXfXfXfXfXfXfXaXgXtXrXrXrXrXiXiXiXiXtXiX<X<X<X1X<X1X1X1X1X1X1X1X1X1Xw.| R R G A A A A A A A A C C C C C A A C C A V A C A A C A A C v R @X@X5X@Xw.w.1X1X1X1X1X1X<X1X<X<X<X<X<XiXiXiXrXiXiXiXu.,XtXtXtXtXtXtXtXtXgXS.",
"%.%.%.%.%.%.%.%.%.%.%.%.%.%.%.%.%.%.%.%.%.+.u u u e e w w w w w w w 0 5 1 3 0 q 0 6 5 0 &.5.t.e.e.4.5.3.,.*.*.=.=.=.,.,.=.=.=.=.=.=.=.=.=.=.=.=.>.=.=.=.,.5.e.e.e.e.t.4.4.t.t.t.t.4.4.t.t.t.t.t.4.4.t.t.t.5.3.>.&.&.&.&.>.=.=.=.&.=.&.&.=.>.&.@.0 0 0 y y y y y y y y t t t q 0 7 0 q y u y y y u u u u u u u u u u @.u u u @.@.u u u u u y y y y y t p l <.8.<.W W W W 8.8.8.8.8.8.8.2.o       o 7 t t t 7 7 7 O           o i i i i i i i i i @.@.@.@.i @.:.:.:.:.:.:.i i i i :.:.:.:.i i i i i i i l E i i @.i i i i l i @.@.:.:.:.:.:.:.:.:.i i :.7                       8 :.<.i i <.6.s.i.a.a.a.,XrXrXiXtXyXyXyXyXyXyXiXiX<X<X1Xi.w.@X5X5X@X@XX.} } } } o.L L L L { { { { { L L H G V C f f f C & Z pXjXsXsXsXaXsXaXaXsXaXsXaXsXaXiX<XpXdXkXlXVXVXVXVXVXlXlXlXlXlXlXlXlXlXVXVXVXVXVXVXVXVXVXlXlXkXfXaXiXS.u.2.7.u.,XrXiXtXtXtXtXtXtXtXuXuXaXdXVXVXVXkXkXVXkXkXkXkXkXkXkXkXdXdXdXfXaXaXaXaXaXaXuXiXrXrXrXrXrXrXrXrXrXrXrXrXrXrX<X<XS.S.S.i.S.i.9.8.8.9.2.9.8.9.9.S.iXyXyXyXyX<XS.n.n.n.w.w.q.9.) 9.<XfXjXdXdXdXdXdXdXdXdXdXdXdXdXdXdXdXdXdXdXdXfXaXaXaXuXuXuXuXyXyXyXyXyXyX,Xs.,XiX<Xi.s.,XgXfXfXfXfXaXfXaXaXfXfXfXfXaXuXtXrXrXrXiXiXiXiXiXiXiXiXrX<X<X<X<XiX<X1X1X1X1X1X1Xw.| R R D A A A C A A A A C A A A C C C A A V A A A A A C A A C V R @X@X@X@X@X@X1X1X1X1X1X<X<X<X<X<XiXiXrXrXiXiXrXiXiXyXd.,XtXtXiXtXtXuXtXtXgXS.",
"%.%.%.%.%.%.%.%.%.%.%.%.%.%.%.%.%.%.%.%.%.+.u u u e e w e e w w w w 0 5 o 3 0 q 6 5 6 y ,.4.e.e.t.4.5.3.,.*.=.=.=.=.,.,.=.=.=.>.=.=.>.>.=.=.=.=.>.=.=.*.,.5.e.e.e.e.t.4.4.4.4.4.4.4.4.t.t.t.t.t.4.t.4.t.4.5.,.*.&.&.&.&.&.>.&.&.&.&.&.&.=.>.&.@.6 6 q y y y y y y y y t y y q 0 7 0 t u y y u u u u u u u u u u u u u u u u u u u y u u u w w w y t t p E <.<.<.W E E W <.8.8.8.8.<.8.2.o       o t t 7 t 7 7 7 o             t :.:.i i i i i i i i @.@.i i i i i i i i :.:.:.:.:.:.:.:.i i i i i i @.@.E E E l i i i i i i i :.:.:.:.:.:.:.@.@.i :.i p             .       O :.<.<.i E 2.u.i.i.a.a.a.,XrXrXtXtXtXtXyXyXyXyXyXtXiXiX1X1X@X1X1X1X@X@XX...o.o.o.o.L L { { o.o.{ { L L { { G A V A C A C < i.sXsXfXsXaXsXsXsXsXsXsXaXaXaXpX<X<XpXdXkXkXVXVXVXVXVXlXVXVXlXlXlXlXlXlXVXVXlXlXVXVXVXVXlXkXkXdXaXyXS.s.0.2.d.i.rXiXtXtXtXtXtXtXtXtXuXuXaXdXVXkXVXkXkXVXkXkXkXkXkXkXkXdXdXdXfXfXfXfXaXaXaXaXyXrX<X,XrXrXrXrXrXrXrXrXrXrXrXrX<X,Xa.i.w.u.w.w.9.8.8.2.8.8.8.9.w.<XyXyXyXpXyX<XS.n.n.n.i.w.q.9.) 9.S.fXjXdXdXdXdXdXdXdXdXdXdXdXdXdXdXdXdXdXdXdXfXaXaXpXpXpXpXpXuXyXyXtXyXtX<Xi.a.iXiXa.s.a.gXfXdXdXfXfXfXfXaXfXfXfXfXaXuXiXiXiXiXiXiXiXiXiXtXiXiXrXiXiXiXiXyXiX<X<X1X1X1Xi.| ] R R D A A A A C C C A A A A A A C A A C C C A V A A C A A C V R @X@X@X@Xw.@X1X1X1X<X<XrX<X<XiXiX<XiX<XrXiXiXiXiXiXyXd.,XtXtXtXtXtXtXtXtXuXS.",
"%.%.%.%.%.%.%.%.%.%.%.%.%.%.%.%.%.%.%.%.%.+.u u u e e w e w w w w r 0 5 o s 6 0 5 5 0 @.3.e.r.e.t.4.3.3.>.=.*.,.>.>.,.,.=.=.=.>.=.=.>.>.=.=.=.=.>.=.=.*.,.4.e.e.e.e.t.4.4.4.4.4.4.4.t.t.t.t.t.e.t.t.4.4.4.3.,.=.&.&.&.&.&.>.=.&.&.&.&.&.=.*.@.y 6 0 q y y y y y y y y t y y q 0 6 0 y y y y u u u u u u u u u u u u u u u u u u y y u u u w w w y y t p E 8.8.<.W E E W <.8.8.8.8.<.8.2.=       5 t t 7 t 7 7 7 5             5 :.:.i i i i i :.l N @.@.@.i i i i i i i :.:.:.:.:.:.:.:.i i i i i i i @.E E i l i i i i i i :.:.:.:.&.:.:.:.l l :.:.i :.o                   t 1.1.<.i :.6.s.i.a.a.a.a.,XrXrXiXtXyXyXtXtXtXtXtXtXiXiX<X1X<X1X1X1X1X@Xq.X.o.o.o.o.{ { o.o.o.o.o.{ { o.X.o.G V f f , < < 9.sXsXsXsXaXsXsXsXsXsXsXsXaXaXaXyX<X<XaXfXjXkXlXVXVXVXlXlXVXVXlXlXlXlXlXlXVXVXlXlXVXVXVXVXlXkXkXfXuX,Xi.0.7.d.s.,XiXtXtXtXtXtXtXtXtXtXuXuXfXkXlXkXVXkXkXkXkXkXkXkXkXkXkXkXdXdXfXfXfXfXfXfXfXaXyXrX<XrXrXrXrXrXrXrXrXrXrXrXrXrXrX,Xi.w.2.2.9.9.9.8.Q Q Q Q 2.w.S.<XyXyXyXyXyX<XS.n.n.n.n.w.q.) Q 9.i.aXdXdXdXdXdXdXdXdXdXdXdXdXdXdXdXdXdXdXdXdXfXaXaXpXpXaXpXpXuXyXyXyXyXyXrXi.S.rXiX,Xs.a.gXfXdXdXfXfXfXfXaXaXfXfXfXaXuXiXrXiXiXiXiXiXiXiXiXiXiXiXiXiXiXiXyXiX<X<X1X1Xi.w.| R R D A A A A A A C C A A A A A C A A A C C A A V C A A A C C C R @X@X@X@Xw.K.1X1X1X<XrXrXrXrXiXiXrXrXrXrXiXiXiXiXiXyX0.,XyXtXtXtXiXtXtXtXuX,X",
"%.%.%.%.%.%.%.%.%.%.%.%.%.%.%.%.%.%.%.%.%.+.u u u e e e e e w w w e 0 5 1 3 6 6 5 6 y >.4.e.e.e.4.5.3.,.*.*.=.,.>.>.,.,.=.=.>.>.=.=.>.>.=.=.=.=.>.=.=.*.,.4.e.e.e.e.t.4.4.t.4.4.4.4.4.t.t.t.t.t.t.t.4.4.5.3.*.&.@.&.&.&.&.>.=.=.=.=.&.&.=.&.u q 6 0 q y y y y y y y y y y y q 7 6 q y y y y u u u u u u u u u u u u u u u u u u y y u u u y w w y y t p E <.<.<.W E E W 8.8.8.8.8.8.8.1.8       o 7 t t t 7 t 7 7 .           O i i :.:.i i i :.E E i i i i i i i i i i :.:.:.:.:.:.:.:.i i i i i i @.@.i i i i i i i i i :.:.:.:.E :.@.:.:.:.E :.i i :.t                 o 1.1.<.W i 1.u.s.i.i.a.a.a.,XrXrXiXtXtXtXtXtXtXtXtXtXiXiXiX<X1X1X1X1X1X@Xw.X.o.o.o.o.{ o.o.o.o.o.o.{ { o.q.X.{ A & & & , ! sXdXsXaXpXsXsXsXaXaXaXsXsXsXaXpX<X<XyXaXfXdXkXlXVXlXVXVXlXVXVXlXlXlXlXlXlXlXlXlXlXVXVXVXVXVXkXdXaX<Xi.w.7.7.s.S.iXtXtXtXtXtXtXtXtXtXtXuXuXfXkXVXkXVXkXkXkXkXkXkXkXVXVXkXkXdXdXfXfXfXfXfXfXaXaXtXrXrXrXrXrX<XrXrXrXrXrXrXrXrXrXrXS.s.2.8.8.9.9.9.Q Q Q 2.9.i.S.<XyXyXyXyXyXyX<XS.w.n.n.n.w.q.9.Q Q w.aXdXdXdXdXdXdXdXdXdXdXdXdXdXdXdXdXdXdXdXdXaXaXpXuXpXaXpXpXuXyXyXtXyXuXtX,X,X<XrX,Xs.i.uXfXdXdXfXfXfXfXfXfXfXdXfXaXuXiXrXrXiXiXiXiXiXiXiXiXiXrXiXiXiXiXiXiXiX<X<X1Xw.| ! R D A A A A A A A A A A C C C C C A V C V G { { A C V A A C C C R X.@X@X@Xw.w.@X1X1X<X<XrX<X<XiXrXrXrXrXiXiXiXtXiXiXyX0.,XuXiXtXtXiXtXtXtXuX,X",
"%.%.%.%.%.%.%.%.%.%.%.%.%.%.%.%.%.%.%.%.%.%.+.u u e e e e e w w w e q 6 1 s 5 6 5 0 +.3.5.4.t.t.4.5.3.,.*.&.=.,.=.=.,.,.=.=.>.>.=.=.=.=.=.=.=.=.>.=.=.*.,.4.e.e.e.e.t.4.4.t.t.4.4.4.4.t.t.t.t.t.t.t.4.4.5.3.=.&.@.&.&.&.&.>.>.=.=.=.&.&.=.&.y 6 0 q y y y y y u y y y y y y q 7 0 q y y y y u u u u u u u u u u u u u u u u u u y y y u u y y w y y t p E <.<.<.W E E W 8.8.8.8.8.8.8.1.p       . 5 7 t t t t t 7 o             p i i :.i i i i l l l i i @.i i i i i i :.:.:.:.:.:.:.:.i i i i l l i i i i i i i i i i i :.:.:.:.:.l l :.:.:.:.:.i i :.p O               t 2.2.<.E E 7.s.i.i.i.a.a.a.,XrXrXiXtXiXtXtXiXiXiXiXiXyXiXiX<X<X1X1X1X1X@Xc.X.o.{ { { { o.X.X.X.o.o.{ { ..@X1X@Xn.w.| w.1XsXjXfXaXaXaXsXaXaXaXaXaXaXsXaXaXyX<X<XpXfXfXdXkXkXlXlXVXVXlXVXVXlXlXlXlXlXlXlXlXlXlXVXVXVXVXkXdXaXyXi.w.0.7.u.i.rXyXtXtXtXtXtXtXtXtXtXtXuXuXfXVXVXlXVXkXkXkXkXkXkXVXVXVXVXVXdXdXfXfXfXfXfXfXaXyXrXrX<XrXrXrX<XrXrXrXrXrXrXrXrXrX,Xi.w.8.Q 8.9.9.9.Q k Q 9.S.yXyXyXyXyXyXyXyXyX<XS.w.w.n.n.w.q.9.Q Q w.pXdXdXdXdXdXdXdXdXdXdXdXdXdXdXdXdXdXdXdXdXaXaXaXuXpXaXpXpXuXuXyXtXyXuXyX<X,X,XrX,Xs.i.yXfXdXfXfXaXfXaXfXfXdXdXdXaXuXiXiXrXiXiXiXiXiXiXtXiXiXiXiXiXiXiXiXiXiX<X<Xw.w.] R R D A A A C A A A A A A C C C A A A V C A | @XX.R C C V A C C C R X.@X@X5Xw.w.i.1X1X<X<XrXrX<XiXiXrXiXiXiXiXiXtXiXyXyXd.a.uXiXtXtXiXtXtXtXgX,X",
"%.%.%.%.%.&.&.%.%.%.%.%.%.%.%.%.%.&.&.%.+.+.+.u u u e e w w e e w r q 5 3 5 3 5 6 y =.5.e.e.e.t.t.5.,.*.=.*.=.=.=.=.=.=.=.=.=.>.=.=.=.=.=.>.>.=.=.=.=.*.3.4.e.r.e.e.t.t.4.4.4.4.4.4.4.t.t.t.t.4.t.4.4.4.3.,.*.&.&.&.&.&.=.=.&.:.=.=.&.&.>.@.q 7 0 0 w w y y y y y y y y t q 0 6 q y y #.#.#.#.u u u u u u u u u u u u u u u y y y y u u y y y y y t t p E 8.<.:.:.l l :.<.8.8.8.8.8.<.1.<.o         o 7 t t t 7 7 o             5 i :.i i :.i :.i i i i i i i i i i i i i @.@.:.i :.:.i i i i i i :.i i :.i i :.i @.:.i i i i i i i :.:.:.E :.:.i :.p :.:.5               <.1.1.:.i <.d.u.s.p.p.i.a.a.,XrXrXiXiXiXtXtXtXtXiXiXiXiXiXiXiXiX<X<X<X1X1X@Xw.| { { | o.X.X.X.X...o.{ { { @X4XsXjXsXjXCXCXVXjXdXpXpXpXaXaXaXaXaXaXaXaXaXaX<XS.iXaXfXfXdXkXlXlXlXVXVXVXVXlXlXlXVXVXVXlXlXkXVXVXkXlXlXkXjXaXyXS.s.0.2.d.s.L.iXtXtXtXtXtXtXtXtXtXtXtXtXuXfXdXVXkXVXVXkXkXkXkXkXVXVXVXkXkXdXdXfXfXfXfXfXaXuXtXrX<XrXrXrXrX,XrXrXrXrXrXrXrXrX<XS.w.9.2.Q Q 2.9.8.8.W 9.yXpXaXaXpXyXyXyXyXpXyX<XS.w.w.w.n.n.w.9.Q Q w.pXjXdXdXdXdXdXdXdXdXdXdXdXdXdXdXdXdXdXdXdXfXaXaXpXuXaXpXpXpXuXyXyXyXuXuXtX<Xi.a.L.i.i.yXfXfXfXfXaXaXaXfXfXdXdXdXaXuXiXrXiXiXiXiXiXiXiXiXiXiXiXtXiXiXiXiXyX<X<Xw.9.] ! R R A A C C A A C A A A A A A C C A C C V { @X@XK.{ V C V A C C C R ..K.@X@X@Xw.w.1X1X<X<X<X<XrXrXrXiXiXiXiXiXiXyXiXiXyX7.a.uXiXtXtXtXtXtXtXuX,X",
"%.%.%.%.%.&.&.%.%.%.%.%.%.%.%.%.%.&.&.%.+.+.+.u u u e e w w w e w r q 7 s 3 3 5 6 u ,.4.e.e.t.t.4.3.,.*.*.*.=.=.=.=.=.=.=.=.=.>.=.=.>.=.=.=.>.=.=.=.=.*.3.4.e.r.e.e.t.t.4.4.4.4.4.4.4.t.t.t.t.4.t.4.4.5.3.>.&.&.&.&.&.&.=.=.&.&.=.=.&.&.>.#.q 7 0 q w w y y y y y y y y t q 0 0 w y y y #.#.u u y y u u u u u u u u u u u u y y y y u u y y y y y t t p E 8.<.<.:.l l <.<.8.2.8.8.8.<.<.<.t O             . O o O               . p :.i i i i :.i i i i i i i i i i i i i i @.:.:.:.i i @.:.:.i E E @.:.:.i p i i @.i i i i i i i i :.:.l E :.:.i :.i i :.t               1.1.1.:.E 1.u.s.s.p.i.i.a.a.,XrXrXiXiXtXtXtXtXtXiXiXiXiXiXiXiXiX<X<X<X1X1X@Xw...{ { o.o.X.X.X.X...o.{ ' { @X4XhXjXjXjXVXjXjXjXdXpXpXpXsXaXaXaXaXaXaXaXaXyX<X<XpXaXaXfXdXkXlXlXlXVXVXVXVXlXlXlXVXVXVXlXVXkXlXlXlXVXlXjXfXaX<Xs.d.6.7.u.a.rXtXtXtXtXtXtXtXtXtXtXtXtXtXuXdXkXVXkXVXVXkXlXkXkXkXVXVXVXkXkXjXdXdXfXfXfXaXuXtXrXrX,XrXrXrXrX,XrXrXrXrXrXrX,X<XS.s.d.2.8.Q Q 8.9.2.2.9.S.aXfXfXaXpXyXyXyXyXyXyX<XS.w.q.w.w.n.q.9.) Q w.pXdXdXdXdXdXdXdXdXdXdXdXdXdXdXdXdXdXdXdXdXaXaXaXaXuXpXpXpXuXuXyXyXyXyXuXtXrXa.s.s.s.i.tXfXfXfXfXfXaXaXfXfXdXdXdXaXuXrXiXiXiXiXiXiXiXiXiXiXiXiXtXiXiXiXiXiX<XL.w.| ! ! R R T A A A A A A A A A A A A A A A C V G ..@X@X@X{ V V V A C C V R ..H.@X@X@Xq.w.@X1X<X<X<X<X<XrXrXiXiXiXiXiXiXyXiXiXyX7.a.uXiXtXtXtXtXtXtXuX,X",
"%.%.%.%.%.%.&.%.%.%.%.%.%.%.%.%.%.&.&.%.+.+.+.+.u u e e w w w w w r q 7 s 3 s 5 w @.3.4.e.e.4.4.4.3.,.*.*.*.=.=.>.>.=.>.=.=.=.=.,.,.,.,.>.,.,.,.=.=.=.*.3.4.e.r.e.e.t.t.4.4.4.4.4.4.4.t.t.t.t.t.4.4.4.5.3.*.@.@.&.&.&.&.=.=.=.=.=.=.&.&.@.u 0 7 q q y y y y y y y u y y y q 6 6 y y y u #.#.#.#.u u y y y u u u u u u u u u y y y y u u y y w w y t t p E 8.8.<.<.l l :.<.8.2.8.<.<.8.<.<.<.t                                     t :.i :.i i i i i i i i i i i i i i i i i i i :.i i i :.:.i i i @.i i l :.:.:.i l i i i i i i i i i :.:.:.:.:.i :.i i :.:..             <.1.<.:.:.2.u.s.i.p.i.a.a.a.S.,XrXiXtXtXtXtXtXtXtXiXiXyXtXyXyXiXiXiX<X1X1X1Xw. .| | o.X.X.X.X.X.o.{ { ' { X.5XhXjXjXCXjXjXjXjXdXaXpXpXaXaXaXaXaXaXaXsXaX<XS.yXaXaXaXaXfXjXlXlXVXVXVXlXVXlXlXlXVXVXlXlXVXkXkXlXlXkXjXfXaXiXi.d.7.u.u.i.L.iXtXtXtXuXtXtXtXtXtXtXtXtXtXuXdXkXVXkXVXVXVXkXkXkXkXVXVXVXkXkXdXjXdXdXfXaXgXtXrXrX,X<XrX,XrXrX,XrXrXrXrXrX,X,XS.i.d.9.2.8.Q Q 8.d.d.9.i.yXfXdXfXaXpXyXyXyXyXyXyX<XS.w.9.q.q.w.w.9.) Q w.pXdXdXdXdXdXdXdXdXdXdXdXdXdXdXdXdXdXdXdXdXaXaXpXpXuXuXpXpXuXyXyXyXyXyXyXyXtX,Xs.u.d.s.rXaXfXfXfXdXfXfXfXfXdXdXdXaXtXrXrXiXiXiXiXiXiXiXiXiXiXiXiXiXiXiXiXiX<Xw.9.! ! ! R R R D A C A A A A A A A A A A A A V G { X.@X@X@Xo.D C V A C C V H ..X.K.@X@Xw.w.@X1X<X<X<X<X<XiXiXiXiXiXiXiXiXtXiXiXyX7.a.uXiXiXtXtXtXtXtXuX,X",
"%.%.%.%.%.&.%.%.%.%.%.%.%.%.%.%.%.&.&.%.+.%.+.+.u u e e e e w w w r q 7 s s 3 7 u >.4.e.e.e.t.4.5.3.*.*.*.*.=.=.>.>.>.>.=.=.=.=.=.>.>.>.=.=.=.=.=.=.=.*.3.4.e.r.e.e.e.t.4.4.4.4.4.4.t.t.t.t.t.t.4.4.4.3.>.&.@.@.&.&.&.&.=.=.=.=.=.=.*.=.@.w 0 0 q q y w w y y y u u y y y 0 6 0 u u y y u y #.#.u u u u u u u u u @.u u u u y y y y u u y w w w y t t p E 8.8.<.<.E E <.<.8.2.8.8.8.<.<.:.<.:.8 O .                               o i i :.i :.i i i i i i i i i i i i i i i i i i i i i i i i i :.i @.@.p p i i i i i i i i i i i i i :.@.@.:.:.:.i :.i i :.5             t 1.<.:.1.7.u.i.i.p.i.a.a.a.a.,XrXiXtXiXtXtXtXtXtXtXtXtXtXtXtXiXiXiXiX<X1X1X@Xq.X.....X.X.X.X.X.o.{ { { { | @XsXjXjXjXVXjXjXVXjXsXpXpXpXaXaXaXaXaXaXaXyXS.<XpXaXaXaXaXfXdXkXlXVXVXVXlXVXlXlXlXVXVXlXlXlXkXlXlXkXdXfXaXyXS.s.7.u.i.i.i.rXiXtXtXtXuXtXtXtXiXtXtXtXtXtXgXdXVXVXkXVXVXkXVXkXkXkXkXVXVXkXkXdXjXdXdXfXaXyXrXrXrX<XrXrX,XrXrX,XrXrXrXrX<X,XS.i.s.9.2.8.8.Q 8.9.i.s.d.S.pXfXfXfXaXpXyXyXyXyXyXyX<XS.w.9.9.q.w.9.9.) Q w.pXdXdXdXdXdXdXdXdXdXdXdXdXdXdXdXdXdXdXdXdXaXaXpXpXuXuXpXpXuXyXuXyXyXyXuXuXyXiX<Xi.d.d.,XaXaXfXfXfXfXfXdXdXdXdXfXaXyXrXrXrXiXiXiXiXiXiXiXiXiXiXiXiXiXiXiX<XS.w.! ! ! R R R R T A A A A A A A A A A A A A A D ' ..@X@X@X@Xo.G V C C C C V H ..X.X.@X5X@Xw.w.1X<X<X<X<X<XiXiXiXiXiXiXiXiXtXiXiXuX7.a.uXiXiXiXtXtXtXtXuX,X",
"%.%.%.%.%.*.%.%.%.%.%.%.%.%.%.%.%.&.&.%.+.+.+.u u u e e e e w w w r e 6 3 s 5 0 @.3.4.e.e.e.4.4.5.3.*.*.*.*.=.=.=.=.=.>.>.>.=.=.=.=.>.>.>.=.=.=.=.=.=.*.3.4.e.r.e.e.e.t.t.t.4.4.t.t.t.t.t.t.t.t.4.4.5.3.*.@.&.&.&.&.&.>.>.>.>.=.=.=.*.>.@.q 5 0 q q y w w y y u u u u y y 0 6 0 u y y y y y y #.u u u u u u u u u @.u u u y y y y y u u u u w w y y y p :.<.<.<.<.E l W <.8.2.8.8.<.<.<.:.E :.<.t 7 O                             . p i i i i p i i i i i i i i i i i i i i i i i :.:.i i i :.:.:.:.<.<.:.>.>.i i i i i i i i i i i i :.:.:.:.:.:.i :.:.i :.p             o :.<.<.2.d.s.i.i.i.i.a.a.a.a.,XrXiXtXtXtXtXtXtXtXtXtXiXtXtXtXtXtXiXiXyX1X1X@Xw.X.X.X.X.X.X.X.o.o.{ { ' ' ' w.sXjXjXjXVXjXjXVXjXsXpXyXpXaXaXpXpXsXaXpXS.S.yXaXaXaXaXaXfXdXkXVXlXlXlXlXVXlXlXlXlXlXlXkXkXkXVXkXdXfXaXyXrXi.u.u.i.,Xa.a.rXiXtXtXuXuXtXiXtXiXtXtXtXtXtXaXdXVXVXkXVXVXkXVXkXkXVXVXVXVXkXkXjXjXjXdXfXgXtXrXrX,X,X<XrX,X,XrXrXrXrXrXrX,XS.S.i.w.9.8.8.Q 8.9.w.S.i.9.S.aXfXdXfXaXpXyXyXyXyXyXyXiXS.n.q.9.9.9.9.9.) Q w.aXdXdXdXdXdXdXdXdXdXdXdXdXdXdXdXdXdXdXdXdXfXaXpXaXuXuXpXuXuXyXuXyXyXyXuXuXuXuXyX<Xu.0.,XaXfXfXaXfXfXdXdXdXfXfXaXuXyXrXrXrXiXiXiXiXiXiXiXiXiXiXiXiXiXiXiX<Xi.2.! ! ! R R R R R D A A A A A A A D D A A A H ' ..X.@X@X@X|...H A C C C C V R ..X.X.@X5X@Xw.w.1X<X<X<X<XrXiXiXiXiXiXiXiXiXiXiXiXuX7.a.uXiXiXiXtXiXtXtXuX,X",
"%.%.%.%.%.*.%.%.%.%.%.%.%.%.%.%.%.%.&.%.+.+.+.u u u e e e w w w w r q 7 1 3 7 y >.5.6.e.t.e.4.4.3.3.*.*.*.*.=.=.=.=.=.=.>.,.,.,.=.=.=.=.=.=.=.=.=.=.=.*.3.4.t.e.e.e.e.t.t.t.e.e.4.4.4.t.4.4.4.4.4.4.5.>.&.&.&.&.&.&.&.>.=.>.>.>.=.=.*.>.@.q 7 0 q y y w w y y y u u u y y 0 6 q y y y y y y y #.u u u u u u @.@.@.@.u u y y y t y y u u u u u w y y y p :.<.<.<.<.E l W <.8.2.2.<.<.<.:.:.E E :.<.:.i t t 7 7 5 o o o o             7 :.p i i i i i i i i i i i i i i i i i i i i :.i i i :.i p 7 O o t :.l i :.i i i i i i i i i i i :.:.:.:.:.:.i :.:.E i :.o             9 W <.7.u.s.s.i.i.i.a.a.a.a.,XrXiXtXtXtXtXtXuXtXtXtXtXtXtXtXtXtXyXyXyX1X1X@Xw.q.X.X.X.X.X.X.o.{ { { ' ' '  .5XCXjXjXjXVXjXjXjXfXpX1XpXaXaXaXsXsXpX<Xi.<XaXaXaXaXaXaXaXdXkXlXlXlXVXlXVXlXlXlXlXlXlXkXkXkXlXdXaXgXyXyXrXi.u.s.<XiXa.a.rXiXtXtXuXuXtXtXtXiXtXtXtXiXtXaXdXVXkXkXkXkXkXVXkXkXkXVXVXVXkXkXjXjXdXdXaXuXiXrXrX,X,X,X,X,X,XrXrXrXrXrXrX,XS.i.s.9.9.8.8.Q 8.9.i.S.i.9.i.aXfXdXfXaXpXpXyXyXyXyXyXiX<XS.w.9.9.9.9.9.) 8.n.aXjXdXdXdXdXdXdXdXdXdXdXdXdXdXdXdXdXdXdXdXfXaXpXaXpXuXpXuXuXyXuXyXyXyXyXyXgXgXgXiXi.d.<XfXdXdXfXfXfXfXfXfXfXaXaXuXiXrXrXrXiXiXiXiXiXtXiXiXiXiXiXiXiXiXiX<Xw.! R ! ! R R R R R R G D D A A D G D D G G H { ..X.H.@X@X@XH.X.{ D V C C C C R ..X.X.@X@X@Xw.w.i.<X<X<XrXrXiXiXiXiXiXiXiXiXiXiXrXuX2.a.uXiXiXtXtXiXtXtXuX,X",
"%.%.%.%.%.%.%.%.%.%.%.%.%.%.%.%.%.&.&.%.+.+.+.u +.u e e e w w w w r q 7 1 3 0 @.3.4.6.4.4.e.4.4.3.,.*.*.*.*.=.=.=.=.=.=.>.,.,.,.=.=.=.=.=.=.=.=.=.>.=.*.3.5.e.e.e.e.t.t.t.e.e.e.t.t.t.t.4.4.4.4.5.5.3.*.&.&.&.&.*.&.>.>.>.>.=.>.=.*.*.>.@.0 7 q t y y w w y y u u u u y y 0 6 q y y #.y u y y #.u u u u u u u @.@.u u u y y t y y y u u u u u u y t y p :.<.<.<.<.E l W <.8.7.2.1.<.<.:.E W E i l l E l i p t t t t t 7 O           o i i i :.@.i i i i i i i i i i i i i i i i i :.i p i i 7 o         o :.7.p i i i i i i i i i i i i :.:.:.:.:.:.:.:.:.i :.7             o E 1.d.u.s.s.i.i.a.a.a.a.a.,XrXiXtXuXtXuXuXuXuXtXtXtXyXtXtXyXyXtXtX1X1X1Xw.w.X.X.X.X.X.X...o.{ { { ' ' { R @XjXVXjXjXVXjXjXjXdXpXyXyXpXaXaXsXpX<Xi.<XpXaXaXaXaXaXaXaXdXkXlXlXlXVXlXVXlXlXlXlXlXlXkXlXkXjXfXpXyXyXiX,Xu.d.a.iXiXa.a.iXtXuXtXuXtXtXtXtXiXtXtXtXiXtXaXdXVXkXdXkXkXkXkXkXkXkXkXVXVXkXjXdXdXdXfXaXyXiXrXrX,X,X,XrX,X,XrXrXrXrXrXrXS.S.i.w.9.8.8.8.8.2.s.S.<Xi.0.s.aXdXjXdXfXaXpXyXyXyXyXyXiX<XS.w.9.8.) 9.9.) 9.S.fXjXdXdXdXdXdXdXdXdXdXdXdXdXdXdXdXdXdXdXdXfXaXaXaXpXuXpXuXuXyXuXyXyXyXyXuXuXuXgXyXi.d.<XfXkXdXfXfXfXfXfXfXaXaXaXuXiXrXrXrXiXiXiXiXiXiXiXiXiXiXiXiXiXiXiX<Xw.! ! R R R R R R R R R R G R T G R G G R R { ..X.H.H.H.@X|.X.X.o.G V V C C C G | X.X.K.@X5X@Xw.w.<X<X<XrX<XrXrXiXiXiXiXiXiXiXiXrXuX2.a.tXtXtXtXtXtXtXtXuX,X",
"%.%.%.%.%.%.%.%.%.%.%.%.%.%.%.%.%.&.&.%.+.+.+.u +.+.e e e w w w w r q 5 1 2 q &.5.4.r.4.4.e.4.4.3.=.*.*.*.*.=.=.=.=.=.=.,.,.,.,.,.,.,.,.,.,.,.,.=.>.=.>.3.5.e.e.e.4.t.t.t.e.e.e.t.t.t.e.e.4.4.4.5.5.,.*.@.&.&.&.*.*.>.>.>.>.>.>.=.*.&.>.@.0 7 q y y y w w y u u u u u y y 6 6 y y y #.y y y y #.u u u u u u u u u u u u u y t y y y u u u u u u y y y p :.<.<.<.W l l W <.8.7.2.1.:.:.<.E E <.E :.E i i i p p t t t t t o .           7 i i :.i i i i i i i i i i i i i i i i i i i i i :.i o             o i 3.i i i i i i i i i i i i :.:.:.:.i :.:.i :.:.i :.O           . E 1.u.s.s.s.i.i.a.a.a.a.a.rXrXiXtXuXuXuXuXuXuXuXuXyXyXyXyXyXyXtXtX1X<X@Xw.q.X.X.X.X.X.X...o.{ { { ' ' { G w.sXjXVXjXVXVXjXVXjXsXyXyXpXaXaXyX<Xi.i.yXaXaXpXaXaXaXaXaXdXkXkXkXlXlXVXVXVXlXlXlXlXlXlXkXjXfXaXyXiXyXyXa.u.d.a.uXiXa.a.iXuXuXtXtXtXtXtXtXiXtXtXiXiXtXfXdXVXkXdXkXdXkXkXkXkXkXkXVXkXkXjXdXdXfXfXaXyXiXrXrXrX<XrXrXrX,X,XrXrXrXrXrXS.i.i.w.9.8.8.2.2.9.i.<X<Xi.2.s.aXjXkXjXfXaXpXyXyXyXyXyX<X<XS.w.9.8.Q Q ) 8.9.<XdXjXdXdXdXdXdXdXdXdXdXdXdXdXdXdXdXdXdXdXdXfXaXaXaXpXuXpXuXuXyXuXyXyXyXyXuXyXyXgXuXi.7.i.fXkXdXfXfXfXaXaXaXaXaXaXuXiXrXrXrXiXiXiXiXiXiXiXiXiXiXiXiXiXiX<X<Xw.! R R R ! ! R R R R R R R R R R R R R ' { ..X.X.X.H.H.@X|.X.X...R A V C V C D { X.X.X.@X@X@Xw.w.1X<X<XrX<XrXrXiXiXiXiXiXiXiXiXrXuX2.a.tXtXtXtXtXtXtXtXuXrX",
"%.%.%.%.%.*.*.*.%.%.%.%.%.%.%.%.&.+.+.+.%.%.+.+.+.u e e e e e w w w r 5 1 3 w >.4.e.e.e.t.e.4.5.,.>.=.=.=.=.*.=.=.=.=.=.=.=.>.>.>.>.=.=.=.=.>.>.=.*.=.,.3.4.4.e.t.e.e.4.e.t.e.e.4.4.t.e.e.t.4.5.3.3.>.&.&.&.&.&.=.=.=.=.>.>.>.>.=.=.&.=.&.0 5 0 w y y w w u u e u y t y q 6 0 y y u u u u y y y u u u u u u u u u u @.u u y t y y y u u u u y y t t t p E <.<.<.E l l l <.8.2.2.8.<.<.:.:.:.:.:.:.:.:.E l i p p p p t t t O           o i i i i i i i i i i i i i i i i i i i i :.i p :.:.o                 o <.1.:.p i :.i i i i i i i :.:.:.:.:.i i :.E i E :.7             t 2.d.u.s.u.p.i.i.a.a.a.a.,XrXiXtXuXuXuXuXuXuXuXuXuXuXuXyXyXyXyXyX<X1Xw.w.q.X.X.X.X.X.X...o.{ ' ' ' ' ' R | sXCXjXjXkXVXjXVXjXsXpX<X1X<X<Xi.i.S.<XaXaXaXaXaXaXaXaXaXfXkXlXlXkXlXkXVXlXkXVXlXkXVXkXkXdXaXyXrXiXiXiXi.2.s.rXtXiXa.a.iXtXuXtXtXtXtXtXtXtXtXtXtXiXuXfXkXkXdXkXkXkXkXkXkXkXkXVXkXkXdXdXdXfXfXaXpXyXrXrXrXrX<X,X,XrXrXrX,XrXrX,X,XS.i.i.u.9.8.8.8.9.w.i.<X<XS.d.u.aXjXkXdXfXaXpXyXyXyXyXyXiX<XS.n.9.9.Q Q Q Q 9.yXfXdXdXdXdXdXdXdXdXdXdXdXdXdXjXdXdXdXdXdXkXdXfXaXpXgXgXpXuXuXuXuXyXyXyXyXuXyXuXuXyX,Xr.i.aXdXdXdXaXaXaXaXgXaXaXaXaXuXrXrXiXiXiXrXiXtXtXiXiXiXiXiXiXiXiX<XS.w.! ! ! ' R R ' R R R R R R R R R R R ' { ..X.H.X.} X.|.@XH.X.X.X.{ A V C C V A ' X.w.w.K.@X@XK.w.1X<X<XrXrXrXrXiXiXiXiXiXiXiXiXiXuX7.a.uXiXtXiXtXtXtXtXuXrX",
"%.%.%.%.%.*.*.*.%.%.%.%.%.%.%.%.&.%.+.+.%.%.+.+.+.u e e e e e w w w 0 5 1 5 u >.4.4.e.t.t.t.4.3.,.>.=.=.>.=.*.=.=.=.=.=.=.>.>.>.>.>.=.=.=.=.>.>.=.*.*.,.3.4.4.e.e.e.e.4.e.t.e.e.t.4.t.t.t.4.5.3.3.3.>.&.&.&.&.&.=.=.=.=.>.>.>.>.=.=.&.=.&.0 5 0 w y y w w u u e u y t y q 6 0 y y u u u y y y y y y y u u u u u u u @.u u y t y y y u u u u y y t t t p E <.<.<.W l l l <.8.2.7.8.<.<.<.:.:.:.:.:.:.:.:.:.E l i i p p t t =           . p i p i i i i i i i i i i i i i i i i i p :.p :.5                     . p <.5.:.i p i :.:.:.i i i i i i :.i i :.E i i E i .           7 7.d.u.s.s.p.i.i.i.a.a.a.rXrXtXtXuXuXuXuXuXuXuXuXuXuXuXuXuXyXyXyX1X@Xw.w.X...X.X.X.X.X...o.{ ' ' ' ' { R ! 5XCXjXjXjXjXjXVXjXdXaX<X<Xi.i.S.<XyXaXaXaXaXaXaXaXaXaXaXfXjXkXlXkXkXkXVXVXkXVXkXkXVXkXjXfXuXiXrXiXtXiXs.7.i.iXyXiXa.L.tXtXtXtXtXtXtXtXtXtXtXtXiXiXuXfXkXkXkXkXkXkXkXkXkXkXkXVXVXkXdXdXfXfXaXaXuXtXrXrXrXrX,XrXrXrXrXrX,X,XrX,X,XS.i.s.9.9.8.8.9.9.s.S.<XS.S.d.d.pXjXkXdXfXaXpXyXyXyXyXyXiX<XS.w.q.9.Q Q Q Q w.pXdXdXdXdXdXdXdXdXdXdXdXdXdXdXdXdXdXjXdXdXkXdXfXaXpXgXgXuXuXuXuXyXyXyXyXyXuXyXuXuXyX,Xd.s.uXdXdXdXfXaXaXgXgXaXfXfXaXuXrXrXiXtXiXiXtXtXiXiXiXiXiXiXiXrXrX1Xi.0.! ! ' ' R R R ! ' R R R ' R R R R R { o...X.X.X.} H.|.@X|.X.X.X.o.G V C C V V R ..X.X.K.@X@XK.w.<X<X<XrXrXrXrXiXiXiXiXiXiXiXiXiXuX7.a.uXiXiXiXtXtXtXiXuXrX",
"%.%.%.%.%.%.*.*.&.%.%.%.%.%.%.%.&.&.+.%.%.+.+.+.+.u e e e e e w w w 0 5 1 5 #.3.4.t.e.t.4.4.5.3.,.>.*.=.>.>.*.=.=.>.=.=.=.=.>.>.>.>.=.=.=.=.>.>.=.*.*.,.3.4.4.6.e.e.e.e.e.e.e.e.e.t.t.4.4.4.5.3.3.,.>.&.&.&.&.&.=.=.=.=.>.>.>.>.=.=.&.=.&.q 5 0 w y y w y u u y u y y y q 6 0 y y u u u y y y y y y u u u u u u u u #.u u y t y y y u u u u y y t y t p E <.<.<.:.E l W <.8.7.7.1.<.<.W E :.:.:.<.<.<.<.:.:.E E :.p :.p p t .           7 :.p i i i i i i i i i i i i i i i i i i i i t .                         o t :.3.1.:.p p i :.:.:.:.:.:.i i i :.E i i i <.o           O 2.d.u.s.s.i.s.i.a.a.a.L.,XrXtXuXuXuXuXuXuXuXuXuXuXuXuXuXyXyXyXyX1Xw.w.w.X.X.X.X.X.X.X...o.{ ' ' ' { { ' R @XCXjXjXkXjXjXjXjXdXsXpXyXyXyXpXaXaXpXgXaXaXaXaXaXaXaXaXfXjXkXkXkXkXlXlXVXlXVXkXkXVXkXfXpXiXiXrXiXyXrXu.7.a.tXyXiXa.,XtXtXtXtXtXtXtXtXtXtXiXiXiXiXuXfXkXkXkXkXkXkXkXkXkXkXkXVXVXkXjXdXdXfXaXaXpXyXrXrXrX<X<XrXrXrXrXrX,X,XrX,X,XS.i.s.9.9.8.8.9.9.i.S.<X<XS.d.2.yXkXlXkXdXaXpXpXyXyXyXyXiXS.n.q.q.9.) Q Q Q i.aXjXdXdXdXdXdXdXdXdXdXdXdXdXdXdXdXjXjXjXdXdXdXfXaXpXuXuXuXuXyXyXyXyXyXyXyXyXtXyXyXyXrXs.u.uXfXdXdXdXfXaXuXuXaXfXfXfXuXiXiXiXtXtXtXtXtXiXtXiXiXiXiXiXrXrX<Xi.0.! ! R R R ' ! ! { { { { { { ' R R ' { ..X.X.X.X.} H.|.@X|.X.X.H...H V v C V V G | X.X.K.@X1X@Xw.i.<X<XrXrXrXrXiXiXiXiXiXiXiXiXiXuX7.a.uXiXiXiXtXtXtXtXuXrX",
"%.%.%.%.%.%.&.%.&.&.%.&.%.%.%.%.&.&.%.%.+.+.+.+.+.u e e e e e w w w 0 3 1 6 #.3.4.t.t.4.4.4.5.3.,.>.*.=.>.>.*.=.>.>.=.=.=.=.>.>.=.=.=.=.=.=.>.>.=.*.,.3.5.4.4.6.e.e.t.t.t.e.e.e.e.t.4.4.4.4.3.3.3.,.>.&.&.&.&.&.>.>.=.=.>.>.>.>.=.=.&.=.&.q 5 6 q y y y e u u u u y y t q 6 q y y u u u u y y y y y u u u u u u u u #.u u y t y y y u u u u y y y t t p l :.<.<.:.E l :.<.8.2.7.1.<.:.E E :.:.<.:.:.<.<.:.:.:.:.:.i E i p p o           O p i i i i i i i i i i i i i i i i i i :.p i o                                 O 7 :.1.<.:.i p i :.:.:.i i :.:.E i i i :.t             :.7.d.s.s.s.i.i.i.a.a.L.rXrXtXuXuXuXuXuXuXuXuXuXuXuXuXuXyXyXyXiX1Xw.w.w...X.X.X.X.X.X...| { ' ' ' ' ' ' T w.CXjXjXkXjXjXjXjXdXsXaXaXaXaXaXaXaXpXpXpXgXaXaXaXaXaXaXfXjXkXkXkXlXlXlXVXlXVXkXkXVXkXaXyXrXiXrXtXtX,X7.7.,XyXyXiXa.,XtXtXuXtXtXtXtXtXtXtXiXiXiXiXuXfXkXkXkXkXkXkXkXkXVXVXVXVXVXVXkXkXdXdXfXaXaXyXrXrX,X<X<X,X,X,X,XrX<X<XrX,X,XS.i.s.9.9.8.9.9.w.i.S.<X<X<Xw.8.rXkXVXkXdXaXpXpXyXyXyXyX<XS.n.q.9.9.8.8.Q 8.S.sXjXdXdXdXdXdXdXdXdXdXdXdXdXdXdXdXdXdXjXdXdXdXdXaXaXuXuXuXuXyXyXyXyXyXyXyXyXtXyXyXuXrXs.u.iXfXdXdXdXfXaXgXgXaXfXfXfXaXtXiXtXtXiXiXiXiXtXtXiXiXiXiXiXiXrX<Xi.9.! ! R R R R ' ' { { | | | { ' R R ' { ..X.X.X...X.H.@X@X|.X.X.H.X.H V v C V V D { X.X.K.@X@X@Xw.i.<X<XrXrXrXiXiXiXiXiXiXiXiXiXiXuX7.a.uXiXtXiXtXtXtXtXuXrX",
"%.%.%.%.%.%.%.%.&.&.&.&.%.%.%.%.&.%.%.%.+.+.+.+.+.u e e e e e w w w r 3 1 5 +.3.4.4.4.4.4.4.5.3.,.,.*.=.>.=.*.*.>.>.=.=.=.=.=.=.=.=.=.=.=.=.=.>.=.>.,.3.4.4.e.6.e.e.e.e.e.e.e.e.e.4.4.4.4.5.5.3.3.,.>.>.&.&.&.&.>.>.>.>.>.>.>.>.=.=.&.=.>.y 6 6 q y y y u u u u u y y q q 0 q y y y u u y y y u y u u u u u u u u u u u u y y y y y u u #.u y y y t t u :.:.:.<.:.E E <.<.2.2.7.2.<.:.E :.:.<.<.:.:.<.<.<.:.:.:.E :.i l l p 8             7 :.i i i i i i i i i i i i i i i i i i p 7                 O O .                   o t i :.:.i p i :.:.:.:.i i i i i i :.O           8 7.u.s.s.i.i.p.i.a.a.L.rXrXtXtXuXuXuXuXuXuXuXuXuXuXuXuXyXyXyX<X@Xw.w.w.X.X.X.X.X.X.X...| { ' ' ' ' ' ' R | jXjXjXVXVXkXjXdXfXsXaXaXaXuXyXpXaXaXuXpXaXaXaXaXaXaXaXfXjXkXkXkXlXlXkXVXkXVXlXlXVXdXgXiXiXtXiXiXiXa.7.r.<XyXyXiXa.,XtXtXtXtXtXtXtXtXtXtXiXiXiXiXuXdXkXkXkXkXkXVXVXVXVXVXVXVXVXVXVXVXkXdXdXfXaXuXrX,X,X,X,X,X,X,X,X,XrXrXrXrX,XS.i.s.9.9.9.9.9.u.i.S.<X<X<Xs.8.,XkXVXkXdXaXpXpXyXyXyXyX<XS.n.q.9.8.Q Q Q 9.<XfXjXdXdXdXdXdXdXdXdXdXdXdXdXdXdXdXdXdXjXdXdXdXdXfXaXpXpXuXuXuXyXyXyXyXyXyXuXyXuXuXuXiXs.d.<XaXfXdXfXfXfXaXaXfXfXfXdXaXyXrXiXiXiXiXiXiXtXiXiXiXiXiXiXiXiX<Xi.0.! ! R ! ! R ! ! R { .. .| { ' R R ' | ..X.X.X.} X.H.@X@X|.X.X.H.X.' V v C A C D ' ..X.w.K.@X@Xw.i.<X<X<XrXrXrXrXiXiXiXiXiXiXiXiXuX7.a.tXiXtXtXtXtXtXiXuXrX",
"%.%.%.%.%.%.%.%.*.&.&.&.%.%.%.%.&.&.%.%.+.+.+.+.u e e w e e e w w w r 3 1 6 @.3.4.4.4.4.4.5.5.3.,.,.*.=.>.,.*.*.>.>.=.=.=.=.=.=.=.=.=.=.=.=.=.=.,.,.3.5.4.4.e.4.e.e.t.e.e.e.e.4.4.4.4.4.4.5.3.3.3.,.>.=.&.&.&.&.>.>.>.>.>.>.>.>.=.=.&.=.>.y 6 6 0 q y y u u u u u y y q 0 0 q y u u u u u y y u u u u u u u u u u u u u u y y y y y u u #.u y y y t t u :.:.:.W E E E <.8.2.2.7.1.<.E E :.:.<.<.<.<.<.<.<.<.<.:.E <.p l E i p o           O i i i i i i i i i i i @.i i i i i i i p .             O t :.:.:.t 5                   o t :.:.:.:.i :.:.:.i i i E i i <.5           o 1.d.u.s.i.i.i.i.a.a.L.rXrXiXtXuXuXuXuXuXuXuXuXuXuXuXuXyXyXyX<Xi.w.w.w.w.w.X...w.w.w.X.| { ' ' ' ' ' ' R | sXjXjXjXVXkXjXdXfXaXaXaXaXaXaXaXpXuXuXpXaXaXaXaXaXaXaXfXjXkXkXkXkXlXkXVXkXlXlXVXlXfXyXiXiXtXiXiXrXa.7.d.rXtXtXiXa.,XtXtXtXtXtXtXtXiXtXtXiXiXiXiXgXdXkXkXkXkXkXVXVXVXVXVXVXVXVXVXkXkXVXkXdXdXfXuXrX,X,X,X,X,X,X,X,X,XrX,X,XrX,XS.i.w.9.9.9.9.9.u.i.S.<X<XrXi.8.S.dXVXkXfXaXpXyXyXyXyXiX<XS.q.9.9.8.Q Q Q w.yXdXjXdXdXdXdXdXdXdXdXdXdXdXdXdXdXdXdXdXjXdXdXdXdXfXaXgXpXpXuXuXyXyXyXyXyXyXuXyXuXuXuXiXi.d.a.gXfXfXfXaXaXfXfXfXdXdXdXaXyXrXrXiXiXtXiXiXtXiXiXiXiXiXiXiXiX<Xi.w.! ! ! ! ! R ! R R | w.q...{ ' R R { | X.X.X.X.o.X.H.@X@X|.X.X.H.X.' V c C C C A H { ..w.K.1X1Xi.i.<X<XrXrXrXrXrXiXiXiXiXiXiXiXiXuX7.a.tXiXtXtXiXtXtXiXuXrX",
"%.%.%.%.%.%.%.*.*.*.&.&.&.%.&.&.&.&.%.%.+.+.+.+.$.e w w e e e e e e 6 3 s 0 *.4.e.t.t.4.4.5.3.3.,.,.*.=.>.,.*.*.=.=.=.=.=.=.=.=.>.>.=.=.=.=.=.=.,.,.3.5.4.e.e.4.t.t.e.e.e.e.e.t.4.4.4.4.5.5.3.3.,.>.>.>.=.=.=.=.=.>.>.>.>.>.>.>.>.>.&.=.,.u 6 5 0 q y y u u u u u y y q q 0 q y u u u u u u u u u u u u u u u @.u u @.u u y y y y y u u y y y y t t y u i E :.E E E E <.8.2.2.2.2.<.E E :.:.:.:.<.<.<.<.<.<.:.:.:.<.l l E i i 7 .           7 i i i i i i i i i i i i i i i i i :.5             7 t i p p :.:.<.:.t o                 O 7 :.:.i i i i i i i E i i :.t           . E 7.u.s.i.i.i.i.i.a.L.rXrXiXtXuXuXuXuXuXuXuXuXuXuXuXuXyXyXyX<Xi.w.w.w.w.w.w.X.w.w.w.X.| { ' ' ' R ' ' R ! sXVXjXjXjXjXjXdXfXaXaXaXuXuXuXpXaXaXuXpXaXaXaXgXaXaXaXfXjXkXkXkXkXkXkXVXkXkXlXlXkXaXtXiXiXiXrXiXrXa.7.u.iXyXtXiXa.L.tXtXtXiXiXtXtXiXtXtXiXiXiXiXaXdXkXkXkXkXkXVXVXVXVXVXVXVXVXkXdXdXdXdXdXdXfXuXrX,X,X,X,X,X,X,X,X,X,X,X,X,XS.i.s.d.9.9.9.9.9.d.i.S.<XrXrXi.2.S.dXVXkXfXaXpXyXyXyXyX<XS.i.9.9.9.8.8.Q 9.S.aXjXjXdXdXdXdXdXdXdXdXdXdXdXdXdXdXdXdXdXjXdXdXdXdXdXaXgXuXpXuXuXuXyXyXyXyXyXuXyXyXyXuXtXa.6.s.yXfXaXaXuXaXfXfXfXfXdXdXfXpXrXrXrXiXtXtXiXiXiXiXiXiXiXiXiXiX<X<Xw.] ! ! R R ! R R | w.w.w.| { ' R R { ..X.H.X.X...X.H.@X@X|.X.X.H.X.' A v C C C A D R | w.K.@X1X1XS.<X<XrXrXrXrXrXiXiXiXiXiXiXiXiXuX7.a.tXiXtXiXiXtXtXiXuXrX",
"%.%.%.%.%.%.*.*.*.*.&.&.&.&.&.&.&.%.%.+.+.+.+.+.$.e w w w e e e w r 6 3 3 w >.4.e.e.t.4.4.5.3.3.,.,.*.=.>.,.>.*.=.=.=.=.=.=.=.=.>.=.=.=.=.=.=.=.,.,.3.4.4.e.e.4.t.t.e.e.e.e.t.t.4.4.4.5.5.5.3.3.,.>.>.*.=.>.>.>.=.>.>.>.>.>.>.>.>.>.&.=.,.u 6 5 0 q y y u u u u u y y q q 0 q y u u u u u u u u u u u @.u @.@.@.u @.@.u u y y y y y u u y y y y t t t u i :.E E l l E <.8.2.2.2.2.<.:.E W :.:.:.<.<.<.<.<.<.:.:.<.:.:.l l E i p o           o :.i i i i i i i i i i i i i i i i p             5 :.:.i p i i p p :.:.<.:.7 O               O 7 @.i i i i i i i i i i :.O           t 1.u.s.i.i.i.i.i.a.L.rXrXtXtXuXuXuXuXuXuXuXuXuXuXuXuXyXuXyX<Xi.w.w.w.w.w.w.w.w.w.K.X.| { ' ' ' ' ' ' R ! sXCXjXjXjXjXjXdXfXaXaXaXaXaXpXuXuXaXuXpXaXaXaXaXaXaXaXfXjXkXkXkXkXkXkXVXkXkXkXlXjXaXiXiXiXrXrXiXrXa.7.s.tXuXtXiXa.a.tXtXtXiXiXtXtXiXiXtXiXiXiXiXaXdXVXVXkXkXkXVXVXkXVXVXVXVXVXjXdXfXfXfXfXdXaXtXrX,X,X,X,X,X,X,X,X,X,XS.S.S.S.i.u.9.9.9.9.9.9.d.i.S.<XrX<Xi.2.a.fXVXdXfXaXpXyXyXyXyX<XS.w.9.9.9.8.8.Q 9.<XsXjXdXdXdXdXdXdXdXdXdXdXdXdXdXdXdXdXdXdXjXdXdXdXdXdXaXgXuXgXuXuXuXyXyXyXyXyXyXtXtXyXuXyXS.d.s.iXaXaXuXuXaXfXaXaXaXfXdXfXaXyXiX<XrXiXiXiXiXiXiXiXiXiXiXiXiXiX<Xi.9.! ! ! R ! T R q.@X@Xq.| ' R R R { ..X.H.X.....X.H.@X@XH.X.X.H.X.{ A v v C v C A D ' ..K.1X1X1X<X<X<XrXrXrXrXrXiXiXiXiXiXiXrXiXuX7.a.tXiXiXiXiXiXtXiXuX,X",
"&.&.%.%.%.%.*.*.&.&.&.&.&.&.&.&.&.&.%.+.+.+.+.u e e e e w w w w e r 2 1 3 e ,.4.e.e.e.4.4.5.3.,.>.*.*.*.,.,.,.>.,.,.,.,.,.,.>.>.>.=.=.=.=.,.,.=.,.,.5.5.6.e.e.e.e.e.e.e.e.4.4.4.t.4.4.5.5.3.3.,.,.>.*.*.=.>.>.>.=.=.>.>.>.>.>.>.>.=.,.=.=.&.6 5 0 q y u u u u u u y q 0 0 0 q y y y y u u u u u u u u u u @.@.@.u u u u u y y y u u u u u u u w y t t t p i E :.l l l 1.1.2.2.2.2.1.:.E E :.:.:.:.<.<.<.<.<.:.:.<.E l :.:.l l l 7             i i i i :.i i i i :.i :.i i :.p :.o           o :.i i i i i i i i i i p i :.:.7 O               o 8 i p p i i E p i i :.t           o <.u.s.s.i.i.p.a.a.L.rXiXtXuXuXuXuXuXuXuXuXuXuXuXuXuXuXyXyXrX1Xw.w.w.w.w.w.w.w.w.K.w...] ' ' ' ' ' ' R ! sXCXjXjXjXjXjXdXfXaXaXaXpXuXpXpXpXgXpXpXgXgXgXaXaXaXaXfXjXkXkXkXkXkXkXVXkXkXkXkXdXpXrXiXiXrXiXrXrXi.7.s.tXuXtXrXa.a.tXtXtXtXtXtXtXiXiXiXiXiXrXiXaXdXkXkXkXkXkXkXVXVXVXVXVXVXVXdXfXaXaXaXaXfXaXtX<XL.,X,X,X,XrX,X,X,Xa.a.a.a.S.i.w.9.9.9.9.9.9.9.i.S.,XrXiXS.d.i.fXVXkXfXaXpXyXyXyXiX<XS.w.9.9.8.8.Q Q w.pXdXdXdXdXdXdXdXdXdXdXdXdXdXdXdXdXdXdXdXdXdXdXdXdXdXdXfXaXuXpXuXyXyXyXyXyXyXyXyXyXyXtXuXtXrXd.u.<XaXaXaXfXaXaXaXaXaXfXfXfXfXaXyXrX<XrXiXrXrXrXrXrXiXiXtXtXiX<X<X<XL.w.9.! ! ! ] w.i.@Xw.| ' { R R H R ..X.H.X...o.} H.@X@XH.X.X.H.X.{ A v v C C A A D R ] w.1X1X1X<X<X<XrXrXrXrXrXrXiXiXiXiXiXiXrXuX7.i.uXrXiXiXiXtXtXiXuX,X",
"&.&.%.%.*.*.*.*.&.&.&.&.&.&.&.&.&.&.%.+.+.+.+.u e e e e w w e w w r 3 1 5 u 3.4.e.e.t.4.4.5.3.,.>.*.*.*.,.,.,.>.,.,.=.=.=.=.=.=.>.=.=.=.=.,.,.>.,.3.5.4.6.e.e.e.e.e.e.e.e.4.4.4.t.4.4.5.5.3.3.,.>.>.*.*.&.>.>.*.=.=.>.>.>.>.>.>.=.=.=.*.=.&.0 5 6 q y u u u u u u y q 0 0 0 q y y y u u u u u u u u u u u u u u @.@.@.u y y y y y y y y u y w w y t y y p p p p p l E <.<.2.2.7.2.1.:.E E :.:.:.<.<.<.<.<.<.:.:.:.:.:.:.l i i E t o           7 :.i i i i :.i i @.i i :.i i :.t .         O i :.i i i i i i i i p i :.i i :.:.:.7 O               o 7 p i p i E i i i :..         O :.6.u.s.i.i.i.a.a.L.rXiXtXuXuXuXuXuXuXuXuXuXuXuXuXuXuXuXyXiX1Xi.w.w.w.w.w.w.i.K.@Xw...| ' ' ' ' ' ' R ! sXjXjXjXjXjXdXfXaXaXaXpXpXuXuXpXpXgXpXpXgXgXgXaXaXaXaXfXjXkXkXkXkXkXkXVXkXkXkXkXdXyXrXrXiXrXiXrXrXi.7.i.yXuXtXrXa.a.tXtXtXtXtXtXtXtXtXtXiXiXiXiXfXdXkXkXkXkXVXkXVXVXVXVXVXVXVXjXdXfXfXfXfXfXaXtX<X,X,X,X,X,XrXrX,X,Xa.i.s.i.S.i.w.2.9.9.9.9.9.9.s.S.<X<XrXS.d.i.fXVXdXfXaXpXyXyXyXiX<XS.w.9.8.8.8.Q 9.S.aXdXdXdXdXdXdXdXdXdXdXdXdXdXdXdXdXdXdXdXdXdXdXdXdXdXdXfXaXuXpXpXuXyXyXyXyXyXtXyXyXyXyXyXtXrXu.u.,XaXdXdXdXdXfXfXfXfXfXdXdXdXdXaXyXiXrXrXrX<X<X<XyXtXyXyXtXtXiX<X1X<X<Xi.w.w.w.w.i.@XK.w.' R ' R R G R ..X.H.X...o.} H.@X@XH.X.X.H.X.o.D v v C C A A A T ! w.1X1X1X,X<X<XrXrXrXrXrXrXiXiXiXiXiXiXrXuX7.i.uXiXiXiXiXtXtXiXuX,X",
"&.&.&.*.*.*.*.*.&.&.&.&.&.&.&.&.&.&.%.+.+.+.+.u e e e e e e e w r 6 2 1 6 @.3.4.t.e.t.4.4.5.3.,.>.*.*.*.,.,.>.=.=.=.>.=.=.=.=.=.>.=.=.=.=.,.>.=.,.3.5.6.e.e.e.e.e.e.e.e.4.4.4.4.t.4.4.5.5.3.3.>.>.*.*.*.&.*.*.*.=.=.>.>.>.>.>.>.=.=.=.&.=.=.q 5 6 q y e u u u u u y q 0 0 0 q y u y u u u u u u u u u u u u u u u u u y t y y y y y y u u u y w t t y t 7 o o o 7 8 p <.<.2.2.7.2.1.:.E :.:.:.:.<.<.<.<.<.<.:.:.E :.:.E E l E :.:.5           O i i i i i :.i i i i i :.i i i o           7 :.i i i i i i i i i i :.i p p p i :.i :.7                 o t i E p i :.i 1.5           p 7.u.s.s.i.p.a.a.,XrXiXtXuXuXuXuXuXuXuXuXuXuXuXuXuXuXuXuXiX<X<Xi.i.i.1Xi.n.K.@XK.w.w.| ] ' ] ' ' ' ! | pXjXdXjXjXdXdXfXaXpXpXpXuXuXuXuXgXgXpXpXpXgXgXaXaXaXaXfXjXkXkXkXkXkXkXVXkXkXkXkXfXiXrXrXiXrXiXrXrXi.7.i.yXuXtXrXa.a.tXtXtXtXtXtXtXtXtXtXiXiXiXtXfXdXkXkXkXkXkXkXVXVXVXVXVXVXVXkXjXdXdXjXdXdXaXtX<X,X,X,X,X,XrXrX,XL.a.i.s.i.i.S.w.9.9.8.8.8.2.9.s.S.<X<XrXS.u.i.fXVXdXfXaXyXyXyXyXiX<Xi.9.9.Q Q Q Q q.1XfXdXdXdXdXdXdXdXdXdXdXdXdXdXdXdXdXdXdXdXdXdXdXdXdXdXdXdXaXuXpXpXuXyXyXyXyXyXtXyXtXtXyXtXtXyXs.d.i.uXdXdXdXdXdXdXdXfXfXdXdXdXkXdXfXaXuXyXyXiX<XyXpXaXaXuXyXiXiXiX<X<X<X1X1X1X<X<X1X1Xw.| ! ' R R G D H o.X.H.X.} o.X.H.@X@XH.X.X.X.X.o.G v v C C A A A A T ] i.1X<X<X<X,XrXrXrXrXrXrXiXiXiXiXiXiXrXuX7.s.uXiXiXiXiXtXiXiXuX,X",
"&.&.&.*.*.*.*.*.&.&.&.&.&.&.&.&.&.&.%.+.+.+.+.e e e e e e e e w r 6 3 3 q =.5.t.t.e.4.4.4.5.,.,.*.*.*.*.=.,.=.=.=.=.=.=.=.=.=.=.>.=.=.=.=.=.=.=.3.5.4.e.e.e.e.e.e.e.e.4.4.4.4.4.4.4.4.5.5.3.,.*.*.&.&.&.&.&.&.&.&.=.=.>.>.>.>.>.=.=.=.&.=.=.u 5 6 0 w e u u u u u y q 0 0 0 t y u u u u u u u u u u u u u u u u u u u u y y t t y y y y y u y y y t t 5 O         o 7 l <.2.2.2.2.8.:.E :.:.:.:.<.<.<.<.<.<.:.:.:.:.E E :.:.E :.:.o             t :.i i i i :.i i :.i i i i 7 .         o :.p i i i i i i i i i i i i i :.i p p :.i :.t o               O 7 i :.:.i i :.i           7 2.u.s.s.i.i.a.a.,XrXiXtXtXuXuXuXuXuXuXuXuXuXuXuXuXuXuXuXtX<X<Xi.i.<X<X<X<X<X<Xi.w.w.9.] ] ' ' ' ' R | pXjXdXdXdXdXfXaXaXpXuXuXuXuXuXuXgXuXpXpXuXgXgXgXaXaXaXfXjXkXkXkXkXkXkXkXkXkXkXkXfXrXrXrXiXrXiXrXrXs.7.a.uXuXtXrXa.a.tXtXtXtXtXtXtXtXtXtXiXiXiXyXfXdXkXkXkXkXkXkXVXVXkXVXVXVXVXkXkXjXjXjXdXdXaXiX<X,X,X,X,X,XrX,XL.a.i.s.u.s.i.S.i.d.9.8.Q 8.2.9.s.S.<XS.rX,Xs.i.fXVXdXfXaXyXyXyXyXiX<Xi.9.9.Q Q Q Q w.pXdXdXdXdXdXdXdXdXdXdXdXdXdXdXdXdXdXdXdXdXdXdXdXdXdXdXdXdXfXpXuXpXuXyXyXyXyXyXyXtXyXyXyXyXtXyX,Xu.u.iXdXdXdXdXdXdXfXfXfXfXfXdXkXkXkXjXdXfXaXaXaXfXdXdXfXpXtXiXiXiXrX<X<X<X<X1X<X1X1X@Xw.| ' | ' R D V D { X.X.H...} X.H.@X@XH.H.X.X.X.o.G v v C C A A A A U ! w.1X<X<X<X,X<XrXrXrXrXrXrXiXiXiXiXiXrXuX6.s.tXiXiXiXiXiXiXiXuX,X",
"%.%.%.*.*.*.%.*.&.&.&.&.&.&.&.&.&.%.+.+.+.+.e e e e e e e e w w r 2 2 5 u ,.4.e.t.e.t.4.4.5.3.,.=.*.*.*.=.=.=.,.>.=.=.>.=.>.>.>.>.>.=.=.=.=.=.,.3.5.4.e.e.e.e.e.e.e.e.4.4.4.4.4.4.4.5.5.3.,.*.=.@.@.@.@.@.&.&.&.&.&.>.>.>.>.>.>.=.=.=.=.=.=.+.5 5 6 w e u u u u y y q 0 0 q q y u u u u u u u u u u u u u u u u u u y y u y y q y y w w y y y u t q 5 O             O 7 <.1.7.7.2.8.<.E E :.:.:.<.<.<.<.<.<.<.<.<.:.E E E l E :.i O             7 i :.i :.i i i i :.:.p :.i o           :.:.p i i i i i i i i i i i i i i p i :.p i p :.:.7               O 7 :.:.i i i 1.o         O 1.d.s.i.i.i.a.a.,XrXiXtXtXuXuXuXuXuXuXuXuXuXuXuXuXuXuXuXtX<X<Xa.a.,X<X<X<X<X<XL.i.w.9.| ] ' ' ' ' ! | 5XdXdXdXdXfXaXaXaXpXuXuXuXpXpXpXuXuXgXpXgXgXgXaXaXaXaXfXjXkXkXkXkXkXkXkXkXkXkXkXaX<XrXrXiXrXiXrXrXs.6.a.uXuXtXrXa.a.tXtXtXtXtXtXtXtXiXtXiXiXiXyXfXdXkXkXkXkXkXkXkXVXkXkXVXVXVXkXkXkXdXdXfXaXyXiX<XrX,X,X,X,X,X,Xa.a.i.s.u.s.i.S.i.s.9.8.Q Q 2.9.s.S.,XS.rX,Xs.i.fXVXdXfXaXyXyXyXyXiX<Xi.9.8.Q Q Q 9.S.sXjXdXdXdXdXdXdXdXdXdXdXdXdXdXdXdXdXdXdXdXdXdXdXdXdXdXdXdXfXaXuXuXuXyXyXyXyXyXyXtXtXtXyXyXtXuXiXs.d.S.aXdXdXfXfXfXfXfXfXfXfXfXdXkXVXVXkXkXkXkXkXVXVXkXfXpXyXyXiXiXiXiXiXiX<X<X<X1X1Xw.w.! ! { ' R D V A { X.H.H.X...X.H.@X@XH.X.X.H.X.o.H C v A v A C A Z U ! w.<X<X<XrXrXrXrXrXrXrXrXiXiXiXiXiXiXrXuXd.u.tXiXiXiXiXiXtXiXuX,X",
"%.%.%.*.*.*.*.%.&.&.&.&.&.&.&.&.&.%.+.+.+.+.u e e w e e e w w r 6 2 2 0 @.3.4.e.t.t.4.4.5.3.,.,.=.*.>.*.=.=.=.,.=.=.>.>.=.,.,.,.=.=.=.=.=.=.,.,.3.4.e.e.e.4.4.e.t.t.4.4.4.4.4.4.4.4.5.5.3.,.=.&.@.@.+.+.@.@.@.&.&.&.&.>.=.>.>.>.=.=.=.=.=.=.@.7 2 6 w e u u u y y y q 0 0 q y y u u u u u u u u u u u u u y u y y y u y y u y y y y y y y y y y y 0 o                 o E 1.2.7.2.8.<.E E E :.:.<.<.<.<.<.<.<.<.<.:.:.:.l E :.:.5               o p :.i :.i i i i i :.i :.t           7 :.i :.i i i i i i i i i @.i i i p p p i i i i p p :.t               O t i :.u :.<.t           i 7.s.i.i.i.a.a.,XrXiXtXtXuXuXuXuXuXuXuXuXuXuXuXuXuXuXuXtXrX<X,Xa.,X,X,X<X,X,XL.i.i.w.| ! ! ' ' ' ! w.1XsXfXfXfXaXaXaXpXuXuXuXuXuXuXpXuXgXgXgXgXgXgXpXaXaXaXfXjXkXkXkXkXkXkXkXkXkXkXVXaX<XrXrXiXrXrXrXrXs.d.L.uXuXtXrXi.a.tXtXtXtXtXtXtXtXiXtXiXiXiXuXfXdXkXkXkXkXkXkXkXkXkXkXkXkXkXkXjXjXdXfXaXpXyXrX<XrXrXrXrXrXrX,Xa.a.i.i.s.s.i.i.S.i.9.9.Q Q 8.9.i.S.,XS.<X,Xs.a.fXVXkXfXaXyXyXyXyXiXS.i.9.8.Q k Q 9.<XdXjXdXjXdXdXdXdXdXdXdXdXdXdXdXdXdXdXdXdXdXdXdXdXdXdXdXdXdXdXaXuXuXuXyXyXyXyXyXyXyXtXtXyXyXtXyXyXa.u.i.uXdXfXfXaXaXaXaXfXfXfXfXfXdXkXkXkXVXVXVXVXVXVXdXaXyXyXyXiXiXiXiXiXiXiXiX<X1X<Xw.w.{ ! ' ' R D V V R ..X.H.X.X.X.|.@X@XH.} X.H.H.o.G C v C v C C A Z U ! w.<X<X,XrXrXrXrXrXrXrXrXrXrXrXrXiXrXrXuXu.s.iXiXiXiXiXiXtXiXuX,X",
"%.%.%.*.*.*.*.*.&.&.&.&.&.&.&.&.&.%.+.+.+.+.u e w w e e e w r r 3 2 2 q >.5.4.t.t.t.4.4.5.3.,.>.=.=.*.*.=.=.=.,.=.=.=.=.,.,.,.,.=.>.=.=.=.=.,.,.5.4.e.e.e.4.4.e.t.t.4.4.4.4.4.4.4.5.5.3.3.*.&.+.+.#.#.#.u u @.@.&.&.&.&.=.=.>.>.=.=.=.=.&.&.&.0 2 6 w e $.$.u e y y q 0 0 q y y y y y u u u u u u u u u u u @.@.@.@.@.@.@.u u u y t t t t y t q q 1 .                 . p 1.2.2.2.8.:.E E E :.:.<.<.<.<.<.<.<.:.:.E <.:.i :.E 7 .                 t i i :.p i i i i i :.t o         O :.p i i p i i i i i i i i i i i i :.:.:.i p :.i i :.i p 5               t i :.p :.:.<.O         7 1.u.i.i.i.i.a.L.rXiXiXtXuXuXuXuXuXuXuXuXuXuXuXuXuXuXyXiX<X<Xa.a.a.a.L.,X,X,X,XL.i.w.0.2.! ] ! ] ] w.<XpXaXaXaXaXpXuXuXuXuXuXpXgXpXpXuXpXuXgXuXuXgXpXaXaXaXfXjXkXkXkXkXkXkXkXlXkXkXkXaX<XrXrXiXrXrXrXrXs.d.,XuXyXtXiXi.a.tXtXtXtXtXtXtXtXtXtXiXiXtXuXfXkXkXkXkXkXkXkXkXkXkXkXkXkXkXkXjXjXdXfXaXpXiXrXrXrXrXrXrXrX,XL.a.i.i.i.s.i.i.S.S.S.s.9.Q Q 8.9.i.S.,XS.rX,Xs.S.fXVXkXfXpXpXyXyXyX<XS.w.q.9.Q k Q w.pXjXjXdXjXdXjXdXdXdXdXdXdXdXdXdXdXdXdXdXdXdXdXdXdXdXdXdXdXdXdXaXuXuXuXuXuXyXyXyXtXyXtXyXyXyXtXtXyX<Xu.s.iXfXfXaXaXaXaXfXfXfXfXfXdXdXkXjXjXkXVXkXkXkXdXdXaXyXyXyXiXiXiXiXiXiXiX<X<X<Xi.w.| ' ' ' ' H D V V G { X.X.X.X.X.|.@X@XH.} X.H.X.{ D C A A v A A A U U ~ w.<X<X,XrXrXrXrXrXrXrXrXrXrXrXrXiXrXrXuXu.s.iXiXiXiXiXiXtXiXuX,X",
"%.%.&.*.*.*.*.*.&.&.&.&.&.&.&.&.&.%.+.+.+.+.u e w w e e e w r r 2 3 2 y ,.5.4.t.t.t.4.4.5.3.,.>.=.=.*.*.=.=.=.,.=.=.=.=.=.=.,.,.>.>.=.=.=.>.,.,.4.4.e.e.t.4.4.e.4.4.4.4.4.4.4.4.4.5.5.3.,.*.@.#.#.#.u u u u @.@.@.&.&.&.&.=.>.>.=.=.&.,.&.&.*.0 3 6 w e $.$.u e y t q 0 0 q y y y y y u u u u u y u u @.@.@.@.&.@.u y y t q 0 6 q t t y t q 0 7 s O                     7 <.2.2.7.1.:.E E E :.:.:.<.<.<.<.<.:.:.<.E :.:.i :.t                     t i i :.i :.i :.i p :.7           t i :.i i :.i i i i i i i i i :.:.i p p i p :.i p i p p i 7               t i i i i i 1.7         O :.7.s.i.i.i.a.L.rXrXiXtXuXuXuXuXuXuXuXuXuXuXuXuXuXyXtXiX<X,Xa.a.a.a.a.,X<X<X<X<X<Xi.w.0.! ] ! ] ] w.<XyXuXuXpXuXuXuXuXuXgXgXgXgXpXpXpXpXpXgXgXgXgXgXaXaXaXfXjXkXkXkXkXkXkXkXlXkXkXkXaX<XrXrXiXrXrXrXrXs.d.,XuXyXuXiXi.a.tXtXtXtXtXtXtXiXtXtXtXiXtXuXdXkXkXkXkXkXkXkXkXkXkXkXkXkXkXkXkXkXdXdXfXpXiXrXrXrXrXrXrXrX,Xa.a.i.i.i.i.i.i.S.S.S.w.9.Q Q 8.9.i.S.,X,X<XS.s.S.fXVXkXfXpXpXyXyXyX<XS.i.w.9.Q k Q S.sXlXjXjXkXdXjXdXdXdXdXdXdXdXdXdXdXdXdXdXdXdXdXdXdXdXdXdXdXdXdXaXgXuXuXuXuXyXyXyXtXyXtXtXyXtXtXyXyXrXs.u.<XfXdXaXaXaXfXfXfXfXaXfXfXdXdXdXkXVXkXdXkXkXdXdXaXyXiXiXiXiXiXiXiXiX<X<X1X1Xw.9.! ! ' ' R G D V V A ' o.X.X.X.H.@X+X@XX.} X.H.X.{ D A D A A A A U U U ~ w.,X<X,XrXrXrXrXrXrXrXrXrXrXrXrXiXrXrXuXs.s.iXrXiXiXiXiXtXiXuX,X",
"%.%.%.&.%.*.*.*.&.&.&.&.&.&.&.&.&.%.%.+.+.+.e e e e e e w e r 6 2 1 6 +.3.4.e.4.4.4.4.4.5.3.,.*.=.*.*.*.=.,.,.,.=.=.>.>.=.=.=.=.>.=.=.,.*.*.,.3.4.4.e.e.t.4.4.t.4.4.4.4.4.4.4.5.4.4.5.3.*.@.#.u u u y y y y y u @.@.&.&.&.&.=.=.=.=.&.=.=.=.&.t 2 6 0 e e $.+.$.y y q 0 0 0 w u y @.y y t u y t @.#.y q 0 5 s o O O O . .           . O O O O O                         7 :.2.7.2.8.:.l l E :.:.<.<.<.<.<.<.:.:.:.:.:.:.:.t .                     5 i :.i i i i @.p i p O         7 i i :.i p i i i i i i i i i i i i i i i i i @.p i i i :.t o             o i p :.i i :.:.:..         8 7.u.s.i.i.a.a.rXrXiXtXtXuXuXuXuXuXuXuXuXuXuXuXuXuXtXrX,XL.a.a.a.,X,XrXrXrXrXrX<X<Xi.i.w.0.0.0.w.i.<X<XiXtXyXuXuXuXuXuXuXuXuXuXuXuXgXgXpXpXgXgXpXpXaXaXaXfXdXkXkXkXkXkXkXkXkXVXjXkXaX<XrXrXiXrXrXrXrXs.d.rXuXuXtXiXi.a.iXtXtXtXiXtXtXtXtXtXtXiXiXgXdXkXkXkXkXkXkXkXkXkXVXkXkXkXkXkXkXkXkXdXaXgXiX<XrXrXrXrXrXrX,Xa.i.i.i.s.s.i.i.i.i.i.i.9.Q Q 8.u.S.S.,X,XrXS.s.,XfXVXdXfXpXyXyXyXyX<XS.w.w.9.Q k 8.S.jXjXjXjXdXdXdXdXdXdXdXdXdXdXdXdXdXdXdXdXdXdXdXdXdXdXdXdXdXdXdXfXaXuXyXuXuXuXuXyXyXtXtXiXiXtXyXtXtXyXi.u.S.fXfXfXfXfXfXfXfXfXfXfXfXdXkXkXkXkXkXkXkXkXkXfXaXtXrXrXiXiXiXiXiXiX<X1X1X<Xw.| R R ' R ' G A V v V D ' { o.X.H.@X@X@XH.X.X.X.o.H D H R D D A U T U U ~ s.a.<XrXrXrXrX<XrXrXrXrXrXrXrXiXiXiXrXuXi.u.iXiXiXiXiXtXtXiXuX,X",
"%.%.&.&.%.%.*.*.&.&.&.&.&.&.&.&.&.%.+.+.+.+.e e e e e w e e r 6 2 1 6 &.3.4.e.4.4.4.4.4.5.3.,.*.=.*.*.*.>.>.,.,.=.=.=.>.=.=.=.=.>.=.=.=.*.>.3.5.4.t.e.e.t.4.4.4.4.4.4.4.4.4.4.5.4.5.3.,.&.+.u u u u u w y y y y +.@.&.&.&.&.=.=.=.=.&.=.=.=.&.y 2 6 0 e e $.$.e y q 0 0 0 w y y y y t y t q q 0 1 o o .                                                     O O O       o E 1.2.2.8.:.l i E :.:.:.:.<.<.<.:.:.:.:.:.:.:.i o           o           o i i :.i i i :.i i 7         O t :.i i :.i i i i i i i i i i i i i i i i i i p u :.:.:.:.7 .           o t i i i i i :.i :.5         o 1.u.s.s.p.i.a.rXrXiXiXtXuXuXuXuXuXuXuXuXuXuXuXuXtXiXrXL.a.a.a.a.,X<XrXiXiXiXiXiXrX<Xa.i.w.w.w.i.i.,X<X<XrXtXyXyXuXuXuXuXuXuXuXuXuXgXgXpXpXgXgXpXpXaXaXaXfXdXkXkXkXkXkXkXkXkXkXjXkXaX<XrXrXrXrXrXrXrXs.d.rXuXuXtXiXp.i.iXtXtXtXiXtXtXtXtXtXtXiXtXaXdXkXkXkXkXkXkXkXkXkXkXkXkXkXkXkXkXkXdXdXaXpXiXrXrXrXrXrXrXrX,Xa.a.i.p.i.i.a.S.S.S.i.w.9.Q Q 2.s.S.S.,XS.rXS.s.<XfXVXdXfXaXyXyXyXyX<XS.i.w.9.Q k 9.iXjXkXjXjXdXdXdXdXdXdXdXdXdXdXdXdXdXdXdXdXdXdXdXdXdXdXdXdXdXdXdXfXaXuXyXuXuXuXuXyXuXyXtXtXtXtXtXtXuXuXa.d.i.fXdXfXfXfXfXfXfXfXfXfXdXdXjXkXkXkXkXkXkXkXdXfXpXtXiXiXiXiXiXiXiXiX<X1X<Xi.9.] R ' ' ' R G A V v v V D F O.o.X.@X@X@XX...o.{ ' G R { | ' R A U U c U ~ s.a.<XrXrXrXrXrXrXrXrXrXrXrXrXiXiXiXiXtXa.u.rXiXiXiXiXiXtXiXuXrX",
"&.&.&.&.*.*.*.*.&.*.*.&.*.&.&.&.&.%.+.+.+.u e e e w w e e r 0 6 3 2 r *.4.e.e.4.t.4.4.4.5.3.,.*.=.*.*.>.=.=.=.>.=.=.=.=.=.=.>.>.=.=.=.=.>.,.3.5.t.e.e.e.4.4.4.4.4.4.4.4.4.4.4.5.5.3.,.*.+.+.u e u u w y y y u u u +.@.&.&.&.&.=.>.=.&.=.=.=.=.u 2 2 0 w e u $.e y u w 0 0 q y y t t t q 7 o .                                                               o 5 o       O p 1.2.2.8.:.l i l :.:.:.:.:.:.:.:.:.:.:.:.:.:.7 .         o 7 o         . p p :.i :.:.i i i O         7 i :.p i :.i i i i i i i i i i i i i i i i i i p i i :.i t o           O 7 p i i i i i :.i :.i .       . N 6.u.s.i.p.a.,XrXrXiXtXuXuXuXuXuXuXuXuXuXuXuXuXtXrX,Xa.a.a.a.a.,XrXrXiXiXiXiXiXiXrX<Xa.a.i.i.i.a.L.,X,XrXiXtXtXuXuXuXuXuXuXuXuXuXuXuXpXpXgXuXuXpXpXaXaXfXdXkXkXkXkXkXkXkXkXkXdXdXaX<XrXrXrXrXrXrXrXs.u.rXuXuXtXrXi.i.iXtXtXtXiXtXtXtXiXtXtXiXtXaXdXkXkXkXkXkXkXkXkXkXkXkXkXkXkXdXdXdXfXfXaXuXiXrX<XrXrXrXrXrX,Xa.a.a.a.a.a.S.S.S.i.i.u.9.Q 8.9.i.S.,X,XS.rXS.i.rXdXVXdXfXaXyXpXpXyX<XS.i.w.9.Q Q 9.pXkXkXjXjXjXjXjXdXdXdXdXdXdXdXdXdXdXdXdXdXdXdXdXdXdXdXdXdXdXdXdXfXaXpXyXuXuXuXuXyXuXuXuXtXtXtXtXyXuXuX,Xu.i.aXdXdXfXfXfXfXaXaXfXfXdXdXjXkXkXkXkXkXkXkXdXaXuXyXiXiXiXiXiXiXiXyX<X1X<Xw.9.' R ' ' ' R G D V v V V V V V F ' { ....{ { O.F D D { X.X...' D U A c U ! w.i.<XrXrXrXrXrXrXrXrXrXrXrXrXrXiXrXiXtXa.u.rXrXiXiXiXiXtXiXuXrX",
"&.&.&.&.*.*.*.*.*.*.*.*.*.&.%.%.&.%.+.+.+.u e w e w w e r r 6 2 3 2 w ,.4.e.e.4.t.4.4.4.3.,.*.*.*.=.*.*.=.=.=.=.=.=.=.=.=.>.>.>.=.=.=.*.,.3.5.4.e.e.e.e.t.4.4.4.4.4.4.4.4.4.4.4.4.3.>.@.#.#.u u u u u y y y u u u u @.@.&.&.&.=.>.=.&.=.&.=.>.@.6 2 6 w w u +.e u u y q 0 0 w y t 7 o .                                                                   . 7 t 0 .     . t <.1.2.3.:.l i l :.:.:.:.:.:.:.:.:.:.:.:.:.:.o           7 t 7           7 p @.:.i :.i i t         O i :.i i i p p i i i i i i i i i i i i i i i i i i i i i t 5 .         O t i p i i i i i i i :.<.o         8 7.d.u.s.s.i.a.,XrXrXtXtXuXuXuXuXuXuXuXuXuXuXuXtXrX,Xa.a.p.p.a.,XrXiXiXiXiXiXiXiXiXrXrXL.a.a.a.a.a.,X,XrXrXiXtXtXuXuXuXuXuXuXuXuXuXuXgXgXpXuXuXpXpXaXaXfXdXkXkXkXkXkXkXkXkXkXdXdXaX<XrXrXrXrXrXrXrXs.u.rXuXuXtXrXi.i.iXtXtXtXtXtXtXtXiXtXtXiXtXaXdXkXkXkXkXkXkXkXkXkXkXkXkXkXkXdXfXfXaXaXpXyXiXrX,XrXrX<XrX,X,Xa.a.a.a.a.S.S.S.S.i.s.9.8.8.2.w.i.S.<XrXS.<Xa.s.iXkXVXkXfXaXyXpXpXyX<XS.i.w.9.Q Q w.aXkXkXjXjXjXjXjXdXdXdXdXdXdXdXfXfXdXdXdXdXdXdXdXdXdXdXdXdXdXdXdXdXaXpXyXuXuXuXuXyXyXyXyXyXyXyXyXyXyXyXrXs.s.aXdXdXfXfXfXaXaXaXfXfXdXdXjXkXkXkXkXkXkXkXdXaXyXyXiXiXiXiXiXiXiXyX<X1X<Xw.] ! R R R R R H D V D H O.F V V V V D D F J D J V V G ..w.w.K...R T U U ~ 0.s.i.,X<XrXrXrXrXrXrXrXrXrXrXrXrXiXrXiXiX,Xd.rXrXiXiXiXiXtXiXuX,X",
"&.&.%.%.*.*.*.*.%.*.*.*.%.&.%.%.%.+.+.+.u e e w e e w w e r 6 3 2 2 u 3.4.e.e.4.t.t.4.4.3.,.,.*.=.=.*.*.>.=.=.=.=.=.>.=.=.=.=.>.=.=.=.*.,.3.4.t.t.t.e.e.t.t.t.t.4.4.4.4.4.4.4.4.3.3.=.@.#.u u u $.u u u u y y u u u @.@.@.@.&.&.>.>.=.=.&.&.=.&.6 5 6 w w e u e u y 0 0 q q 7 1 O .               . . . O . . .                                           O 7 t t .       7 E 8.2.1.:.p p l :.:.:.:.:.<.:.:.:.:.:.:.i p .         o t t t O         o p p :.i :.i i o         7 :.i p i i p p i i i i i i i i i :.i i i i i i i i i i i 7 O         o t p i :.p i i :.i i i i :.p         o 1.7.u.u.s.i.a.a.,XrXiXtXuXuXuXuXuXuXuXuXuXuXuXiXrXa.a.a.p.p.a.rXrXiXtXtXtXtXtXtXtXiXrX,Xa.a.a.a.L.,XL.,XrXiXtXtXuXuXuXuXuXuXuXuXuXuXuXuXgXpXuXuXgXgXaXfXdXkXkXkXkXkXkXkXkXkXdXkXaX<XrXrXrXrXrXrXrXs.u.rXuXyXtXrXi.i.iXtXtXtXtXtXtXtXiXtXtXiXtXaXdXkXkXkXkXkXkXkXVXVXkXkXkXkXkXdXfXaXaXgXuXtXiXrX<XrX,X,X,X,X,X,Xa.a.a.S.,X,XS.S.s.u.9.8.8.9.i.S.<X,X,X,X,Xi.s.yXkXVXdXdXaXpXpXpXyX<XS.i.w.9.Q Q w.sXkXjXjXjXjXjXjXdXdXdXdXdXdXdXfXfXdXdXdXdXdXdXdXdXdXdXdXdXdXdXdXdXaXgXyXuXuXuXuXyXuXyXuXyXyXyXyXuXyXyXyXs.u.gXdXdXfXfXaXaXaXaXfXfXdXdXdXjXkXkXkXkXkXkXdXaXyXiXiXiXiXiXiXiXiXyXyX<XK.w.! ! R R R R R H D D ' X.X.{ D V V V V V A V V V V D ' ..X.X.K.w.| ' ! ! 0.u.s.a.,X,XrXrXrXrXrXrXrXrXrXiXiXiXiXrXiXiXrXd.,XrXiXiXiXiXiXiXuX,X",
"%.%.%.%.%.%.*.*.%.%.%.&.%.%.%.%.%.+.+.+.u e w w e e e w e r 6 3 2 6 +.3.4.4.e.6.t.t.t.4.3.,.,.*.=.=.*.*.>.=.=.=.=.=.>.>.=.=.=.=.=.>.*.>.,.5.t.t.t.t.t.e.t.t.t.t.4.4.4.4.4.4.4.4.3.,.&.+.#.u u u $.$.$.u y y u u u u +.@.@.@.&.&.>.>.=.=.&.&.=.&.0 6 6 r w e u e u u w 6 5 o O             . O o o o o 1 s 5 5 5 5 s o o o o o o O . .                     O t p t .       # p 1.2.1.:.i p l :.:.:.:.:.:.:.:.:.:.:.:.i t           7 7 7 t 5         O t p :.i :.:.t .       . i i l i p i :.i p i i i i i i i i :.i i i i i i i i i l p o       O o t i i i i i i :.i i i :.i :.1.O         i 2.r.u.u.s.s.i.a.rXrXiXtXtXuXuXuXuXuXuXuXuXtXrXa.a.a.p.p.p.a.UXrXiXtXtXtXiXtXtXtXtXrX<Xa.a.a.a.a.a.a.a.,XrXiXtXtXuXuXuXuXuXuXuXuXuXuXuXuXuXuXuXuXgXaXfXdXkXkXkXkXkXkXkXkXkXdXkXaXrXrXrXrXrXrXrXrXs.u.rXuXyXtXiXi.i.iXiXtXtXtXtXtXtXiXtXtXiXuXfXdXkXkXkXkXkXkXkXkXVXkXkXkXkXkXdXfXaXaXgXyXyXiXrXrXrX,X,X,X,X,X,X,XS.,X,X,X,XS.i.s.9.2.8.2.w.i.S.,X,X,X<X,Xi.s.yXkXVXkXdXaXpXpXpXyX<XS.i.w.9.) Q w.fXkXjXjXjXkXjXjXdXdXdXdXdXdXdXdXfXfXfXfXfXdXdXdXdXdXdXdXdXdXdXdXdXfXaXuXuXuXuXuXyXuXuXuXyXyXyXyXyXuXyXyXa.d.iXdXdXdXfXfXaXaXaXfXfXdXdXdXdXjXjXkXkXkXkXdXaXyXiXiXyXiXiXiXiXyXyXyX<Xw.9.! ' R R R R H H H ' ..@X@XX.O.J V D D D A V A A D H { X.X.K.K.K.w.w.w.w.w.s.i.a.a.L.rXrXrXrXrXrXrXrXrXiXiXiXiXiXiXiXiXd.L.iXiXiXiXiXiXiXuX,X",
"%.%.%.%.%.%.*.*.%.%.%.%.&.&.%.%.+.+.+.u e e w w e e e w e r 6 2 2 0 &.5.4.4.e.6.t.t.t.4.3.,.*.*.=.=.*.*.>.>.=.=.=.>.>.>.=.=.=.=.=.*.>.>.3.4.t.t.t.t.t.t.t.t.t.t.4.4.4.4.4.4.4.5.3.>.@.u u u u u #.$.$.u y y y u u u +.@.@.@.&.&.>.=.=.=.&.&.=.&.r 6 6 r w e u w u u q s O           O o s s s s s s s s 5 5 5 5 7 7 7 7 7 5 5 0 5 7 5 s o o .             o p i p O       o t <.2.1.:.p p i E :.:.:.:.:.:.:.:.:.:.:.i 7         O 7 7 7 7 7 .         7 t :.i i @.7         7 :.i i i i p i :.u i i i i i i i i i i i i i i i i i i p 7 O     O 7 p :.p i i p :.i :.p :.i :.i i <.7         7 1.7.d.u.u.s.s.a.L.rXiXtXtXtXuXuXuXuXuXuXuXiXrXa.a.p.p.p.p.a.UXrXiXtXtXiXiXiXiXtXiXrXrXa.a.a.a.a.a.a.a.,XrXrXtXtXuXuXuXuXuXuXuXuXuXuXuXuXuXuXpXgXgXaXfXdXkXjXkXkXkXkXkXkXkXdXkXfXrXrXrXrXrXrXrXrXs.u.rXuXuXtXiXp.p.iXiXtXtXtXtXtXtXiXtXtXiXuXfXdXkXkXkXkXkXkXkXkXVXkXkXkXkXkXdXfXaXaXpXyXtXiXrXrXrX,X,X,X,X,X,X,XS.,X,X,X,XS.i.w.9.2.8.9.w.i.S.,X,X,XrXS.s.i.gXkXVXkXdXaXpXpXpXyX<XS.i.q.9.) Q i.dXkXjXjXkXkXjXjXjXjXjXjXdXdXdXdXdXfXfXfXfXdXdXdXdXdXdXdXdXdXdXdXdXfXaXuXgXuXuXyXyXyXuXuXuXtXuXyXyXuXuXyX<Xd.S.dXdXdXfXfXfXfXfXdXdXdXdXdXdXdXdXjXkXkXkXdXaXtXiXyXyXiXiXiXiXyXyXiX<Xw.9.! R ' R ' ' O.' { ..H.+X@XH.' F J D D D D A A D D ' ..X.X.K.K.K.K.w.w.i.i.i.p.p.a.a.UXrXrXrXrXrXrXrXrXiXiXiXtXtXrXtXiXu.a.iXiXiXiXiXiXiXuXrX",
"%.%.%.%.%.%.*.*.%.%.%.%.&.&.%.%.+.+.+.u e e w w e e e w r r 6 3 2 0 =.4.e.e.e.6.4.4.t.4.3.,.*.*.=.=.*.>.>.>.=.=.=.>.>.>.=.=.=.=.=.>.>.,.3.4.t.t.e.t.t.t.t.t.t.t.4.4.4.4.4.4.4.5.>.&.#.u u u u u $.$.$.$.y y u u u u +.+.@.@.&.&.>.=.=.,.&.&.=.&.r 6 6 r w w u w y q 5 O         O o 5 5 5 5 5 5 5 5 s 5 5 5 5 5 7 7 7 7 7 5 5 5 5 5 7 0 0 5 o o           o i i p O       O t <.7.1.:.p p i E :.:.:.:.:.:.:.:.:.:.i :.7         o 7 7 7 7 7 o         o p p :.i u o         t :.i p i i u p i i i i i i i i i i i i i i i i i i i i t o     5 t i p i i p i :.p :.:.t :.p i :.i l i         o :.2.6.d.u.s.s.p.a.rXrXiXtXtXtXuXuXuXuXuXtXrXa.a.p.p.p.p.p.a.UXrXtXtXtXtXtXiXiXiXrXiXrXa.a.a.a.a.a.a.a.a.rXrXiXtXuXuXuXuXuXuXuXuXuXuXuXuXuXuXuXgXgXaXfXdXkXkXkXkXkXkXkXkXkXdXVXfXrXrXrXrXrXrXrXrXs.u.rXuXuXuXiXi.p.iXiXtXtXtXtXtXtXiXtXtXiXuXfXdXkXkXkXkXkXkXkXkXkXVXkXkXkXkXdXfXaXaXuXyXtXrXrXrXrX,X,X,X,X,X,XS.a.S.S.,X,XS.i.w.9.2.8.9.s.i.S.,X,XS.rXa.s.a.aXVXVXkXdXfXpXpXpXyX<XS.n.w.9.Q Q n.jXVXjXjXjXkXkXjXjXjXjXjXjXdXdXdXdXfXfXfXfXdXdXdXdXdXdXdXdXdXdXdXdXfXaXpXgXuXuXyXyXtXtXyXyXyXtXyXyXtXyXyXiXd.i.dXdXfXfXaXfXfXdXdXdXdXdXdXdXdXdXdXkXkXkXdXaXtXiXyXyXiXiXiXiXyXyX<X<Xw.| ! R R R ' ' ' { ..H.@X+X@XH.{ H J D D D D D A A D { X.X.X.K.K.@XK.K.w.w.i.i.i.p.p.a.UXrXrXrXrXrXrXrXiXiXiXiXtXtXrXtXiXu.a.iXiXiXiXiXiXiXuXrX",
"%.%.%.%.%.%.%.%.%.%.*.*.*.%.%.%.+.+.+.u e w w w w w e e r 0 2 1 3 u 3.4.e.e.e.4.e.4.4.4.3.,.*.>.=.=.=.=.=.,.=.=.,.,.=.=.=.=.=.=.=.=.*.,.5.t.e.e.e.e.e.t.t.t.t.t.t.t.4.4.4.4.5.3.@.@.u u u u u u u u u u u u u u u #.#.+.@.@.&.&.&.>.>.=.=.=.&.&.y 6 0 w w y w y u 0 O       . o s 5 5 5 5 5 5 s 7 7 7 5 7 7 5 5 7 7 5 5 5 5 5 5 7 7 7 5 7 7 5 s O         o p :.i o         t <.2.<.:.i i i E E :.:.:.:.:.:.:.:.:.i i t         o t 7 7 7 7 7         . t i i i t .       o :.p i i i i i i i i i i i i i i i i :.p :.i t :.:.t i i o   O 7 t i i i i i i i i i i i i i i i i i i <.o         t 1.7.d.u.s.u.p.a.,XrXiXiXtXtXuXtXtXtXtXrX,Xa.p.p.p.p.p.a.a.UXrXiXtXtXtXtXtXtXtXiXiXrXrXa.a.a.a.a.a.a.a.,XrXiXtXuXuXuXuXuXuXuXuXuXuXuXuXuXuXuXpXpXaXfXdXkXjXjXkXkXkXkXkXkXjXkXfXrXrXrXrXrXrXrXrXs.u.rXuXtXuXiXi.i.rXtXtXtXtXtXtXtXtXiXiXtXuXfXVXdXkXkXdXdXVXVXVXVXkXkXkXkXdXdXfXaXgXyXyXtXrXrX<X,X,X,X,X,X,X,X,X,XS.a.a.S.a.i.d.2.8.2.d.s.i.S.,X,XrX,Xi.u.a.fXVXVXVXdXfXaXpXpXyX<XS.i.w.9.Q Q S.dXlXkXkXkXdXkXkXdXjXjXkXkXjXdXdXdXdXdXfXfXfXdXdXdXdXdXdXdXdXdXdXdXfXaXgXuXgXuXuXuXyXyXtXtXtXyXyXyXyXyXyXuXs.d.aXdXfXaXaXfXfXdXdXdXdXdXdXdXjXkXkXkXkXkXdXaXyXiXiXyXiXiXyXiXiXtXyX<Xw.| R R ' ' ' { { o.} |.@X+X@XH.{ O.H H G D D D A D ' ..X.X.X.w.K.K.K.K.w.i.i.i.i.i.p.a.eXrXrXrXrXrXrXrXiXiXiXtXtXiXtXrXuXu.p.rXiXiXtXiXiXiXuXrX",
"%.%.%.%.%.%.%.%.%.%.*.*.*.%.%.%.+.+.+.u e w w w w w e e r 0 2 1 2 u 3.4.e.e.e.4.e.4.4.4.3.,.*.>.=.=.=.=.,.,.=.=.=.,.=.=.>.=.=.=.=.=.>.3.4.t.e.e.e.e.e.e.t.t.t.t.t.4.4.4.4.4.3.,.@.#.#.u u u u u u u u u u u u u u u #.#.+.@.@.&.&.=.>.=.=.=.&.&.u 6 0 w w u y u y 3 .       O 5 5 5 7 5 5 5 5 s 7 7 5 5 7 7 5 5 7 5 5 5 5 5 5 5 5 7 7 7 7 7 5 s O         s p :.:.o         8 <.2.<.E i i i E :.:.:.:.:.:.:.:.:.:.>.:.t         5 t t 7 7 7 7 .         7 i i i 0         7 i i i i i i i i i i i i i i i i i i i i i :.:.p p <.t s O O 7 p i p i i i i i i i i i i i i i i i i i i 7         5 <.7.d.u.s.u.i.p.a.,XrXrXiXiXtXiXiXiXrXrXa.p.p.p.p.p.p.a.a.rXrXiXtXtXtXtXtXtXtXtXiXrXrXa.a.a.a.a.a.a.a.L.rXiXtXuXuXuXuXuXuXuXuXuXuXuXuXuXpXpXpXgXaXfXdXkXkXkXkXkXkXdXkXkXjXkXfXrXrXrXrXrXrXrXrXs.u.rXuXtXuXiXa.p.rXtXtXtXtXtXtXtXtXiXiXtXuXfXVXkXkXkXdXdXVXVXVXVXkXkXkXkXdXdXfXaXgXyXyXtXrXrX<X,X,X,X,X,X,X,X,X,X,Xa.,X,Xa.i.d.2.8.2.9.s.i.S.,X,XrX,Xi.s.,XfXVXVXVXdXfXaXpXpXyX<XS.i.w.9.) Q S.fXlXkXjXkXkXkXkXjXkXkXkXjXjXjXdXdXdXdXdXfXfXfXdXdXdXdXdXdXdXdXdXdXfXaXgXuXuXuXuXuXuXyXyXtXtXyXtXyXyXyXyXuXi.d.uXdXfXaXaXaXaXaXfXdXdXdXdXdXjXkXkXkXdXkXdXaXyXtXiXyXiXiXyXiXiXtXyX1Xw.| R R ' { { o...} H.|.@X+X@XH.L O.O.O.H D D A A D ' ..X.X.X.w.K.K.K.K.w.i.i.i.i.i.p.a.eXrXrXrXrXrXrXrXrXiXiXiXtXiXtXrXtXs.i.iXiXiXtXiXiXiXuXrX",
"%.%.%.%.%.%.%.%.%.%.*.*.%.%.%.%.+.+.+.u e w w w w w e w r 0 2 1 5 u 3.6.e.4.4.4.e.4.4.4.3.,.*.>.>.=.>.>.,.,.>.=.,.=.=.=.>.>.=.=.=.=.,.3.4.e.e.e.e.e.e.e.e.t.t.t.4.4.4.4.4.5.,.*.+.#.#.u u u u u u u u u u u u u u u #.#.u +.@.&.&.&.=.=.=.&.&.&.u 6 r w w u u u y o       . o 5 5 7 7 7 5 5 5 5 5 5 5 5 5 5 5 5 5 5 5 5 5 5 5 5 5 7 7 7 7 7 7 5 O         5 p :.:.o         7 E 2.<.E i i i E :.:.:.:.:.:.:.:.:.:.:.:.t O       O 7 t t t t 7 O         o i i p s       . p t i i i i i i i i i i i i i i i i i :.i i :.p i i t o   O 7 p i :.i i i i i i i i i i i i i i i i i :.p :.O       O i 7.d.u.s.s.s.p.a.a.rXrXrXrXiXrXrXrXa.a.p.p.p.p.p.p.p.p.a.UXrXtXiXtXtXtXtXtXtXtXiXrXrXa.a.a.a.a.a.a.a.L.rXiXtXtXuXuXuXuXuXuXuXuXuXuXuXuXpXpXgXgXaXfXdXkXkXkXkXkXkXjXkXkXdXkXfXrXrXrXrXrXrXrXrXs.u.,XuXtXuXiXa.i.rXtXtXtXtXtXtXtXtXiXiXtXuXfXVXkXkXkXkXkXkXkXkXkXkXkXkXkXdXdXfXaXgXuXyXtXrX<X,X,X,X,X,X,X,X,X,X,X,X,X,X,Xa.i.d.8.9.9.d.s.S.,XrX,X,XS.i.u.rXdXlXVXVXkXdXaXaXpXyXiXS.n.w.9.8.Q n.sXjXjXjXjXkXkXkXjXkXkXjXjXjXjXkXkXjXdXdXdXfXfXdXdXdXdXdXdXdXdXdXdXfXaXgXuXgXuXuXuXyXuXtXtXtXiXiXiXiXyXyXuX,X0.,XfXaXaXuXyXyXuXaXfXdXdXkXkXkXkXkXkXkXkXdXfXuXtXiXiXyXiXyXiXiXyX1X1Xw.| R ' { | ..X.X.X.H.|.@X@X|.X.L O.O.O.H F D D A G { X.H.X.X.K.K.K.K.K.i.i.i.i.i.i.p.a.a.rXrXrXrXrXrXrXrXiXiXiXtXiXtXiXtXa.u.iXiXiXtXiXtXtXuXrX",
"%.%.%.%.%.%.%.%.%.%.*.*.%.%.%.+.+.+.+.e e w w w e w e w r 0 2 1 5 #.5.e.e.t.4.4.4.4.4.4.3.,.*.>.>.>.>.>.,.,.>.=.,.=.=.>.>.>.=.=.=.,.,.3.4.e.e.e.e.e.e.e.e.e.t.t.4.4.4.4.4.3.*.+.#.#.#.#.#.u u u u u u u u u u u u #.#.#.u +.@.@.&.&.&.=.=.&.&.&.+.0 r e e u u u q O         o s 5 7 7 5 5 5 5 5 5 5 5 5 5 5 5 5 5 5 5 5 5 5 5 5 5 5 7 7 7 7 7 5 o         7 p :.>.5         o E 7.<.E i i i E :.:.:.:.:.:.:.:.:.:.:.:.i 5         o 7 t p i t o         o p p p o       o :.y i i i i i i i i i i i i i i i i i i i i i u :.t O     5 i i t i i i i i i i i i i i i i i i i i i i p :.7         7 7.d.u.s.s.s.p.p.a.a.a.eXUXrXUXa.a.p.p.p.p.p.p.p.p.p.p.a.UXrXiXiXtXtXtXtXtXtXtXtXrXrXL.a.a.a.a.a.a.a.a.rXrXtXuXuXuXuXuXuXuXuXuXuXuXuXuXuXuXpXgXaXfXdXkXkXkXkXkXkXjXkXkXdXkXfXrX<XrXrXrXrXrXrXs.u.L.uXtXuXiXa.i.rXiXtXtXtXtXtXtXtXiXiXiXuXdXVXkXkXkXkXkXkXkXkXkXkXkXkXkXdXfXaXaXgXuXyXtXrX,X,X,X,X,X,X,X,X,X,X,XL.L.L.L.S.i.d.8.9.9.d.i.S.,XrXrX,XS.s.u.yXdXkXVXVXkXdXfXaXpXyXyXS.n.w.9.8.Q w.1XfXjXkXjXkXkXjXkXkXkXkXjXkXkXkXkXjXjXdXdXdXdXdXdXdXdXdXdXdXdXdXdXfXfXaXpXgXuXuXuXyXuXtXtXtXiXiXtXyXyXyXtXiX0.s.fXfXaXuXuXyXuXgXaXdXdXkXkXkXkXkXkXkXkXdXfXpXtXiXiXiXiXyXiXyXyXyX1Xw.| ' { { ..X.H.X.X.H.|.@X@X|.X.L O.O.O.H F D D D H { X.H.....K.K.K.K.w.w.i.i.i.i.i.p.a.a.eXrXrXrXrXrXrXrXiXiXiXtXtXtXtXtXrXu.rXiXiXtXiXtXtXuXrX",
"%.%.%.%.%.%.%.%.%.%.*.*.%.%.+.+.+.+.u e w w w w e w w e r 0 2 1 5 +.5.e.4.e.e.4.t.4.4.5.3.,.*.>.=.=.=.>.,.>.>.=.=.>.=.=.>.=.=.=.=.,.3.5.4.e.e.e.e.e.e.e.e.e.t.t.4.4.4.4.5.,.&.+.#.#.#.#.#.#.u u u u u u u u u u #.#.#.#.u +.@.@.&.&.&.=.=.=.&.&.+.0 r e w u u u 7           O s 5 5 7 5 5 5 5 5 5 5 5 5 5 5 7 7 5 5 5 5 5 5 5 5 5 5 5 7 7 7 5 5 o         7 i :.>.7         o i 1.<.E i i i E :.:.:.:.:.:.:.:.:.:.i :.:.t o       . O 5 7 t 7 O         o u t q .       7 i i p i i i i i i i i i i i i i i i i p i p i :.7 O     o p :.i i i p i i i i i i i i i i i i i i i i i i i i         = 3.d.u.s.s.s.p.p.p.p.p.p.p.p.p.p.p.p.p.p.p.p.p.p.p.p.p.a.UXrXiXtXtXtXtXtXtXtXiXrXrXrXa.a.a.a.a.a.a.a.a.rXrXtXuXuXuXuXuXuXuXuXuXuXuXuXuXuXuXuXpXaXaXdXjXkXkXkXkXkXdXkXjXdXkXfXrX<X<XrXrXrXrXrXs.u.a.uXtXtXtXa.i.rXiXtXtXtXtXtXtXtXiXiXtXaXdXkXVXkXkXkXkXdXkXkXkXkXkXkXkXdXfXaXaXaXuXyXyXrX,X,X,X,X,X,X,X,X,X,X,XL.L.L.L.S.i.d.8.9.9.d.s.S.,XrXrX,XS.u.u.yXkXkXVXVXkXdXfXaXpXyXyXS.n.w.9.8.Q 9.n.yXfXlXkXkXkXkXkXkXkXkXkXkXkXkXjXjXjXjXdXdXdXdXdXdXdXdXdXdXdXdXdXdXfXaXgXuXuXuXyXuXuXyXtXtXyXiXyXtXtXtXtXtXd.d.aXfXfXaXgXaXaXaXfXdXdXkXkXkXkXkXkXkXkXdXfXgXtXyXiXiXiXiXiXiXyX1X1XK.w.| ....X.X.H.} X.|.@X@X|.|.} o.O.O.H F F D D D H { X.X.....w.K.K.K.K.w.w.s.s.s.s.p.p.a.eXUXUXrXrXrXiXrXiXiXiXtXtXtXtXtXrXd.rXiXiXtXiXtXtXuXrX",
"%.%.%.%.*.*.%.%.%.%.*.*.%.%.+.+.+.+.u e w w w w e w e e r 0 2 1 5 @.4.e.e.e.e.4.t.4.4.5.3.,.*.>.=.=.=.=.,.>.>.=.>.>.=.=.>.>.=.=.=.,.3.5.4.e.e.e.e.e.e.e.e.e.t.t.4.4.5.5.3.*.+.u #.#.#.#.#.#.#.$.u u u u u u u u u #.#.#.u u @.@.@.&.&.=.=.&.&.&.+.0 r w w u u u 7           . 1 s 5 7 7 5 5 5 5 5 5 5 5 5 5 5 7 5 5 5 5 5 5 5 5 5 5 5 5 7 5 5 5 o         t i :.>.t .       o i 3.<.l i i l E :.:.:.:.:.:.:.:.:.:.:.:.:.:.t o           . O O           . t p 7       O p p :.p i i i i i i i i i i i i i i i i p :.:.i 7 O     O t :.i i :.i i i i i i i i i i i i i i i i i i i @.p :.o       O :.6.u.s.s.p.s.p.p.p.p.p.p.p.s.p.p.p.p.p.p.p.p.p.p.p.p.a.eXrXiXtXtXtXtXtXtXtXiXrXrXrXeXa.a.a.a.a.a.a.a.rXrXtXuXuXuXuXuXuXuXuXuXuXuXuXuXuXuXuXuXaXaXdXdXjXjXkXkXjXdXkXdXdXkXfXrX,X<XrXrXrXrXrXs.u.a.tXtXtXtXa.s.,XiXtXtXtXtXtXtXtXiXiXtXaXdXkXkXkXkXkXkXdXdXkXkXkXkXkXkXdXfXaXaXaXuXyXtXrX,X,X,X,X,X,X,X,X,X,X,XrX,XL.a.S.i.d.8.8.9.d.s.S.,X<X<X,Xa.u.u.yXkXkXVXkXkXdXfXaXpXyXyXS.S.w.9.8.Q Q 9.S.pXjXkXkXkXkXkXkXkXkXkXkXkXkXjXjXjXjXjXdXdXdXdXdXdXdXdXdXdXdXdXdXfXaXpXuXuXuXuXuXtXtXtXyXiXiXyXyXtXtXyXyXs.2.tXfXfXfXfXfXfXdXfXdXdXkXkXkXkXkXkXkXkXdXfXaXyXyXyXiXiXiXiXiXyX1X1X@Xw.X...X.X.X.X.} X.|.@X@X|.H.} o.O.H F F F F D D H { X.X.....X.K.K.K.K.w.w.s.s.s.p.p.p.a.eXeXUXrXrXrXrXrXrXiXiXtXtXtXtXtXiXu.,XiXiXtXiXtXtXuXrX",
"%.%.%.=.*.*.%.%.%.%.*.*.%.%.+.+.+.+.u e w w w w w e e w r 0 2 1 5 @.4.e.e.e.e.4.t.4.4.5.3.,.*.>.=.=.=.=.,.,.=.=.=.=.=.=.=.>.>.=.=.,.3.5.4.e.e.e.e.e.e.e.e.t.t.t.4.4.5.5.,.&.+.u #.#.#.#.#.#.#.$.u u u u u u u u u u #.#.u u +.@.@.&.&.&.&.&.&.&.@.0 r w w u u u 0 .           O 1 s 5 5 5 7 5 5 5 5 5 5 5 5 5 5 5 5 5 5 5 5 5 5 5 5 5 5 5 5 5 7 o         t i :.:.t O       O p 1.:.l i i N E :.:.:.:.:.:.:.:.:.:.:.:.i :.i 7 o                           7 7 o       7 i i i i i i i i i i i i i i i i i i i i i :.i 7 .       7 i :.i p i i i i i i i i i i i i i i i i i i i i :.p :.t         t 7.u.u.u.p.s.p.p.p.p.p.p.p.s.p.p.p.p.p.p.p.p.p.p.p.p.a.eXrXiXiXtXtXtXtXtXtXiXrXrXrXeXa.a.a.a.a.a.a.L.rXiXtXuXuXuXuXuXuXuXuXuXuXuXuXuXuXuXuXuXaXaXdXdXjXkXjXkXkXdXkXdXdXkXfXiX,XrXrXrXrX<X,Xu.u.a.tXtXtXtXL.s.,XiXtXtXtXtXiXtXiXiXrXtXfXdXdXkXkXkXkXkXkXkXkXkXkXkXkXkXdXfXaXaXaXuXyXtXrX,X,X,X,X,X,X,X,X,X,X,X,X,X,XS.S.S.u.2.8.9.d.s.S.<X<X,X,Xi.d.s.yXdXdXlXkXkXdXfXfXaXyXyXS.S.w.9.9.Q Q 8.9.S.sXjXkXkXkXkXkXkXkXkXkXkXkXkXkXkXjXjXjXjXdXdXdXdXdXdXdXdXdXdXdXfXaXaXpXyXyXtXyXtXtXyXyXiXiXiXyXyXyXyXyXa.8.S.aXaXfXfXfXdXdXfXdXdXdXkXjXkXkXkXjXkXkXdXfXaXyXyXiXiXiXiXiXyX<X1X@Xw.w.w.X.H.X.} X.H.@X@X@X|.H.} o.O.H H O.O.O.G D R { X.H.X...X.K.K.K.w.w.w.s.s.s.p.p.p.p.a.eXUXrXrXrXrXrXrXiXiXiXtXtXtXtXiXs.a.rXiXiXiXtXtXuXrX",
"%.%.%.=.*.%.%.%.%.%.*.*.%.%.+.+.+.+.u e w w w w w e e w r 0 2 1 5 @.5.e.e.e.e.4.t.4.4.5.3.,.*.>.=.=.=.=.,.,.=.=.=.=.=.=.=.=.>.=.=.,.3.5.4.e.e.e.e.e.e.e.e.t.t.t.4.4.5.3.,.@.+.+.#.$.$.$.#.#.$.$.u u u u u u u u u u u u u u +.@.@.@.&.&.&.&.&.&.&.r r e w u u $.0 .           . o o s 5 5 7 5 5 5 5 5 5 7 5 5 5 5 5 5 5 5 5 5 5 5 7 5 5 5 5 5 7 o       . t i :.f.u o       O t <.:.l i i N E :.:.:.:.:.:.:.:.:.:.i :.i :.i i t o                         O o       . t i :.p i i i i i i i i i i i i i i i i i i :.7         o :.i p i i i i i i i i i i i i i i i i i i i i i i :.p :.p .       7 5.d.y.u.p.s.s.p.p.s.p.p.p.p.p.p.p.p.p.p.p.p.p.p.p.p.a.eXrXiXiXiXtXtXtXtXtXtXrXrXrXeXeXa.a.a.a.a.a.a.rXiXtXuXuXuXuXuXuXuXuXuXuXuXuXuXuXuXuXuXgXaXdXdXjXjXjXkXkXdXkXdXdXkXfXiX,X<XrXrXrX<X,Xu.u.a.tXtXtXtX,Xs.L.iXtXtXtXtXiXtXiXiXrXtXfXdXdXkXkXkXkXkXkXkXkXkXkXkXkXkXdXfXaXaXaXuXyXiX<XL.,X,X,X,X,X,X,X,X,X,XS.,X,XS.S.S.s.9.2.9.d.s.S.,X<X,X,Xs.d.s.yXdXdXkXVXkXdXfXfXaXyXyXS.S.w.9.9.8.8.8.Q w.yXdXjXjXkXkXkXkXkXkXkXkXkXVXkXkXkXjXjXjXjXjXdXdXdXdXdXdXdXdXdXdXfXaXpXuXuXtXyXtXtXyXyXiXiXiXyXyXyXyXuX,X<.i.aXaXaXaXfXfXdXfXdXdXdXdXjXjXjXjXjXkXkXkXfXaXyXyXiXiXiXiX<XyX<X1X1Xw.w.w.X.H.} } X.H.@X@X@X|.H.} o.O.O.O.{ { { ' H R { X.H.X.X.X.K.K.K.w.w.w.s.s.s.p.p.p.p.a.eXeXrXrXrXrXrXrXiXiXiXtXtXtXtXiXp.i.rXrXiXiXtXtXuXrX",
"%.%.%.=.%.%.%.%.=.%.%.%.%.%.%.%.u u e w e e e r e e e w r r 3 3 6 &.5.e.e.e.e.4.4.4.4.5.3.,.,.=.=.=.=.>.>.,.>.=.>.=.=.=.=.=.=.=.=.*.3.4.t.t.e.e.e.e.e.e.e.e.4.4.4.4.5.3.&.+.+.$.e $.+.+.+.+.+.+.$.$.$.+.#.u u u u u u u u u +.@.+.&.&.&.&.&.&.&.+.w 0 w e e $.$.y 1 .           . O o 5 5 s 5 5 5 5 5 5 5 5 5 5 5 5 5 5 5 5 5 5 5 5 7 5 s s 5 5 o       O t :.>.@.u s         t <.:.N i :.:.:.:.:.:.:.:.:.:.:.:.:.:.:.:.:.i i i t 7 .                               7 p i p :.i u i i i i i i i i i :.i t :.p i :.7           i i i i i i i i i i i i i i i i i i i i i i i i i i i i i :.o       O 1.6.u.s.s.p.s.p.p.p.p.p.p.p.p.p.p.p.p.p.p.p.p.p.p.p.a.eXrXrXiXiXiXiXiXtXtXiXrXrXUXUXeXa.a.a.eXa.a.eXrXiXiXuXuXuXuXuXuXuXuXuXuXuXuXuXuXuXuXuXaXfXdXdXdXjXjXjXdXkXdXdXdXdXfXtX,X,XrX<XrXrXrXs.d.L.tXiXtXtXL.s.a.iXiXtXtXiXtXiXtXiXiXyXfXdXkXkXkXkXkXkXkXkXkXkXkXkXkXkXdXfXaXaXaXuXyXiX,X,X,X,X,X,X,X,X,X,X,X,X,X,X,X,X,XS.i.d.2.2.d.i.S.,X<XrXS.s.d.s.uXdXkXkXkXkXjXdXfXaXpXyXS.i.w.9.9.9.9.8.Q 9.S.fXjXkXkXkXjXjXjXkXkXjXjXjXkXkXkXkXkXjXjXjXdXdXdXdXdXdXdXdXdXdXfXaXgXuXyXyXyXyXyXyXyXtXyXyXiXuXtXtXuXrX8.d.pXfXaXaXaXaXfXfXdXdXdXdXdXdXjXjXkXjXjXjXdXfXaXyXyXyXyXiXiX<X<X<X@X@Xq.H.H.X...X.X.|.@X@X|.H.X.} o.L O.' { X.X.{ R H | X.w.w.X.X.K.K.K.K.w.w.s.s.s.s.p.p.p.p.a.eXUXrXrXrXiXiXiXiXiXtXtXtXtXtXeXp.rXrXiXiXtXiXuXrX",
"%.%.%.=.%.%.%.%.=.%.%.%.%.%.%.%.u u e w e e e r w e e w r r 3 3 6 +.4.e.e.e.e.t.t.t.4.4.3.,.,.=.=.=.=.=.,.,.>.=.=.=.=.=.=.=.=.=.=.>.3.4.e.e.e.e.e.e.e.t.e.e.4.4.4.5.3.=.@.+.$.$.e e +.+.+.+.+.$.$.$.$.+.$.u u u u u u u u u u +.+.+.&.&.&.&.&.&.+.w 0 w e e $.$.u 5 O             . o o s 5 s s 5 5 5 5 5 5 5 7 5 5 5 7 7 7 7 5 5 5 7 5 s s 5 5 o       O t :.>.@.u 5         7 <.:.N i &.:.&.:.:.:.:.:.:.:.:.>.:.:.:.:.:.:.:.:.:.p t 7 o o .                       7 i i p i u i i i i i i i i p :.p i :.i i i 5 .         7 :.i i i i i i i i i i i i @.i i i i i i i i i i i i i i p i 7         p d.u.s.s.s.s.s.p.p.s.p.p.p.p.p.p.p.p.p.p.p.p.p.p.p.a.eXrXrXiXiXiXiXtXtXtXiXrXrXUXeXeXa.a.a.eXa.a.eXrXiXiXuXuXuXuXuXuXuXuXuXuXuXuXuXuXuXuXuXgXfXdXdXdXdXjXjXdXkXdXdXdXdXdXyX,XrXrX,XrX,XrXs.d.a.tXiXtXtX,Xs.a.rXiXtXtXiXtXiXiXiXiXyXfXdXkXkXkXkXkXkXkXkXkXkXkXkXkXkXdXfXaXaXaXgXyXiX<X,X,X,X,X,X,X,X,X,X,X,X,X,X,X,XS.,Xi.u.2.2.9.i.S.rXrXrXS.s.d.i.uXdXkXkXkXkXjXdXfXfXpXyXS.i.9.9.9.9.9.9.Q 9.i.pXdXkXkXkXjXjXkXkXkXkXjXjXkXkXkXkXkXjXjXjXjXdXdXdXdXdXdXdXdXdXfXaXgXuXuXyXyXyXyXyXyXtXyXyXtXuXtXtXuXiX2.2.pXfXaXaXaXaXfXfXdXdXdXdXdXdXjXjXjXjXjXkXkXdXfXaXpXyXtXyX1X1X1X1X@Xw.X.H.X.X.} } H.|.@X@X|.H.X.} o.O.O.{ ..@X@X..' H { X.w.X...w.K.K.K.w.w.w.s.i.s.s.p.p.p.p.a.eXUXrXrXrXrXiXiXiXiXtXtXtXtXtXrXp.rXrXiXiXtXiXuXrX",
"%.%.%.=.=.=.%.%.=.%.%.%.%.%.%.%.u u e w e e w w w w w e r r 3 3 6 +.5.r.r.e.e.e.e.e.4.4.3.3.,.,.=.=.=.=.,.,.>.=.=.=.=.=.=.=.=.=.=.,.3.4.t.e.e.e.e.t.t.t.e.t.4.4.4.5.,.*.#.$.u u e $.+.+.+.+.+.$.$.$.$.$.+.u u u u u u u u u u u +.+.&.&.&.&.&.&.+.w 0 w e e $.$.u 6 1 .               O o s 5 5 5 5 5 5 5 s 5 5 5 5 5 5 5 5 5 5 5 5 5 5 s 5 5 7 o       O t @.:.:.i 7 .       7 :.:.N i &.:.&.:.:.:.:.:.:.:.:.>.:.:.:.:.:.:.:.:.:.<.1.1.<.E t 7 o                 o t i i i i i i i i i i i i i i i p :.:.i i 5           o :.:.i i i i i i i i i i i i @.@.i i i i i i i i i i i :.i p i p .       o 6.d.u.p.s.u.u.u.u.s.s.p.p.p.p.p.p.p.p.p.p.p.p.p.p.a.eXrXrXiXiXtXtXtXtXtXiXrXrXUXeXeXeXeXeXeXeXeXUXrXiXiXuXuXuXuXuXuXuXuXuXuXuXuXuXuXuXuXuXgXaXdXdXdXdXjXjXdXkXdXdXdXdXfXyX,XrXrX,X,X,XrXs.d.a.iXiXiXtX,Xs.a.rXiXiXiXiXiXiXiXiXiXyXfXdXkXkXkXkXkXkXkXkXVXVXkXkXkXkXdXdXfXfXaXaXuXtXrX,X<XrX,X,X,X,X,X,X,X,X,X,X,X,Xa.,XS.i.9.0.d.i.S.,XrX,XS.s.d.i.uXdXkXkXkXkXjXdXdXfXpXyXS.w.9.9.9.9.9.9.) Q 9.<XfXjXjXkXkXkXkXkXkXkXkXkXkXkXkXkXkXkXkXkXjXjXdXdXjXjXjXdXdXdXdXaXgXuXuXyXtXyXyXyXtXtXyXyXuXuXtXtXuXuXw.8.pXdXaXaXaXfXfXdXdXdXdXdXdXdXdXjXdXdXkXkXkXkXdXdXfXaXuXyX1X1X1X1Xw.w.X.X.X.X.} X.|.@X@X|.H.H.H.} o.O.O.{ X.@X@XX.' H { X.X.X.X.w.K.K.K.K.i.w.s.s.s.s.p.p.p.p.a.a.UXrXrXrXrXiXiXiXtXtXtXtXtXtXtXp.a.rXiXiXtXiXuXrX",
"%.%.%.=.=.=.%.%.=.%.%.%.%.%.%.+.u e w w w w w w w w w e r r 6 3 2 u 5.r.r.e.e.e.e.t.4.4.5.3.,.,.,.=.=.=.=.=.=.=.=.=.=.=.=.>.=.=.=.>.3.4.t.t.t.t.t.t.t.e.t.t.4.4.5.3.*.+.$.e u $.e $.+.+.+.$.$.$.$.$.$.$.+.u u u u u u u u u u u u +.+.&.&.&.&.&.+.w 0 w e e e e w w 6 o .               . o s 5 s s 5 5 5 5 5 5 5 5 5 5 5 5 5 5 5 5 5 5 5 5 5 7 o       O t @.:.:.@.7 O       s @.:.@.i @.:.@.:.:.:.:.:.:.:.:.>.:.:.:.:.:.:.:.:.:.<.5.2.2.8.<.l p o .             7 i i i i i i i i i i i i i i :.t :.i i p 5           O i i i i i i i i i i i i i i :.l :.i i i i i i i i i i i @.i p i :.o         <.r.u.p.s.u.u.u.u.s.p.p.p.p.p.p.p.p.p.p.p.p.p.p.p.a.eXrXrXiXiXtXtXtXtXtXiXrXrXUXeXeXeXeXeXa.eXa.rXrXiXtXtXtXuXuXuXuXuXuXuXuXuXuXuXuXuXuXuXuXaXdXdXdXdXjXjXdXkXdXdXdXdXdXyX,X,X<X,X,X,XrXs.d.a.iXtXiXtXrXs.i.rXiXiXiXiXiXiXiXiXiXuXfXdXkXkXkXkXkXkXkXVXkXkXkXkXkXkXdXdXfXfXfXaXuXtXrX,X,XrX,X,X,X,X,X,X,X,X,X,X,X,Xa.,XS.a.u.d.w.s.S.,XrX,Xa.s.u.i.uXdXkXkXkXkXjXjXdXfXpX<XS.w.9.9.9.9.9.9.9.Q 8.S.aXjXjXkXkXkXkXkXkXkXkXkXkXkXkXkXkXkXkXkXkXjXjXjXjXjXjXjXdXjXdXaXaXuXuXyXtXyXyXyXtXtXyXyXyXyXyXtXyXuXi.8.yXjXdXfXfXdXdXdXdXdXdXdXdXdXjXjXdXdXjXjXjXjXkXkXdXdXaXpX1X1X1Xi.w.X.X.X.X.X.X.H.|.@X@XH.X.H.H.} o.O.O.{ X.@X@XX.' R { ..w.w.w.w.K.K.K.K.i.w.s.s.s.s.p.p.p.p.p.a.eXrXrXrXrXiXiXiXtXtXtXtXtXtXuXa.p.rXiXiXtXiXuXrX",
"%.%.%.%.=.=.=.%.*.%.%.%.%.%.+.u u e w w r w w w w e e w w r 6 2 2 u 3.e.r.e.e.e.t.4.4.4.5.3.,.,.,.,.=.>.=.=.=.=.=.=.=.=.=.=.=.=.=.>.3.4.t.t.4.t.e.e.e.e.t.t.4.4.3.,.&.+.$.e $.$.$.$.+.$.$.$.$.+.+.+.+.$.$.u u u u u u u u u u u u u +.&.&.&.&.&.@.w 0 w w e e e e w 0 5 o .               . o o 5 5 5 7 7 5 5 5 5 5 5 5 5 7 5 5 5 5 5 5 s s 5 7 o       O t @.>.:.i t O       o p @.@.i @.@.@.:.:.:.:.:.:.:.:.:.:.:.:.:.:.:.:.:.<.1.7.2.7.3.<.l i 7 O             7 :.p i i i i i i i i i i i i i i :.t :.7             t :.i i i i i i i i i i i i i i i i i i :.i i i i i i i @.i i i i :.t         7 6.y.s.u.s.u.u.u.s.s.p.p.p.p.p.p.p.p.p.p.p.p.p.p.a.eXrXrXiXiXtXtXtXtXtXiXrXrXeXeXa.eXeXeXa.eXa.rXiXiXiXtXtXtXuXuXuXuXuXuXuXuXuXuXuXuXuXuXuXaXdXdXdXdXdXjXdXkXdXdXdXdXdXuX,X,X,X,X<X,XrXs.d.a.iXtXiXiXrXs.i.rXrXiXiXiXiXiXiXiXiXuXfXdXkXkXkXkXkXkXkXkXkXkXkXkXkXkXdXdXdXfXfXaXuXtXrXrX,XrX,X,X,X,X,X,X,X,X,X,X,X,XL.,X,XS.i.u.u.i.S.,X,X,Xa.s.u.i.yXdXkXkXkXkXkXjXjXfXpX<XS.w.9.9.9.9.9.9.9.Q Q w.pXdXjXkXkXkXkXkXkXkXkXkXkXkXkXkXkXkXkXkXkXjXjXjXjXjXjXdXdXjXdXfXaXuXyXyXtXtXyXtXtXtXtXtXyXyXuXuXiXuXS.2.rXdXkXdXdXjXdXdXdXdXdXdXdXdXdXjXdXjXjXjXdXdXjXkXkXdXfXaX1X1Xi.w.w.X.X.H.X.} } H.@X@X@XH.} H.H.} o.O.O.{ X.@X@XK.| ' | w.w.w.w.w.K.K.K.i.i.s.s.s.p.p.p.p.p.p.a.a.eXUXrXrXrXiXiXiXtXtXtXtXtXtXuXeXs.,XiXiXtXiXuXrX",
"%.%.%.%.=.=.%.%.%.%.%.%.%.%.+.u u e w r r w w w w e e w w r 6 3 2 w ,.e.r.e.e.e.t.t.4.4.4.5.3.,.,.,.=.>.=.=.=.=.=.=.=.=.=.=.=.=.,.,.3.4.t.t.e.e.e.e.t.e.t.4.4.5.3.*.+.$.$.$.+.+.$.$.$.e e $.+.+.+.+.+.+.$.u u u y u u u u u u u u u +.+.&.&.&.&.@.w 0 w w e e w e r 0 0 6 1 .                 . o o s s 5 5 5 5 5 5 5 5 5 s 5 5 5 5 5 5 s s 5 7 o       O t @.:.:.i t o       o t u i i i @.@.:.:.:.>.>.>.:.:.:.:.:.:.:.:.:.:.:.<.3.7.6.6.7.3.<.p t o           . t :.p p i i i i i i i i i i i i :.i :.t             7 :.i :.i i i i i i i i i i i i i i i i i :.:.:.i i i i i i i i i i i :.O       o 5.d.u.u.u.u.u.u.s.s.p.p.p.p.p.p.p.p.p.p.p.p.p.p.a.eXUXrXiXiXtXtXtXtXiXrXrXrXa.a.a.eXa.a.a.a.a.rXiXiXtXtXtXtXtXuXuXuXuXuXuXuXuXuXuXuXuXuXuXaXdXdXdXdXjXjXdXkXdXdXdXdXdXuXa.L.,X,X<X,XrXi.d.i.rXiXrXiXrXi.s.,XrXiXiXiXiXiXiXiXiXuXfXdXkXkXkXkXkXkXkXkXkXkXkXkXkXdXkXdXdXfXfXgXyXtXrXrX,X,X,X,X,X,X,X,X,X,X,X,X,XrXL.,X,XS.i.s.s.i.S.,X,X,Xa.s.d.i.yXdXkXkXkXkXjXjXjXfXyXS.i.w.9.9.9.9.9.9.9.Q Q w.yXdXjXkXkXkXkXkXkXkXkXkXkXkXkXkXkXkXkXkXkXkXjXjXjXjXjXdXdXjXdXfXaXuXyXyXyXtXyXtXtXtXtXtXtXuXyXyXiXyXrX0.i.dXkXjXjXjXdXdXfXdXdXdXdXdXjXjXjXjXkXkXjXjXjXkXkXjXdXaX1X1Xw.w.w.X.X.H.X.} X.|.+X@X|.X.X.H.H.} { O.O.{ X.@X@Xw...' | w.w.w.w.w.w.K.L.i.i.s.s.s.p.p.p.a.a.p.a.a.eXUXrXrXrXiXiXiXtXtXtXtXtXtXuXrXs.L.rXiXtXiXuXrX",
"%.%.%.%.%.%.%.%.%.%.%.%.%.%.+.u e e e r r w w w w w w e e w r 3 3 r =.4.r.e.e.e.e.t.4.4.4.5.3.,.,.,.,.>.=.=.=.=.=.=.=.=.=.=.>.>.,.,.3.4.t.t.e.e.e.e.t.t.4.4.5.3.*.&.+.e $.+.+.+.+.$.e e e e e e +.+.$.$.+.u u u w u u u u u u u u u +.+.+.&.&.&.@.w 0 w w e e w w r 0 0 r 6 1 O                     . O o o o s s s s s 5 7 7 5 5 5 5 5 s 5 5 7 o       . t i :.:.i u o       O q u i u i @.@.:.:.:.>.>.>.:.:.:.:.:.:.:.:.:.:.:.<.5.6.6.6.7.8.:.E i 7 .         o i i i p i i i i i i i i i i i :.p i i O         O o :.i p i i i i i i i i i i i i i i i i i i :.:.:.i i i i i i i i :.i i :.7       . i d.d.u.s.s.s.s.u.s.p.p.p.p.p.p.p.p.p.p.p.p.p.p.p.eXUXrXiXiXiXiXiXiXiXrXrXUXa.a.a.a.a.a.a.a.a.rXiXiXiXtXtXtXtXtXtXuXtXtXtXuXuXuXuXuXuXuXgXaXfXdXdXdXdXdXdXdXdXdXdXdXdXuX,XL.,X,X,Xa.,Xi.d.i.rXiXrXiXrXp.s.,XrXiXiXiXiXrXiXiXiXuXfXdXkXkXkXkXkXkXkXkXkXkXkXkXkXdXkXdXdXfXaXgXyXtXrXrX,X,X,X,X,X,X,X,X,X,X,X,X,XrXL.,X,XS.S.i.s.i.a.,XS.S.i.s.d.s.uXdXkXkXkXkXkXkXjXfXyXS.w.9.9.9.9.9.w.q.9.Q Q w.1XdXkXdXkXkXkXkXkXkXkXkXkXkXkXkXkXkXkXkXkXkXkXjXkXkXkXjXjXjXdXfXaXgXuXyXyXtXtXtXtXtXyXyXuXyXyXyXyXyXiXw.w.fXkXkXjXdXfXfXfXfXdXdXdXdXdXjXjXkXkXkXjXjXkXkXjXdXdXaX1X@Xw.w.H.H.X.X.} X.H.|.+X@X|.} X.H.H.o.{ O.O.o.X.K.@XK...] | w.w.w.w.w.i.i.i.i.i.s.s.s.p.p.p.a.a.p.a.a.UXUXrXrXrXiXiXiXtXtXtXtXtXtXtXtXs.a.rXiXtXiXuXrX",
"%.%.%.%.%.%.%.%.%.%.%.%.%.%.+.u e e e r r w w w e w w e e w r 6 2 0 &.4.r.e.e.e.e.e.e.e.4.5.5.3.,.,.,.>.>.=.=.=.=.=.=.=.=.=.>.>.=.*.3.5.4.4.4.t.e.e.t.t.4.4.5.3.&.+.+.e $.+.+.$.+.$.e e e e e e $.$.$.$.e e u u w y u u u u u u u u +.+.+.&.&.&.@.w 0 w w e e w r q 0 6 0 e 0 6 .                               . . O o o s s s 5 5 5 5 s 5 5 5 o       . q i :.:.i @.5         0 t i u i @.@.:.&.:.>.>.>.>.:.:.:.:.:.:.:.:.:.:.<.5.6.6.6.7.2.<.:.:.p =         o :.i i i i i i i i i i i i i i i i :.7           o i p i i i i i i i i i i i i i i i i i i i i :.:.:.:.i i i i i i i i i :.i p .       7 r.r.u.u.s.s.s.s.s.p.p.p.p.p.p.p.p.p.p.p.p.p.p.p.a.UXrXiXiXiXiXiXiXiXrXrXUXa.a.a.a.a.a.a.a.a.UXrXiXiXtXtXtXtXtXtXtXtXtXtXtXuXuXuXuXuXuXuXaXfXdXdXdXdXdXdXdXdXdXdXdXdXuX,XL.,X,X,XL.rXi.d.i.rXiXrXiXiXi.s.L.rXiXiXrXiXrXrXiXiXuXfXdXkXkXkXkXkXkXkXkXkXkXkXkXkXdXkXdXdXfXaXuXyXtXrX,X,X,X,X,X,X,X,X,X,X,X,X,X,X,XL.rX,X,XS.i.i.i.S.,XS.a.i.s.d.s.uXdXkXkXkXkXkXkXjXsXiXS.w.9.9.9.9.q.n.n.9.Q ) q.1XdXlXdXdXkXkXkXkXkXkXkXkXkXkXkXkXkXkXkXkXkXkXkXkXkXkXkXjXjXdXdXfXaXuXyXuXyXtXtXtXtXyXyXuXyXiXyXyXyXyXu.0.aXkXjXjXdXfXfXfXfXdXdXdXjXdXjXkXkXkXkXjXjXkXkXjXdXfXpX1XK.w.w.H.H.H.X.X.X.}.@X+X@XH.} X.H.H.o.{ O.{ ..X.K.@XK.w.' | w.w.w.w.w.i.i.i.i.i.s.s.p.p.p.p.a.a.p.a.a.UXrXrXrXrXiXiXtXtXtXtXtXtXtXrXuXs.a.rXiXtXiXuXrX",
"%.%.=.=.%.%.%.=.%.%.*.*.%.%.+.u e w r r w r w w w e w w w w r 6 2 6 u 3.e.r.e.e.e.e.4.t.t.4.5.3.,.,.=.=.=.=.=.*.=.=.=.=.=.=.=.=.=.,.3.3.4.4.4.t.t.t.4.4.4.5.,.*.+.+.$.$.+.e $.$.$.$.+.+.+.+.+.$.+.+.+.$.e e $.$.e e $.u e e e e +.+.#.+.+.+.&.&.&.w 0 w e e e e w r 0 0 q q e e 0 o                                     . o s s s 5 5 5 s s 5 7 o       . t i :.:.i @.q         5 t t @.@.&.&.&.:.>.:.:.>.>.:.:.:.:.:.:.:.>.:.:.1.2.6.d.d.6.2.<.:.:.:.t         7 :.p i i i i i i i i i i i i i i :.:.o         7 p :.p i i p i i i i i i i i i i i i i i :.:.:.:.:.:.:.i i i i i i i i i i :.:.O       O <.r.u.u.s.s.s.u.u.s.p.p.p.p.p.p.p.p.p.p.p.p.p.p.a.eXrXrXiXiXiXiXiXrXUXeXeXeXa.a.a.a.a.a.a.a.UXrXtXtXtXtXtXtXtXtXtXtXtXtXtXuXuXuXuXuXuXuXaXfXdXdXdXdXdXdXdXdXdXdXdXdXuXL.L.,X,XL.,XL.a.6.s.rXrXrXiXiXa.s.a.rXiXrXrXiXiXiXrXiXuXfXdXVXkXkXkXkXkXkXkXkXkXkXkXkXkXkXkXdXfXaXuXyXtXiXrXL.,X,X,X,X,X,X,X,X,XrX,X,X,X,X,X,X,XS.a.a.a.a.,X,XS.i.u.d.i.yXdXkXkXkXkXkXkXdXaX<Xi.w.9.9.9.9.n.1XS.9.Q 9.i.yXdXjXkXkXkXjXjXkXkXkXkXkXkXkXkXkXkXkXkXkXkXkXkXkXjXjXdXdXdXdXdXfXaXuXyXuXuXyXyXuXuXuXuXuXyXyXyXyXyXyXi.8.yXlXdXdXdXfXfXfXfXdXdXjXjXjXjXjXjXjXjXjXkXkXkXjXdXfXyX1Xw.w.w.H.X.X.X.} } |.+X+X|.H.H.X.H.X.o.O.O.{ ..K.@X@XK...] 0.w.i.i.w.s.i.i.i.i.s.p.p.p.p.p.p.p.p.p.a.a.UXUXrXrXrXiXiXtXtXtXtXuXtXtXtXuXi.p.rXrXiXiXuXrX",
"%.%.%.=.%.%.%.=.%.%.*.*.%.%.u u e w r r r r w w w w e e w w r r 2 6 w ,.4.e.e.e.e.e.4.t.e.4.4.5.,.,.=.=.=.=.=.=.=.=.=.=.=.=.=.=.=.=.,.3.3.4.4.t.t.4.4.4.5.3.*.&.+.+.e e +.e e $.e e +.+.+.+.$.$.+.+.$.$.e e $.e e +.+.u e e e e u +.#.+.+.+.&.&.&.w 0 w e e e e w r 0 0 q e e e q 0 5 o .                                 O o s 5 5 5 5 s s 5 7 o       . t i :.:.i @.t .       o t t @.@.&.&.&.:.:.:.:.:.:.:.:.:.:.:.:.:.:.:.:.8.2.6.d.d.6.2.<.:.<.<.t .       7 :.i i i i i i i i i i i i i i p i :.7 . . O 7 p i i y i :.:.:.i i i i i i i i i i i i i :.:.:.:.:.:.:.i i i i i i i i i i :.:.7         t 6.r.u.u.s.s.s.s.s.p.p.p.p.p.p.p.p.p.p.p.p.p.p.p.eXUXrXrXiXiXiXrXrXUXeXeXa.a.a.a.a.a.a.a.a.rXrXiXtXtXtXtXtXtXtXtXtXtXtXtXyXuXuXuXuXuXuXaXfXdXdXdXdXdXdXdXdXdXdXdXfXuXL.L.,X,X,X,XL.a.6.s.rXrXrXiXiXa.u.i.rXiXrXrXiXrXiXrXiXuXfXdXVXkXkXkXkXkXkXkXkXkXVXkXkXkXkXkXdXfXaXgXuXuXtXrX,X,X,X,X,X,XrX,X,X,XrX,X,X,X,X,X,X,XS.a.a.a.a.rX,XS.i.u.d.i.uXdXkXkXkXkXkXkXdXpXS.w.9.9.9.8.9.S.pX1X9.8.9.n.yXdXjXkXkXkXkXkXkXkXkXkXkXkXkXkXkXkXkXkXkXkXkXkXkXjXjXjXdXdXdXdXfXaXuXuXuXuXuXyXuXuXuXuXuXtXyXyXyXyXyXi.8.iXlXdXdXdXdXdXfXdXdXjXjXjXjXjXjXjXjXjXjXdXkXkXjXdXsX1Xi.w.w.w.H.H.X.X.X.H.@X@X@X|.H.X.X.H.} o.O.O.{ ..K.@X@XK.w.] 0.w.i.i.u.s.s.i.i.i.p.p.p.p.p.p.p.p.p.p.a.a.UXUXrXrXrXiXiXtXtXtXtXuXtXtXtXuXa.s.rXiXiXtXuXrX",
"%.%.%.%.%.%.%.=.%.%.*.*.%.%.+.u e w r r r r w w e w w e e e e r 6 2 0 =.4.e.e.r.e.e.e.e.e.t.4.4.3.,.,.=.=.=.=.=.=.=.=.=.=.=.=.=.=.=.,.3.3.3.4.4.4.4.5.3.3.=.&.+.+.$.e e e e e +.e e +.+.$.$.$.$.+.+.+.+.e e e e $.$.+.+.u u u e u u +.#.+.+.&.&.&.w 0 w e e e e w r 0 0 q e w w w w w 0 3 o O .                           . o s 7 5 7 7 5 5 5 7 o       . t @.:.@.i :.p O       O q t u @.&.@.&.:.:.>.:.:.:.:.:.:.:.:.:.:.:.:.<.8.2.6.d.d.6.2.<.:.<.:.t .       7 :.i i i i i i i i i i i i i i :.u i p p i u :.p p i :.:.i p t i i i i i i i i i i i i :.:.:.:.:.:.:.:.:.i i i i i i i i i :.:.t         3 6.r.y.u.s.s.u.s.s.p.s.p.p.p.p.p.p.p.p.p.p.p.p.p.a.eXrXrXiXiXrXrXUXeXeXa.a.a.a.a.a.a.a.a.a.UXrXiXtXtXtXtXtXtXtXtXtXtXtXtXtXyXtXuXuXuXuXaXfXdXdXdXdXdXdXdXdXdXdXdXfXuXL.L.,X,X,X,X,Xa.6.s.,XrXrXrXiXa.u.i.,XrXrXrXiXrXiXrXiXuXfXdXkXkXkXkXkXkXkXkXkXkXVXVXkXkXkXdXfXaXaXaXgXuXtXrX,X,X,X,X,X,XrXrXrXrXrXrX,X,X,X,X,X,XS.a.a.a.S.,X,XS.i.u.d.i.pXdXkXkXkXkXkXkXdXpXS.w.9.9.Q 8.q.pXsX1Xw.9.9.S.pXdXjXkXkXkXkXkXkXkXkXVXkXkXkXkXkXkXkXkXkXkXkXkXkXkXjXjXdXdXdXdXfXaXuXuXuXuXuXyXyXyXyXuXuXtXuXyXuXyXyXi.8.yXVXjXdXdXdXdXdXdXdXjXdXjXjXjXjXjXjXjXjXdXkXkXdXdXpX1Xw.w.q.w.K.H.H.H.X.|.@X@X@X}.} } X.X...{ O.' { ..X.K.K.K.0.! 0.i.i.s.u.u.s.s.i.p.p.p.p.p.p.p.p.p.p.p.a.a.UXrXrXrXrXiXiXtXtXtXtXuXtXtXtXuXL.u.rXiXiXtXuXiX",
"%.%.%.%.%.%.%.%.=.%.*.*.%.%.+.u e w r r r r r w e w e e e e w r 6 3 6 +.5.6.e.r.e.e.e.e.e.e.4.4.5.3.,.=.=.=.=.=.=.=.=.=.=.=.=.=.=.=.,.,.3.3.3.3.5.5.3.,.*.&.+.$.$.e e e e e e $.e e +.+.$.$.$.$.+.+.+.+.e e e e $.$.+.+.+.+.u u u u +.#.+.+.@.&.&.w 0 w e e e e w r 0 0 r w w e e w r r r 0 6 3 o .                         O s 7 5 5 7 5 5 7 7 5       . t :.:.@.@.:.u o       . 0 u t @.&.@.&.&.:.:.:.:.:.:.:.:.:.:.:.:.:.<.<.3.2.6.d.d.6.2.<.:.:.l 7         7 :.i i i i i p u i i i i i i i i p i i i i p i p p i i i i :.:.i i i i i i i i i i i @.:.:.:.:.:.:.:.:.:.i i i i i i i i i i :.:.        O 3.6.d.u.u.s.u.u.s.p.p.p.p.p.p.p.p.p.p.p.p.p.p.p.p.a.eXUXrXrXUXUXeXeXa.a.p.p.p.a.a.a.a.a.a.UXrXiXtXtXtXtXtXtXtXtXtXtXtXtXtXtXtXuXuXuXuXaXfXdXdXdXdXdXdXdXdXdXdXdXdXuXa.a.,X,XS.,X,Xa.6.u.,XrXrXrXiXa.u.i.,XrXrXrXiXrXrXrXiXuXfXdXkXkXkXkXkXkXkXkXkXkXkXVXkXkXkXdXfXaXaXaXaXaXuXrX,XrX,X,X,X,XrXrXrXrX,XrX,X,X,XL.,X,XS.a.a.a.S.,XS.S.i.u.d.i.gXdXkXkXkXkXkXkXdXyXn.9.9.8.Q 9.S.sXjXpXw.9.9.S.pXdXjXkXkXkXkXkXkXkXkXkXkXkXkXkXjXjXkXkXkXkXkXkXkXkXjXjXkXdXdXdXfXaXuXuXuXuXyXtXtXtXtXtXuXtXuXtXyXyXiXi.8.yXVXjXdXdXdXfXdXdXdXjXdXjXjXjXjXjXjXjXjXdXdXkXdXfXpXS.w.w.w.w.w.H.H.H.X.@X@X@X|.H.X.X.X.X.o.O.O.O.' | ..K.K.K.0.! 0.i.i.s.d.u.s.s.p.p.p.p.p.p.p.p.p.p.p.p.a.a.UXrXrXrXrXiXiXtXtXtXtXtXtXtXtXtXrXd.rXiXiXtXuXiX",
"%.%.%.%.%.%.%.%.%.%.*.%.%.%.+.+.e w r r r r r w r w e e e e e w 0 3 2 w 3.4.e.r.r.e.e.e.e.e.4.4.4.3.,.>.=.=.=.=.=.=.=.=.=.=.=.=.=.=.,.3.3.3.3.3.3.3.,.*.&.+.+.$.e e e e $.e e +.$.$.$.+.$.+.+.e e e e $.$.$.$.$.$.$.+.+.+.+.u u +.+.+.+.+.+.@.&.&.w 0 w e e $.e w r r 0 r w e e u e e e r r q 0 s O                       . o s 5 5 5 7 5 5 5 7 5 .     . t :.:.:.@.:.i o         7 u u @.@.@.&.&.&.:.:.:.:.:.:.:.:.:.:.:.:.<.<.1.7.6.d.d.6.2.<.:.E t o         o :.i i i i i p i i i i i i i i i :.:.:.p p i :.i i :.i p p i i i i i i i i i i i i i i :.:.:.:.i :.:.:.:.:.i i i i i i i @.@.:.:.o         p 6.r.d.u.u.u.u.s.s.p.p.p.p.p.p.p.p.p.p.p.p.p.p.p.p.a.eXeXeXeXa.a.a.p.p.p.p.p.a.a.a.a.a.a.eXrXiXtXtXtXtXiXiXiXiXiXtXtXtXtXtXtXuXuXuXuXaXfXdXdXdXdXdXdXdXdXdXdXdXdXuX,X,X,X,Xa.,X,Xa.6.u.,X,XrXrXrXL.u.i.L.rXrXrXiXrXrXrXiXuXfXdXdXdXkXkXkXkXkXkXkXkXkXkXkXkXkXdXfXaXpXuXgXaXuXrXrXrX,X,X,X,XrXrXrXrXrXrX,X,X,Xa.,X,Xa.a.a.a.S.,Xa.a.i.u.d.i.gXdXkXkXkXkXkXkXdXyXn.9.9.8.) 9.1XjXzXpXn.9.9.S.pXjXkXkXkXkXkXkXkXkXkXkXkXkXkXkXkXkXkXkXkXkXkXkXkXkXjXjXdXdXdXdXdXaXpXyXuXuXtXtXiXiXiXiXtXiXtXtXtXtXiXi.8.yXVXkXjXdXdXfXdXdXdXdXdXdXjXjXjXjXkXjXjXjXjXjXdXsX1Xi.w.w.w.w.X.X.X.H.H.@X@X@XH.X.X.X.H...o.O.O.H ' { | X.K.w.0.2.0.i.a.s.u.u.p.p.p.a.a.a.a.p.p.p.p.p.p.p.a.a.UXUXrXrXrXiXiXtXtXtXtXtXtXtXtXtXiXd.,XiXiXtXuXiX",
"%.%.%.%.%.*.%.%.%.%.*.*.%.%.+.+.e w r r r r r w r e w e w e e w r 2 2 0 =.4.6.e.e.e.e.e.e.e.4.4.4.5.3.,.=.=.=.=.&.&.&.&.=.=.=.=.=.=.,.,.3.3.3.3.,.=.*.%.+.+.$.e e e e e $.e e +.e $.$.+.$.+.e e e e $.$.$.$.$.$.$.$.+.+.+.$.+.e +.+.+.#.+.+.@.&.&.e 0 w e $.+.$.w r r 0 r w e e w e e e w w r 5 o .             . . . O O o 1 5 5 5 5 5 5 5 5 7 7 O     . q :.:.:.@.@.@.7         s u u @.@.&.&.@.>.:.:.&.&.:.:.:.:.:.>.:.>.<.<.1.7.6.d.d.6.2.1.:.i 7 .         o i i i p i i i i i i i i i i i p p p y p :.:.i i i i i :.:.i p i i i i i i i i i i i :.:.:.:.:.i :.:.:.:.:.i i i i i i i @.@.@.:.7         7 6.e.y.u.u.u.u.s.s.s.s.s.s.s.s.p.p.p.p.p.p.p.p.p.p.p.a.a.a.p.a.a.a.p.p.p.p.p.p.a.a.a.a.a.eXrXiXtXtXiXiXiXrXrXrXiXiXtXtXtXtXtXuXuXuXuXaXfXdXdXdXdXdXdXdXdXdXdXdXdXuX,X,X,X,Xa.,X,Xa.r.u.a.,X,XrXrX,Xs.i.L.rXrXrXrXrXrXrXiXuXfXdXdXdXkXkXkXkXkXkXkXkXkXkXkXkXkXdXfXaXuXyXuXgXuXiXrXrX,X,X,X,XrXrXrXrXrXrXeXS.a.a.,XrXS.a.a.S.a.a.a.a.i.u.d.i.gXdXkXkXkXkXkXkXdXyXw.9.8.) 9.n.pXzXzXpXS.9.9.S.aXjXkXkXkXkXkXkXkXkXkXkXkXkXkXkXkXkXkXkXkXkXkXkXkXkXjXdXdXdXdXkXdXaXpXyXuXuXtXtXiXiXiXiXiXiXtXiXtXiXiXi.2.yXVXkXjXdXdXdXdXdXdXdXdXdXjXjXkXjXkXjXjXjXjXjXdXaX<Xw.w.w.w.w.w.w.X.X.K.@X@X@XH.X.X.X.X...{ O.H R ' ' { ..w.w.w.2.0.i.a.p.u.s.p.p.p.a.a.a.p.p.p.p.p.p.p.p.a.a.UXUXrXrXrXiXiXtXtXtXtXtXtXtXtXtXtXd.a.rXiXtXuXrX",
"%.%.%.%.%.*.%.%.%.%.%.%.%.%.+.+.e r r r r r r e r e w e e w w w r 6 2 2 u 3.6.e.e.e.e.e.e.e.e.e.4.5.3.,.,.=.=.=.&.&.&.&.&.=.=.=.=.=.=.,.,.3.,.,.*.*.&.+.+.$.e e e e e +.e e e +.e e e e +.+.e e e e e e $.$.$.$.+.+.+.+.+.$.$.$.+.+.+.#.+.+.&.&.&.e 0 w e $.$.$.w r r 0 r w e e w r w e e w 7 o           . . O o o o o 1 s 5 7 5 5 5 5 5 5 5 7 7 O       7 :.:.:.@.@.:.7         o p u u @.&.@.>.>.>.>.:.:.&.:.:.:.:.>.:.<.<.<.3.7.6.d.d.6.2.1.:.p 7           O p i i p i i i i i i i i i i i i :.:.l i i i p i i p i :.:.:.:.i i i i i i i i i :.l l :.:.:.:.i :.:.:.:.:.:.i i i i i i i i @.:.p .       o 5.r.y.y.u.u.u.u.s.u.u.u.u.s.s.s.p.p.p.p.p.p.p.p.p.p.p.p.p.p.p.a.p.p.p.p.p.p.p.p.a.a.a.a.a.rXiXtXtXiXiXiXrXrXrXrXiXiXtXtXtXuXuXuXuXuXuXfXfXfXfXdXdXdXdXdXdXdXdXdXuXL.,X,X,Xa.,X,Xa.d.u.a.,X,X,XrX,Xs.i.a.rXrXrXrXrXiXrXiXuXfXdXdXdXkXkXkXkXkXkXkXkXkXkXkXdXkXdXfXaXuXyXyXuXuXiXrXrXrXrX,X,XrXrX,X,XrXeXeXeXa.a.a.a.,XS.S.S.,X,XL.L.i.u.d.i.aXkXkXkXkXkXkXkXdXiXw.9.Q Q 9.S.sXzXzXaXS.9.9.S.sXkXkXkXkXkXkXkXkXkXkXkXkXkXkXkXkXkXkXkXkXkXkXkXkXkXjXjXdXdXdXdXdXaXpXyXyXyXtXiXiXiXiXiXiXiXtXiXiXiXrXi.2.yXlXjXjXdXdXdXdXdXdXdXdXjXjXjXkXjXjXjXjXdXjXjXfXpX1Xw.w.w.@X@Xw.w.w.w.K.@X@X@XX.X.X.H.X.o.{ ' O.R ' { | w.K.K.w.2.r.p.a.p.u.u.p.p.p.p.a.a.a.p.p.p.p.p.p.p.p.a.eXUXrXrXrXiXiXtXtXtXtXtXtXtXtXtXtXu.a.rXiXiXuXrX",
"%.%.%.%.%.*.%.%.%.%.%.%.%.%.+.+.e r r r r r r e r e w e e w w w e 6 2 2 r ,.6.e.e.e.e.e.e.e.e.e.4.4.3.,.,.=.=.&.&.&.&.&.&.=.=.=.=.=.=.=.=.=.=.,.*.*.&.+.+.e e e e e $.+.e e e +.e e e e +.e e e e e e e +.+.+.+.+.+.+.+.+.+.$.$.+.+.+.#.+.@.&.&.&.w 0 w e $.$.e w r r 0 r w e e y w e e w 0 o .         . o o s s 5 5 5 s 5 5 5 5 5 5 5 7 7 5 5 7 O       7 >.:.:.i @.:.7         O p @.u @.:.@.>.>.>.>.:.:.>.>.:.:.:.>.:.<.<.<.3.7.6.d.d.6.7.1.<.p 7             t i i p i i i i i i i i i i i i i i i i p i @.i :.:.>.:.7 5 7 i i i i i i i i :.:.&.l :.:.:.:.i :.:.:.:.:.:.:.:.i i i i i i i :.:.O       . >.r.y.y.u.u.u.u.u.y.u.u.u.u.s.s.p.p.p.p.p.p.p.p.p.p.p.p.p.p.a.a.p.p.p.p.p.p.p.a.a.a.a.a.a.rXiXiXtXiXiXiXrXrXrXrXiXiXtXtXtXuXuXuXuXuXuXaXfXfXfXdXdXdXdXdXdXdXdXfXuXL.,X,X,XL.,X,Xa.d.u.a.,X,X,XrX,Xs.i.a.rXrXrXrXrXiXrXiXuXfXdXdXkXkXkXkXkXkXkXkXkXkXkXkXdXkXdXfXaXuXyXyXyXuXiXrXrXrX,X,X,XrXa.,Xa.rXeXeXeXa.a.a.a.rXrX,X,X,X,X,X,Xi.u.d.i.aXkXkXkXkXkXkXkXfX<Xw.9.) 8.9.<XjXlXzXsXS.w.9.S.sXkXkXkXkXkXkXkXkXkXkXkXkXkXkXkXkXkXkXkXkXkXkXkXkXkXkXkXdXdXdXdXdXaXpXyXuXyXtXiXiXiXiXiXiXiXiXiXiXrX<Xi.2.iXkXjXjXdXfXdXdXdXdXdXdXdXjXjXkXjXjXjXjXdXjXjXfXyXi.w.w.w.@X1X@Xw.w.w.K.@X@XK.X.X.X.X.X.{ ' ' R R ' | ..w.K.K.w.2.0.p.a.p.u.u.p.p.p.p.a.a.a.p.p.p.p.p.p.p.a.a.UXrXrXrXrXiXiXtXtXtXtXtXtXtXtXtXtXs.i.rXtXiXuXrX",
"%.%.%.%.%.%.%.%.%.%.%.%.%.%.+.$.w w w w w w w w r r r w w w w w w r 3 3 6 &.5.4.r.e.6.6.e.e.e.4.e.4.5.3.,.=.&.&.&.+.+.&.&.&.=.=.*.*.*.*.=.=.*.*.*.&.+.$.u e e e e e e e $.$.$.e +.+.e e e $.$.$.$.$.$.e e +.+.+.+.+.+.+.+.$.$.$.+.+.+.+.+.+.%.&.&.e 0 0 e u u u e r r r r e e e e e w e w 2 O       . o 1 2 2 2 3 5 5 5 5 5 5 7 7 5 5 5 7 7 5 5 5 1       7 :.:.:.u :.:.t O       . t u @.@.@.:.@.@.&.&.:.>.>.&.:.:.:.>.>.>.<.1.8.7.7.d.d.d.2.1.:.p 7             o p i p i :.i i i p i @.:.i u :.i i i i i :.:.:.:.i 5 .         :.i p :.i p :.i i i i :.:.:.:.:.:.:.E E E :.:.i i i i l l l i i i 7         t 6.r.u.y.u.y.u.y.y.y.u.u.u.u.p.p.p.p.p.p.p.p.p.p.p.p.p.p.p.p.p.p.p.p.p.p.a.a.a.p.a.p.p.a.rXiXiXtXtXiXiXrXrXrXiXiXtXtXtXtXuXuXuXuXuXuXaXfXfXfXdXdXfXdXdXdXdXdXfXuXa.L.,X,Xa.,X,Xa.d.u.L.,X,X,X<X<Xi.i.a.<XrXrXrXrXrXrXiXyXfXdXdXkXkXkXkXkXkXkXkXkXkXkXkXkXdXdXfXaXpXyXyXuXuXuXiXrXrXrXrX,XrX,X,Xa.a.a.a.a.a.a.,X,Xa.UX,X,X,X,Xa.a.i.u.7.i.aXkXkXkXkXkXkXkXdX<X9.) ) 8.i.pXjXVXzXsX1Xq.q.S.sXjXkXjXkXkXkXkXkXkXVXVXkXkXkXkXkXkXkXkXkXkXkXkXkXkXkXkXdXdXdXdXdXaXuXtXtXtXyXtXiXiXiXiXiXiXiXiXiXiX<Xi.2.rXkXjXdXdXdXdXdXdXdXdXdXdXdXjXkXjXjXjXdXdXjXdXsX<Xi.0.w.S.1X1X@Xi.w.w.@X@X@XK.w.w.w.X...| ' R H ' | ..X.K.K.w.w.8.0.p.a.a.u.u.p.p.a.p.p.a.p.p.p.p.p.a.a.a.a.a.eXrXrXrXiXiXiXtXtXtXtXtXtXtXtXtXuXs.i.rXrXtXuXrX",
"%.%.%.%.%.%.%.%.%.%.%.%.%.%.+.$.w w w w w r w w r r r r w w w w w r 6 3 6 u 3.4.e.e.4.6.6.6.e.4.4.4.4.3.,.=.&.&.+.+.+.+.&.&.=.=.*.*.*.*.=.=.*.*.*.@.+.$.u e e e e e e e e $.$.$.$.$.e e e e e e $.$.$.e $.+.+.+.+.+.+.+.+.+.$.$.+.+.+.+.+.+.%.&.&.e 0 0 e u u u e r r r r e u e w e e u r o .     . o 5 7 6 2 2 5 5 5 5 5 5 5 5 7 5 5 5 7 5 5 5 5 s       7 :.:.:.@.:.i p O       . q u u u i :.@.&.&.:.&.>.&.&.:.:.:.>.>.:.:.<.1.2.7.d.d.d.7.8.:.i t O             7 :.i i :.t p i :.:.i p i :.i i :.:.:.:.i p 7 o               5 :.i p :.p i @.i l :.:.:.:.:.:.:.:.:.:.l :.:.i i i i l E l i i :.t         o 5.r.y.y.u.y.y.u.y.y.u.u.u.u.p.p.p.p.p.p.p.p.p.p.p.p.p.p.p.p.p.p.p.p.p.p.p.a.p.p.p.p.p.a.rXiXiXtXtXiXiXiXrXiXiXiXtXtXtXtXuXuXuXuXuXuXaXfXfXfXfXdXfXdXdXdXdXdXfXuXL.L.,X,Xa.,X,Xa.d.u.a.,X,X,X<X<Xi.i.a.,XrXrXrXrXrXrXrXyXfXdXdXdXkXkXkXkXkXkXkXkXkXkXkXkXdXdXfXaXpXyXyXuXaXuXiXrXrXrXrX,XrX,X,X,Xa.a.a.a.S.a.rXrXUXUXrX,X,X,XL.a.i.u.7.i.aXkXkXkXkXkXkXkXfX<X9.Q ) 9.S.aXzXVXVXsX1Xw.q.<XfXlXVXVXkXkXkXkXkXkXVXVXkXkXkXkXkXkXkXkXkXkXkXkXkXkXkXkXdXdXdXdXdXfXuXtXtXyXtXyXiXiXiXiXiXiXiXiXyXiX<Xi.2.<XkXjXdXfXfXfXfXfXdXdXdXdXdXjXkXjXjXjXdXjXjXdXsX<Xw.0.w.<X1X1X1X1X@X@X@X@X@Xw.w.w.X.X...{ ' R H ' | X.w.K.K.K.0.1.r.p.a.a.u.u.p.p.p.p.p.p.p.p.p.p.p.p.p.p.p.a.eXrXrXrXiXiXiXtXtXtXtXtXtXtXtXtXuXs.i.rXrXtXuXrX",
"%.%.%.%.=.=.=.%.*.%.%.%.%.%.+.$.w w w w r r r r r r r r r r w w w w r 3 2 r *.5.e.e.4.4.4.4.e.t.4.4.4.5.3.,.&.+.u u u +.&.&.=.=.=.*.*.*.=.*.*.*.&.+.+.$.e e e e e e e e e $.$.$.$.e e e e e e e $.$.$.$.e +.+.+.+.+.+.+.+.+.+.$.+.+.+.+.+.+.%.&.&.e 0 0 w u u u w r r r r e u u w e u u 6 O       O s 7 5 5 5 5 7 7 7 7 7 7 7 7 7 7 5 5 7 5 5 5 5 5       7 :.:.:.@.@.i i o         7 t u u u @.@.&.&.:.&.&.&.&.&.@.@.:.:.>.:.<.<.7.7.6.d.d.7.1.:.:.i 5             O t i i :.:.i p p i i :.i p :.:.i i p 7 o .                   O :.i p :.i i @.:.:.:.i :.:.:.:.:.:.:.:.:.:.:.i i i i E E @.@.i :.p .       . ,.r.r.y.u.y.y.u.u.u.u.u.u.u.u.p.p.p.p.p.p.p.p.p.p.p.p.p.p.p.p.p.p.p.p.p.p.a.a.a.p.p.p.a.rXiXiXtXtXtXiXiXiXiXiXtXtXtXtXtXtXuXuXuXuXuXaXfXfXfXfXdXfXdXfXdXfXdXfXuXa.L.,X,XL.,X,Xa.d.u.a.a.a.L.<X,Xi.i.a.,XrXrXrXrXrXrXrXtXfXdXdXdXkXkXkXkXkXkXkXkXkXkXkXkXdXdXfXaXpXyXuXgXaXuXtXrXrXrXrXrXrXrX,X,X,X,XrXrX,XrXrXrXa.a.rX,X,X,X,X,Xi.s.7.s.gXkXkXkXkXkXkXkXfX<X9.Q Q 9.S.sXzXVXVXjXyXi.q.1XdXlXkXkXkXkXkXkXkXkXkXkXkXkXkXkXkXkXkXkXkXkXkXkXkXkXkXkXjXjXdXdXdXfXaXyXuXuXyXyXyXyXyXyXiXiXiXiXyXyX<Xi.0.<XkXkXdXfXfXfXfXfXfXdXdXdXdXjXkXjXkXjXdXjXdXdXaX<Xw.0.w.<X<X<X<X<X<X<X1X1X@X@XK.w.w.....' ' R ' { ..w.K.K.K.K.0.1.d.p.eXa.u.u.p.p.p.p.p.p.p.p.p.p.p.p.p.p.p.a.eXrXrXrXiXiXiXtXtXtXtXtXuXtXtXtXuXi.i.rXrXtXuXrX",
"%.%.%.%.=.=.=.%.*.*.=.%.%.%.+.+.w w w r r r r r r r r r w w w w w e r 3 2 6 @.3.4.e.6.4.4.4.t.t.t.4.4.5.3.,.&.+.u u u +.%.&.=.=.=.=.=.*.*.*.*.&.+.+.$.e e e e e w e e e e e e $.e e e e e e e $.e e e $.e +.+.+.+.+.+.+.+.+.+.+.+.+.+.+.+.+.%.&.&.e 0 0 w e e e w r 0 r r e u u u e u u 6 O       O 1 3 5 5 5 5 7 7 5 7 7 7 7 7 7 7 7 7 7 7 5 5 5 5 .     5 :.:.@.:.@.i i 7         5 t u u u @.@.&.&.:.:.&.&.@.&.@.@.@.:.:.:.:.<.1.7.6.d.d.7.1.<.<.<.7               o p i p :.@.:.i i i i l l :.i t o                           7 :.p i i i i i :.:.@.i :.:.:.:.:.:.:.:.i i i i i i i E E i @.i :.:.O         t 6.6.y.y.y.y.u.u.u.u.u.u.u.u.s.p.p.p.p.p.p.p.p.p.p.p.p.p.p.p.a.p.p.p.p.p.a.p.p.p.p.p.a.rXiXtXtXtXtXtXiXiXiXtXtXtXtXtXtXtXuXuXuXtXuXuXaXfXfXfXfXfXfXfXfXfXfXfXtXa.a.,X,X,X,X,Xa.d.u.a.a.a.a.,X,Xi.s.a.,XrXrXrXrXrXrXrXtXaXdXdXdXkXkXkXkXkXkXkXkXkXkXkXkXdXdXaXaXyXyXuXgXaXuXtXrXrXrXrX,XrX,X,X,X,XrXrXrXrXrXrXrXS.a.UXL.,X,X,X,Xa.s.6.s.pXjXkXkXkXkXkXkXfX<X9.Q Q 9.S.fXzXzXzXjXpXS.w.1XdXkXkXkXkXkXkXkXkXkXkXkXkXkXkXkXkXkXkXkXkXkXkXkXkXkXkXkXjXjXjXkXdXfXaXyXyXyXyXyXyXyXyXyXyXiXiXyXiXyX<Xi.0.<XjXkXjXdXfXfXfXfXfXdXdXdXdXjXkXjXkXjXjXjXdXfXpX<X0.0.i.<XyXyXiX<X<X<X1X1X1X1X@X@Xw...| { ' ' ' ..w.K.K.K.K.K.0.8.d.a.eXa.u.u.s.p.p.a.p.p.p.p.p.p.p.p.p.p.p.a.eXrXrXrXiXiXiXtXiXiXtXtXtXtXtXtXuXi.i.rXrXiXuXrX",
"%.%.%.%.=.=.=.%.*.=.*.*.%.%.+.+.e w r r r w r r r r r r w w w w e w r 6 2 2 u 3.4.e.e.4.4.4.t.t.t.4.4.4.5.,.&.+.u u u +.%.&.=.=.=.=.=.=.*.=.&.&.#.#.u e e e e w w w e e e e e e $.$.e e e e e e e e e $.e $.+.+.+.+.+.+.+.+.+.+.+.+.+.+.+.+.%.&.&.e 0 0 w e e u w r 0 0 r e u u u e e u r o       . o o s 7 7 5 7 5 5 5 7 7 7 7 5 7 7 7 7 7 5 5 5 5 .     o @.:.@.:.i u @.7         o t u u u @.@.@.&.>.&.&.@.@.@.@.@.@.@.@.&.:.:.1.6.6.d.d.7.3.1.:.p 5                 7 i p p i u p i :.:.:.i 7 o                             o <.i p i i i @.i i i i i i :.:.:.:.:.:.i i @.i i i i l l E @.@.@.i :.o         o 7.6.u.y.y.y.y.y.u.u.u.u.u.u.p.p.p.p.p.p.p.p.p.p.p.p.p.p.p.p.p.p.p.p.p.p.p.p.p.i.p.i.a.rXiXtXtXtXtXtXtXiXtXtXtXtXtXtXuXuXuXtXtXtXuXuXaXfXfXfXfXfXfXfXdXfXfXfXtXa.a.,X,X,X,X,Xa.d.d.a.a.a.a.,X,Xi.s.i.a.,XrX<XrXrXrXrXtXaXdXdXdXdXdXdXkXkXkXkXkXkXkXkXkXdXdXfXaXuXuXyXuXuXuXiXrXrXrXrXrXrX,X,X,XS.,XrXrXrXrXrXrX,XS.UXeXL.L.,X,Xa.s.d.s.pXkXkXkXkXkXkXkXdX<X9.Q Q 9.<XjXlXzXzXjXaXS.i.yXjXVXkXkXkXkXkXkXkXkXkXkXkXkXkXkXkXkXkXkXkXkXkXkXkXkXkXjXkXkXkXkXdXfXaXyXyXyXyXyXyXyXyXyXiXyXiXyXyXyX<Xi.9.S.dXkXjXdXdXfXfXfXfXfXdXdXjXjXjXkXkXkXjXjXdXfXpXi.0.w.i.<XyXiXiXiX<X<X1X1X1X1X1X1Xw.w.| | ' ' | X.K.K.K.K.K.K.2.W d.a.eXa.u.y.s.p.p.a.a.a.p.p.p.p.p.p.p.p.p.a.eXUXrXrXiXiXiXiXtXtXtXtXtXtXtXtXuXa.i.rXrXiXuXrX",
"%.%.%.%.=.=.=.%.*.=.*.*.%.%.+.+.e w r r r w w r r r r r r w w w e e r 0 2 3 w *.5.e.e.6.4.4.4.4.t.e.e.4.5.3.=.+.+.+.+.+.&.&.=.=.=.=.=.=.=.&.&.%.#.u e e w e e w e e e e e e e e e e e e e e e e e e e e e e $.$.+.+.+.+.+.+.+.+.+.+.+.+.+.+.%.&.&.$.0 0 w e u u e r r r r e e e e e e u u 6 O       . O o 1 s 5 7 6 7 7 7 7 7 7 5 7 7 7 7 7 5 5 7 5 O     o i :.@.@.@.i @.t .       o t y u #.@.@.@.&.>.&.&.@.@.@.#.@.@.@.@.@.&.:.1.6.d.u.u.7.<.:.7 o .                 . 7 :.:.:.:.l :.>.i 7 o                             O 5 i :.i :.i :.p i i i i i i i :.:.:.:.:.i i @.@.i i i @.@.E l @.i i i :.7         . &.6.y.y.y.y.y.y.y.u.u.u.u.u.p.p.p.p.p.p.p.p.p.p.p.p.p.p.p.p.p.p.p.p.p.p.p.p.p.i.i.i.a.rXiXtXtXtXtXtXtXtXtXtXtXtXtXtXuXuXuXtXtXtXuXuXgXaXfXfXfXfXfXfXfXfXfXfXtXa.L.,X,XL.,XL.a.r.r.i.a.a.a.,X,Xi.u.i.a.,X<X,XrX,XrXrXiXaXfXdXdXdXdXdXkXkXkXkXkXkXkXkXjXjXdXfXfXaXpXyXtXyXtXiXrXrXrXrX,X,X,X,X,Xa.a.rXrXrXrXrXrX,X,XUXrXa.a.,XL.a.i.d.s.uXkXkXkXkXkXkXkXdX<X9.Q ) q.yXjXlXlXlXjXpXS.n.yXjXVXVXkXkXkXkXkXkXkXkXkXkXkXkXVXkXkXkXkXkXkXkXkXkXkXkXkXkXkXkXkXkXdXaXyXyXyXyXyXyXyXyXyXyXyXiXyXyXyX<Xi.9.i.aXdXdXdXdXfXfXfXfXfXdXdXjXjXdXkXkXkXjXjXdXfXyXi.0.u.S.iXyXiXyXiX<X1X<X1X1X1X1X1XK.w...| | | X.w.K.K.K.K.K.K.2.<.d.a.UXa.u.y.s.p.p.p.p.a.a.p.p.p.p.p.p.p.p.p.a.UXrXrXiXiXiXiXtXtXtXtXtXtXtXtXuXa.i.rXrXiXuXrX",
"%.%.%.%.=.=.%.%.%.*.*.%.*.%.%.+.e w r r w w w r r r r r w w w w e r w r 6 3 0 +.3.4.e.6.4.4.4.4.e.e.e.e.4.5.,.=.&.+.&.&.&.&.=.=.=.=.=.=.=.&.&.+.+.u e e e e e w e e e e e e e e e e e e e e e e e e e e e e $.$.+.+.+.+.+.+.+.+.+.+.+.+.+.+.%.&.&.$.0 0 w e u +.e r r r r w e e w u e e u w 3 .           . o o s 5 7 7 7 7 7 7 7 7 7 7 7 7 7 5 5 s .     o u :.:.@.:.@.i y O       O t t u @.@.@.@.&.*.&.&.&.@.u u #.@.@.@.@.i :.3.6.u.u.u.2.:.7 O                       O 7 p i >.:.i 7 o                             O 7 p :.:.p i :.i :.i i i i i i i i i :.:.:.:.i i i i i i i i @.i i i i i i :.t           0 7.r.y.y.y.y.y.u.u.u.u.u.u.s.s.p.p.p.p.p.p.p.p.p.p.p.p.p.p.p.p.p.p.p.i.i.p.p.p.p.p.a.,XiXtXtXtXtXtXtXtXtXtXtXtXtXtXtXtXtXtXtXtXtXuXuXaXaXfXfXfXfXfXfXfXfXaXrXL.L.,X,XL.L.L.a.7.6.i.a.a.a.,X,Xi.u.s.a.L.,X,XrX,XrXrXiXuXfXdXdXdXdXdXkXkXkXkXkXkXkXkXdXkXdXdXfXaXaXgXuXuXuXtXrXrXrXrX,Xa.a.,X,Xa.a.a.a.,X,XrXrXrXrXS.,Xa.L.L.a.a.s.d.s.uXkXkXkXkXkXkXVXjXiX9.Q ) w.pXjXlXlXVXjXpX1XS.aXjXVXkXkXkXkXkXkXkXkXkXkXkXkXkXVXkXkXkXkXkXkXkXkXkXkXjXjXjXkXkXjXkXjXaXyXyXyXyXyXyXyXyXyXyXyXiXyXyXyXiXi.d.i.aXfXfXfXdXfXfXfXfXfXdXdXdXjXdXjXkXkXjXkXdXaXyXs.0.s.<XiXiXiXyXiXiXiX<X1X1X1X1X1X1Xw.w.......w.K.@XK.K.K.K.w.2.1.d.a.UXa.u.y.s.p.p.p.a.a.a.p.p.p.p.p.p.p.p.a.a.UXrXrXiXiXrXiXiXiXiXtXtXtXtXiXuXa.i.rXrXiXuXrX",
"%.%.%.%.%.%.%.%.%.*.%.%.*.*.%.+.e w r r w w w 0 r r r r w w w w w r w r 0 2 6 w 3.4.6.4.5.4.e.4.e.e.e.e.6.4.3.=.&.&.&.&.&.=.=.=.=.=.=.=.=.&.+.+.+.u e e e e e w e e e e e e e e e e e e e e e e e e e e e e $.$.+.+.+.+.+.+.+.+.+.+.+.+.+.+.%.&.&.$.0 0 w e e +.u r r r r e e e w u e w u %.r o               . o 1 5 6 7 7 7 7 7 7 7 5 5 5 5 5 s o .     o u :.:.u f.@.u u o       O t t u @.@.@.@.&.*.&.&.&.@.u u #.@.@.@.i i l 1.6.u.u.d.1.l O                             o o o o .                             . 7 i :.:.i i i :.p i p :.i i i i i i i i i :.:.:.i i i i i i i i @.i i i i i :.:.p           # 3.6.u.y.y.y.u.u.u.u.u.u.u.s.p.p.p.p.p.p.p.p.p.p.p.p.p.p.p.p.p.p.p.p.i.i.i.i.p.p.i.i.,XrXtXtXtXtXtXtXtXtXtXtXuXtXtXtXtXtXtXtXtXtXtXuXuXaXaXfXfXfXfXfXfXaXuX,XL.L.,X,XL.L.L.a.7.7.i.a.a.a.,Xa.i.u.s.a.a.,X,X,X,XrXrXrXuXfXdXdXdXdXdXkXkXkXkXkXkXkXkXjXkXdXdXfXfXfXaXaXaXuXtXrXrXrXrX,X,Xa.S.,Xa.a.a.a.a.,XrXrXrXrXrXrXa.a.L.a.a.i.d.s.uXkXVXjXlXkXkXVXkXyX9.Q ) i.pXzXlXlXVXjXsX1XyXfXlXVXkXkXkXkXkXkXkXkXVXkXkXkXkXkXkXkXkXkXkXkXkXkXkXkXkXkXjXkXjXjXkXkXfXpXiXyXyXyXyXyXyXyXyXyXyXyXyXyXiXi.d.s.yXaXfXfXdXfXfXfXfXfXdXdXdXdXdXjXkXkXjXkXdXaXiXs.0.i.<XiXiXiXiXiXiXiXiXiX<X<X1X1X1Xw.w.....X.K.K.@XK.K.K.K.w.2.1.u.a.UXa.u.y.s.p.p.p.p.a.a.p.p.p.p.p.p.p.a.a.a.UXrXrXiXiXrXiXtXtXuXuXuXuXtXtXuXa.i.,XrXiXuXrX",
"%.%.%.%.*.*.%.%.*.%.*.%.%.%.+.+.e w r r 0 0 r w r r r w w w w w r w e w r 6 6 6 &.4.e.4.t.e.t.e.t.e.e.e.e.4.5.,.*.&.&.&.&.&.=.=.=.=.=.=.=.&.%.+.u e w w w w e u e e e e e e e e e e w w w w e e e e e e $.$.+.+.+.+.+.+.+.+.+.+.+.+.+.+.+.+.+.%.%.e 0 r w e e u e w r 0 r r e e e e e e u u r 6 o       .         . O o o s s 5 5 5 5 s s 1 o o O O       o @.@.@.@.f.@.@.u s       . 7 t u u @.@.@.@.@.&.&.&.@.y y y @.@.@.@.@.p :.6.u.u.u.2.7             o o                                                 O 7 i :.:.@.i :.i i i i i i i i i i :.:.:.i :.:.E i i i i i i i i :.:.:.i i i :.:.p i :.o         . i 7.d.y.y.y.y.y.u.u.u.u.u.s.p.p.p.p.p.p.p.p.p.p.p.p.p.p.p.p.p.p.p.p.p.p.i.p.p.i.i.i.a.rXiXtXtXtXtXtXtXuXtXtXuXuXtXtXtXtXtXtXtXuXtXtXuXaXaXfXfXfXfXfXaXuXiX<XUXrX,XrXL.L.,Xi.7.7.i.a.a.a.L.a.i.s.s.i.L.L.L.,X,X<X<X<XyXaXfXdXdXdXdXdXdXkXkXkXkXkXdXdXdXdXfXfXfXfXfXfXfXaXuXiXrX,X,XL.,X,XrXrXrXa.a.a.a.a.a.,XUXUXrXrXS.S.a.S.S.i.u.s.uXVXkXjXkXkXkXVXjXyXw.Q Q n.pXzXVXjXlXjXdXsXfXjXlXkXkXkXkXkXkXVXVXVXkXkXkXkXkXkXkXkXkXkXkXkXkXkXkXkXkXkXkXkXkXkXjXjXdXaXyXiXyXyXyXyXyXyXtXyXyXtXyXtXrXi.0.i.yXaXaXfXfXfXfXfXfXdXdXdXdXjXjXjXjXkXkXkXdXaX<Xw.0.i.<XiXyXyXyXyXyXyXyXiXiXyX<X1X1X@Xw.....H.K.@X@XK.K.K.K.i.2.8.u.a.UXa.u.u.p.p.p.p.p.a.p.p.p.p.p.p.p.p.p.p.a.rXrXrXrXrXtXuXtXiXiXL.L.rXiXuXiXrXp.a.rXiXuX,X",
"%.%.%.%.*.*.%.%.*.%.*.%.%.%.+.+.e w r r 0 0 0 w r r w w w w w w w e e e r 6 3 3 +.3.t.4.4.e.4.e.e.e.e.e.e.e.5.3.*.&.&.&.=.=.=.=.=.=.=.=.&.&.%.+.y e w w w w e u w w w w w w e w e e w w w w e e e e e e $.$.$.+.+.+.+.+.+.+.+.+.+.+.+.+.+.+.+.%.%.e 0 r w e e u e w r 0 r r e e e e e e u u e r 6 o                       . . . O O O O . . . .           o i @.@.@.f.@.@.i 5         7 y u u @.@.@.@.@.&.&.&.@.y y y @.@.@.@.@.p :.6.u.u.u.:.O           o 7 t o                                           o t i :.>.:.i i i p i i i i i i i i i i :.:.:.i :.:.E :.i i i i i i i i :.:.i i i l i i i :.o           7 5.r.y.y.y.y.y.u.u.u.u.u.u.s.p.p.p.p.p.p.p.p.p.p.p.p.p.p.s.p.a.a.i.i.i.i.i.i.i.i.i.i.<XiXtXtXtXtXtXtXuXtXuXuXuXuXtXtXtXtXuXuXuXtXtXtXuXaXaXfXfXaXuXyXrX,X,XrX,Xa.,XL.a.,Xi.7.2.s.a.a.a.L.a.i.s.w.i.a.L.L.L.a.L.,X<XiXaXfXdXdXdXdXdXdXkXkXkXdXdXdXdXdXdXfXfXfXaXaXaXfXaXuXtXrXrX,XL.rXrXrXrXa.a.a.a.a.a.a.a.rXrXrXUXS.a.a.S.S.i.u.s.uXVXkXkXkXkXkXVXkXpXw.Q Q i.pXzXlXkXVXkXjXjXjXkXlXkXkXkXkXkXVXVXkXVXkXkXkXkXkXkXkXkXkXkXkXkXjXkXjXjXkXkXjXjXkXjXjXjXdXaXyXyXyXyXyXyXyXyXyXtXyXyXtXtXrXi.0.i.yXaXfXfXfXaXaXfXfXdXdXjXjXjXjXjXjXkXkXkXdXaX<Xw.d.i.<XiXiXyXiXiXyXiXiXiXiXiX<X<X1X@Xw.w.X.K.@X@XK.K.w.w.K.w.2.8.u.a.UXa.y.y.p.p.p.p.p.p.p.p.p.p.p.p.p.p.p.p.UXeXa.rXiXiXa.u.2.p 8 9 8 = N i.tX,Xi.L.,XrXuXrX",
"%.%.%.%.%.*.%.%.*.*.%.%.%.%.+.+.e w 0 r 0 0 r w r w w w w w w w e e e e r 0 3 3 w *.4.4.4.4.4.e.e.e.e.e.e.e.4.5.,.=.&.&.=.=.=.=.,.=.=.&.&.%.+.+.y e w w w w w w w w w w w w w w e e e w e e e e e e e e $.$.$.+.+.+.+.+.+.+.+.+.+.+.+.+.+.+.+.+.+.e 0 0 w w u u u e r r 0 r w e e e e e e u u e e 6 o                                                     o u @.@.@.@.:.:.@.7 .       5 t u u @.@.@.@.@.&.&.@.#.t y y u @.@.@.@.p E 7.6.u.6.7           . 7 t p 7                                     o t i :.i :.i p p p i i i i i i i i i i i i i :.:.i i :.:.:.:.:.i i i i i i i :.@.i i i l :.i i :.7           O :.6.y.y.y.y.y.u.u.u.u.u.u.u.s.p.p.p.p.p.p.p.p.p.p.p.s.i.i.i.i.i.s.w.i.i.L.<X1X1Xi.i.<XiXtXtXtXtXtXuXuXtXtXtXtXtXtXtXtXuXuXtXtXtXiXiXuXyXrX,Xi.0.2.<.1.u.L.rX,Xa.L.L.a.a.i.7.2.s.a.a.a.a.a.i.w.w.s.i.i.i.i.i.i.i.L.<XgXfXdXdXdXdXdXdXkXkXkXdXdXdXdXdXdXdXfXaXaXaXaXaXuXuXiXrXrX,X,XrXrXS.a.S.a.a.S.rXS.rXrXa.a.UXUX,XrX,XS.S.a.u.u.uXkXVXkXkXkXkXVXkXaXS.Q Q w.sXzXlXkXVXkXlXlXkXkXkXkXkXkXkXkXkXkXkXkXkXkXkXkXkXkXkXkXkXkXkXkXkXkXkXkXkXkXjXjXjXjXjXjXdXsXyXyXyXyXyXyXyXyXyXyXyXyXyXyX<Xi.0.i.pXfXfXaXaXaXaXfXfXdXjXjXjXdXdXjXkXkXkXkXdXpXS.w.w.i.rXtXiXtXiXiXyXyXiXiXiXiXyX<X1X1Xw.w.X.K.@X@XK.w.w.w.K.w.1.1.u.a.rXa.d.y.p.p.p.p.p.p.a.p.p.p.p.p.p.p.p.p.p.eXrXrXs.2.N 8 9 M N M M N N W tX,Xi.L.rXtXuXL.",
"%.%.%.%.%.*.%.%.*.*.%.%.%.%.+.+.e w 0 0 0 0 r w r w w w w w w w w w e e w r 6 2 6 +.3.4.4.4.4.e.e.e.e.e.e.e.4.4.3.>.=.&.=.=.=.=.,.=.=.&.&.%.u u e e e e w w w w w w w w w w w w e e e e e e e e e e e e e $.$.+.+.+.+.+.+.+.+.+.+.+.+.+.+.+.+.+.+.w 0 r e e u u u u w r 0 r w e e e e e e e e e w w 6 o                                                   O p @.@.@.@.:.:.:.t .       o q u @.@.@.@.@.@.@.&.@.@.y y y u @.@.@.@.p i 7.r.u.7.o           o t 7 t t o                         . O 7 7 i :.i p p :.p i i i i i i p i i i i i i i i i i i :.i i :.:.:.:.:.:.i i i i i i @.i i i i i i :.p :.t             q 4.r.y.u.y.y.y.y.u.u.u.u.u.s.p.p.p.p.p.p.p.p.p.s.s.s.i.<X1X<Xi.w.w.w.1X1X5X5X1X1X1X<XiXtXtXtXtXtXuXuXtXuXtXtXtXuXuXtXtXtXtXtXtXiXiXrXa.0.N 9 8 = = 8 N 2.a.,XL.a.a.a.a.i.2.1.u.i.a.a.a.i.i.w.w.w.w.w.w.w.w.i.i.i.<XyXaXfXdXdXdXdXdXkXkXkXdXdXdXdXdXdXdXdXfXaXgXuXuXuXtXiXrXrX,X,X,X,X,Xa.a.a.a.,XrX,XrX,Xa.a.UXUXrXrX,X,X,Xa.u.u.iXdXkXjXkXkXkXkXkXfXS.8.Q i.sXVXzXkXkXkXjXkXjXjXkXkXkXkXkXkXkXkXkXkXkXkXkXkXkXkXkXkXkXkXkXkXkXkXkXkXjXjXjXjXjXjXjXjXdXfXpXyXiXyXyXyXyXyXyXyXyXyXyXyX<Xi.0.i.pXfXaXaXaXaXfXfXdXdXjXdXdXdXdXjXkXkXkXkXdXpXS.0.w.a.rXyXiXtXiXiXyXiXiXiXiXiXyXyX1X1Xw.w.w.K.@X@XK.w.w.K.K.w.1.1.u.a.UXa.d.d.p.p.p.p.p.p.p.p.p.p.p.p.p.p.p.p.L.a.u.1.N 8 M W N N M M M ~ M N a.a.i.a.a.rXuXrX",
"%.%.%.%.%.*.=.%.*.*.*.%.%.%.+.+.e w 0 0 r r r w r r r w w w w w e w w w w r 0 6 6 e ,.4.4.4.4.e.e.e.e.e.e.e.t.4.3.>.=.&.=.=.=.=.=.=.=.&.&.+.u e e e e e e w w w w w w w w w e w e e e e e w w e w w w e e $.$.$.+.+.+.+.+.+.+.+.+.+.+.+.+.+.+.+.+.w 0 r w e e u u u e r 0 r w e e e e e e e e e e e e 6 o O                                               O t @.@.@.i :.@.:.t O       o q y @.@.@.@.@.@.@.&.@.u y y y u @.@.@.@.u u 5.u.d.5.O           7 p t y t 7         . o o o 5 7 7 t i :.:.i p i :.:.:.i :.:.:.i i p p p i i i i i i i i i i i :.i i i :.:.:.:.:.i i i i i i i i i i i i i :.p i i O           o 3.r.y.y.y.y.y.y.y.y.u.u.u.s.p.p.p.p.p.p.p.p.s.s.i.L.1X1X5X5X1X@Xw.K.1X5X5X5X5X1X1X1X<XyXtXtXtXtXtXtXtXuXtXtXtXtXuXuXtXtXtXiXtXtXiXL.7.p 8 8 8 8 8 = 8 9 u.a.,Xa.a.a.a.i.2.8.u.i.a.i.i.i.w.w.w.w.w.w.0.w.w.w.w.i.L.yXaXfXdXdXdXdXdXdXdXdXkXdXdXdXdXdXdXdXfXfXaXuXuXuXtXiXrXrXrX,X,XL.S.a.,XrXa.,Xa.a.rX,Xa.a.eXa.rXrX,XrX,Xa.s.u.rXdXVXjXkXkXkXkXlXjX<X8.Q i.sXVXkXkXjXjXkXlXlXkXkXkXkXkXkXkXVXkXkXkXkXkXkXkXkXkXkXkXkXkXkXkXkXkXkXjXjXjXkXjXkXjXjXjXjXfXaXyX<XyXyXyXyXyXyXyXyXyXyXyX<Xi.0.i.yXaXaXaXaXfXfXdXdXjXjXjXdXdXdXjXkXkXkXkXfXyXi.0.u.S.iXiXiXtXiXiXiXiXiXiXiXiXiXiX1X1Xw.w.K.@X@X@Xw.w.w.K.K.w.2.8.u.a.UXp.d.d.s.p.p.p.p.p.a.p.p.p.p.p.p.p.s.s.y.7.W N M N N M M M M M M M M W a.a.i.a.a.iXgX,X",
"%.%.%.%.%.*.=.%.*.=.*.%.%.%.+.+.u w 0 0 r 0 0 r r r r w w w w w e e w w w w 0 6 6 0 &.5.4.4.e.t.4.e.e.e.e.e.e.4.3.,.=.&.=.=.=.*.=.=.=.&.&.+.u e e w w e e e w w w w w w w w e w e e e e e w w w w e w e e $.$.$.+.+.+.+.+.+.+.+.+.+.+.+.+.+.+.+.+.w r w e e e u u u e r 0 r r e e e e u e e e e e e e e r 2 o O                                           O t @.@.i i :.@.:.p O       O q t @.@.@.@.@.@.@.@.@.u y w y u @.@.@.@.u u 5.u.d.5.O         . t p p p t t         O t p i :.:.i i i i i i @.@.i i p p i p p p i i i i i i i i i i i i i i i i i i i :.:.:.:.:.:.i i i i i i i i i i i i i p i i o             &.e.y.y.y.y.y.y.y.y.y.u.u.u.s.p.p.p.p.p.s.s.u.i.<X1X5X5X5X5X5X5X@X@X5X5X5X5X5X5X1X1X1X<XtXyXyXtXtXtXtXuXtXuXtXtXuXuXtXtXtXtXiXtXiXi.<.8 9 8 8 8 8 : = : <.i.,Xa.a.a.a.s.2.1.u.i.i.i.i.w.w.0.0.0.w.w.0.w.w.w.w.w.L.<XpXaXdXdXdXdXdXdXdXdXkXdXdXdXdXdXdXdXdXfXaXuXuXuXtXiXiXrXrX,X,XL.a.a.,XrXL.,Xa.a.rXS.a.eXUXa.rXrX,X,XS.a.i.u.,XdXVXkXkXkXkXkXlXkXyX9.Q i.fXVXlXlXjXjXkXkXkXkXkXkXkXkXkXkXkXkXkXkXkXkXkXkXkXkXkXkXkXkXjXkXkXkXjXjXjXjXkXjXkXjXjXjXjXdXsXpXyXyXyXyXyXyXyXyXyXyXyXyX<Xi.9.i.pXfXfXfXfXfXdXdXjXkXkXjXdXjXdXjXkXkXkXkXfXyXi.0.u.S.rXtXiXtXiXiXtXiXiXiXiXiXiX<X1X@Xw.w.K.@X@XK.X.w.w.K.K.w.2.8.u.a.eXp.d.d.p.p.p.p.p.p.a.p.p.p.p.p.p.p.d.7.<.N M M M M M 9 N M N M M M N W a.a.i.a.,XiXiXd.",
"%.%.%.%.&.*.=.%.*.=.*.&.%.%.+.+.u w r 0 0 0 0 0 r r r r w w w w w e e w w w r 6 6 6 +.3.5.4.e.4.4.e.e.e.e.e.e.4.5.3.=.=.=.=.=.*.&.&.&.&.%.u u e e e w w w e w q e w w w w w w w w w e e w w w w w w e e e e e $.+.+.$.$.+.+.+.+.+.+.+.+.+.+.+.+.$.w r w e e e u u u u r r r r e u e e e e e e e e w e e e w 6 2 o O .                                     . t i @.i i :.i :.:.o       . 0 y @.@.@.@.@.@.@.@.@.u y w y u @.@.@.@.y u 3.r.r.6.o         O t p p t t t O         t p p i i i i i i i i i i i i :.:.:.i i :.:.i i i i i i i i i i i i i i i i i i :.:.:.:.:.:.:.i i :.i i i @.i i i i i p i i 7             3 5.y.y.y.y.y.y.y.y.y.u.u.u.s.p.p.p.p.p.s.s.w.L.1X5X5X5X5X5X5X5X5X5X=X=X:X:X5X5X1X1X1X1XyXyXyXuXtXuXtXuXtXuXtXuXtXtXtXtXtXtXiXtXrXu.p a : 8 8 8 9 8 : = 9 d.a.a.a.a.a.s.2.8.u.s.i.w.w.w.0.0.0.0.0.| 9.9.0.w.w.w.i.<XyXaXfXdXdXdXdXdXdXdXdXdXdXdXdXdXdXdXdXfXaXuXuXuXtXtXiXrXrXrXrX,Xa.a.rXrXrXrXa.a.a.,XrXrXrX,X,XrX,X,X,X,Xp.d.i.aXkXkXkXkXkXkXlXlXpXw.Q w.fXlXlXVXjXlXkXjXjXkXkXkXkXkXkXkXkXVXkXkXkXkXVXVXkXkXkXkXkXkXjXjXkXkXjXjXjXjXkXjXkXjXjXjXjXdXsXpXyXyXyXyXyXyXyXyXyXyXyXyX<Xi.9.i.pXfXfXfXdXdXjXjXjXjXjXjXdXjXdXkXkXkXkXkXdXyXi.0.u.<XiXtXiXtXiXtXtXiXiXiXiXiXiX<X1X@Xw.K.@X@X@XK.X.w.w.K.K.w.2.8.u.a.eXp.d.d.p.p.p.p.p.a.a.p.p.p.p.p.u.0.1.W N M 9 M M M M M M 9 M M N M M W L.L.i.s.2.1.1.= ",
"%.%.%.%.%.*.=.%.*.=.*.&.%.%.+.+.u w r 0 0 0 0 0 0 0 r r w w w w r e e e e w r 0 6 2 w *.3.4.e.4.4.t.e.e.e.e.e.4.4.3.>.=.=.=.=.*.=.&.&.&.+.u u e e e w w w w w q e e w w w w w w w w e e w w w w w w w e e e e $.+.$.$.$.$.+.+.+.+.+.+.+.+.+.+.+.e w r w e u u u e u u r r r r e u e w e e e e e e e e e e e r 0 6 2 1 o o O O O O O O o o o O O O O       . t u @.@.i >.i :.:.o         7 q @.@.@.@.@.@.@.@.@.u y q y y @.@.@.@.u @.>.6.6.u.7         o 7 p i t t t o         5 i i i i i i i i i i i i i :.i p i i i :.i p i E i i i i i i i i i i i i i i i :.:.:.:.:.:.:.:.i :.i i i @.@.i i i i i i i 7             . &.y.y.y.y.y.y.u.u.y.u.u.u.u.p.p.p.p.p.s.s.i.1X1X5X5X5X5X:X5X=X=X=X=X=X=X:X=X=X1X1X1X1XyXyXyXuXuXuXuXuXtXuXuXuXtXtXtXtXiXuXtXiXrX2.8 a 9 9 8 8 8 8 : = : 7.i.a.L.a.i.s.2.8.u.w.w.w.w.0.0.0.0.0.| | | | 0.0.w.w.i.<XyXpXfXfXdXdXdXdXdXdXdXdXdXdXdXdXdXdXdXfXaXuXuXuXyXtXiXiXrXrXrX,Xa.a.rXrXrXa.a.a.,XrXrXrXrX,X,X,X,X,X,X,Xi.r.s.aXdXdXlXkXkXkXkXVXaXi.Q w.fXlXlXVXjXlXVXkXkXkXlXkXkXkXkXkXkXkXkXkXkXVXVXVXkXkXkXkXkXkXjXjXkXjXkXjXjXjXjXjXjXjXjXjXjXdXdXsXpXyXyXyXyXyXyXyXyXyXyX<X<Xi.w.S.pXfXdXdXdXjXkXkXkXjXdXdXdXdXdXkXkXkXkXkXdXyXs.0.s.<XiXtXiXiXiXtXtXiXiXiXiXiXiX<X1Xw.K.K.@X=X@XK...w.w.K.K.w.2.1.u.a.a.p.d.d.p.p.p.p.p.a.a.p.p.p.p.u.6.1.N 9 9 9 9 9 9 9 9 M 9 M M M M N W 1.0.2.W W 9 9 W 9 ",
"%.%.%.*.*.*.%.%.%.%.%.%.%.%.%.%.u w r 0 0 0 0 r r r r r r w w w w w e e e w r r 6 6 6 #.3.4.5.5.4.4.6.6.e.6.6.6.4.3.,.*.*.*.*.=.=.&.&.+.u u e e e e w w w e e e e e q w w w w w w w w w w e w w w w w e e e $.$.$.+.+.+.+.+.+.+.+.+.+.+.+.+.+.+.w 0 0 w e u u u u u u w r r r r e e e e e e e e e e e e e e w w r r 6 3 2 2 3 3 3 3 3 3 2 3 3 3 2 5 o     . q @.:.i @.:.i :.@.7         3 t u @.@.@.@.@.@.@.u u q q w y u @.@.@.u u >.7.6.u.:.        O 7 p t p t t s         O p :.p i i p :.i i i i i i i i i i i i i i i i i i i i i @.@.i l :.:.:.:.i i i i :.:.i i i i i i i i :.i i i i i i i i i p p               o 6.r.y.y.u.u.y.y.u.y.u.u.u.s.s.s.s.s.w.i.K.1X5X5X5X5X:X:X:X=X=X=X=X=X=X=X=X5X5X5X5X5X1X1XyXuXuXuXuXuXtXtXtXtXtXtXtXtXiXtXtXiXi.N 9 8 8 8 8 8 : = = = 8 1.s.L.a.a.a.s.1.2.0.w.w.0.0.0.] 0.0.| 0.| | 0.| | 0.w.w.<X1XpXaXaXfXdXdXdXdXdXdXdXdXdXdXdXdXdXdXfXaXuXuXuXuXyXiXrXrXrXrXrX,X,Xa.S.S.,Xa.eXeXeXrXrXUX,XS.S.a.a.,Xa.a.u.u.uXdXdXkXdXdXVXkXkXjX<X2.i.fXVXkXlXjXlXkXkXkXkXkXkXkXkXkXkXkXkXkXVXkXkXVXVXVXjXjXjXjXjXjXjXjXjXjXjXjXjXjXjXjXjXjXjXjXdXsXsXsXyXyXyXyXyXyXyX1X1X1X1X<Xw.w.<XaXdXjXdXdXjXkXjXdXdXfXfXdXdXdXjXkXkXkXVXdXyXs.0.s.<XiXiXiXyXiXiXiXiXiXiXiXiXyX1X1Xw.w.@X@X=X@XH...w.w.w.i.w.2.1.u.a.rXp.d.r.s.p.p.a.a.p.p.p.p.p.s.0.1.N 9 9 8 8 8 : 8 8 8 8 9 9 M M M M M M N M M N M M M M ",
"%.%.%.*.*.*.%.%.%.%.*.%.%.%.%.%.u w w 0 r 0 0 r r r r r r r w w w w e w e w r r 6 6 6 e >.5.5.5.4.4.6.e.e.e.6.6.4.5.,.*.*.*.*.*.=.&.&.+.u u e e e e e w w w e e w e e y y y y e w w w w w e w w e e e e e e $.$.$.+.+.+.+.+.+.+.+.+.+.+.+.+.+.+.w w w w e u u u u +.u w r 0 r r e e e e e e e e e e e e e e w w w r r 0 6 6 6 6 3 6 2 6 6 6 6 6 6 6 o     . 0 @.@.i @.:.i :.@.7         o t u @.@.@.@.@.@.@.u y q q y y u @.@.@.u y :.5.6.u.3.o         5 p p t t t 7 O         t :.i i i i :.i i i i i i i i i i i i i i i i i i i i i @.i :.l :.:.:.:.:.:.:.:.:.:.i i i i i i i i :.@.i i i i i i i i u i o             O :.6.y.y.u.u.y.y.y.u.u.u.y.u.u.u.s.i.K.K.@X@X=X=X=X=X:X:X=X=X=X=X=X=X=X=X=X5X5X5X5X5X5X1XyXyXuXuXuXuXuXuXuXuXuXtXtXtXtXtXtXrXu.9 8 8 8 8 8 : : : = = * W s.a.a.a.a.u.2.2.0.0.0.0.] ] ] | 0.| 0.| | | | | 0.w.w.<X<XyXyXaXaXfXfXfXdXdXdXdXdXdXdXdXdXfXdXfXaXaXaXaXaXyXiXrXrXrXrXrX,Xa.a.S.S.,Xa.eXeXeXrXrXa.,X,XrXa.a.,Xa.,Xs.u.yXdXkXdXkXdXVXkXkXkXpXi.<XdXVXjXVXkXVXkXkXkXkXkXkXkXkXkXkXkXkXkXkXkXkXkXkXkXkXkXjXkXkXjXjXjXjXjXjXkXkXjXjXjXjXjXdXjXjXsXsXsXpX5X1X1XyXpXpXpX5X1X1X<Xw.w.<XaXdXjXdXfXdXjXdXdXfXfXfXdXdXdXdXjXkXkXVXdXyXs.0.s.<XiXiXiXyXiXiXiXiXiXiXiXiX<X1X@Xw.K.@X=X@XK.X.X.w.w.i.i.w.1.<.d.a.a.p.d.6.u.s.p.a.p.p.p.p.p.u.r.1.N 9 8 8 8 : : : : : 8 8 8 9 9 M M M M M M M M M M M M M ",
"%.%.%.%.*.*.%.%.%.%.%.*.%.%.%.%.+.e w r r 0 0 r 0 r r r r r w w w w w w w w w w r 6 2 0 &.3.5.5.4.4.6.e.e.e.6.6.4.5.3.=.*.*.=.*.&.&.&.+.u e e w e e e e w w w w w w e w y w w w w w w w e e e w e e e e e $.$.$.$.$.+.+.+.+.+.+.+.+.+.+.+.+.+.$.0 w w e u u u u u +.u e r 6 r r e e e e e e e e e e e e e e e e e w r r r r r r 0 0 r r r r r r e q 3     . 7 @.@.i @.@.i :.:.t O       O t u @.u @.@.@.@.@.y y t t y y u @.@.@.@.y &.5.6.u.7.7         O 7 p p p t 7 o         5 i :.i i @.:.i i i i i i i i i i i i i i i i i i i i i i l i l i i i :.:.:.:.:.:.:.i i i i i i i i i @.i i i i i p i i i :.7               7 6.d.d.y.u.u.y.y.u.u.u.y.u.w.i.K.L.1X1X=X=X=X=X=X=X:X:X=X=X=X=X=X=X:X:X=X=X5X5X5X5X5X5X1XyXyXyXyXuXuXuXuXuXuXuXuXuXuXuXtXrX2.9 8 8 8 8 : : : : = * * W s.a.a.a.s.0.2.2.2.2.2.! ] ] ] ] ] | 0.| | | | 0.w.w.L.1X1X<X1XyXpXaXaXaXaXaXsXsXsXfXfXfXdXdXfXaXaXaXaXaXaXyXiXiXrXrXrXrX,Xa.a.a.S.,XL.UXUXeXa.a.a.a.rXrXrXrX,XL.,Xs.u.yXdXkXdXVXkXkXkXkXVXdXpXpXjXlXjXVXkXkXkXkXkXkXkXkXkXkXkXkXkXkXVXVXVXVXkXkXkXkXkXkXjXjXjXjXjXjXjXkXkXjXVXVXVXjXjXjXhXhXcXhXsX4X4X1X1X5XsXsXsXsXpX1X1Xw.w.1XsXjXjXfXsXfXfXfXfXfXfXfXdXdXdXdXjXjXjXVXdXpXs.0.i.<XiXiXiXyXiXiXiXiXiXiXiXiX<X<X1Xw.K.@X@X@XK...w.w.w.L.i.w.2.<.d.a.,Xp.d.6.u.s.p.p.p.p.p.p.s.r.1.N 9 8 : : : : : : : : : : 8 8 8 9 9 M M M M M M M M M M M ",
"%.%.%.&.&.&.&.%.%.%.%.%.&.%.%.%.+.e w r r 0 0 r 0 r r r r w w w w w w w w w w e r 6 2 6 +.3.4.5.4.4.6.e.6.6.6.4.4.5.3.,.*.=.*.*.&.&.+.u u e e w e e e e w w w w w w e w w w w w w w e e e e e w e e e e $.$.$.$.+.+.+.+.+.+.+.+.+.+.+.+.+.+.$.e 0 w e u e e u +.u +.+.e r 6 0 r w e e e e e e e e e e e e e e e e e w w r r r r r r r r r r r r e w 5 .     7 @.i i @.@.i :.:.u o       . q u u u @.@.@.@.@.y y t y y y u @.@.@.@.y @.1.6.u.6.i o         O 7 t p t t o         O t :.i i :.:.i i i i i i i i i i i i i i i i i i i i i i N i i i i i :.:.:.:.:.:.:.i i i i i i i i i @.i i i i i p i i i i t               o 1.6.6.y.u.u.y.y.u.w.w.w.i.K.1X1X5X5X=X=X=X=X=X=X=X:X:X=X=X=X=X:X:X:X:X=X:X=X5X5X5X5X5X1X1X1XyXyXyXuXuXuXuXuXuXuXyXtXtXtXL.W a 8 9 : : : : : : = * = W u.a.a.a.u.2.~ W W ~ ~ ~ ! ] ] | ] ] 0.] | | 0.0.w.w.L.1X<X<X<X<X<X1X1X1X<X<X<X<X<X1X1X1X1XyXpXaXaXaXaXaXaXyXiXiXrXrXrXrX,XL.UXUX,XrXL.UXS.S.a.a.a.a.rXrXrXrX,XL.,Xp.s.tXdXkXkXVXkXkXkXkXVXkXjXjXlXlXjXlXkXkXkXkXkXkXkXkXkXkXkXkXkXVXVXVXVXVXkXkXkXkXkXkXjXjXjXkXkXjXjXjXjXjXVXCXvXhXhXhXcXcX0X0X0X4X4X5X1X5X4XsXcXhXsX5X1Xw.w.1XsXjXjXsXaXsXsXsXsXfXfXfXfXdXdXdXjXjXjXVXkXpXi.w.i.<XrXiXiXiXiXiXiXiXiXiXiXiX1X1X1Xw.K.@X@X@XK.X.w.w.w.L.i.u.2.1.u.a.,Xp.6.7.d.u.p.p.p.p.p.u.0.1.N 9 8 : : : : : : : : : : : : : 8 9 9 9 M M M M M M 9 M M M ",
"%.%.%.&.&.&.%.%.&.&.&.&.&.%.%.%.+.e w r 0 0 0 0 0 r r r r w w w e e w w w e e e w 0 2 2 w *.5.4.4.4.4.e.e.6.4.4.t.5.3.,.*.*.*.*.=.&.+.u u y e e e e e e e w w w w w w w w w w e w w e e e e e w e e e e $.$.$.$.$.$.+.+.+.+.+.+.+.+.+.+.+.+.$.w 0 w $.e e e u +.u +.+.u r 6 6 r e e e e e e e e e e e e e e e e e w w w w w r r r r r w w w w w u y 6 .     5 @.i i @.@.i :.:.@.5         0 t u u @.@.@.@.@.u y t y y u u @.@.@.@.y i <.6.u.6.:.7 O         . o 7 7 7 7 O         7 :.i p i i i i i i i i i i i i i i i i i i i i i i i i @.:.:.i i i :.:.:.:.:.:.:.:.i i i i :.l :.@.i i i i i i i @.i i i @.O               t 7.0.y.y.u.u.w.i.i.L.1X1X1X5X5X5X=X=X=X=X=X=X=X:X=X=X=X=X=X:X:X:X:X:X=X=X=X:X:X:X5X5X5X5X1X1XyXyXyXuXuXuXuXuXuXuXiXtXiXi.N 8 8 8 : : : : : : : : : W u.a.a.s.2.W M M n n n m T ] ] ] ] ] 0.| ] w.w.w.w.K.1X1X1X1XL.L.w.w.w.0.0.0.0.0.0.0.0.w.w.w.i.<XyXaXaXaXaXyXiXiXrXrXrX,X,XL.UXUXUXUX,XrXrXrXa.a.rX,XrX,X,XrX<XL.L.i.s.iXdXVXkXVXkXkXkXjXkXVXlXjXlXkXkXlXlXlXkXkXkXkXkXkXkXkXkXkXkXVXVXVXVXVXkXkXkXkXkXkXjXjXkXjXdXjXjXjXjXjXjXhXsXhXsXcX0X0X0X0X0X0X4X:X=X=X4X0XcXcX4X5Xc. .q.1XsXvXvXsXsXsXsXsXsXfXfXdXdXjXdXjXjXkXkXVXkXpXi.s.a.rXrXiXiXiXiXiXiXiXiXiXiXiX<X1X1XK.@X@X@XK.w.w.w.w.i.L.i.u.1.<.u.a.L.s.7.1.1.6.u.s.s.p.s.y.1.N 9 : : : : : : : : : : : : : : : 8 8 9 M M M M M M M M M M M ",
"%.%.&.&.&.&.%.%.&.&.&.&.&.%.%.%.+.e w r 0 0 0 0 0 r r r r w w w r e e w w e e e w r 6 2 r &.3.5.5.4.6.e.e.6.4.4.t.5.3.,.*.=.*.*.=.&.+.u e e e e e e e e e e e w w w w w w w e e w e e e e e e e e e e e $.$.$.$.$.$.+.+.+.+.+.+.+.+.+.+.+.+.e w w w $.+.e u u u u u +.u r 6 6 r e e e e e e e e e e e e e e e u e e e e e w w r e e e e e e e e e e 0 .     s @.i @.@.i @.@.:.:.7         5 t @.u @.@.@.@.@.u y q y y u u @.@.@.@.t u <.6.u.6.<.u o O           . O o o .         o p :.i i i i i i i i i i i i :.i i i i i i i i i i i i E E E i :.:.:.:.:.:.:.:.:.:.i i i :.:.l @.@.i i i i i i @.:.i @.i :.7               o 2.0.u.u.w.i.K.1X1X1X1X5X5X=X=X=X=X=X=X=X=X=X=X=X=X=X=X:X:X:X:X:X:X:X=X=X=X=X:X:X5X5X5X5X5X5X1X1XyXyXuXuXuXuXuXuXtXtXiXu.p 8 8 : : : : : : : : * = 1.s.a.i.0.W 9 : : , , : : n T ] ] | | 0.| | 0.w.w.w.K.K.K.w.w.w.w.0.] ] ] ] ] ] ] ] ] ] 2.0.0.0.w.L.iXuXaXuXtXiXiXrXrXrX,X,XL.UXUXrXUX,XrXUXS.eXa.UXrXa.,X,X,X<X,XL.a.s.iXdXVXkXkXkXkXVXkXkXVXkXkXkXkXlXlXlXlXlXkXkXkXkXkXkXkXkXkXVXVXVXVXVXVXkXkXkXkXkXkXkXjXdXjXjXjXjXjXjXhXsXsX0X0X8X0X0X0X0X9X0X0X0X>X:X+X>X6X0X0X4X5Xc.|  .1XsXvXvXsXsXsXsXsXdXdXdXdXjXjXdXjXjXkXjXVXdXpXi.i.<XiXiXiXiXiXiXiXiXiXiXiXiXrX<X<X<X1X1X1X@XK.w.w.w.i.i.L.i.u.1.1.u.a.a.s.2.<.E 1.7.u.s.s.y.2.N 9 : : : : : = : : : : : : : : : : 8 8 9 9 M M M M M M 9 M M 8 ",
"%.%.&.&.&.&.%.%.&.&.&.&.%.%.%.%.+.e w w 0 0 0 0 0 r r r r r w w r r e w w e e e w w 6 2 6 +.3.5.5.5.4.e.e.6.4.4.4.5.3.,.*.*.*.*.=.&.+.u e w w e e e e e e e e e w w w w w w e e w e e e e e e e e e e e $.$.$.$.$.$.+.+.+.+.+.+.+.+.+.$.$.$.e w w e +.e u u u u u u +.u r 6 6 r w e e e e e e e e e e e e e e u e e e e e e e e e e e e u u u u u y e O     o u i @.@.@.@.@.@.:.t .       o t u u u @.u @.u y y y y y y u u @.@.u y u <.6.u.6.:.p 7 o O .                         . 7 i i i i i i i i i :.:.:.i :.:.@.i i i i i i i i i E E E E :.:.:.:.:.:.:.:.:.:.:.:.i i :.:.@.E i i i i i i i :.:.i :.@.:.u               . N 2.u.s.L.L.@X1X1X1X=X=X=X=X=X=X=X=X=X=X=X=X=X:X=X=X:X:X:X:X:X:X:X:X:X:X:X:X=X:X:X:X5X5X5X5X5X1XyXyXyXyXyXyXuXyXyXtXrX2.9 9 : : : : : : : : * * 8 1.i.a.u.W 8 8 : : : : : : , n T ] ] | | | 0.0.| w.w.w.w.w.w.0.] ] ] ] ] ] | | ] ] ] 0.0.0.0.0.0.0.0.i.yXuXtXtXiXiXiXrXrX,X,X,XS.,XrXrXrXrXeXeXUXrXrXrXa.a.a.,X,X,XL.a.i.rXdXVXkXkXkXkXkXkXkXVXkXVXkXkXVXkXkXkXlXkXkXkXkXkXkXkXkXkXkXkXkXkXkXkXkXkXkXkXkXkXkXkXkXjXjXjXjXhXhXhXsX4X8X8X0X0X0X9X0X9X9X9X9X>X>X-X>X9X0X0X4X:XX./ | @XsXvXvXsXsXsXsXsXjXjXdXjXjXjXjXjXjXkXjXVXdXuXS.i.<XiXiXiXtXiXiXiXtXiXiXiXiXrXiX<X1X1X1X1X@XK.w.w.w.i.i.L.i.u.1.1.u.a.i.r.<.N N W 1.0.u.y.1.W 9 8 : : : : : : : : : : * : : : : : : 8 8 9 9 9 9 9 9 9 9 M 9 8 ",
"%.%.&.&.&.&.%.%.%.%.%.%.%.%.%.%.+.e w w r 0 0 0 0 r r r r r w w r r e w w e e r w w 0 2 6 u ,.4.5.5.4.e.e.6.4.5.4.5.3.,.*.*.*.*.&.&.+.u w w w w e e e e e e e e e w w e w e e $.w e e e e e e e e e e e $.$.$.$.$.$.+.+.+.+.+.+.+.+.+.$.$.$.e w w $.+.e u u u u u u u u r 6 6 r w e e e e e e e u u e e e e e u e e e e e e e e e e e e u u u u u u y o     o t i @.i @.:.i i :.i O       o q y u u u u u u y y y y y u u u @.@.@.y u :.6.u.7.:.p 0 7 o O .                         5 i i i i i i i i i :.:.:.:.:.:.:.i i i i i i i i i E E E E :.:.:.:.:.:.:.:.:.:.:.:.i :.:.:.i l i i i i i i @.:.@.u :.i u :.O               8 2.s.L.1X1X@X5X=X=X=X=X=X=X=X=X=X=X=X=X=X=X=X:X:X:X:X:X:X:X:X:X:X=X:X:X:X:X:X:X:X:X5X5X5X5X5X1X1X1XyXyXyXyXuXyXtXtX,X1.9 8 : : : : 8 8 : : * * 8 7.i.s.2.9 : 8 8 : : : : : : , U ! | ] ] 0.0.| | w.w.w.w.w.0.| ] ] ] ] | 0.] ] | ] 0.0.0.w.0.0.! ~ n ~ a.iXrXiXiXiXrXrXrX,X,X,XS.,X,X,X,XeXeXeXrXrXrXrXa.a.a.,X,X,X,Xa.i.,XdXVXkXkXkXkXjXkXkXkXkXkXjXkXVXVXVXVXlXlXkXkXkXkXkXkXkXkXkXkXkXkXkXkXkXkXkXkXkXkXkXkXVXVXjXjXjXhXhXsX4X4X8X8X9X0X9X9X9X9X9X9X9X9X>X;X>X9X0X9X7X:XX.H { @XsXvXcXsXsXsXsXhXjXjXjXjXjXjXjXjXjXjXjXVXdXpXS.i.<XiXrXiXtXtXiXtXtXiXiXiXiXrXiX<X1X1X1X1X@Xw.w.w.w.i.i.L.i.w.1.1.u.i.s.2.N 9 N N W 2.0.2.W 9 8 8 : : : = : : = = = * * * : : : : : : 8 8 9 9 9 9 9 9 9 9 9 : ",
"%.%.%.%.%.%.%.&.%.%.*.%.%.%.%.%.+.u w r r r r r r r 0 0 0 w w w r r r e e e e e r e r 6 6 w *.5.5.4.4.4.6.e.6.4.4.5.3.>.=.=.=.&.&.&.u u e w w w e e e e e e e e e e e e e $.$.$.$.$.$.$.e e e e $.e e e e e e e e e $.+.+.+.$.$.+.+.+.+.e e w w e e e u +.+.+.u u +.+.u r 6 3 r r e e u e e e e e e e e e e u u u u y y u u u u u u u u u u +.%.%.%.y 1       t i i i i @.i i i i o       . 0 y u u y u @.u y y y y u u +.@.@.@.@.y u >.7.r.5.@.t 0 7 5 o o O .                     O t p E p i i i i i i i :.:.i i i i E l i i l l l l E E E E &.:.:.:.E E E E :.:.:.:.:.:.i i i i &.E E l i i i i i i i i :.:.7               X 1.w.L.1X1X5X5X=X=X=X=X+X+X=X=X=X=X=X=X=X=X=X=X:X:X:X:X:X:X:X:X=X:X:X:X:X:X:X:X:X:X=X=X5X5X5X5X1X1X1XyXyXtXuXtXtXtXi.W 8 9 = : 8 8 8 : : = = = p 0.i.0.W 8 : : : : : : : : : : c ~ ] ] | ] | | | 0.w.w.0.0.0.0.0.0.0.0.0.0.0.0.w.w.0.w.w.w.0.~ 9 : @ 9 i.tXiXtXiXiXiXrXrXrXrXrX,XrX,X,X,X,Xa.a.a.a.a.a.rXrXrXrX,XrX,XL.i.S.aXlXkXkXkXkXkXkXkXkXkXkXkXkXkXkXVXVXlXlXlXkXkXkXkXkXkXlXlXlXkXkXkXkXVXkXkXVXjXjXjXVXjXjXvXhXsXsX0X8X0X0X0X9X9X9X9X9X9X9X9X9X9X9X9X;X>X9X9X9X9X>X|.P } =X0XbX0X6X4X4XsXsXhXjXCXjXjXkXjXjXjXjXjXVXjXyXi.a.<XtXiXiXtXiXiXiXiXiXiXiXiXiXiXrX<X1X1X1X1Xw.w.w.i.i.i.L.i.u.1.1.d.s.7.W 9 M N N W ~ 1.W N 9 : : : : : : : = : : : * * * * : : : : : 8 8 8 8 8 9 8 8 8 8 8 * ",
"%.%.%.%.%.%.%.&.%.%.*.%.%.%.%.%.+.+.w w r r r r r r 0 r 0 w w w r r r e e w e e r e r 6 2 0 @.3.4.5.4.4.6.e.6.4.4.5.3.,.=.=.=.&.&.+.u u e w w w e e e e e e e e e e e e e e $.$.$.$.$.$.e e e e e e e e e e e e e e $.+.+.+.$.$.+.+.+.+.e e w w e e e u +.+.u u u +.+.u r 6 3 r r w e u e e e e e e e e e e e u u u u y u u u u u u u u u u +.%.%.%.u 3       t @.@.i i @.i i @.N #       . 5 t u u y u @.u y y y y u u +.@.@.@.@.y u >.7.r.5.@.q 0 5 5 5 o o o o O .                 7 i i i i i i i i i i :.:.l i i i E i i i l l l l E E E E &.:.:.:.E E E E :.l l :.:.:.:.i i i @.i l l i i i i i i i i i i p .             . M w.L.1X@X=X=X=X=X=X=X=X=X=X=X=X=X=X=X=X=X=X=X:X:X:X:X:X:X:X:X:X:X:X:X:X:X:X:X:X:X:X=X5X5X5X5X5X1X1X1XyXyXyXyXyXiXi.N : 8 : 8 : 8 8 : : : = = W d.u.1.9 : : : : : : : : : : : > T ] ] | ] | | ] ] 0.0.0.0.0.] 0.0.] 0.0.0.0.w.w.w.w.0.0.~ U : * @ X 9 i.yXtXiXtXtXtXiXrXrXrXrX,Xa.,XrX,X,Xa.a.a.a.a.a.rXrXrXrX,XrX,X,Xa.S.aXkXkXkXkXkXkXkXkXkXkXkXkXkXkXlXlXVXlXlXkXkXkXkXkXkXlXlXlXlXkXkXkXkXVXjXjXjXkXjXjXjXjXVXhXsXsX0X0X0X9X0X9X9X9X9X9X9X9X9X9X9X9X9X9X9X9X9X9X9X9X9X>X>X:X>X7X7X4X4X4X4X4X4XsXhXhXjXjXjXkXjXjXjXjXVXdXyXi.a.<XtXiXtXtXiXiXiXiXiXiXiXiXiXrXrX<X1X1X1X1Xw.| 0.w.i.a.a.i.u.2.8.2.2.1.N 9 M M N W W W N 9 8 : : : : : : : = = = : * * * * * : : : : : 8 8 8 8 8 : : : : : # ",
"%.%.%.%.%.%.%.&.%.%.%.%.%.%.%.%.+.+.e w r r r r r r r r r r w w r r r w w w w w w r r 0 6 6 +.3.5.4.4.4.6.e.6.5.4.5.3.,.=.=.=.&.&.+.u e e e w w e e e e e e e e e e e e e e $.$.$.$.$.e e e e e $.$.$.$.$.$.$.$.$.$.+.+.+.+.+.$.+.+.+.e e e w w e e e u u u u u u +.+.u w 6 3 0 r w e e e e e e e e e e e e e e e e e e e e e e e e u u u u +.%.%.%.u 5       0 @.@.@.i i i @.&.:.0         1 t u u u u @.@.u t y t u u +.+.@.@.@.y u ,.7.6.3.u 0 7 5 3 5 5 # o o o o O O .           O p p i i i i i i i i :.:.l E i i N i i i E E E E l l l l :.:.:.:.:.E E E :.:.:.:.:.:.:.i i i i @.i i l l :.i i i i i i i :.5               = 0.K.@X@X@X@X=X=X+X+X=X=X=X=X=X=X=X=X=X=X=X=X:X:X:X:X:X:X=X=X:X:X=X:X:X:X:X:X:X:X:X:X:X:X5X5X5X5X5X1X1X1X1X1XyX<Xw.9 = : : 8 : : : : : : = 8 1.y.0.N : : : : : : : : : : : : , U ] ] ] | ] | 0.] ] ] ] [ ~ T U U U m m U U U ~ ~ ~ ~ m n : * # @ * 8.<XuXyXtXuXuXuXuXiXrXrXrXS.a.a.a.rXa.a.a.a.a.a.a.rXrXa.rXrXrXrXrXa.a.uXdXkXkXkXkXkXkXkXkXkXkXkXkXlXlXlXlXkXkXkXkXkXkXkXkXkXkXkXkXkXkXkXkXkXkXjXjXkXkXkXVXCXjXsXsX0X8X0X0X9X9X9X9X9X9X9X9X9X9X9X9X9X9X9X9X9X9X9X9X9X9X9X9X9X9X9X9X9X9X9X>X4X4X4XsXhXhXdXjXkXkXjXjXjXVXdXyXi.a.<XiXiXiXiXiXiXiXiXiXiXiXiXiXrXiXiX1X<X1XL.0.] 0.w.i.a.L.i.w.2.8.2.1.E N M N M M N N N p 9 9 : : : * = = = * : : : * * * * * * : : : : : : : : : * : * * : # ",
"+.%.%.%.%.%.%.*.%.%.%.*.%.%.%.%.+.+.e w r r r r r r r 0 r r w w r w w w w w w w e r r r 6 2 w ,.5.5.4.4.4.6.4.4.4.5.5.,.=.=.=.&.&.+.u e w w w w e e e e e e e e e e e e e e e $.$.$.e e e e e e $.e $.$.$.$.$.$.$.+.+.+.+.+.+.+.+.+.e e e w e e e e e u u u u u e u u u w 6 3 6 r w e e e e e u e e e u u u e e e e e e e e e e e e e u u u +.+.%.%.%.6       7 &.@.@.i i i @.&.:.p         o q y u u @.@.u u t y t u u +.+.@.@.@.y u ,.4.6.3.u 0 7 5 3 # # # o 3 o o o o o O           7 i i i i i i i i i i :.i i i i i i i i E E E E l l l l :.:.:.:.:.:.E E :.:.:.:.:.:.:.:.i i @.@.@.i i i :.:.i i i i i i :.t               O W w.w.@X@X@X@X@X+X+X=X=X=X=X=X=X=X=X=X=X=X:X=X:X:X-X:X:X:X=X:X:X=X:X:X:X:X:X:X:X:X:X:X:X:X5X5X5X5X5X5X1X1X1X1X1X0., = : : : : : : : : = : 9 2.0.1.9 : : 8 : : : : : : : : : < U ] ] ] ] ] 0.] ] ~ U U c c , : : : : : : : : : : : : * : * * # * N i.yXuXtXuXuXuXgXuXtXrXrXrXa.a.a.a.rXa.a.a.a.a.a.a.rXrXS.a.rXrXrXrX,Xa.yXdXkXkXkXkXkXkXkXkXkXkXkXkXkXkXlXkXkXkXkXkXkXkXkXkXkXkXkXkXkXkXkXkXkXkXkXkXjXjXVXCXvXsX4X8X8X8X9X9X9X9X9X9X9X9X9X9X9X9X9X9X9X9X9X9X9X9X9X9X9X9X9X9X9X9X9X9X9X9X9X9X9X8X4X4XsXhXdXdXjXjXjXjXkXVXdX<Xi.S.<XiXiXiXiXiXiXiXiXiXiXiXiXiXiXiXiX<X<X<X<Xw.! 0.w.i.a.a.i.w.2.8.8.W N M N M W U N N M 9 9 9 : : = = = = = * : : : * * * * * * : : * : : : : : : * : * * : $ ",
"+.%.%.%.%.%.%.*.%.&.&.&.%.%.%.%.+.+.e w w w r r r r r r r r r w r r w w w w w w e r r r 6 2 r =.5.4.t.t.4.4.4.4.4.5.3.,.=.=.=.&.&.+.u e w w w w e e e e e e e e e e e e e e $.$.e e e e e e w e e e e $.$.e e e e +.+.+.+.+.+.+.e e e w w w w e e u u u u u u u e u u u e 0 3 6 r w e e e e e u u u u u e e e e r e e r r r r r e e u u u u +.+.%.%.&.q       o &.&.@.@.@.i @.&.@.i O       O 6 y y u @.@.u y y y t u +.+.+.@.@.@.y u >.7.4.<.y 7 5 5 3 3 3 5 5 7 3 o o o o o o         o :.p i i i i i i i i i i i i i i i i i i i i i E E E E l l :.:.&.:.:.:.:.&.:.:.:.:.:.:.:.@.i i @.@.i i i i i i i i i i i i O               8 ! 0.w.K.K.@X@X+X=X=X=X=X=X=X=X=X=X:X:X:X:X=X=X-X-X-X-X=X=X:X=X:X:X:X:X:X:X:X:X:X:X:X:X:X=X5X5X5X5X5X5X5X1X1X1X! : * : : : : : : : : = 8 W 2.1.N : : : : : : : : : : : : : , U ] ] ] ] ] ! ~ U n , , < < * * * : : : : : : : : * * * * * # # 9 0.<XuXtXtXuXuXuXaXuXuXiXrX,XrX,Xa.a.S.a.a.a.a.a.UXrX,X,X,X,X<X,X,XrXrX,XtXdXkXkXkXkXkXkXkXkXkXkXkXlXlXlXkXkXkXkXkXkXkXkXkXkXkXkXkXkXkXkXkXkXjXkXkXVXVXVXvXvXsXsX4X8X8X8X8X9X9X9X9X9X9X9X9X9X9X9X9X9X9X9X9X9X9X9X9X9X9X9X9X9X9X9X9X9X9X9X9X9X9X9X0X8X4XsXsXdXjXjXjXjXkXVXdX<Xi.,X<XiXiXiXiXiXiXiXiXiXiXiXiXiXiXiXrXrX<X<X1Xw.! 0.i.i.a.L.i.u.2.<.<.W N N M M N N M N M M 9 : : = * * = : : : : : : * * * * * * * * * * * * : : : * : : : : # ",
"+.%.%.%.%.%.%.*.%.&.&.&.&.%.%.%.+.+.e w w w r 0 r r r r r r r r r r w w e e w e e r r w 0 2 r &.5.4.4.t.4.4.4.4.4.5.3.,.>.=.=.&.&.+.u u w w w w e e e e e e e e e e e e e e $.$.e e e e e e e e e e e e e e e e e e +.+.+.+.+.$.e e w w w w w e u u u u e e u u e e e +.e 0 3 6 r w e e e e e u u u e u e e r r t r r r r r r t r r e u u u +.+.%.%.&.y .     o &.@.@.@.@.@.@.@.@.@.o       . s q y u @.u u y y y y u +.+.+.@.@.u y u >.5.4.,.u 0 7 7 5 7 7 3 3 3 3 # # # # o o .       . p p i i i i i i i i i i i @.i i i i i i i i i E E E E E E E :.:.:.:.:.:.:.:.:.:.:.:.:.:.:.:.i @.@.@.i i i i i i i i i p :.o               X W ] ......H.K.@X+X=X=X=X=X=X=X=X=X:X:X:X:X=X=X=X=X-X-X=X=X:X:X:X:X:X:X:X:X:X:X:X:X:X:X:X:X=X=X=X5X5X5X5X5X1XK.U % = : : : : : : : : : 9 W 1.N : * : : : : : : : : : : : : , U ~ ! ! T U n c , : * : : : : : : : : : : : : : : : : * * # # 9 2.,XiXtXtXuXuXuXuXuXuXuXiXrXrXrXrX,XS.,Xa.a.a.a.a.a.rX,X,X,X,X,X,X,XrXrXrXtXdXkXkXkXkXkXkXkXkXkXkXkXkXkXkXkXkXkXkXkXkXkXkXkXkXkXkXkXkXkXkXkXkXkXjXkXVXCXIXsX4X4X4X8X0X8X9X8X9X9X9X9X9X9X9X9X9X9X9X9X9X9X9X9X9X9X9X9X9X9X9X9X9X9X9X9X9X9X9X9X9X9X9X0X0X8X4XsXsXjXCXjXjXkXVXdX<Xi.<X<XrXiXiXiXiXiXiXiXiXiXiXiXiXrXrX<X<X1X<X1X0.T ! w.i.i.L.i.u.2.W W E M M n M M N M N M M 8 : * * * * * = : : : : : * * * * * * * # # * * : : : : : : : : : # ",
"+.%.%.%.%.%.%.%.%.%.&.&.&.%.%.%.+.+.e e w w r 0 r r r r r r w w r r w w e e e e e r w w 0 6 r +.3.5.4.4.4.t.4.4.4.5.3.3.,.>.=.&.&.+.u w w w w w e e e e e e u u e e e e e e e $.e e e w e e e e w w w w w w w w e e e +.$.$.$.$.e e w w w w e e e u u u e e e e e u u +.u r 3 6 r r e e e e e u u e e e e e r r r r r 8 7 7 r r r r r e u u +.+.%.%.&.u O     o @.@.@.@.@.@.@.@.@.&.7         o 0 q y @.u y y y y u u @.+.@.@.@.u y u >.5.4.,.u q q 0 7 7 7 3 3 3 3 3 7 7 # o o O         5 i i i i i i i @.l l E i @.i i i i i i i i i E E E E E E E E :.:.:.:.:.:.:.:.:.:.:.:.:.:.:.i E E @.i i i i i i i i i i :.7               . 9 ] ] | ....X.K.@X+X=X=X=X=X=X=X=X:X-X:X:X=X=X=X=X=X=X=X=X=X=X=X-X-X-X:X:X=X=X:X:X:X:X:X:X:X=X=X:X5X5X5X5X5XK.Z % % : : : : : : : : : 9 N N M : : : : : 8 : : : : : : : : : n m m n v , : : : : : : : : : : : : : : : : : : * : : * * : 9 2.a.iXiXiXtXtXtXtXtXtXtXtXiXrXrXrXrXrXrXrXa.a.a.p.a.a.rX,XrXrX,X,X,XrXrXrXrXtXfXkXkXkXkXkXkXkXkXkXkXkXkXkXkXkXkXkXkXkXkXkXkXkXkXkXkXkXkXkXkXkXjXVXVXVXVXsX5X5X@X4X8X0X9X9X9X9X9X9X9X9X9X9X9X9X9X9X9X9X9X9X9X9X9X9X9X9X9X9X9X9X9X9X9X9X9X9X9X9X9X9X9X9X9X9X0X0XhXhXvXjXjXjXVXdX<Xi.<X<X<XiXiXrXiXiXiXiXiXiXiXiXiX<X1X1X1X1X1X@X..! ! w.i.L.L.i.u.8.W E N M n M M M M M M M M : : * * * * : : : : : * * * * # * * * * * * * * : : : : : : : : 8 * ",
"+.+.%.%.%.%.%.%.%.%.&.&.&.%.%.%.+.+.+.e w w r 0 r r r r r r w w r r w w e e e e w w w r 0 6 0 u ,.5.4.4.t.t.t.4.4.4.5.3.,.=.=.&.+.u u w w w w w e e e e e e u u e e e e e e e $.e e e w e e e w w w w w w w w e e e e $.$.$.$.$.e e w w r w e e u u u u e e e u e e u +.u r 3 6 r r e e e e u u u e e e e r r r 7 7 7 7 3 3 7 7 r r r e u u +.+.%.%.&.i O     O @.@.i @.@.@.@.@.&.:.7         O 6 0 y u u y y y y y u @.@.@.@.@.u y u >.5.5.,.u t e q r 7 7 7 5 5 5 3 # # # # # o .       O i u i i i i @.@.E E E @.@.i i i i i E E E E i i i i E E E E :.:.:.:.:.:.:.:.:.:.:.:.:.:.:.:.E l l l i i i i i i i i @.:.p .               * ~ ] ] ..| ..H.@X+X=X=X=X=X=X=X=X-X-X:X-X=X=X=X=X:X:X=X=X=X=X=X:X-X-X:X=X=X=X:X:X:X:X:X:X:X:X=X:X:X5X5X5X5X@XD % % % : : : : : : : : 8 M 9 9 : : : : : : : : : : : : : : : : , : : : : : : : : : : : : : : : : : : : : : : : : * * * N 2.i.<XrXrXiXiXiXiXiXiXiXiXiXrXrXrXrXrXrXrX,Xa.a.a.p.a.a.rX,XrXrXrX,X,XrX,XrXrXiXfXkXkXkXkXkXkXkXjXkXkXkXkXkXkXkXkXkXkXkXkXkXkXkXkXkXkXkXkXkXkXjXjXjXVXVXjX5XK.w.@X4X8X0X9X9X9X9X9X9X9X9X9X9X9X9X9X9X9X9X9X9X9X9X9X9X9X9X9X9X9X9X9X9X9X9X9X9X9X9X9X9X9X9X9X9X0X0XcXhXvXjXjXjXVXdX<Xi.<X<X<XiXiXrXiXiXiXiXiXiXiXiXiX1X1X1X1X1X5X5X@X| ! 0.i.L.L.i.w.8.W W N n n M U n M n M M , : * * * * * * : : : * * * * # # * * * * # * * : : : : 8 : 8 : 8 8 * ",
"u %.%.%.*.%.%.*.%.%.%.%.%.%.%.%.%.+.+.e w r 0 r r r r r r r w 0 w w w w e e e e w w r w r 6 6 e >.5.4.4.4.e.4.4.4.4.3.,.>.=.=.&.&.u w w w w w w w w e e e u u u +.+.u u u u e e w +.+.e w e e w w e t t t r e e e e e e e e e w e w w r r w e e e e e e e e e e e e e u u r 6 2 0 w e w e u e e e e e e e r 8 7 7 7 = # # # 7 7 7 r e u u u %.%.%.+.@.u o     O i :.@.:.@.N &.&.:.i t O         1 q y @.@.y u w w y u u +.@.&.@.u y u &.3.5.,.&.u y e r r r 6 7 5 5 3 # # 3 3 # o O         7 i i i i i i :.:.i :.:.:.i i i i i E E E E i i i i E E E E :.:.:.:.:.:.:.:.:.:.:.:.i i i i i i i i i i i i i i i i i i :.o               O ~ ] ] | | ....H.@X=X=X=X=X=X=X=X=X=X=X=X=X:X:X=X=X:X=X=X=X:X:X-X-X=X:X:X:X:X:X:X:X:X:X:X:X:X:X:X:X=X:X:X:X=X.., % < < : : : : : * : : : 8 8 8 : : : : : : : : : : : : : : : : : : : : : : : : : : 8 : : : : : : : : : : : : * # 8 <.u.i.a.,XrXrXrXrXrXrXrXrXrXrXrXrXrXrXrXrXrX,XrXrXa.a.a.a.a.,XrX,X,X,X,XrXrXrXrXrXtXuXfXdXdXdXdXdXdXdXdXdXdXjXjXjXjXVXkXkXkXjXkXkXkXkXjXkXjXjXVXjXjXVXVXVXIX5XK.....|.:X8X8X9X9X9X9X9X9X9X9X9X9X9X9X9X9X9X9X9X9X9X9X9X9X9X9X9X9X9X9X9X9X9X9X9X9X9X9X9X9X9X9X9X9X9X0X0XsXvXjXdXVXVXdX<Xi.<XrXrXiXiXiXiXiXiXiXyXyX<X<X1X1X1X5X5X4X4X4X4X@Xw.] i.L.L.i.d.W W U U N N n M n n M n M : : * * * * * * * * * = = * * * # * * # # * * * : : : 8 8 : 8 : 8 9 * ",
"u %.%.%.*.%.%.*.%.%.%.%.%.%.%.%.%.%.+.e w r 0 r r r r r r r w w w w w w e e e e w w r w r 6 6 e *.5.5.4.4.t.4.4.4.4.3.,.,.=.=.&.&.u w w w w w w w w e e e u u u e e u u u e e e e e e w w e e e t t p p p r r r w e e e e e e e e w w r r w e e e u u e u e u u e e e u u r 6 2 0 w e w e u e e e e e e e r 7 7 7 = # # # # = 7 8 8 8 r e u u %.%.+.&.u o     . p :.i :.@.@.@.N :.N p o         o 0 y +.#.y y w w y u u @.@.@.@.u y y &.3.5.,.&.u u u u u r t r r 7 7 7 7 5 7 7 # o         5 i p i i i i i i i :.:.:.i i i i i E E E E i i i i E E E E :.:.:.:.:.:.:.:.:.E :.:.i i i i i i i i i i i i i i i i i i :.7               . n ] ] | | ....H.|.+X=X=X=X=X=X=X=X=X=X=X-X:X:X=X=X:X:X=X=X:X-X-X-X-X:X:X:X:X:X:X:X:X:X:X:X:X:X:X=X=X=X=X:X5X@X] , % % : : : : : : : : : 8 8 : : : : : : : : : : : : : : : : : : : : : : : : : : : : : 8 : : : : : : : : : * : N 0.i.,XrX,XrXrXrXrXrXrXrXrXrXrXrXrXrXrXrXrXrXrX,X,XUXa.a.p.p.a.S.,X,X,X,X,X,XrXrXrXrXiXtXpXaXaXpXyXyXyXyXyXyXyXpXpXaXsXfXdXjXkXkXjXkXkXkXkXjXjXjXVXjXVXVXVXdX4X@X......H.=X>X8X9X8X9X9X9X9X9X9X9X9X9X9X9X9X9X9X9X9X9X9X9X9X9X9X9X9X9X9X9X9X9X9X9X9X9X9X9X9X9X9X9X9X9X0X0XsXcXjXjXVXVXfXS.i.<XrXrXiXiXiXiXtXiXiX<X<X1X1X1X5X5X4X4X4X0XcXbX4X5XK.w.w.i.i.0.W U n U N n M M M M M M M : : * * * : : : : : : : : * * * # * * # * * * : : : : : 8 : 8 : 8 9 * ",
"u %.%.%.&.%.%.*.%.%.%.%.%.%.%.%.%.+.+.e w r r r w r 0 0 r r w w w w w w w w e e w w r w r 6 6 w =.3.4.5.4.4.4.4.4.5.3.,.,.=.=.&.&.u w w w w w w w w e u e e u u e e e e e e e e e w w e e r t t N N W W W N p 8 r r e e e e e e w w r r r w e e u u u u u u u u e e e u u w 6 2 6 r e e u u e e e e e e r 6 7 3 = # # # # # # # 7 8 8 r r e u N u u i t O       t &.@.:.@.@.@.@.:.N i o         O 0 t u u y y q w y u u @.@.@.@.u y w @.3.5.,.&.+.+.%.%.N N u p p p p 8 t 8 r 8 7 # .       o p p i i :.i i i i i i i i i i i i i i i i E E E E E E E E :.:.:.:.:.:.:.:.:.E :.:.:.i i i i i i i i i i i i i i i i i :.p                 * ] | ] | | o.o.H.@X+X=X=X=X=X=X=X=X=X=X-X=X=X=X=X:X=X=X:X-X-X-X-X:X:X:X:X:X:X:X:X:X:X-X:X:X:X=X=X=X=X=X=X5X5X@X' & % * : : * * : : : : : : : : : : : : : : : : : : : : : : : : : : : : : : : : : : : 8 : : : : : : : : : M 1.s.,X<X<XrXrXrX,X,XrXrX<XrXrXrXrXrXrXiXrXrXrXrXrX,XS.eXa.a.p.a.a.S.,X,XrXrX,X,XrXrXrXrXrXrXrXrX<X<X<X<X<X<X<X<X<X<X<X1X<XyXyXpXsXdXjXkXkXjXkXjXjXVXkXVXVXVXdX5XK...[ ....H.+X=X>X>X8X9X9X9X9X9X9X9X9X9X9X9X9X9X9X9X9X9X9X9X9X9X9X9X9X9X9X9X9X9X9X9X9X9X9X9X9X9X9X9X9X0X0X0XcXcXvXjXjXVXsXi.i.<XrXrXrXiXiXiXiXiX<X1X1X1X1X5X4X4X8X0X0X0X0X0XbX0X5X@Xw.w.i.0.W N N U n n M M n M M n : : * * * * : : : : : : : : : : * * * * * * : : : : : 8 : 8 : : : 8 9 * ",
"e +.%.%.&.&.%.&.%.%.%.%.%.%.%.%.%.%.+.u w r r r w 0 0 r 0 r w w w w w w w w w w r w r w r 6 6 r *.3.4.5.4.4.4.4.4.5.3.3.,.=.&.&.%.u e w w w w w w w e e e e e e e e e e e e e e e w e e r r p N ~ 2.0.0.2.~ M 9 t t r e u e w w w r r r r w e e u u u u u u u u e e e u u e 0 2 6 r e e u u e e e e e r r 7 3 # # # # # # # # # # 7 8 r r e u N u u u r O       8 &.N :.@.@.@.@.:.N i 7         . 5 u u u u y q w u u +.@.@.@.+.u y e +.,.5.,.&.%.%.%.&.N N N N N N N N N N p p 7 7 O       . t i i i :.i i i :.i i i i i i E E i i i i E E E E E E E E :.:.:.:.:.:.:.:.:.:.:.:.:.:.i i @.i i i i i i i i i i i p i :.:.o               X ! | ] | | { o...H.@X+X=X=X=X=X=X=X=X=X=X=X=X=X=X=X=X=X-X-X-X-X-X-X-X:X:X:X:X:X:X:X-X-X:X:X:X=X=X=X=X=X:X:X5X5X@X| v % % : : * : * : : : : : : : : : : : : : : : : : : : : : : : : : : : : : : : : : : : : : : : : : : : 9 W 0.i.,XrX,XrXrX,X,XrXrX<XrXrXrXrXrXrXiXrXrXrXrXrXS.a.a.a.a.a.a.a.,Xa.,X,X,XrX,XrXrXrXrXrXrXrX<X<X<X<X<X<X<X<X<X<X<X<X<X<X<X<X1XyXaXfXjXjXjXjXjXVXVXdXVXVXIXpXK.| [ | | o.H.H.+X=X:X>X>X8X8X8X8X8X8X9X8X8X8X9X9X9X9X;X;X9X9X9X9X9X9X9X9X9X9X9X9X9X9X9X9X9X9X9X9X9X9X9X0X0X0XcXcXvXvXVXVXsXi.i.<X<XrXrXiXiXiXiX<X1X1X1X5X4X4X4X8X0X9X8X8X8X9X0X0X4X@Xw.w.w.~ W 9 n N n M n M n n M n : : * : : : 9 n M M M M 9 9 : : : * * * * * : : : : 8 8 8 8 : 8 : 8 9 * ",
"w +.%.%.%.&.%.%.*.*.&.%.%.%.%.&.&.%.+.+.e w 0 0 w 0 0 r r 0 w 0 w w w w w w w r r w r w r 0 6 r &.3.4.5.4.5.4.4.4.5.3.,.,.=.&.&.%.u e w w w w w w w e e e e e e e e e e e e e e e w e y r 8 M ~ 0.0.0.] ] ] ~ m 8 8 r r y e r r w r r r r w e e u u u u u u e e e e e u u e r 2 3 r e e u u e e e e e e r 7 3 # # # # # @ # # # # * 8 8 r t e e t t r 7 .       7 N i :.i :.i @.N i i 0           s u u u u y t w u +.&.@.&.@.+.u e q u ,.3.,.&.N %.&.&.%.%.N N N N N N N p p t 8 7 o         7 i i i i i i i i i i i i i E E E l l l l E E E E E E E E :.:.:.:.:.:.:.:.:.:.:.:.:.:.:.i @.i i i i i i i i i i i p i i :.t               . ~ 0.] | | o.o.o...H.@X=X=X=X=X=X=X=X=X=X=X=X=X=X=X=X=X=X=X:X-X-X-X:X:X:X-X:X:X:X:X-X=X=X=X=X=X:X=X=X=X:X=X:X:X:X@X] & % % : : : * * : : : : : : : : : : : : : : : : : : : : : : : : : : : : : : : : : : : : : : : : : : : = = 9 2.s.L.rXrXrX,XrXrXrXrXrXrXrXrXrXrXrXrXrXrXrXS.,Xa.a.a.a.a.a.a.a.,X,X,XL.,X,X,XrX<XrXrX<X<X<X<X<X<X<X<X<X<X<X<X<X<X<X<X1X<X<X1XyXaXdXjXjXjXVXVXjXVXIXsX@X..' [ ..{ { ..H.|.+X=X:X:X>X>X>X>X>X>X>X-X-XXX|.XX=X-X-X;X;X9X9X9X9X9X9X9X9X9X9X9X9X9X9X9X9X9X9X9X0X0X0X0X8X4X4XsXsXCXCXVXsXi.i.<XrXiX<X<X<X<X<X<X1X1X5X4X4X8X8X9X8X9X9X8X9X9X0X0X4X1Xi.w.w.! U n n n n M n M n n n n : : : : : n n n m m n n n n 9 8 : : * * * : : : : : : : : 8 : M : 8 9 * ",
"r +.%.%.%.&.%.%.&.*.*.%.%.%.&.&.&.&.+.+.e w 0 0 0 0 0 0 0 0 w 0 r w w w w r r r r w r r r 0 6 r &.3.5.5.4.5.5.5.5.5.3.,.,.=.&.@.%.u e e w w w w w w e e e e e e e e e e e e e e e w e r 8 8 N 0.0.| ] ] ] ] ] ~ M 8 8 r r e r e r r r r r e e e e e e e e u e e e e e u u u r 2 3 r e e u u e e e e r r 8 7 = # # # # # # # # # # # 7 7 8 8 8 8 r r 8 #         o i &.:.N &.i N N N i t .         o u @.u u q q w u %.%.@.@.@.+.y e q u ,.,.,.&.%.%.&.&.%.%.%.N N N N p p 8 r 8 7 7 o         o p i i i i i i i i i i i i i E E l l l l E E E E E E E E :.:.:.:.:.:.:.:.:.:.:.:.:.:.:.i i i i i i i i i i i i i i :.i i :.O               9 0.| ] | ..o.{ ..H.|.+X+X+X+X+X+X+X=X=X=X=X=X=X=X=X:X=X=X:X-X-X-X:X-X:X-X-X-X-X-X-X=X=X=X=X=X:X:X=X=X:X=X:X:X:X5X@X| < % % : * * * : : : : : : : : : : : : : : : : : : : : : : : : : : : : : : : : : : : : : : : : : : : * * # # N 2.a.,XrXrXrXrXrXrXrXrXrXrXrXrXrXrXrX,X,Xa.rXeXa.a.a.a.a.,X,X,X,X,X,X,XrXrXrXrXrXrXrXrXrX<X<X<X<X<X<X<X<X<X<X<X<X<X1X1X1X<X<X1XpXsXjXjXVXVXVXVXsX1X..[ ' ' [ { { ....H.H.|.+X+X+X+X+X+X|.|.H.J.} P o.} J.|.|.=X>X8X8X9X9X0X9X9X9X9X9X9X9X9X0X0X0X0X0X0X0X0X0X>X=X@X@X1XsXsXCXVXsXS.i.<X<X<X<X1X1X1X1X1X1X5X4X4X4X8X9X9X9X9X9X9X9X9X9X0X4X@Xw.w.0.! U n n n n n n n n n n n n : : n M n m m m m m m m M M 9 8 : : * : : : : 8 : : : 8 8 : M : 8 9 * ",
"r u %.%.%.&.%.%.&.&.&.%.%.%.&.&.&.&.+.+.e w w 0 w w w w w w w 0 r w r w w w r r w w r r r r 6 r &.3.5.5.5.5.5.5.5.5.3.,.,.=.&.&.%.u e e w w w w w w w e e e e e e e u u u e e e e e e r 8 8 ~ 0.| | ] ' ' ] ] ] T M 8 8 r e r r r r r r w e e e e e e e e e e e e e e e u u r 3 3 r e u u u e e e e r r 7 7 = # # # # # # # # # # # # 8 7 8 8 8 8 7 7 #         o i &.i N :.i N i &.i i O         o u @.u u 0 q w u +.+.@.+.@.u y e e u &.,.=.&.%.%.%.&.&.&.N N N u t r 8 7 7 7 7 # o .       . 7 p :.i i i :.i i i i i i i i i l l l l E E E E E E E E :.:.:.:.:.:.:.:.:.:.:.:.:.:.:.i l l i i i i i i i i i i i i i i :.7               @ ~ ] ] | ..o.{ ..H.|.+X+X+X|.|.H.H.H.|.|.|.|.|.|.+X=X=X=X=X=X=X=X=X:X:X:X-X-X:X:X=X=X:X=X:X:X:X:X=X=X=X=X:X:X=X5X5X@XT & % * * * : * : : * * * * : : : : : : : : : : : : : : : : : : : : : : : : : : : : : : : : : : : * * : : * # : 1.s.rXrX,XrXrXrXrXrXrXrXrXrXrXrXrXa.a.a.rXrXeXa.a.S.,X,X,XL.a.L.,X,X,XrXrXrXrXrXrX<XrXrXrXrXrXiXrX<X<X<X<X<X<X<X<X<X1X1X<X<X1XyXsXfXdXjXVXsX1Xw.] ' | [ [ ..{ o.o.....J.J.H.J.H.J.J...o.o.L L L { o.o.o.J.H.+X=X>X4X8X0X0X0X0X0XqXqXqXqXqX0X0X0X0X8X:X+X|.X.....w.w.1X5XsXsXaX<XL.<X<X<X1X1X1X1X1X1X5X:X4X8X8X7X9X9X9X9X9X9X9X9X9X0X5X@Xw.w.0.~ n n n n n n n n n n n n n n n n m m m m m m U m m m M M 8 : : * : : : 8 8 8 : : 8 8 : : : 8 M * ",
"r u %.%.%.&.%.&.*.&.&.%.%.%.&.&.&.&.+.+.e w w 0 w w w w w w w 0 r w r w r w r r w w r r r r 6 r +.,.5.5.5.5.4.5.5.5.3.,.,.=.&.&.%.u e e e w w w w w w e e e e e u u u u u y e e e e e r 8 8 ~ 0.| | | ' ' ] ] ] ] T 9 8 r r r r r r r r r e e e e e e e e e e e e e e e u u r 3 3 r e u u u e e e r r 6 7 7 # # # # # # # # # # # # # # 7 7 7 7 8 * # #         o u :.N N :.i E N :.i &.o         o u i u y 0 q w u +.+.u u u u y q q y &.=.&.%.%.+.+.N &.&.N N e t 6 7 3 # # # # # o O         7 t :.:.i i :.i i i i i i i i i l l l l E E E E E E E E :.:.:.:.:.:.:.:.:.:.:.:.:.:.:.i l i i i i i i i i i i i @.y :.i :.:.              O ~ [ ] | ..o.o...H.@X=X=X+X|.H.} o.L { L L L o.} H.@X=X=X=X=X=X=X=X:X:X:X=X=X=X=X:X=X:X:X:X:X:X=X:X:X:X=X=X:X=X:X4X:XK.D % * % * : % : : * * * : : : * : : : : : : : : : : : : : : : : : : : : : : : : : : : : : : : * : : * * # # * 7 7.L.rXrXrXrXrXrXrXrXrXrXrXrXrXa.a.a.a.rXrXrXa.a.,Xa.a.a.a.a.a.i.s.u.s.i.i.i.s.i.i.i.a.,X<X<X<X<X<X<X<X<X<X<X<X<X<X<X<X<X<X<X<X1XpXsXdXfX5Xw.| ] ' [ [ [ ..[ o.L o.[ { o.[ O.O.L L L L L [ o.o.[ o.o.o...o.J.H.H.H.|.+X=X:X>X8X8X8X>X>X=X+X|.}.J.} o.{ { { ..w.w.w.@X1X1XpXpX<X<X<X<X1X1X1X1X1X1X5X4X4X8X8X7X9X9X9X9X9X9X9X9X9X9X0X:X@Xw.w.] U n n n n n n n n n n n n n n n n m m m m U m U U m m M M 9 8 : * : : : 8 8 8 : : 8 8 : : : 8 9 * ",
"0 e %.%.%.%.%.%.%.%.*.&.%.%.%.&.&.&.%.+.u w r r w w w w w w w w r r w w w w r r r w w r r 0 6 6 u ,.5.5.4.4.4.4.5.5.3.3.,.=.&.&.+.y w w w e e e w e e e e e e e e y e e e e e e e r r 8 8 M ] 0...| | | | ' ' ] ] ! U 8 7 8 r r r r r r e e e u e e e e e e e e u u u u u e r 3 3 r e u u u e e e e r 7 = = # # # # # # # # # # # # # # * # # * = = # o         O p :.@.:.i :.@.@.@.:.:.5         O u u u y 0 q e y u u u y y p t q r r u N &.&.%.%.%.N %.&.N p 8 8 3 3 3 # # 3 3 # o o         O t i i :.i :.:.i i i i i i i i i i l E E E E E E E E E i i i i E :.:.:.@.i :.:.:.:.:.i i i i i i i i i i i i i i i i i i 1.5               9 0.] | ........H.+X=X=X+XH.J.o.L o.L { { L L o.o...H.@X=X:X=X=X=X:X=X=X=X=X-X=X=X=X=X=X=X=X=X=X:X:X=X:X=X=X=X=X:X5X5XX.A < * % % * * : * * : : * : * * * : : : : : : : : : : : : : : : : : : : : : : : : : : : : : : : : * * * * * # 9 L.,XrXrXrXrXrXrXrXrXrXrX,XrX,X,XrXrX,X,Xa.a.a.a.a.i.s.u.r.7.2.2.1.1.1.1.1.1.2.2.7.7.6.d.u.s.a.,X<X<X<X<X<X<X<X<X<X<X<X<X<X<X<X<XyXpX1XK.| ] [ [ [ [ o.o.[ [ [ [ [ [ [ { [ { [ [ [ [ o.o.....| ........| [ ' ' R R R ' { ..X...[ ' ' H G H H ' ' ....w.w.K.K.@XK.L.1X1X1X1X1X<X1X1X1X<X1X1X1X=X:X4X8X8X9X9X9X9X9X9X9X9X9X9X0X0X4X=Xw.w.0.~ U n n n n n n n n n n n n m m m m U U U U m m m m m m m n M 9 : : : : : : : : : : 8 : 8 8 8 : 9 * ",
"0 e %.%.%.%.%.%.%.%.&.&.%.%.%.&.&.&.&.+.u e w r w w w w w w w w r w w w w w w r r r r r r 0 6 6 u ,.5.5.4.4.7.4.5.5.3.3.,.=.&.&.+.u w w e e e e w e e e e e e e y u u u e e e e y r t 8 8 M ] w...| | | | ' ' [ ] ] ~ m 8 7 6 r r r r e e e e u e e e e e e e e e u u u u y r 3 3 r e u u u e e e t 6 7 7 # # # # # # # # # # # # # # # # # # # = # # o .       . t i @.:.i &.@.@.@.:.@.7         O t u u y 0 q e e y y y r t e q r r r p u N N %.%.%.&.&.&.N p r 7 3 3 # # # # 3 # o o .         7 i i i :.:.i i i i i i i i i i i l E E E :.E E E E E i i i i i :.:.:.:.i E :.:.:.:.i i i i i i i i i i i i i i i i i i <.t               = ! ' [ | | ....H.@X@X@XH.H...o.{ L { { { { [ L { { L H.+X=X=X=X=X=X=X=X=X=X=X=X=X=X=X=X:X=X=X=X=X=X=X=X=X=X=X=X=X=X5XK.] c < * * * * : * * : : * * * * * : : : : * : : : : : : : : : : : : : : : : : : : : : : : : : : : : : * * : # 8 a.rXrXrXrX,XrXrXrXrXrXa.rXa.,X,X,X,Xa.a.a.a.a.i.s.u.6.7.2.1.2.2.1.1.1.1.1.1.1.1.1.1.1.1.1.2.7.d.s.i.<X<X<X<X<X<X<X<X<X<X<X<X<X<X1X1X1Xw.] [ [ [ [ [ [ [ [ [ [ [ [ [ [ o.o.o.o.{ { { { { [ [ | | | | | ] [ ] ] ] R T ! ' ..w.........X.w.w.w.w.w.w.K.K.K.K.@X@X@X1X1X1X1X1X1X1X1X1X1X1X1X@X@X=X4X8X9X9X9X9X9X9X9X9X9X9X9X9X0X0X4X@X| | ] T n n n n n n n n n n n n n m m m m U U U m m m m U m m m n M 9 : : : 8 8 8 8 8 : 8 8 8 8 8 8 : M * ",
"0 e %.%.%.&.*.*.*.*.&.&.%.%.%.&.&.&.%.+.+.e w w w w w w w w w w w w w w w w w w r r r r r 0 6 2 y ,.5.5.4.4.4.4.4.3.3.3.,.=.&.%.+.u e w e e e e e e e y u u e e u u u u y e e e e t 8 8 8 M ] ..| | | | { ' ' | | ] ] ~ 9 7 6 r r r r w e e e e e e e e e e e e e u u u u u r 3 3 r e u u u u e r r 8 7 # # # # # # # # # # # # # # # # # # # # # # # o .         t i @.&.i @.@.@.@.@.i t .       . t i y w r 0 r r r r r r 0 0 0 7 7 7 r r y u %.N %.%.&.&.N p 8 7 3 3 # # # # # # # o O         o i :.i :.:.p i i i i l i i i i i i l E E E E E E E E i i i i i l :.:.:.:.:.:.:.:.:.i i i i i i i i i i i i i i i i i i i <.O             @ ~ ] [ [ | ......H.H.H...o.o.o.{ L { { { { [ ' ' L L { ..|.+X=X=X=X=X=X=X=X=X=X=X=X=X=X=X=X:X:X:X:X:X=X=X=X=X@X@XH.K.K.w.' c , : * * : * * * : : * * * * * * : : * : : : : : : : : : : : : : : : : : : : : : : * * : * * : * * * * # 8 a.iXrXrXrXrXrXrXrX,XS.a.a.a.rX,X,X,X,Xa.a.a.i.u.6.7.1.1.1.1.1.5.1.1.1.1.1.1.1.1.1.1.1.1.1.1.<.<.2.2.s.i.,X<X<X<X<X<X<X<X<X<X<X<X1X1Xw.| [ | [ [ [ [ [ [ [ [ [ [ [ [ [ o.o.o.....| | [ [ [ [ ] ] ] ] ] ] ] ] ~ ~ ~ ~ ~ ] w.K.@XK.K.K.@X@XK.K.K.K.K.K.K.@X1XL.K.@X@X@XK.1X1X1X1X1X1X1X1X@X@X+X:X>X9X9X9X9X9X9X9X9X9X9X9X9X9X0X0X:Xw.] ] ! U n n n n n n n n n m m m m m m m m m m m m m m U U m m m m M 9 : : : : : : 8 8 8 8 9 : 8 : : 8 9 * ",
"0 e %.%.%.&.*.*.%.*.&.&.%.%.%.&.&.%.%.%.+.e w r w w w w w w w w w w w w w w w w w w r r r 0 6 3 w ,.5.4.4.7.5.4.4.5.3.3.,.=.&.%.+.u e e e e e e e e u u y u e e y y y e e e r r t t r 8 8 M ~ | | | | | | { | ] ' [ ] ] m : 7 r r r e e e e e e r r e e e e e e e u e u u u r 3 3 r e u N N u e r r 7 7 # # # # # # # # # # # # # # # # # # # # # # # o .         7 i &.@.i @.@.@.@.:.i p O       . 0 i y q r 0 6 6 6 6 7 7 7 7 5 5 7 7 7 r r t u N N &.&.N N p r 7 7 3 # # # # # # # o o .       O t :.p :.i i i i i i N E l i i i l l l E E E E E E E i i i i :.:.:.:.:.:.:.:.:.:.:.:.i i i i i i i i i i i i i i i i i i 5.7             O W ] ] [ [ | | { ..o.o.o.{ o.[ [ L { { { [ [ [ [ [ { ' ' o.H.+X=X=X=X=X=X=X=X=X=X=X=X=X:X=X:X=X=X=X=X+X@X@XH.H.....{ ..X.w.! c : : : * * * * * : * * * : * * * : : : : : : : : : : : : : : : : : : : : : : : * * * : * * * * * * * # N L.rXrXrXrX,XrXrXrX,XS.a.a.a.a.a.rXrX,Xa.i.i.d.7.7.7.7.7.7.7.1.1.1.1.1.1.1.1.<.1.1.1.1.1.1.1.1.1.<.<.8.2.w.i.<X<X<X<X<X<X<X<X<X1X1XK.w.] [ | ..[ [ [ [ o.[ [ [ [ [ [ [ { { o.{ [ [ [ [ [ [ [ ] ] ] ] ] ] ! ! 1.1.1.1.2.2.0.w.1X1X1XK.1X1X1X1X1X@XK.@XL.L.1XL.K.K.@X@XK.1X1X1X@X1X@X@X@X@X@X+X>X9X9X9X9X9X9X9X9X9X9X9X9X9X9X0X4X@X..] ] ~ m n n n n n n n n n m m m m U U m m m m m m m m U U m m m m n 9 : : : : 8 : 8 8 8 8 M : 8 8 8 8 9 * ",
"r w +.%.%.%.&.&.%.&.&.*.%.%.%.&.%.%.%.%.+.u w w w w w w w w w w w w w w w w w w w w r r r 0 6 2 w >.5.5.4.5.4.4.5.5.3.3.,.=.&.&.u y e e e e e e w e y y p p e e e e e e r r r r t 9 8 8 8 M T | | | [ | | [ | ' [ | | ] U 8 7 8 8 r e e e e r r r r e e e e e e e e e u u u r 3 3 6 e u N N u e r r 7 = # # # # # # # # # # # # # # # # # # # # # # # X           7 i &.@.i i @.u @.:.i i o         5 u r 0 6 6 5 6 6 7 5 5 5 5 7 3 # # 7 7 8 r u N N &.N N N N t 8 7 3 # # # # # # # # o .         7 :.i i i :.i i i i i i i i i i i l l l E E l l l l E E E E :.:.:.:.:.:.:.:.:.:.:.:.:.i i i i i i i i i i i i i i i i i <.@.              M [ ] ] [ | | { o.o.o.o.{ [ [ [ [ [ [ [ ' [ [ | { [ ' { { o.X.H.@X+X+X+X=X=X=X=X=X=X=X+X+X+X|.H.H.X.....o.{ | | | ....w.K.w.T b : : * * * * * % @ @ % * : : * * : * : : : : : : : : : : : : : : : * * * * : * * * * * * * * : * # = 2.<XrX,X,X,X,XrXrXrXrXrXrXa.a.a.a.,X,Xa.i.s.d.7.7.7.7.7.7.1.1.1.1.1.1.1.1.1.1.1.1.1.1.<.<.<.<.<.1.1.1.<.<.2.0.s.i.<X<X<X<X<X<X1X1XK.w...[ [ | ..[ [ o.[ [ [ [ [ [ [ [ [ [ [ [ [ [ [ [ [ [ [ ] ] [ [ ! ! ~ ~ ~ 1.1.1.1.1.~ ~ 0.w.1X1XL.K.1X1X1X1X1XL.L.@X@X1X1X1X1X1X@X@X@X@X1X@X@X@X@X@X@X+X+X;X9X9X9X9X9X9X9X9X9X9X9X9X9X0X8X:X@X| ] ~ T U U n n n n n n n m m m m m m m m m m m m m m U m m m m m n M 9 : : : : : : 8 : 8 8 M : M : 9 8 9 # ",
"r w +.%.%.%.%.&.%.%.%.%.%.%.%.%.%.%.%.%.+.e w w w w w w w w w w w w w w w w w w w w w r r 0 6 2 e =.5.5.5.5.4.4.5.5.3.3.,.=.&.&.u y e e e e e e w e y u p p p r e e e r t t t t 8 9 8 8 8 : U ] | | | [ | [ ' ' | | | | R n : # 8 r r e e r r t r r r e e e e e e e e e u u r 3 3 6 e u u u u e r 8 7 # # # # # # # # # # # # # # # # # # # # # # # # X           5 p @.@.i i i u :.&.@.i 7         o t q 6 5 7 7 3 7 7 7 3 3 7 # # # # # 7 8 r p N N &.N &.N N p 8 8 7 3 # # # # # # # o O         o i :.i i i i i i i i i i i i i i l l l l l l l l l E E E E :.:.:.:.:.:.:.:.:.:.:.:.:.:.:.:.i i i i i i i i i i p i i :.i 1.o             8 ~ ] ] [ | | [ { { o.o.o.[ [ [ [ [ [ [ [ | | [ [ ' ' [ [ [ [ o.o...H.H.H.H.H.H.H.H.H.X...o.{ { { { { { { | | ....w.w.K.K.K.w.~ b : % : : * : , b % @ @ * : : * * * : : : : : : : : : : : : : : : * * * * * * * : * * : * * * * # p i.iX,XrX,X,X,XrXrXrXrXrXrXS.a.a.a.a.a.i.u.d.7.7.7.7.7.7.1.1.1.1.1.1.1.1.1.1.<.1.1.1.1.1.1.1.1.<.<.<.1.<.<.<.<.2.u.i.L.<X<X1X1X1X1XK.w.] [ | | ....[ o.[ o.[ [ [ [ [ [ [ [ [ [ | [ [ [ ] ] [ ~ ~ ~ ~ ~ ~ ~ ~ ~ 1.1.1.1.1.1.~ 1.0.L.1X1XL.1X1XL.1X1X1X1XK.@X1X5X5X5X5X@X@X@X@X@X@X@X@X@X+X|.|.XX;X9X9X9X9X9X9X9X9X9X9X9X9X0X8X4X@Xw.9.2.~ U n U n n n n n n n m m m m m m m m m m m m m m U m m m m m n n : : : : : : : 8 : 8 M n 9 M : 9 8 9 # ",
"0 r u %.%.%.%.&.%.%.%.%.%.%.%.%.%.%.&.%.+.+.e w w w w w w w w w w w w w w w w w w w w w r r 6 2 r =.5.5.5.4.4.5.5.5.3.3.,.=.&.%.u y e e e w e e e e u u N N N p N p p p 9 9 9 9 8 8 8 8 8 : n ! ] | | | [ [ ' [ ' ' | | ] U 8 # 7 r t r r r t 8 t r r r e e e e e e e e u u r 3 3 r e u u u e e r 8 7 # # # # # # # # # # # # # # # # # # # # # # # # o .         o t @.i @.i i u :.i &.i t         O r r 7 3 7 3 = = # 3 # # # # # # # # 7 8 8 r N N N N &.&.&.N p 8 8 7 3 # # # # # # # o .       O t :.i i i i i i i i i i i i i i i l l l l l l l l E E E E i &.:.:.l @.E :.:.:.:.:.:.:.:.:.i i i i i i i i i i p i i i i <.u             o ~ ] [ [ | | [ [ { o.{ { [ [ [ [ [ [ | | | | | [ ..[ [ [ [ ' [ ' ' [ { { { { { { { { { { { { { { | ............w.w.K.K.K.L.K.0.~ n : : : % b ] w.] v % @ * * * * * * : : : : : : : : : : : * : : : : * * * * * * : : * * # # : 9 u.rXrXrXrX,XrX,XrXrXrXrXrXrXrXS.,Xa.a.i.u.d.7.2.2.7.2.2.7.7.7.2.7.1.1.1.<.<.<.<.1.1.1.<.<.1.1.1.1.<.<.1.<.<.<.<.1.2.d.i.L.L.<X1X1X1Xw...[ | | | [ [ [ [ o.o.o.[ [ [ [ [ ..| | | [ [ ] ] ! ~ ~ ~ ~ ~ ~ ~ ~ 1.1.1.1.1.1.1.1.1.1.1.2.0.L.1XL.1X1X1X1XL.1X1XK.@X5X4X4X4X4X5X@X@X@X@X@X@X@X|.|.|.|.XX;X9X9X9X9X9X9X9X9X9X9X9X9X0X4X=XK.w.w.0.~ U U n n n n n n n n m m m m U m m U U U U m m m m m m m m n n n , : : : M 9 9 : : M M M M M 9 M 9 9 # ",
"6 r u %.%.%.%.&.%.%.%.%.%.%.%.%.%.%.&.&.%.+.e w w w w w w w w w w w w w w w w w w w w w r 0 6 2 r =.5.5.5.4.4.5.4.5.3.3.,.=.&.%.u e e e e w e e e y p p N N N N N N N 9 9 9 9 9 8 8 9 8 8 8 : U ] ] ..| ' ' ' [ ' ' | | ] ~ M 8 8 8 p r r t 8 8 t t r r e e e e e e e e u u r 3 3 r e u u u e e r 8 7 # # # # # # # # # # # # # # # # # # # # # @ @ # o .         o t i i @.i i i :.u :.i p O       . 7 r 7 # 7 # # # # # # # # # # # # # 7 7 8 t p N N N &.&.&.N N p t 8 7 3 # # # 3 3 # o O         7 i i :.i i i i i i i i i i i i i i l l l l l l i N E l l l :.:.:.@.l :.E :.:.:.:.:.:.:.:.i i i i i i i i i i p i i p :.i 1.            O U ~ [ ' [ | [ ..{ [ { { { [ { [ [ [ [ | ........| | | | [ [ ' ' | | | ' ' ' { { { { { ' ' ' | | | | | | | ..w.w.w.K.K.K.L.L.w.w.~ n : % $ n K.4X5Xw.: $ % * * * * * * : : : = : : * * * * * : : : : : * * * * * : # # * # * M 2.L.rX,XrXrXa.rXL.rXrXrXrXrXrXrXrXa.a.p.u.7.7.2.7.2.2.2.1.7.2.2.1.7.1.1.1.<.<.<.<.1.1.1.1.1.1.1.<.<.<.<.1.1.<.<.1.<.<.2.0.s.i.<X1X1XK.w...[ | | [ [ [ [ [ o.o.o.[ [ [ ......| [ [ ] ] ! ~ ~ ~ ~ ~ 1.1.1.1.1.1.1.1.1.2.2.1.1.1.1.1.1.2.w.L.L.L.1X1XL.1X1X1X@X@X5XIXcX0X4X5X@X@X@X@X@X@X|.|.|.}.Y.XXoX;X9X9X;X9X9X9X9X9X9X9X9X8X:X@XK.w.w.0.~ U U 9 n n n n n n n m m m m m m m U U U U m m m m m m U m n n n 9 9 9 n n n M M M M M M M n M M 9 9 # ",
"r r u %.&.%.%.&.%.%.%.%.*.*.%.%.%.%.%.%.%.+.e w w w w w w w w w w w w w w w w w w 0 w w r 0 6 2 r =.5.5.5.5.4.5.4.4.3.3.,.=.&.&.u u e e e e e e r p p p N p N N M M p 9 p 9 9 8 9 9 8 8 8 : : : T [ ] | | | | ' | | { [ | ] U > 8 8 r p 8 8 9 8 8 8 8 t r e e e e u u e u e 6 3 3 r e u u u u e r 8 7 # # # # # # # # # # # # # # # # # # # # # # # # o .         o t u i @.i &.i :.i N :.p o         7 8 # 7 # # # # # # # # # # # # # 3 8 8 r r N N N N N &.&.N N N N N r 8 8 7 7 7 # # # o .       o p :.E i i i i i i i i i i i l l l l l i i E E E E E E E E E E E :.:.:.:.:.:.@.@.i i l E :.:.:.i i i i i i i i i i i i i 1.7             , ~ ] [ [ ..[ [ ..[ [ [ [ [ [ [ ' [ | ......w.w.....| | | | | | [ [ [ | [ [ [ ' ' [ [ [ ' [ | | [ [ | | ..w.w.K.K.K.K.L.1X1XK.K.] T : % @ b @X4X4X@XT $ % * $ % $ $ : : : 8 : * : : : : : * : : : : * : : * * * * * # * 8 N 0.i.<X<X<X,X,X,X,X,X,X,X,XrXrX,X,X<Xa.i.d.7.2.7.7.7.2.2.2.7.2.1.1.2.1.1.1.1.1.1.1.1.1.<.1.1.<.<.<.<.<.<.1.<.<.<.<.<.<.<.8.2.0.w.i.L.1XK.w.] ] | ..[ ....[ [ [ [ ..| [ | | [ ] [ ] [ ! ~ ~ ~ ~ ~ W W 1.1.1.1.1.1.1.1.1.1.1.1.1.1.1.1.1.1.0.i.L.L.L.1XL.1X1XL.@X1X4X6X0X0X0X4X:X@X|.@X|.|.|.|.|.U.U.Y.oXOX9X9X9X9X9X9X9X9X9X9X8X4X@XK.K.w.w.0.~ U n n n n n n n n n n m m m m U U U U U U m m m m U U U U m n n c n n n n M M M n M M M M M M M M M * ",
"0 r e %.%.%.%.%.%.%.%.&.*.*.%.%.%.%.%.%.%.+.e w w w w w w w w w w w w w w w w w w 0 0 w r 0 6 2 r ,.3.5.5.5.4.5.4.5.3.3.,.=.&.&.+.u e e e e e e r p p p N N N N M M 9 9 9 9 9 8 9 9 8 8 : : : : v T ' [ | | | ' | { ' ' | ] ! U M 8 8 8 8 M N N N M 9 8 t r e e e u e e u r 6 3 3 r e e e e e r r 8 7 # # # # # # # # # # # # # # # # # # # # # # # # o           o r u i @.i @.@.:.i N i i o         o 7 # 7 # # # 3 # # # # # = # # # 7 7 8 8 r N N N N N &.=.&.N N N N N N N p r 8 7 7 7 # O       . t :.i E i i i i i i i i i i l l l l l i i i E E E E E E E E E E :.:.:.:.:.:.:.:.i @.l E :.:.i i i i i i i i i i i i i i :.:..           = ~ ] [ [ | [ | ..[ [ [ ' [ ' ' ' [ ..w.w.w.w.w.w.w.w.w...............| | | ] ] [ | | | [ [ | | ] ] ..w.w.w.K.K.K.K.K.L.L.L.L.K.K.0.U : @ & K.5X4X1XR % $ b U ] T v : * * : : : * : : : : : : : * * * * * : : * * # * 9 1.y.i.<X<X<X<XrX,X,X<XrXrXrXrXrXrX,Xa.a.i.u.r.7.7.7.7.7.7.7.2.7.2.2.2.2.1.1.1.1.1.<.1.1.<.<.<.<.<.<.<.<.<.<.<.<.<.<.<.<.<.<.<.<.1.2.w.i.L.K.w.] [ | ........[ [ ....| | | [ ] [ ] ] ~ ~ ~ ~ ~ W ~ 1.1.1.1.1.1.1.1.1.1.1.1.1.1.5.5.5.1.1.1.1.2.w.L.L.L.1XL.L.1XL.@X1X5X4X0X0X0X8X>X+X|.|.}.|.|.|.Y.U.U.Y.oXoXOXOX9X9X9X9X9X9X9X8X>X:X@XK.K.K.w.w.~ m n n n n n n n n n n m m m m m U U U U U m m m m U U U m m n n n n n n M M M M M M M M M M M M M M * ",
"0 r e +.%.%.%.%.%.%.&.&.*.*.%.%.%.%.%.%.&.+.e w w w w w w w w w w w w w w w w w w 0 0 w r 6 6 2 w ,.3.5.5.5.5.5.5.5.3.3.,.=.&.&.+.u e e e e e e r p p p N N N M M M M 9 M M 9 9 9 9 9 8 8 : : : : v T ' ] | [ ' ] { ' ' { ] ] T n 8 9 M m ~ ] 0.] ~ U M 8 9 t r e e e e u r 3 3 6 r e e r r r r 8 8 7 # # # # # # # # # # # # # # # # # # # # # # # # o           O 7 i i @.i @.@.&.i N i i 7         o 7 # # # # # # # # # # # = = = * 7 7 r 8 r N N N N N N &.N &.N N =.=.=.N N N N p p 8 7 #         7 :.i E i i i i i l i i i i l l l l l l i l l E E E E E E E E E :.:.:.:.:.:.:.i @.@.i i i i i @.l i i i i i i i i i i i u 1.5           @ ~ ! ] [ | | | ..| [ ' [ [ [ ' ] ..w.K.K.K.K.K.K.K.K.K.K.w.w.w.w.w.w.w.w.w.w.w.............w.w.w.w.K.K.K.L.L.L.L.L.L.L.L.L.L.L.L.K.] U < v K.5X=X@X| v A | @X5X5X] < % : : : : * : : : : : * * * : : : * # # # * 9 ~ 0.i.L.,X<X,X<X,XrX,X,X,XrXrXrXrX,XrXrXL.a.u.d.7.7.7.7.7.7.7.7.2.7.2.1.2.2.1.1.1.1.1.1.1.1.<.<.<.<.<.<.<.<.<.<.<.<.<.<.1.<.<.<.<.<.W ~ 0.w.i.w.w...] | ..............| | ] ] [ ] ] ! ~ ~ ~ W W W W 1.1.1.1.1.1.1.1.1.1.1.1.1.1.1.1.1.1.5.1.1.1.1.0.s.L.<XL.L.L.1XL.@X@X5X4X8X0X0X0X>X:X|.}.}.|.|.Y.Y.U.T.Y.oXoXOXOXOX9X9X9X9X9X9X>X:X@X@XK.K.K.w.0.~ n n m n n n n n n n n m m m m m m U U U U m m m m m m m m m n n n n n n n n n n n M M M M M n M M M : ",
"r r w +.%.&.%.%.%.%.&.&.&.&.%.%.%.%.%.%.&.+.e w w w w w w w w w w w w w w w w w w 0 0 w r 6 2 2 w ,.5.5.5.5.5.5.5.5.3.3.>.=.&.&.u u e w e e e w r r p p N N N M M M M M M M M 9 9 9 8 8 8 8 : : : : c U ' [ | ] ' ' ' ' ' ] ] ! v , > U ! | w.w.w.0.] U 9 8 t r e e e e y r 3 3 6 6 r r r t r r r 8 * # # # # # # # # # # # # # # # # # # # # # # @ o O           . 7 i @.&.@.@.@.@.N &.i :.7         o # # = # 3 # # # = # # # = = = 7 7 8 8 p N N N N N N N &.N N N N N N N N N N N N N N r 8 o .     o i i i i i i i l i i i i i l l l l l l i l l l E E E E E N l E :.:.:.:.:.:.:.i i i i i i @.@.@.l i i i i i i i i i i i p <.i           O N ~ ] ] ] ] | | | [ [ ' ' ' ' w.w.K.L.L.L.L.L.1XL.L.L.L.L.K.K.K.K.K.K.K.K.K.K.K.K.K.K.K.K.K.K.L.L.L.L.L.L.L.L.L.L.L.L.L.L.1X1X@X@XK.w.T R K.5X=X=X@X..w.@X5X4X5X..% @ * * * : : : : : * * * * * * * * * * 8 N 0.w.L.<X<X<X<X<X<X<X<X<X<X<XrXrXrXrXrXrXrXrXa.i.2.2.2.7.2.7.7.2.7.2.7.7.2.1.2.2.1.1.1.1.1.1.1.1.1.1.1.1.1.<.<.<.<.<.<.<.<.<.<.<.<.<.1.1.<.W 2.0.w.w.w...] ..| ....| | ..| | ] ] ] ] ] ~ ~ W W W W W <.<.1.1.1.<.1.1.1.1.1.1.1.1.1.1.1.1.1.1.1.1.5.1.1.1.w.L.L.L.L.L.L.L.@X@X5X4X4X8X0X8X8X>X-X|.}.}.Y.Y.Y.Y.T.Y.oXoXoXoXoX;X9X9X9X9X>X=X+X@X@X@XK.K.w.0.~ n n m n n n n n n n m m m m m m m m m U m m m m m m m m m m n n n n m m n n n n n n n M M m M n n M : ",
"r r w u %.%.%.%.%.&.%.%.%.%.&.%.%.%.%.%.&.+.e w w w w w w w w w w w w w w w 0 0 w 0 r r r 0 6 6 y ,.5.5.5.5.5.5.4.5.3.,.>.&.&.+.u u e w e e e e r r p N N N N M N M M M M M M 9 M 9 8 8 8 8 : : 8 : : c U T ] ] | | | ' ' ' ' ! m > c T ] ....| | ..] ~ M 9 t e u e r u r 6 3 3 8 6 r 6 6 r r r 8 7 * # # # # # # # # # # # # # # # # # # # # # # @ o O           . 7 @.@.:.&.@.@.i N &.i i t         O o # # # # # = = # # # = # # # * 7 8 9 p N N N N N N N N N N N N N N N N N N N N N N N r 7 .       t :.i i i i i i i i i i i l l l l i l i l l l E E E E E E E E :.:.:.:.:.:.:.i i i i i i i @.@.@.@.i i i i i i i i i i p i <.o           9 ~ ] ] ] ] ] ] ] [ [ ] ] | w.w.K.L.L.1X1X1X1XL.<X<X<X<X<X<XL.1X1XL.L.L.L.1X1X1X1X1X1XL.L.L.L.1XL.L.L.L.L.L.L.L.L.L.L.L.L.1X1X@X@X@XK.w...K.=X=X5X=X@X=X5X5X5X5X| & % @ $ $ # * * : : : : * : : * * : M 1.w.L.<X<X<X<X<X<X<X,X,X,X,Xa.a.S.,X,X<X<X<X<X<XL.s.0.2.2.2.2.7.2.2.2.2.2.2.2.2.1.2.2.1.1.1.8.<.<.<.1.1.1.1.<.<.<.<.<.W W W W <.<.<.<.<.<.<.1.1.W 1.2.w.w.w.w.| | w.......] ] ] ] ] ] ~ ~ ~ ~ W W <.:.W 1.1.1.1.1.1.<.1.1.1.1.1.1.1.1.1.1.1.1.1.5.5.5.1.1.1.1.0.i.L.<XL.L.L.K.@X@X5X4X8X8X8X8X9X9X;XXX|.}.Y.Y.Y.Y.Y.Y.Q.oXoXoXoXoX;X9X9X;X+X|.@X@X@X@XK.K.w.w.~ n n n n n n n n n m m m m m m m m m m m m m m m m m m m m m m n n n m m m m m n n n M m n m n n n m : ",
"r r r u %.&.%.%.%.&.%.%.%.%.%.%.%.%.%.%.&.+.e w w w w w w w w w w w w w w 0 0 0 w 0 r r r 0 6 6 u ,.5.5.5.5.5.5.5.5.3.,.=.&.&.+.u u e w e e e e r r p p N N M M N M M M M M M 8 M M M 8 8 8 8 8 8 8 : : , v T ] | | [ ' ' ' ' ! T c c T ] | | ' | | | ] U 9 8 8 e p e e t 7 3 3 7 7 6 6 7 8 8 8 7 7 # # # # # # # # # # # # # * # # # # # # # @ @ X X O             7 @.@.:.:.@.i @.i N i i t         . o o # # 3 7 = = # # # # # # = * 7 8 9 N N N N N N N N N N N N N N N N M N N N N N N N N 8 O       7 :.N i i i i i i i i i i l l l l i i i l l l l E E E E E E E :.:.:.:.:.:.:.i i i i i i i @.i @.@.i i i i i i i i i i i p <.t           7 ~ ] ] ] ] ] | | | w.w.w.w.K.L.L.L.L.L.L.<X<XL.L.<XL.<X<XL.L.<X<X<X<X1X1X1X1X1X<X<X<X1X1XL.L.L.L.L.L.L.L.L.L.L.L.L.L.K.K.1X1X1X@X@X@X@XK.@X@X@X=X=X=X=X=X=X=X@X..D T T c v % * * * * : : : : : : : : W s.<X<X<X,Xi.w.u.0.2.1.~ ~ W W W W W W W W ! 2.2.0.0.2.2.2.2.2.2.2.2.2.2.2.2.2.2.2.2.2.8.8.8.8.8.1.8.8.W W W W <.<.<.<.W W W W W W <.W <.<.<.<.<.1.1.2.0.w.w.w.| 0.0.0.] ] ] ] ! ~ ~ W ~ W W W W <.<.<.W <.1.1.1.1.1.<.1.1.1.1.1.1.1.1.1.1.1.1.1.1.1.5.1.1.1.1.2.u.L.<XL.L.L.L.@X@X5X4X4X8X8X8X9X9X;X-XXXU.U.Y.Y.Y.Y.Y.'.oXoXoXQ.oXoXoXXXXX|.|.+X+X=X=X@X@XK.0.T > c n n n n n m m m m m m m m m m m m m m m m U m m m U m m m m n n m m m m m n n M M m n m n n n m : ",
"r 0 r e +.%.%.%.*.*.%.%.%.%.&.&.%.%.%.%.%.+.$.w w w w w w w w w w w w w w 0 0 0 w 0 0 r r 0 6 6 u ,.5.5.5.5.5.5.5.5.3.,.=.&.&.+.u u w e e e e e r r r p p 9 M 9 M M M M 9 9 8 9 M 9 9 9 b 8 8 8 8 M 8 : : , c T ' ' ' ' ' ' ' ' T c c T ] | ' ' | | | ] ~ m 8 8 t p e t r 3 # 3 7 7 3 7 5 7 3 7 # # # # # # # # # # # # # # # # # # # # # # @ @ @ X X O             5 i i :.:.i i @.i i i p t .         . o o # 3 = = = = # # # # # = * 8 8 9 p N N N M M 9 9 8 8 8 8 8 8 8 8 8 8 8 8 8 9 M M 9 7 O       o i E i i i i i i i i i i l l l l i i i i l l l l E E E E l i :.:.:.:.E :.i i i i i i i l l i @.&.i i i i i i i i i i i i :.:.O         o ~ ~ ] 0.0.] w.w.w.w.K.L.L.<XL.1XL.L.L.L.<XL.L.L.L.L.<XL.<X<X<X<X<X<X<X<X<X<X<X<X<X<X<XL.L.L.1X1X1X1X1X1X1XL.L.K.K.K.K.K.@X@X5X@X@X@X@X@X@X=X=X=X=X=X+X+X@X=X@XX.| K.@X@XK.T * * * * : : : : * : * : M 2.0.2.~ W W U U U U ~ ~ ~ T T U U T T U U U U U ~ ~ ! 2.2.2.2.2.2.2.2.2.2.2.2.1.1.1.1.8.8.8.8.W W W W W W W W ~ ~ ~ ~ W W W W W W W W W <.<.W W 8.1.2.0.0.0.] ] 0.0.] ] ~ ~ ~ W W W W W W W W W W <.1.<.<.<.<.<.<.1.1.1.1.,.,.1.1.1.1.1.1.1.1.1.1.1.5.1.1.1.1.1.0.i.L.1XL.L.L.1X@X@X5X4X8X8X8X9X9X9X;XXXY.U.Y.Y.Y.Y.P.Q.oXoXQ.Y.Y.Y.XX|.|.|.+X:X:X:X4X4X5X5XK.R , c n n n n n m m m m m m m m m m m m m m U U m m m m m m m m m m n m m m m m m n n n n n m n n n m : ",
"r r r w +.%.%.%.*.&.%.%.%.%.&.&.%.%.%.%.%.+.$.w w w w w w w w w w w w w w 0 0 0 w 0 0 r r 0 2 2 u ,.5.5.5.5.5.5.5.3.3.,.=.&.&.+.u y w e e e e e r r e p p 9 9 8 9 M M 9 9 9 9 9 M 9 9 8 8 8 : : 8 8 8 9 , , b v D R ' [ | ] ' R T v A R ' ' ' ' | ' | | ] T M : 8 p r 8 8 3 # # 3 3 3 3 3 3 3 3 # # # # # # # # # # # # # # # # * # # # # # @ @ @ X X O             5 i i &.:.i i @.i i :.p t O           O o o 3 7 7 = # # # # # # = : 8 8 9 9 9 9 8 8 8 8 : * : : * * # # # # # * * : : 8 8 8 # o       . t :.i i i i i i i i i i l l l l i i i i l l l l l E E l N l :.:.:.:.:.:.i i i i i i E l l i @.@.i i i i i i i i i i p :.:.<.o         O W ~ ] 0.0.0.0.0.w.w.K.L.<X<X1X<X<XL.L.<X<X<XL.<X<X<X<X<X<X<X<X<XL.L.L.L.L.L.L.L.L.L.L.K.i.i.w.w.w.w.w.0.0.] w.w.w.w.K.@X@X5X5X=X=X=X=X@X@X=X=X=X=X=X=X=X=X=X@XH.X.@X5X4X5X..* * * * : : * * 8 * * * : * : 9 U U U ~ ~ T U T T T T T T T ! ! ! ! ~ ~ ~ ~ ~ ~ ~ 2.2.2.2.2.2.2.2.2.1.1.8.8.8.8.~ 8.8.W W W W W W W W W ~ ~ ~ W W W W W W W W W W W ~ W W W ~ ~ 2.2.] ! ! ~ ~ ~ ~ ~ U W W W W W W W W W W W W W <.1.<.<.<.<.,.<.1.,.,.,.1.1.1.1.1.1.1.1.1.1.1.1.1.1.1.1.1.0.s.L.1XL.L.1X1X@X@X5X4X4X8X8X9X9X9X>XoXY.T.Y.Y.Y.Y.Y.Y.'.'.P.P.T.Y.Y.XXXX-X>X>X8X8X8X8X8X4X5X| Z , b n n n n m m m m m m m m m m m m m U U U U m m m m m m m m m m m m m m m m m n n n n m n m n n : ",
"e r r r u &.&.&.%.%.%.%.%.%.&.&.&.%.%.%.&.+.u e w w w w w w w w w w w w w r 0 0 0 w 0 0 0 6 6 6 @.,.5.5.5.5.5.7.5.3.3.,.>.&.&.+.u u e e e w e e r r r r p p p p 9 9 9 9 M 8 8 9 9 9 9 9 9 9 9 8 M M M : , b b , v D R ] ] ] ] ' T v A R ] ] ' ' { { | | ] ' m : 8 8 N 8 7 # # 3 # # # # # # # # # # # # # # # # # # # # # # # # # # # @ @ @ @ @ X X O O .           o @.@.:.@.:.i i i i i i t o           . O o o # # = = = * # # # * 7 7 8 8 8 8 8 8 7 : * # # # # # # # # # # $ # # # # * : : # X .       7 :.:.i :.i i E i l i i i i E E E E i i i i i E E E i E E E E E E E :.:.:.:.i i i i :.:.:.:.i @.i i i i i i i i i i i i i :.t         . 9 ~ 2.2.0.] 2.] 2.0.w.L.L.<X<X<XL.L.L.L.L.L.<X<X<X<XL.L.L.L.s.s.u.0.0.1.~ N M 9 8 : # @ $ @ $ $ $ $ $ $ : v [ w.@X@X@X@X@X5X=X=X=X=X=X+X+X+X+X=X=X=X=X=X=X+X@X|.H.@X5X4X4Xw.: : : * * : : * * * * * * * : n U U T T T T T T T T T T T T T T T T T T T T T T ~ ~ ~ Q ~ ~ ! ! ! ~ W W W W W W W W W W W W W W W W W W W W W W W W W W W W W ~ ~ W W ~ W ~ ~ ~ ~ ~ ~ ~ ~ W W N W W N N W W W W W W 1.1.1.1.1.<.<.<.<.,.<.<.<.<.,.<.,.1.1.1.1.1.1.1.1.1.1.1.1.1.1.1.1.1.1.1.0.L.L.L.L.L.K.@X@X@X5X4X8X8X8X9X9X9XoXXXY.Y.Y.Y.Y.Y.Y.Y.Y.Y.T.Y.Y.Q.oX;X9X9X7X8X8X8X8X0X0X4X=X{ v b m m n n m m n m m m m m m m m m U m m m U U U m m m m m n n m m n n n n n n n n m n n n m n n : ",
"e r 0 r e +.%.&.%.%.*.%.%.%.&.%.&.%.%.%.&.+.u e w w w w w w w w w w w 0 w r 0 0 0 w 0 0 r 6 6 6 +.,.5.5.5.5.5.7.5.3.3.,.>.&.&.+.u e e e e w e e r r t t r r p p t 9 9 8 M M 9 8 9 9 9 9 M M 8 8 8 8 : : b b b b b c U R ] ] ] ] T A A ' ] ' ' ' | ' ' | | ] T 9 8 8 r 8 7 # # 3 # # # # # # # # # # # # # # # # # # # # # = = = # # @ @ @ @ @ @ X X O O .           o u @.:.@.E i i i i i i t o           . . O o o # # # = * # # # * * : : : : : : * # # # # # # # # # # # # # # # # # # # # # # # O       o N :.p E i i E i l i i i i i E E E i i i i i i i i i i E E E E E E :.:.:.:.i i i i :.:.:.:.i @.i i i i i i i i i i p i i :.i O         = W ~ ~ ~ ~ ~ ~ ~ 2.0.w.i.L.<X<XL.L.L.<X<XL.L.L.i.u.0.1.W N N N 8 : # $ $ @ # * * : : : : : b b : b T ] K.1X5X5X5X5X5X5X5X5X=X=X=X=X=X+X+X+X=X=X=X=X=X=X=X=X+X@X@X=X5X4X@XD * * : : * * * : : : : : : * : n U U T T T T T ! T T T R T T T T T ! ! ! T ! T T ! ! ! ~ ! ~ ~ ~ ~ ~ T T ~ ~ ~ ~ ~ ~ ~ ~ ~ ~ ~ ~ T T ~ ~ ~ W ~ ~ W W W ~ ~ ~ T U W ~ W ~ ~ ~ ~ ~ ~ ~ ~ U U U N N W ~ W W W W W W W W 1.1.1.1.1.,.<.<.<.<.,.<.<.<.<.,.,.,.1.1.1.1.1.1.1.1.1.1.1.1.1.1.1.1.1.1.0.i.L.L.L.L.1X@X@X@X5X4X8X8X8X8X9X9X;XXXY.T.Y.Y.Y.Y.Y.Y.Y.Y.P.Y.Q.oX;X9X9X9X9X7X7X9X>X8X0X0X0X@X' v v n n n m m n m m m m m m m m m m U U m m m m n n m m m m m n n n n n n n n n n m n n n m n n : ",
"u r 0 0 r u +.%.%.*.*.%.%.%.%.%.%.%.%.%.&.+.+.e w w w w w w w w w w 0 0 0 r r r 0 r 0 0 r 6 6 0 &.3.5.5.5.5.5.7.5.3.3.,.>.&.&.+.u e e e e w w e r r r r t t t 9 9 r 9 8 M M M M M M 9 9 M M 8 8 8 8 8 : 8 9 M b b b b A R ] ] ] R A D ' | | ' ' | ' ' | | ] ~ m 8 8 8 8 7 # # # # # # # # # # # # # # # * # # # # # # # # * * * @ @ @ @ @ @ X X X X O O .           o t @.&.i i i i i i i i t 5             . O O o # # # = = = # # # # # # * * # # $ $ # # # # # # # # # # # # # # # # # # # # # # o         t :.i E i l E i i i i i i i E E E i i i i i i i i i i i E E E E E :.:.:.:.l l @.@.i :.:.:.i i i i i i i i i i i i i i p i :.7         . p W W W ~ W W W 1.1.2.s.a.L.<X<XL.L.L.i.s.0.1.N N 8 8 8 8 9 N N W 1.0.w.w.i.i.i.L.L.L.L.w.w.w.w.K.5X5X5X5X5X5X5X5X=X=X=X=X=X=X=X=X=X+X+X+X+X+X=X=X=X=X=X=X=X+X+X=X=XK.T % % * : : : * * : : : * * : : , U U U T T T T T T T T T T T R T T T T T T T T T T U T T T T T T T U T T T U U U U U T U U T T T T T T T T T T T T T T ~ T U T T T T T T ~ ~ ~ ~ ~ ~ ~ ~ ~ U U W W N W W W W W N W W W W <.W <.<.<.<.<.<.<.<.<.,.<.,.,.,.<.1.1.1.,.,.,.<.<.<.<.1.1.1.1.1.1.W W 0.s.L.L.L.L.L.L.@X@X@X5X4X8X8X8X9X9X;XoXY.Y.Y.P.P.Y.Y.P.P.Y.P.Y.Q.oX9X9X9X9X9X9X9X;X9X9X8X0X0X8XK.A c v n n n n n m m m m m m m m m n m U n m U U m n n n m m m n n n n n n n n n n n n n n n n n : ",
"u w r 6 r e +.%.%.*.*.%.%.%.%.%.%.%.%.%.&.+.+.e w w w w w w w w w w 0 0 0 r r r 0 r 0 0 r 6 6 r &.3.5.5.5.5.5.5.5.3.3.>.>.&.&.+.u e e e e e w e r r r r r t t t r r 9 9 M M M 8 9 9 9 9 M 8 8 8 8 9 8 9 9 9 9 9 c , , c T ' ] [ R D D ' | | { ' { ' ' { | | ] U 8 8 8 7 * # # # # # # # # # # # # # # # * * # # * * # # # # # # @ @ # @ @ @ X X X O O O .           O t @.&.i i i :.i i i i p 7               . O o o # # # = = # # # # # # # # # # # # # # # # # # # $ # # # # # # # # # # # # # # # .       7 :.E l i E l i i i i i i i i i i E E E i i i i i i i i i E E E E :.:.:.:.E E i i i i :.:.i i i i :.i i i i i i i :.i i u :.p           7 N W W <.N W <.<.W 1.0.u.i.L.L.i.u.0.1.1.N N N N <.1.0.y.s.i.L.L.,X,X<X<X<X<XL.L.L.K.K.K.K...] ..@X1X@X@X=X5X5X=X=X=X=X=X=X=X=X=X=X=X+X=X=X+X+X=X=X=X=X=X=X+X=X=X@XR % @ * : : : : : * : : : * * * : , U U T T T T T T T R R R R R R R T R R T R T R U U D T T T U U U U U U U U U T T T T T T U T T T T T T T T T T T T T T T T T ! ! R ! T T U T T T T T ! 9.w.] ~ U ~ W W W W W W W ~ 1.1.1.1.W W <.=.W :.<.<.<.<.,.<.<.,.<.<.<.:.:.,.<.1.1.1.1.1.1.1.2.1.1.1.1.1.0.w.L.L.L.L.L.1X@X@X@X5X4X8X8X8X9X9X;XoXY.Y.P.P.P.P.P.P.P.P.P.Y.oXOX9X9X9X9X;X9X9X9X9X9X9X9X0X0X@Xv , v n n n n n m m m m m m m m m U n v v n m m n n n m m m n n m n n n n n n n M n n n n n n M : ",
"+.e r 0 r w +.&.%.&.*.%.%.%.%.%.%.%.%.&.&.+.$.w w w w w w w w w w w 0 0 0 r r r 0 r 0 0 r 6 6 r =.3.5.5.5.5.5.5.5.3.3.,.>.&.&.+.u y e e e e e e r r e e r r t t r r 9 M M M 9 9 8 8 8 8 8 8 8 8 9 9 8 8 8 9 8 9 M 9 : c c T ' ] ' D D ' | | { { ' ' ' { { | ] T 8 : 7 8 * # # # # # # # # # # # # # # # # # # # * * * # # # # # # # @ @ @ X X X X O O O .           . q @.:.:.i i :.i i i p p t .             . O O o # # # = # # # # # # # # # $ $ # # # # # # # @ @ @ # @ @ @ # # # # # # # # # # = O       O p :.E i E i i l i i i i i i i i E E E i i i i i i i i i E E E E :.:.:.:.i i i i i i i :.i i i i i i i i i i i i :.p :.u p :.o         o p N :.N N N :.:.:.:.1.7.y.y.y.7.1.1.1.1.2.0.u.s.i.L.L.,XrX,X,X,XL.<X<XL.L.L.L.K.K.w.w.w.....' ' | ..@X5X5X5X5X=X=X5X=X=X=X=X=X=X=X=X=X=X=X+X=X=X=X=X=X=X=X=X=X=X=X..< @ % : : : : : * * * : * * : : c U U T T T T U T T T R R R R T R R T T T G G G T G D D U U U U U U U U U U U U T T T T T T T T T T T T T T T T T T U U U R ' | ....' R T A U T T T R | K.K.w.! ~ ~ W ~ W W W ~ ~ 2.0.0.2.~ W W <.=.W <.<.<.:.:.<.<.<.1.1.<.<.<.1.7.0.0.y.u.u.u.s.i.i.s.u.u.u.0.w.i.L.L.L.L.<XL.1XK.K.@X=X>X8X9X9X9X9XoXQ.Y.P.P.P.P.P.P.P.P.P.Y.oXOX9X9X9X9X9X9X9X9X;X9X9X7X9X0X=XV , c v v n n n n n n n n m m m m n v c n m n v n v n n m n n n m n n n n n n n n n M n b n n M : ",
"%.+.w r 0 r u +.%.&.&.%.%.%.%.%.%.%.%.&.&.+.$.w w w w w w w w w w w 0 0 0 w w w 0 r 0 0 r 6 6 r =.5.5.5.5.5.5.5.5.3.3.,.>.&.&.+.u y e e e e e e r r e e e r r t r r 9 M 9 9 9 9 9 9 9 8 8 8 8 8 8 8 8 9 9 9 9 9 8 M 9 , c v T ] ' T T ' | | { ' ' ' { { ' | ] R b : * * * * * # # # # # # # # # # # # # # # # # # # # # # # # # # # @ @ X X X X X O O O .             0 @.:.:.i i :.i i i p i t O             . . O o X # = = # # # # # # # # # $ $ # # # # # # # # # # # # # # # # # @ # # # # # # = X         8 E E i l i l l i i i i i i i i E E E i i i i i i i i i i E E E :.:.:.:.i i i i i i i i i i i i i i i i i i i i i p :.@.p :.7           7 p :.N N N &.:.:.E :.<.1.5.7.7.6.y.s.s.a.L.L.,X,XL.,X<X<X<X,X<X<X<X<XL.<XL.K.K.w.w.....| ....| ......K.@X5X5X5X5X=X=X=X=X=X=X=X=X=X=X=X=X=X=X=X=X=X=X=X=X=X+X=X5X@X| v % % : : * * : : * * * * : c c U U T T T U U T T T T R R G G G G R R R T T T G G D D D U U U U U U U U U U U U U U U U T T U U U T T T U T T T T U D G G { X.|.}...{ H D A D D D ' X.@X@Xw.] ~ ~ W ~ W W ~ ~ ! 0.w.w.0.! W N N N <.<.<.<.<.<.<.<.<.<.1.1.1.0.u.i.L.L.L.,X<XrX<XiX<X<XL.L.L.L.L.<XL.L.L.L.L.L.L.K.K.@X@X=X>X8X9X9X9X;XoXY.P.P.P.P.P.P.P.P.Y.'.oX9X9X9X9XOX9X9X9X9X9X9X9X7X0X0X@XA , c v v n n n n v n n n n n n n v c n Z c v v v v c n m n c n n n n n n n n n n n M n b n M M : ",
"&.+.u r 0 r w u %.%.&.%.%.%.&.%.%.%.%.&.&.+.$.w w w w w w w w w w w w w w w w w r r 0 0 0 6 6 w ,.5.5.5.5.5.5.5.5.3.3.,.>.&.&.+.u y e e e e e e r e e e e r r p t r r 9 9 9 9 9 9 9 9 8 8 8 8 8 8 8 8 9 9 M 9 9 8 9 M b , c U T R D D ' | { { ' ' ' { ' { | ] R v : = = 7 8 7 # # # # # # # # # # # # # # # # # @ @ * * @ @ @ @ @ @ @ @ X X X X X O O O .             7 @.&.E i i i i :.i i i t o             . . O o X # # = = # # # # # # # # # # # # # # # # # # # # # # # # # # # # # # # # # # * # .       o p E i l i l l i i i i i i i i E E i i i i i i i i i i i i E E l l :.:.i i i i i i i i i i i i i i i i i i i i i i i i p i p O         o p N N &.N N :.:.:.:.<.<.1.7.y.s.L.L.L.rX<X,XL.L.L.,X<XL.L.,X,X<X<XL.L.i.w.w.w...] [ [ | | ' [ [ [ [ ..X.K.=X5X5X=X=X=X=X=X=X=X=X=X=X=X=X=X=X=X=X=X=X=X=X:X=X=X:X5X@X..v < < : * * : : * : : : c Z U T U T T T T T D T R U T D D D T T T T T T T G G G D D D A D A A A A A A A D T T T S G G S D T U T U U G G G G G G T D D G { X.|.|.H.o.' G A A D D { X.@X@XX.] T U ~ ~ ~ W ~ ~ ] w.K.K.w.] ~ W N N <.<.<.<.:.<.<.<.<.1.1.2.0.s.L.L.<X<X<X<X<X<XrXrX<X<XiXiX<X<X<X<X<X<X<X<X<X1X1X@XK.K.@X+X-X>X7X9X9X;XoXY.Y.Y.P.P.P.P.P.P.Y.Q.oX9XOXOXOXOX9X9X9X9X9X9X9X0X0X:Xo.& , c v c v n n v v n n n n n n n c c v v v V D D A v c v c c c c c c v v n n n n n M n b n M M : ",
"*.%.+.w 0 6 r w %.%.%.%.%.&.&.&.%.%.%.&.&.+.+.w w w w w w w w w w w w w w w w w w r 0 0 0 6 6 w ,.5.5.5.5.5.5.5.5.3.3.,.>.&.&.+.u y w e e e e e e e e e e e r p r t r 9 9 9 9 9 9 9 9 8 8 8 8 8 M b 9 9 8 : : : 8 9 M M b c v U T D D ' | | [ ' ' ' { ' ' | ] R c : # = 8 7 7 * # # # # # # # # # # # # # # # # * * * # @ @ @ @ @ @ @ X X X X X O O O O .             7 @.&.E i i i i @.i i i t o             . . O X X @ # = = # # # # # # # # # # # # # # $ $ # # # # # # # # # # # # # # # # # # * = O       O p E i l i E i i i i i i i i i i i i i i i i i i i i i i i i l l :.:.&.i i i i i i i i i i i i i i i i i i i i i :.p p i p :.5         . t p N E N N N N N N >.<.<.1.0.p.L.rXrX<X,X,X,X,X,X,XL.,X,X,X<XL.L.L.L.w.w.w...[ [ | | | | [ [ [ [ [ | ' ..H.@X=X=X=X=X=X=X=X=X=X=X=X=X=X=X=X=X=X=X=X=X:X:X=X:X=X5X4X5X] b < : : : : * : : , c c T T T T T T T T D D D R R R T G G T R G G G G G G D G D A A A A A A A A A A A A G G G S S S S S A G G G G G S S S S S A D A A H } |.|.|.} { F A V A F { X.@X@XX.{ T U U ~ W U T T | w.K.K.w.] ~ W W N W <.<.<.<.<.<.1.1.1.1.0.u.s.i.i.i.i.i.s.i.i.L.L.L.<X<X<X<X<X<X<X<X<X<X<X<X1X1X@XK.K.K.|.|.-X>X9X9X9XoXQ.Y.Y.P.P.P.P.P.P.Y.oXoX9X9X9X9X9X9X9X;X9X9X9X9X9X>XJ.v & v c v c v c v v n n n n n n n c v v v v D ..|.|.H A v v c c v c c c c v v n n m n b n b n M M : ",
"%.&.%.u r 0 r r +.+.&.&.%.&.&.%.&.%.%.%.&.+.$.w w w w w w w w w w w w w w w w w r 0 r r r 6 6 e ,.5.5.5.5.5.5.5.5.3.3.,.=.&.+.u u u e e w w w w w w e e e e p p p p r r r 9 9 9 9 9 8 8 8 9 9 9 8 9 9 9 9 9 9 8 8 9 M M 9 : v v m c U ' | | ' { { ' { ' ' [ [ ' m * $ # : 9 8 * # # # # # # # # # # # # # @ @ @ * * * * * # @ @ @ @ @ X X X X O O . O . .             7 :.@.:.@.i i i i i i i i 5               . O X X # # # = # # * # # $ # # # # # # # $ $ # # # # # # # # # * * $ $ $ $ $ $ # # # # @         7 i N i E p i i i i i i i i i i i i E E i i i i i i i E i i i i E E E :.:.:.:.:.i i i i i i i i i i i i i i i @.@.@.@.i i i i           7 t E N &.&.:.:.:.:.:.<.<.<.2.u.L.<X,X,X,XL.,X<X,XL.L.,X,XL.L.,X<XL.L.w.w.....| ] [ | | | | | [ [ [ ' [ [ { ..K.+X=X=X=X=X=X=X=X=X=X=X=X=X=X=X=X=X=X=X=X=X:X=X=X:X5X4X@X' , : : : , > c n U U T T T T T T T T T T T T R R R R R R R R T T T G G T T T D D D A A A A A A A D A A A A D T T T U U U U U D D D D G G A A A A A F H o.}.|.}.J.o.O.J V V F o.H.|.|.X.' T T U U m U T R ..K.@XK...! U U N M W W <.<.<.<.1.1.1.2.0.0.0.0.0.0.1.1.2.0.0.0.0.0.s.i.L.L.<X<X<X<X<X<X<X<X<XL.L.L.K.K.K.H.J.}.XX;X9X9XoXQ.Y.Y.Y.Y.P.P.P.Y.'.oXOXOX9X9X9X9X9X9X9X9X9X9X9X-Xo.v & b v v c v v c c c v c c c c c v v v v v J } >X8X:Xo.D b b v c v v V C c n m c v n n n n n M n n , ",
"%.%.%.u w r r 0 $.+.%.&.%.&.%.%.&.%.%.%.&.+.$.w w w w w w w w w w w w w w w w w r 0 r r r 6 6 e ,.5.5.5.5.5.5.5.5.3.3.,.=.&.+.u u e w e w w w w w w e e e e p p p e p r r 9 9 9 8 9 9 9 9 9 9 8 9 9 9 9 9 9 9 8 8 8 9 M n n v n m c D ' | | ' ' { ' { ' ' [ [ ' m * # # : 9 8 : # # # # # # # # # # # # # @ @ @ @ @ @ @ @ @ @ @ @ @ X @ X X X O O . .                 5 @.@.:.i i i i i i i i i 7               . O X X # # # = # # # $ $ $ # # # # # * # $ $ # # # # # # # # # # # # # # # # # # * * * # O       5 p i E N i i i i i i i i i i i i i E E i i i i i i i E i i i E E E E :.:.:.:.:.i i i i i i i i i i i i i i i i i i @.@.@.i i o         o t i N N N N N &.:.:.:.:.<.<.7.u.a.,X,X,XL.L.L.L.L.<XL.,X,X,X<XL.L.L.w.w.| ..] ] ] | ] | | | | [ [ [ | [ ' ' ..H.@X=X=X=X=X=X=X=X=X=X=X=X=X=X=X=X=X=X=X:X=X=X=X:X5X5X5X..U n m m m U U U U U T T T T T T R T R T R R G G R R R R R R U D D G G G G U D D D A A A A A A A A A A A A A G G G G D D D D D D D D D G D A A A J J H L J.}.}.}.} L J J J F o.H.|.|.} ' D A U m A U T ' ..K.@XK.| T U U U U W W W W W 1.1.1.2.2.2.0.0.2.1.1.1.1.1.1.1.1.1.1.0.0.u.i.L.<X<X<X<X<X<X1X1X1X1XL.K.K.K.H.J.J.|.XX;X9XoXQ.Y.P.Y.Y.P.P.Y.Y.Q.oXOX9X9X9X9X9X9X9X9X9X9XoX}.L V & & v v v v v b b b v v v v v v v v A A v V L |.9X0X-Xo.D v v v V F { X.{ A b c c c v v n c n v n n , ",
"%.%.%.+.u w r 6 w e +.%.&.%.%.%.%.%.%.%.&.+.$.w w w w w w w w w w w w w w w w w r 0 r 0 r 6 6 u 3.5.5.5.5.7.5.5.5.3.,.,.=.&.#.u e w w w e e e e e e e e e y r r p p e r r r 9 9 8 8 M M 9 9 9 8 9 9 9 M M M 9 8 8 8 8 M M n n n n v c R ' | ' ' ' ' { ' ' [ | ' m * # * 8 9 8 7 # # # # # # # # # # # # # # @ @ # # # # # # @ @ @ X X X X O X O . . O X X             o @.@.:.i i i i i i i i i 7               . O X X # # # # * # # # # # # $ # # # # # $ $ $ # # # # # # # # # # # # # # # # # # # * # O       O t i E p :.i i i i i i i i i i i i i i i i i i i i i E i i i E E E E :.i i i :.i i i i i i i i i i i i i i i i i i @.@.@.i i 7           t p N N N N N N :.:.&.:.>.:.:.1.u.a.,XrXrXL.L.,XL.,X,X,X<X<X<XL.i.w.w.0...| ..| | ..| ] ] | ......| | [ [ [ ' | H.@X=X=X=X=X=X=X=X=X=X=X=X:X:X:X:X:X:X=X=X=X=X5X5X5X5XK.] ~ ~ T T T T T T T T T T T T T R R R G G G G G G G G G G G T R G G G G G G D D D A A A A A A A A A A A A A G G G G G G D G D D D A D A S S G G J J J L } J.}.}.J.} L J J O.} }.|.}.} O.D A A A D D R { H.@X|.X.' D A A T T T T ~ ~ ~ 1.1.2.2.2.2.2.2.2.1.1.1.1.1.2.1.2.2.2.1.1.0.0.u.i.L.<X<X<X<X1X<X1X1XK.@XK.H.J.J.F.}.Y.oXoXoXQ.Y.Y.P.Y.P.P.Y.Q.oXOX9X9X9X9X9X9X9XOXoXoXoXU.I V v & v v v v v v v v v b v v v v V v V A V v V } -X9X9XXXo.V v v V J } =X>X+XH , v v v v v c c c v v c , ",
"%.%.%.%.+.e r 6 0 w +.%.&.&.%.%.%.%.%.%.&.+.e w w w w w w w w w w w w w w w w w w 0 r 0 0 6 0 +.3.5.5.5.5.4.5.5.5.3.,.>.&.+.u u e e e e e e e e e e e e e e e r p p e r r r 9 9 9 9 M M M M M M 9 9 9 M M M 9 8 8 8 8 M M M n n n c c T ' | ' ' ' ' { { ' | | ] U * * : 8 9 8 : # # # # # # @ @ @ @ @ @ @ # # * @ # # # # @ @ @ @ X X X X X X X @ 9 W W 9             o i :.:.i i i i i i i i i t O             . O X X # = # # # # # # # $ $ $ # # # # # # # # : * * * # # # # # # # # # # # * # # # = # O         7 N E p E i i i i i i i i i i i i i i i i i i i i i E i i i E E E E i i i i :.i i i i i i i i i i i i i i i @.@.@.@.@.@.i i i o         7 t N N N N N N &.:.&.:.>.>.N W 1.y.a.L.,X,XrXrX,XL.L.L.i.i.i.w.w.0.0.| ] ] ] ] | | | | | | | ......| | | | [ ' | X.@X@X=X=X=X=X=X=X:X:X=X=X=X=X=X=X=X:X:X:X5X5X5X5X@Xw.] ] ! ! T T ~ T T T T T T T R G G R G G G G G G G G R G G G R G G G G A G D D D D D A A A A A A A D A A A A D D D D S D D D D D D A S S A S G H H J J O.P J.}.}.}.J.P J J L } }.|.}.P L F J D D H O.{ } H.|.J.o.O.F D D T T ~ ! ~ ! ! 1.2.0.2.0.2.2.2.2.0.0.7.2.2.0.0.0.2.2.1.1.1.2.0.w.i.L.<X<X<X1X<X1X1X@X@X@X|.}.}.}.U.U.Q.XXoXQ.Y.Y.P.Y.P.Y.Y.Q.oX9X9X9X9X9XoXoXoXoXoXQ.Y.U.I I J J V V V V V V V V V V V V V D D J J J J V J |.;X9X;XXXL V b v J P XX9X0X:X{ v v v v v c c c c c v c , ",
"%.%.%.%.+.u r 0 6 r u +.&.&.&.&.%.%.%.%.%.+.e w w w w w w w w w w w w w w w w w w 0 r 0 r 6 r %.5.5.5.5.5.5.5.5.5.3.,.=.&.+.u e w w e e e e e e e e w e u y y y p p p p p 9 9 M 9 M M M 9 9 M M M M 9 9 9 9 8 8 8 8 9 M M M M m M v c T ' | { ' ' ' { { ' | | ] U : * : 8 M 8 : # # # # # @ # # @ @ @ @ @ @ # # @ @ @ @ @ @ @ @ X @ X O X O X * ~ 0.w.i.2.O           O u :.:.@.i i i i i i :.:.p O               O X X # = # # # # # $ # $ $ # * * : : 8 9 M 9 : : * * * # # # # # # # # # # # # # # # # o .       o i i N E i i i i i i i i i i i i i l l i i i i i i E i i i E E E E @.@.E i :.i i i i i i i i i i i i i i i :.:.@.@.@.@.i i :.7         o p N N N N N N N &.:.&.:.:.&.&.:.1.7.y.u.d.y.6.7.7.2.1.1.2.2.2.0.0.| | ] [ ] ] ] | | | | | ] | | | ..| | | [ ' ' [ ..H.@X=X=X=X=X=X=X=X5X5X:X:X:X:X5X5X5X5X5X@XK.w.| ] ] 2.] ! ! ! ! ~ T T T T R R G G G R G H H H G G G G G G G G G G G G D D A A D D D D D A A A A A A A D D D D A A A A S S A A A A D D A A A G L o.o.L J J O.I F.}.}.}.P L L L P }.}.F.P L O.O.O.O.L o.} J.}.}.} P L L O.' ' ' | | ] ] ] 2.2.2.0.0.2.2.2.2.2.2.2.2.2.2.2.2.2.2.0.2.1.1.1.2.w.s.L.<X<X1X1X1X@X@X@X@X|.|.|.|.Y.Y.Y.Y.Y.Y.Y.P.P.Y.P.Y.Q.oXoX9X9XOXoXoXoXoXQ.'.Y.Y.Y.Y.Y.I.P L O.O.J J J O.O.O.F J O.F O.O.O.O.O.O.O.J L XX;X9X;XoXL V v V O.}.oX9X9X-XL v v v c n c c c v v c c , ",
"&.%.+.+.+.u e r 0 0 w +.+.&.&.&.%.%.&.&.%.+.e w w w w w w w w w w w w w w w w w w 0 r 0 r 6 r &.5.5.5.5.5.4.5.5.5.3.,.*.&.+.u e e e e e e e e e e e e e u u u y u p e p p r 9 9 M M M M M M M M M M 9 9 9 9 8 8 8 9 9 M M M M M M c v U ' ' ' ' ' ' { { ' | | ] U : * : 8 : : : * * * @ @ @ @ @ # # @ @ @ @ @ @ @ @ @ @ @ @ @ @ @ @ X O O . @ ~ 0.w.w.w.2.X           . p :.@.@.i i i i i i i i p o               O X X # = # # # # # # $ # : 9 M M M N ~ ~ N M : : * * * # # # @ # @ # # # # # # $ # * # X O       . t p E l E E i i i i i i i i i i i l l l i i i i i E i i i E E E i @.@.i l :.i i i i i @.i i i i i i i i i @.@.@.@.i @.i i :.t .       . t N N N :.&.N N &.:.&.&.&.:.:.E N E <.1.<.:.N N W W 1.2.2.2.~ ! 0.0.| ......| ........] ..] | | | ..| ] ..| ] ' ' ' ..X.K.@X@X=X=X5X5X5X5X5X5X5X5X@X@X@Xw.w.| ] ! ] ] 0.0.0.] ] ! ! ! ! ! ! R R R R R R R H H H H G G R R G G G G D G G G D D D A A A D D D D A A A A A A D D D D A A A S A S A A A A A S A A A F L } J.P L J J O.P I.}.}.F.I I P F.}.}.F.F.P I L L o.} } J.}.}.F.P P P } } } o.........| ] ] ! 2.2.2.2.2.2.2.2.2.2.2.2.2.2.2.2.2.2.2.2.2.1.1.0.w.L.L.1X1X@X@X@X@X@X|.|.|.|.|.Y.Y.Y.Y.Y.Y.Y.Y.P.Y.Y.Y.Q.oXoXoXoXoXoX].'.Y.Y.Y.Y.Y.Q.Q.Q.Y.U.F.P P L L L L L L L L L L L L L L L L L I F.XX;X9X;XXXL V v J P XX;X9X;X|.O.v v v v v c c v v v v v v ",
"&.%.+.+.%.u y e 0 0 r w +.%.&.&.%.%.%.%.+.+.e w w w w w w w w w w w w w w w w w w r r 0 6 6 r &.5.5.4.5.5.4.4.5.5.3.,.*.@.#.+.e e e e e e e e e e e e e u u u u u u u p r e r t p N M M M M 9 9 M M 9 M 9 9 8 8 8 9 M M M M M M M M v U R ' ' ' ' ' ' { ' | | ' U : : : b b : 9 , , : : * @ @ @ # # @ @ @ @ @ @ @ * : : : * @ X @ X X O O X n 0.w.0.w.w.0.=             t @.@.:.i i i i i i i i p 5               o o # # # # # # # # * 8 8 N W ~ ~ ~ ~ ~ W M M : * # # * # # # # # # # # # # # # $ # * * = X .       o p E l E E E i i i i i i E i i i l i i E i i l i E i i i l E i i @.@.l l :.@.i i l i i i i i i i i i i i @.@.i @.@.@.i i i :.o         7 N N &.N &.&.N &.:.:.&.&.&.:.:.E E :.<.7.d.u.s.i.i.a.a.s.2.~ ~ ! 0.0.w.| 0.0.| | ] ] ] ] ] ] ] ] ] ] ] 0.0...] ] ] ] ] ] ..w.K.K.K.K.K.K.K.w.w.w.| ] ! ! ! ! ] ] 0.0.0.0.2.2.2.2.! ] ! ! ] ' / / / / / R R R R R R R R R G G A A A A A A A A D D A A A D D D D A A A A A D D D D A A A A A A A A G S A G A J J F o.}.}.} L J J J I P }.}.F.P P P F.I.I.F.F.F.P P P P P J.F.}.}.F.P P F.|.XX|.J.} } X.X...| ' ] ] ! ] ] 2.2.2.2.2.2.2.2.2.2.2.2.2.2.2.2.2.2.~ 2.0.w.K.1X1X@X@X@X@X|.|.|.|.|.Y.Y.Y.Y.Y.Y.Y.Y.Y.P.Y.Y.Y.Q.'.'.'.'.Q.Q.W.Y.P.Y.Y.Y.Q.Y.Y.Y.Y.Y.U.U.P P P I P P P P I P F.F.P P I P P I F.Q.oXOX9XoXXXL V J I Y.oXOXOXoXg.J V v v A v C C v V v v A v ",
"%.%.%.%.%.+.u e 0 0 0 w +.+.%.&.%.&.%.%.+.+.e w w w w w w w w w w w w w w w w w w r r 0 0 0 r *.5.5.5.5.5.4.4.5.5.3.>.*.@.#.$.e e e e e e e e e e e e u u u u u u u u u u r r e p N M M 9 9 9 9 M M M M 9 9 9 8 9 9 9 M M M M M M M c c T ' ' ' ' ' { ' ' | | ' U , : 9 b c n n U U U n : * # # # @ @ @ @ @ @ @ : n ~ ! ~ U : @ @ X X O . : ~ 0.0.] w.w.0.=             t @.@.:.i i i i i i i i i 7               o # # # # # # # # * 8 N W 1.1.1.1.~ ~ ~ N M : * $ $ # * # # # # # # # # # # # @ @ * : : = = O       O p N i E i l i i i i i E E i i i i i i E i i i i E i i i l i i i @.@.l :.:.@.i i i @.@.i i i i i i i i i :.:.@.@.@.@.i i i :.7         o N N N N N N &.:.N :.:.N N N :.:.E N :.r.L.rXrXrX,X,Xa.0.<.N W ~ 0.0.0.0.] 0.] ] ] ] ] ~ ~ ~ ~ ~ T ~ ] ] ] ] 0.w.] ] ] ] ] ] [ ~ T ! ! ! ! ] ! ! ! ! 0.0.0.0.2.2.0.2.2.2.2.2.2.2.! ] ! ] | | |  .| | | { { { { / R R R R G A A C C C C C Z A A A A A A D D D A D A A A A D D D D G G G D D D A A G A S G G J J J L }.|.}.P I J J I P I.U.U.F.F.F.F.I.I.F.F.F.P P P P P F.F.I.I.F.F.F.}.XX>X-X|.J.} } } ..{ ' ' ' ~ ~ ] ] 2.2.2.2.2.2.2.2.2.2.2.2.2.2.2.2.2.~ ~ 2.0.w.L.1X@X@X@X@X|.|.|.|.Y.Y.Y.Y.Y.Y.Y.Y.Y.Y.Y.Y.Y.Y.Y.Q.Y.Y.Y.Y.Q.W.W.W.Y.Y.Q.Q.Q.Q.Y.Y.Y.Y.Y.U.U.U.F.P I I I I F.U.|.I.P I I I P U.XXoXOXOXoXY.L J J U.oXoXoXoXY.I J V V V D V V V V V V v A v ",
"&.&.%.+.+.+.+.+.r 0 6 r w +.%.%.*.&.&.&.%.+.w w w w w w w w w w w w w w w w w w w w w r 6 6 e =.5.5.4.5.5.5.5.5.3.3.,.=.&.u u w w w e e e e e u u u u +.$.u u u u u u u u u p p N M M 9 M M M M M M M M 9 9 9 9 M 9 M 9 9 9 9 9 M M M n U T ' ] ' { ' { { ' { ' U c : b : c n U ! ! ~ T n : * @ @ @ @ @ @ @ * : U ] 0.w.0.] U * X X O . @ U ] w.0.0.w.w.0.:             7 :.i :.i i i i i i i i p 7               o o # @ # # # @ # * 8 N W 1.2.1.1.~ N M 9 : * # # # # # # # # # # # * * * * * % : : , 9 9 : #         7 p E i E E E E E E E E l i i i i i i i l l E E l l E E i i i i i i i i i i i i i i i i i i i i i i i i l i i i @.@.i :.i :.t         O E <.E N E E E N &.&.N N :.N N :.N N N 1.s.rXrXrXL.i.0.<.N E W W ~ ~ ~ ~ ~ ~ ~ ~ W W W W U U U W U ~ ~ ~ ~ ] 0.0.0.0.0.] ! ~ T T T T ~ ~ ! ! ] 2.0.0.0.0.0.2.2.2.0.0.2.2.2.2.2.2.2.2.! ] | | .. .|  . . ...| | | { { / R R A C d d d f , d C Z A A A A A A D D A D A A A A D D G G G S G A S G G F A A F F J J H P J.}.}.I.P I I I I F.U.U.U.U.F.U.U.U.U.U.F.G.P P P P P F.F.F.F.F.F.XX;X9X;XXX}.F.} } } o.O.' ' R R ! ! ! ! ! ! ] ] ! ! ! ! ! ~ ! ~ ~ ~ ~ T T ~ ~ ] w.K.K.@X@X|.|.|.XXY.Y.Y.Y.Y.Y.Y.Y.Y.Y.Y.Y.Y.Y.Y.Y.Y.Y.Q.].oXoXoXQ.'.Q.'.Q.'.'.Q.Q.Y.Q.Q.Q.Q.Y.Y.Y.U.T.G.I I G.XXoXXXG.I I I I Y.oXoXoXOXoXU.I I I.oXoXOXOXoXU.I J O.J J O.J O.O.O.L O.O.O.J ",
"&.&.%.+.+.+.+.+.w r 6 0 w u +.%.&.%.%.&.+.+.w w w w w w w w w w w w w w w w w w 0 w 0 0 6 6 e ,.5.5.6.5.5.5.5.5.3.3.>.*.@.#.u e e e e e e e u u u u u $.$.u e u e e u u u u p p N 9 9 9 M M M M M M M M 9 9 9 9 9 9 9 9 9 9 M 9 9 9 M n n T ! ' ' ' ' { { ' { ' T c , b c n U T ] ] ] ] T n : @ @ @ @ @ @ @ : : T ! ] 0.0.0.~ : X X . X , ] 0.w.0.0.w.w.w.,             7 :.i :.i i i i i @.i i p 7 .           . # # # X @ @ X X X @ # : 9 W ~ 1.1.W M 8 : * * $ @ # # # * * * # * * * * * * : : , > 9 9 9 9 = .       o p E :.E E E i l E E E l i i i i i N i l l E E l l E E i i i i i i i i :.i i i i l i i i i @.@.:.:.:.i l i i i i @.i i :.:.p O       . i 2.2.2.<.E E :.N &.N N :.&.N :.N N N E 6.a.rXrXp.r.<.N N E E N N N W W W W U U N N M M N M M M M M N U ~ ~ ! ! 2.0.2.] ! ~ ~ ~ ~ ~ ~ ! 2.2.2.2.0.0.0.2.2.2.2.2.0.0.2.2.2.2.2.2.0.0.2.] ] ) / / | | | | | | | | { / / R R S C d d d , , , , , d d C A A A A A A A A A A A A D D G G G G G G G G F F F F F J O.L P F.}.}.}.}.F.P I I P U.U.U.U.U.U.U.U.U.U.U.F.G.P P P P G.G.G.G.F.U.XX;X9X9XoX|.}.F.J.}.J.o.{ ' R R R R R T T T T T T D T T T U T T U T T T ! ~ ] ] w.K.@X@X|.|.|.|.XXY.Y.Y.Y.Y.Y.Y.Y.Y.Y.Y.Y.Y.Y.Y.Y.Y.Q.Q.oXoXoXoXoXQ.Q.W.Q.Q.'.'.Q.Q.Q.Q.Q.Q.Y.Y.Y.Y.Y.T.T.T.Y.oX;XoXY.I I I I U.oXoXOXOXoXT.I G.Q.oXoXoXoXQ.U.I I L L L L L L P P P L I P O.",
"&.&.%.+.+.+.+.+.e r 6 6 r e +.%.%.%.%.&.+.$.w 0 w w w w w w w w w w w w w w w w 0 0 0 0 6 0 u ,.5.5.5.5.5.5.5.5.3.3.>.*.@.#.u e e e e e u u u u u u e $.$.$.+.u e e e e e e p p p p N M M M M M M M M M 9 9 M M 9 9 9 9 9 9 M 9 9 9 M 9 v U R ' ' ' ' ' { ' | ' T c , b n U ! ] ] ] ] ] ] T : @ @ @ @ @ * : , n U ~ ! ] 0.0.! n X O . @ ~ w.w.0.0.0.w.w.w.M             7 i i @.i i i i i i i i i t O           . = # # X X X X X O O O X # 8 M W W M 8 : * # # @ # @ # # * # # * % * * * : : , > > n n n n 9 , o         t i :.E E E i l E E E l i i i l i i i l l E E l l E E i i i i @.@.i i :.i i i :.l i i :.i @.i :.:.:.:.i i i i i i i i :.i :.o         t u.s.i.d.2.<.:.N :.:.:.&.&.:.:.E :.N N <.u.a.a.y.1.N N E E p E E W W W N N N N N N N N N N N N N N N N N W W ~ 1.2.2.2.2.! ~ ~ ~ ~ 2.2.2.2.2.2.2.2.2.2.2.2.2.2.2.2.2.2.2.2.2.2.2.2.2.! ! R U Z S A S G Y Y R R R R R Y U A A A d d d , , & & & & d C C A A A A A A A A D G G G G F F F F F F F F F H H H O.L I I P F.U.U.}.}.F.P P G.G.T.U.U.U.U.U.U.U.U.U.U.T.G.G.F.F.G.G.G.G.F.U.XX;X9X9XoXXX|.}.}.|.}.}.J.} L { { { { { ' ' ' ' { { { { | | ....w.w.w.w.w.w.w.w.K.K.@X@X|.|.|.|.|.XXY.Y.Y.Y.Y.Y.Y.Y.Y.Y.Y.Y.Y.Y.Q.Q.Q.Q.oXoXOXoXoXoXQ.Y.Y.Q.'.'.'.Q.Q.Q.'.Q.Q.Q.Q.Q.Q.Q.Y.Y.W.oXOXoXQ.T.I I I T.Q.oXoXoXY.I I Y.oXoXoXoXQ.Y.P I I P P I I I I I I I I I P L ",
"&.%.%.%.%.+.+.+.u r 6 6 0 w +.%.%.%.%.&.+.e w w w w w w w w w w w w w w w w w w 0 0 0 0 6 r +.3.5.5.5.5.5.5.5.5.3.,.=.&.@.#.u u e e u u u +.u u u u $.$.$.$.u u e e e e e e e e N p N M M M M M M M M M 9 9 M M M M M M M M M M 9 9 9 9 b v T ] ' { ' ' ' ' | ] T c , b n ~ ] ] ] ' ' ' ] ~ c * @ @ @ @ * : n m U T T ! ] 0.! n @ O . * ] w.0.0.0.0.w.w.w.U .           5 i i @.i i i i :.:.:.:.i t o           . = = # X X O O O . . . . . X # 9 M 9 : * * # # # # @ @ @ # * * * % * : : , > c n n n n n n n 9 =         7 p :.E E i i l l E E l i i i l i i i l l E E l l E E E E E i i i i i :.i i i @.@.@.i :.l i i :.:.:.i i i i i i i i i i i :.7         7 u.a.rXL.i.r.<.E :.:.:.N N :.N :.:.:.N N 1.u.u.1.:.N N E N N :.E W N N N N N N N N N N N N N N N N N N N N W W ~ ~ 1.2.2.2.1.1.2.2.2.2.2.2.2.2.2.2.2.2.2.2.2.2.2.2.2.2.2.2.2.2.2.2.2.! ! T U d f d d d d f d C d d S S d d d d d d d d , & & & & , d C A A A A A A S G G G F F H H H H H H H H O.O.O.L L L I I P P P G.U.U.U.I.U.G.G.G.T.U.T.U.T.T.T.T.T.U.T.T.U.U.U.U.U.U.T.T.G.U.XXoX9X9XoXoXXXY.}.|.|.|.|.|.}.|.}.J.}.}.}.}.}.|.|.|.|.|.+X+X@X=X5X1X1X1X1X1XK.K.K.K.@X+X|.XX|.|.Q.XXXXY.Q.Y.Y.Y.Y.Y.Y.Y.Y.Y.Y.Y.W.Y.Q.Q.oXOX9XOXoXoX'.Y.Q.'.oX{.].W.Y.W.W.W.W.W.'.'.'.'.'.W.W.].{.oXoXY.T.I I T.'.oXoXoXY.I I Y.oXoXoX{.Y.T.I I I I I I I I I I I I I I P I ",
"&.%.%.%.%.%.+.+.+.w 6 6 6 r u %.%.%.%.&.+.e w w w w w w w w w w w w w w w w w w w w 0 0 0 r +.3.5.5.6.5.5.5.5.3.3.,.*.&.+.+.u u u u u u +.+.+.u u u $.$.$.+.+.u u u u u e e e e r p p N N M N N M M M M M 9 M M 9 9 8 9 M M 9 8 M M M 9 : c T R ' ] ' ' ' ' | ] T c , v U ] ] ' ] ' ' ' ] ! n * @ @ @ % : > n m m U U T ! ! ~ n @ O O : ] w.] ] w.0.w.w.w.W .           o i i i i i i :.:.:.:.:.i t o           . 7 = o X X O O O O O O . . . X = : : * * % @ @ @ @ @ % * * * * * : : , , > c c U U U U n n n 9 = .       . t :.E E i i l l E E l i i i i i i i l l E E i i E E E E E E i i i i :.:.i i i i i i i i i i i :.i i @.i i i i i i i i i i p         O 7.a.rXiXiXa.7.<.:.:.:.E E :.N :.N E :.N :.1.1.E N E E N i N E N N N N N N N N N N N N N N N N N N N N N N N N W W 1.2.2.2.2.2.2.2.2.2.2.0.2.0.2.2.2.2.2.2.2.2.0.2.2.2.2.2.2.2.2.2.2.2.2.! U g d d d d d d d d d d d d d d d d d d d d d d f f , , , d C A A A A G G G G F G F H H H O.L L L L L L L L L L I P P P P G.G.U.U.U.U.U.F.G.T.U.T.T.T.T.T.T.T.T.U.Y.Y.Y.Y.U.U.U.U.T.U.Y.oXoX9X9XOXoXXX|.}.|.XXXXXXXXXXXXXX|.|.XXXXXXXXXXXXXXXXXX+X-X=X=X@X@X@XK.w.w.w.w.w.w.K.@X|.|.|.|.XXXXXXXXXXXXQ.Q.Q.Y.Q.Q.Q.W.Y.Y.W.Y.Y.Q.oXOX9XOXoXoXQ.'.oXoXoXoX{.'.P.P.W.W.W.W.'.'.].'.'.'.'.'.].{.oXoX'.P.P.Y.].oXoX{.'.T.T.oXoXoX{.].T.I I I I I I T.T.T.U.U.U.T.T.T.U.G.",
"&.%.%.%.&.&.%.+.+.e 0 6 6 r e +.%.%.%.&.+.e w w w w w w w w w w w w w w w w w w w w r 0 0 r %.3.5.6.5.5.5.5.5.5.3.,.*.*.@.+.+.$.e e u +.+.+.+.u u +.$.$.+.$.$.e u u u u e e e e e e p N p N N N N N M 9 8 9 M M M M M M M M M M M M 9 9 9 > n T ' ] ' { ' ' | ] T c , m T ] ] ' ' ' ' ' ] ! n * @ @ $ * : c n m m U U U U T T n @ O X 9 ~ ] ] ] 0.0.0.0.w.~ .           o p i i i i i i :.:.:.:.i p 7           O 7 = X O O . . O O O O . . . O @ * = * * % % * @ @ @ % * * * : : : , > c c c c n c U U n n U n 8 O         7 :.E i i i l l l E l i i i i i i i l l E E l i E E E E E E :.i i i :.:.i i i i i i i i i i i i i i i i i i i i i i i :.i :.O         l i.<XiXtXrXs.2.:.N :.E :.<.E :.N N :.E N :.<.E E E N E E E i E E N E N N N N N N N N N N N N N N N N N N N N N N W 1.2.2.2.2.2.2.2.2.2.0.2.0.0.0.0.2.2.2.2.2.2.2.2.2.2.2.2.2.2.2.2.0.9.! Q U d g g g d d d d d d d d d d g g d d d d d d f f f f f d A A A A S G G G G H H H H H L L L L L L L L L L L I P P I I P P G.G.T.U.U.U.U.U.U.U.U.Y.T.T.T.T.T.T.Y.Y.Y.Y.Y.Y.Y.Y.Y.T.U.Y.oXoXOX9X9XoXXXY.Y.Y.Y.XXoX;XoXoXXXXXXXXXXXXXXXXXY.Y.Y.|.|.XX|.@XK.w...| ] ] ] ] ] ] | X.}.|.|.|.XXXXXXXXXXXXQ.Q.Q.Q.Q.Q.Q.Q.Y.Y.Y.Y.Y.Q.oXOXOXOXOXoXoXoXoXoXOXOXoX].'.E.W.W.W.W.'.'.'.'.'.'.'.].].].{.oX{.{.].].{.[.[.[.{.P.'.oXoX{.{.'.T.I I T.U.T.Y.Y.Y.Y.'.'.Q.Q.].].Q.Y.",
"&.%.%.%.&.&.%.%.%.e r 6 6 0 w +.%.%.%.+.+.w w w w w w w w w w w w w w w w w w w w w r 0 r r %.5.5.6.6.5.5.5.5.3.3.,.>.*.&.+.+.+.e e e u +.+.u u e $.$.$.$.$.$.$.e e e e e e e e r e r r r N p p N N N 9 8 8 8 M N N N N N N N M M M M M 9 9 n U R ' ] | | ' | ' T c c T ] ] ] ' ' ' ' ' ] ! n * @ @ @ * , n m n n n n m n m U c @ O @ n T U T ! ] ] ] ] 0.~ .           O p i i i i i i i :.:.:.i p 7           . = o X . . . . . . O O O O . . X * : : : * % * % % * * < : < : , , > > c c c c > > c c > 9 U n 9 X         o p E i i i l l l E l i i i i i i i l l E E l l E E E E E E :.i i i :.:.i i i i i i i i i i i :.i i i i i i i i i i :.:.i :.7         7 u.a.rXiXiX,Xd.<.N :.E :.<.E :.:.N N :.:.N :.E E E N E E E i N i N N E N N i i i p p N N N N N N N N N N N N N M N W 1.2.2.0.0.0.2.2.2.2.0.0.2.2.2.2.2.2.2.2.2.2.2.2.2.2.2.2.2.2.2.2.9.2.Q U g g g g g g g g d d d d g g g g d d d d d d d d d d d S S S S G F F H H H H L L L L L L L L P P L P L P P P P P P P G.G.G.G.T.U.U.U.U.T.T.T.T.Y.Y.Y.Y.T.Y.Y.Y.Y.Y.Q.oXoXoXQ.Q.Y.Y.Y.Q.oXOXOXOXoXoXQ.Y.Y.Y.oXoXOX;XoXXXQ.Y.Q.Y.Y.Y.Y.Y.Y.Y.Y.|.|.|.H...| | ] ] 0.0.] ] ] ' o.H.|.|.XXXXQ.XXXXXXXXXXXXQ.Q.Q.Q.Q.Q.Y.Y.Y.Y.Y.Q.oXOX9XOXOXoXoXoXOXOXOXOXoXoX'.'.'.!.W.'.'.'.'.'.'.'.'.'.].~.(.[.[.{.{.{.{.[.[.[.{.].{.{.{.{.].!.P.P.Y.Y.Q.'.].].].].].].].].].].].Y.",
"&.%.%.&.&.&.&.%.%.e r 6 6 0 w +.%.%.%.+.+.w w w w w w w w w w w w w w w w w w w w w r 0 r r %.5.5.4.4.5.5.5.5.3.3.,.,.*.&.+.+.+.e e e e e +.u u e $.$.$.$.$.$.$.e e e $.e e e e r r r r r 9 r r N N N 9 8 8 9 M M N N N N N N N M M 9 M M 9 c n T ' ] | | | | ' T c v R ] ] ] ' ' ' ' ' ] ] U < X @ @ * , n n n n n c n c m U c # O @ M m c U T T T ! ] 0.~ .           O p i i i i i i i i :.:.i i 7           . # o X . . . O . . . O O O . . X * : , : , < < , , : , , , , > , > > > > > n n n > n c > > n n 9 =           7 i i i i l l l l l i i i i i i i l l E E l l E E E E E E :.i i i :.:.:.i i i i i :.l @.i :.:.:.i :.i i i i i i i i i i :.p         o 7.i.<XrXiXrXs.1.N :.E E :.N N :.N N :.E N N N N E N N N N E E N E E E E N i i i i p p p p p N N p N p N N N N N M N W 1.2.2.0.0.2.2.2.2.2.2.2.2.2.2.2.2.2.2.2.2.2.2.2.2.2.2.2.2.2.2.9.9.Q U g g g g g g d d d d d d g g d d d d d g g g g d d d S S G G G H H H H O.L L L L L L L L P P P P P P P P P F.G.P F.F.U.U.U.U.U.U.U.Y.Y.Y.Y.Y.Y.Y.Y.Y.Y.Y.Y.Y.Y.Y.Y.Q.oXoXoXoXoXQ.Y.Y.Q.oXOXOXOXoXoXQ.Y.Y.Q.oXOX9X9XoXXXQ.Y.Q.Y.Y.Y.Y.Y.Y.Y.Y.|.|.|.o.' | | | 0.0.0.0.] ] ' o.H.|.XXXXXXQ.Q.XXXXXXXXXXXXQ.Q.Y.Q.Q.W.W.Y.Y.Y.Q.oXOX9XOXOXOXoXOXOXOXOXOXoXoX].'.'.!.!.'.'.!.'.!.'.!.].!.!.~.(.(.(.(.(.~.(.[.[.[.[.(.(.(.[.[.~.!.'.].].].].].{.].].{.].].].].!.~.{.P.",
"%.%.%.%.%.%.%.%.%.y r 6 6 0 w e +.+.%.+.+.w w 0 w w w w w w w w w w w w w w w w 0 w 0 r 0 r =.5.5.5.5.5.5.5.5.5.3.,.>.*.&.+.+.+.+.+.+.+.+.+.+.+.$.$.+.+.+.+.$.$.u u +.$.e e u u e e e e r r p N N N M 9 8 8 9 N N N N M M M M N N M M M 9 M M M U T ' ] ] | ] R U A T ' [ ] ' ' ' ' ' ' ' [ m < @ @ % , v n n n n m n n n m m > * O * n m n U U U T U ~ ! W O           . t i i i @.:.i :.i i i i i 7 O           O o O . . . . . . . O O O O O O % , > > c c > > > > > > c > , > > > > > > c c c c > > > c n n 9 =           o i p i E i i E i i i i i i i i i i l l l l E E E E E E E :.i i i i :.:.:.:.i i i i :.E :.:.:.:.:.:.:.i i i i i i i i i :.:.o         E s.a.,XiXiXa.7.<.<.E E E N E E E E i i i i E E E E E E E E E E N N E E E N N N p p p p p p t p p p N N p N p p p N E W 1.2.2.2.2.2.2.2.2.2.2.2.2.2.2.2.2.2.2.2.2.2.2.2.2.2.2.2.2.9.9.9.Q Y g g g g g g g g g g g d g g g g d g g d d j j Y Y Y Y Y H / / / H O.L L L L L L L L I I I P P P P P P P G.F.U.U.U.U.U.U.U.U.U.U.Y.Y.Y.Y.Y.Y.Y.Y.Y.Q.oXoXQ.Q.Y.Y.Y.Q.oXoXOXOXoXoXoXQ.oXoXOX9X9XOXoXQ.Y.Y.Q.oXoXOXOXoXQ.Q.Y.Y.Y.Y.W.Y.Y.Y.Y.Y.XX|.J.L ' ] ] | | ] ] 0.| ] ' o.}.+XXXXXXX|.}.}.U.U.I.U.Y.Y.Y.Y.Y.Y.Q.Y.Y.Y.W.].oXOXOXOXOXOXOXOXOXOXOXOXOXoX].'.W.W.'.!.'.'.^.^.^.^.!.^.^.~.].~.~.~.~.~.~./././././.{.{.].(.].].].].].].{.{.{.[.[.[.[.{.].{.].{.{.P.",
"%.%.%.%.%.%.%.%.%.u r 6 6 0 r e +.%.%.+.+.w w 0 w w w w w w w w w w w w w w w w 0 w 0 r 0 r =.5.5.5.5.5.5.5.5.3.3.,.>.*.&.+.+.+.+.+.+.+.+.+.+.+.$.+.+.+.+.$.$.$.u u +.+.e e u u u e e e r e r N M N M 8 8 8 M N N N N N N N N M N N M M M M M M n U ! ] ] | ] R A A T ] ] ] ' ' ' ' ' ' ' R m < @ @ % : v n m n n m n n n m m : @ X * n U n U m n U m U ~ W .           . t i i i i i i i i i i i i t o           . O O . . . . O . . O O O O O X % , c n n n > > > c c c c > > , > > > > c c c c c > > > > > > > = .         . t i i i i i i i i i i i i i i i i l l l l E E E E E E E :.:.:.:.:.:.:.:.:.:.i i i i :.:.:.:.:.:.:.:.i i i i i i i :.i i :.7         7 u.a.L.iXiX,X6.<.:.N i E p p p p p p p p i p i N E E E E N E E E E E E N i p N <.1.1.2.1.1.<.N N 9 p N N N p p N N N W W 1.2.2.2.2.2.2.2.2.2.2.2.2.0.0.0.0.2.2.2.2.2.2.2.2.2.2.9.9.9.9.Q Y h h g g d g g g g g g g g g g g g j j k Y Y Y ^ ^ ^ / / / / { { L L L L L L P P P P I P P P P P F.F.F.U.U.U.U.U.U.U.U.Y.Y.Y.Y.Y.Y.Y.Y.Y.Y.Y.Y.Y.Y.Q.oXOXoXoXQ.Y.Y.Q.oXoXOX9XOXoXoXoXoXoXOX9X9X9XoXoXY.Y.'.oXOXOXOXoX{.'.W.Y.Y.W.W.W.W.W.W.Y.Y.Y.F.L ' | ] | | ] ] | | ] { X.|.XXXXXX|.|.I.P I I P P U.T.Y.Y.Q.Y.Y.W.W.Y.W.].oXOXOXOXOXOXOXOXOXOXOXOXOXoX].'.W.W.!.!.!.'.^.^.^.^.^.^.^.].].~.~.~.~.~.~././././././.~.].(.].].].].].{.{.{.[.[.[.oX[.{.].{.].{.{.P.",
"%.%.%.%.%.%.%.&.%.u r 6 6 6 r w +.%.%.+.$.w w 0 w w w w w w w w w w w w w w w w 0 w 0 0 0 r =.4.5.5.5.5.5.5.5.3.3.,.>.*.&.@.+.+.$.+.+.+.+.+.+.+.+.+.+.+.+.$.$.$.u u u u e e e e u u e e e e 9 M N M 9 8 8 8 M N N N N N N N N N N N M M M M M M n m ~ ] | | ' T A A T ] ] ' ' ' ] ' ' ' ' T c % @ @ : , n m m m n m m m m m m : @ X * m U m m n n U m m W N .             t i i :.i i i i i i i i i t o             . . . . . . . . . O O O O O X * > c n n n c Z Z Z > c > > > d d > > > > > > c c > > > > > > , = O           7 E E i i i i i i i i i i i i i i l l l l E E E E E E E :.:.:.:.:.:.:.:.:.:.:.:.i i i :.:.:.:.:.:.i i i i i i i i :.i i >.i .       . 2.,XrXtXiXa.7.W p p p p 9 p p p 9 9 p p p p p p E E E E E i N E W W W W <.0.u.a.,XrXrXrX<XL.i.0.1.N N p 9 p p p N N E W W 2.2.2.2.2.2.2.2.2.2.2.2.0.0.0.0.2.2.2.2.2.2.2.2.2.2.2.2.2.2.Q U g g g g d g g g d g g g g g j j j k k Y Y ^ ^ ) ) _ ` _ ` { o.o.o.L L L L P P I I I P P P F.F.F.I.I.I.U.U.U.U.Y.Y.Y.Y.Y.Y.Y.Y.Y.Y.Y.Y.Y.Y.Y.Y.Y.Y.oXOX9X9XoXoXQ.Y.Y.Q.oXoXoXOX9XOXoXoXoXOX9X9XOXoXoX].W.'.oXOXOXOXoX{.].'.W.W.W.'.'.'.'.'.W.Y.Y.I.L ' | | | | | | | ' ' o.J.|.XXXX|.}.F.P P I I I I I G.Y.Y.Q.Q.W.W.W.W.W.].oXOXOXOXOXOXOXOXOXOXOXOXOXoX].].'.W.!.!.'.^.^.^.^.!.^.^.^.].~.~.~.~.~.~.~.~.~./././.~.~.~.~.].].].{.].(.{.[.oXoXoXoX[.[.{.[.{.{.{.P.",
"%.%.%.%.%.%.&.&.%.u r 6 6 6 r e +.+.+.+.$.w w w w w w w w w w w w w w w w w w w 0 w 0 r 0 r =.4.5.5.5.5.5.5.5.3.3.,.>.*.&.@.+.+.$.+.+.+.+.+.+.+.+.+.+.+.$.$.$.$.+.+.u e e e e e u e u e e r 9 M M M 9 8 8 8 M N N N N N N N N N N N N N M 9 M M M n U ! ] | ' D A D R ] [ ] ' ' ' R R ' ' T c % @ % : c m m m m m m m m m m m : @ X * m U m m n n U m U U M O             7 i i :.:.i i i i i i i i t 5               . . . . . . . O O . . . O % : > c c Z Z Z d d d d d > > > d Z Z > > > > > > > > > > , , , : = O           O i E i E i E i i i i i i i i i i i l l l E E E E E E E :.:.:.:.:.:.:.:.:.:.:.:.i i i i :.:.:.:.:.i i i i i i i i :.i p :.:.o         t s.rXrXi.7.E 9 9 a a 9 a a a a a a a 9 9 p p l E E E E E E N E W W W 2.d.i.L.<XiXiXiXiXiXtXiX,Xi.d.2.W N p p p p p p E W W 8.2.2.2.2.2.2.2.2.2.2.2.2.2.2.2.2.2.2.2.2.2.2.2.2.2.2.2.Q Q U h h g g g g g g g g g j j k k k Y Y Y ^ ( ` _ _ _  . . . .o.o.o.o.P L L L I I I P P P P F.F.I.I.U.U.U.U.Y.Y.Y.Y.Y.Y.Y.Y.Y.Y.Y.Y.Y.Y.Y.Y.Y.Y.Y.Y.Y.Q.oX9X9XOXoXQ.Y.Y.Y.Q.oXoXoX9XOXOXOXOXOXOXOXOXoXoX{.].].oXwXOXOXwXoX].].^.^.].^.^.^.].].].'.Q.}.P L ' ' ' | | ' ' ' o.J.|.XXXXXX}.I I I I L O.J J I I U.Y.'.Q.W.W.'.W.W.].oXoXOXOXOXOXOXOXOXOXOXOXoXoX].].'.E.!.!.^.^.^.^.^.^.^.^.].].~.~.~.~.~.~.~.~.~.~.~.~.~.~.~.~.~.].].~.].(.{.[.oXwXwXoX[.[.{.[.{.{.{.!.",
"%.%.%.%.%.%.&.&.%.u r 6 2 6 0 e +.+.+.+.e w w w 0 w w w w w w w w w w w w w w w 0 w 0 r 0 r =.4.5.5.5.5.5.5.5.5.3.,.=.*.*.&.+.+.$.$.+.+.+.+.+.+.+.+.+.+.+.+.+.+.$.$.$.e +.u e e u u e e r r M M M M M 9 8 9 9 M M M N N N N N N N N N N M 9 M M M M U ~ ] | ' A v U ! ] ] ] ] ] ' T R ' R T c % @ % , n m m m m m m m m m m n : @ @ * n U n m m n U U m m 9 O             7 p :.:.:.i i i i i i i i t 7               . . . . . . O O O . . O X : , n U c c Z Z Z d d d d d d d Z Z Z d > > > > > > , , , ; < < ; % X             t E i E i i i i i i i i i i i i i i l l E E E E E E E :.:.:.:.:.:.:.:.:.:.:.:.i i i i :.:.:.:.i i i i i i i i :.i i i i :.p .       o :.6.2.<.9 7 = ; a a a a a ; ; ; ; ; a a a 9 p p p p p l W l l l p W 2.s.L.<X<XrX<X<XrXrX<XiXyXiX,Xi.0.W W p 9 9 p p p p E W W 8.2.2.2.2.0.0.2.2.2.2.2.2.2.2.2.2.2.2.2.2.9.2.2.Q Q Y h h g g g g g g j j j j k Y Y Y ^ ^ ^ ( ` _ _ _ _  .j.j.j.j.j. .} } o.P P I I I P P P P F.I.U.U.U.U.U.U.Y.Y.Y.Y.Y.Y.Y.Y.Y.Y.Y.Y.Q.Q.Y.Y.Y.W.Y.Y.Y.Y.Q.Q.oXOXOXOXOXoX].W.Y.W.'.].oXOXOXOXOXOXOXOXOXOXoXoXoX].oXoXoXOXOXwX[.{.[.{.{.{.~.].].].{.].].oXXX}.P L F J F H F O.o.}.XX-XoXoXXXU.I I I I I I I I I G.Y.Q.'.Q.W.'.W.W.E.'.{.oXOXOXOXOXOXOXOXOXOXOXoX{.].'.!.!.!.^.^.^.^.^.^.^.~.~.~.~.~.~.~.~.~.~.~.~.~.~.~.~.~.~.~.~.~.~.].].(.(.{.[.oXwXOXwX[.[.[.[.{.[.{.'.",
"%.%.%.%.&.&.&.&.+.u r 6 2 6 0 e +.+.+.+.e w w w 0 0 w w w w w w w w w w w w w w 0 w 0 r 0 r =.4.5.5.5.5.5.5.5.5.3.,.=.*.*.&.+.+.$.$.+.+.+.+.+.+.+.+.+.+.+.+.+.+.$.$.$.$.+.u e e u u e e e r M M M M M 9 9 9 9 9 M M M M N M M N N N N M N 9 M M M M m T ] ] R c A T ' ] ] ] ] ' ~ T T T T U , @ @ % > n m m m m m m m m m m n : @ @ : n U n n m n m U m m 9 O             7 p :.:.i i i i i i i :.i t 7 .               . . . . . O . . . O @ * , > U Z Z Z Z Z Z Z Z d Z Z d d C C Z > > > > > , , < ; < < * * % % X .           o p E i i i i i i i i i i i i i i l l l E E E i E E E :.:.:.:.:.:.:.:.:.:.:.:.i i i i i :.:.:.i i i i i i i i :.i i :.i i <.o         o 7 = ; = = = ; a ; a a ; ; ; ; ; ; a a - a a a a 9 9 9 a a 9 9 p W 7.s.i.L.L.<X<X<X<X<X<X<XrXiXiXrXi.2.W 9 9 9 9 9 9 9 p l W W W W ! ! 1.8.1.1.8.8.8.8.Q Q Q Q Q Q Q Q Q Q Y W U h h g g g g g g j j j k Y Y ^ ( ( ` ` _ _ _ _ _ j.z.z.j.j.z.j.j.k.} } } P P P P P g.g.U.U.U.U.U.U.Y.Y.Y.Y.Y.Y.Y.Y.Y.Y.Y.Y.Y.Y.Y.Y.Y.Y.Y.Y.Y.W.Y.Y.Y.Y.W.'.oXoXOXOXOXoX{.].W.W.W.'.].oXoXOXOXOXOXOXOXOXoXoXoXoX{.[.[.wXOXwX[.[.[.[.[.[.[.{.{.{.{.{.{.oXoXoXXX}.P L o.} J.}.|.XX-XoXoXoXQ.Q.Y.U.U.U.U.U.I.U.U.Q.XXQ.].'.].].'.W.W.].{.oXOXOXOXOXOXOXOXOXOXoXoX{.].'.!.!.^.^.^.].^.~.^.^.~.~.~.~.~.~.~.~.~.~.~.~.~.~.~.~.~.~.~.~.~.~.(.~.(.(.{.[.oXwXOXwXoX[.[.[.{.[.[.'.",
"&.%.%.%.&.&.&.&.+.+.r 6 2 6 0 e +.+.+.+.e w w w 0 0 w w w w w w w w w w w w w w w w 0 r 0 r =.5.5.5.5.5.5.5.5.5.3.3.,.*.*.&.+.+.e $.$.+.+.+.+.+.$.$.$.$.+.$.+.+.$.$.+.+.+.+.e e e u u e e r 9 M M 9 8 9 8 8 8 8 9 9 M M M M M N N M N M N N 9 9 M M M T ~ ! T c A T ' ] ] ] ] R T T T T T n : @ @ % > n m m m m m U m m m m n * @ @ : n U n n m U M U U U N X             7 y :.i i i i i i i i :.i p t O               . . . . . . . O X % : , 9 n U Z d Z Z Z Z Z Z Z Z Z d Z d d d > , , , , < < < < % % % % % % o O           . t E i E i i i i i i i i i i i l l l l E E E i E E E :.:.:.:.:.:.:.:.:.:.:.:.i i i i i i :.:.i i i i i i i i :.i i :.i i :.t .         O X = = ; ; ; ; ; ; ; a a ; ; ; ; a a ; ; ; - a a a a a a a a a l 8.0.w.s.s.i.a.<X<X<XrX<X<X<XiXyX<X0.h a , a 9 9 a 9 9 h h h h U U h h h h h h h h h h h h h h h h h h h h h h g g j j j j j k k k k Y ^ ( ( _ _ _ _ _ _ j.j.z.z.z.z.c.c.c.k.k.k.k.} } P P P g.I.U.U.}.}.Y.Y.Y.Y.Y.Y.Y.Y.Y.Y.Y.Y.Y.Y.Y.Y.Y.Y.Y.Y.Y.Y.Y.Y.Y.W.W.W.W.W.Q.W.].oXOXOXOXOXoX{.].].].].].{.oXoXOXOXOXOXOXoXoXoXoXoXoX[.[.[.wX[.[.[.[.[._.[._.[.[.[.[.[.[.{.{.oXoXoXoXoX;X;X;X;XoXoXoXoXoXoXoXoXoXoXoXoXoXoXoXoXoXoXoX{.oX{.].].].].].].oXoXoXOXOXOXOXOXOXOXOXoX{.{.].^.^.].^.^.].~.~.~.^.^.~.^.~.~.~.~.~.~.~.~.~.~.~.~.~.~.).~.~.~.~.~.~.(.].].{.[.[.wXOXOXoXoX[.[.[.[.[.].",
"&.&.%.%.&.&.&.&.+.u r 6 2 6 0 e +.+.+.+.w w 0 w 0 0 0 w w w w w w w w w w w w w w w 0 0 0 r =.5.5.5.5.5.5.5.5.5.3.3.=.*.*.&.+.$.e e e e u u +.u e e $.$.+.$.+.$.$.+.+.+.+.+.e e e e u e e r 9 M M 9 9 8 8 8 8 8 8 8 8 9 9 9 M M M M M M N N 9 9 M M M m U T T n A T ' ] ] ] ] R T U U U U n : @ @ * , n m m m m m U m m m n n % @ @ : n U m n m U M U U m N o             7 p :.i i i i i i i :.:.i p t O               . . . . . . O X % , > n 9 n > > > Z Z Z Z Z Z d Z Z d d , d > > , , < < < < % % % % % < ; ; = O             7 E p :.i i i i i i i i i i i l l l l E E E i E E E :.:.:.:.:.:.:.:.:.:.:.i i i i i i i i :.i i i i i i i i i i i :.p :.i :.O         o = = ; ; ; ; ; ; ; ; a ; - ; - - a a - - a - ; ; ; a a a a ; a h W 2.0.0.0.w.i.,X<X<XiXrXyXyXyXyXi.1.9 , ; ; a a a h h h h h h h h h h h h h h h h h h h h h h h h h g g h h h g g j j j k k Y Y Y Y ^ ^ ` _ _ _ _ h.j.j.z.z.z.x.x.v.v.v.v.v.k.k.k.g.k.g.g.I.}.}.|..XXXXXXXXXXXXXXXQ.XXQ.XXXXQ.Q.Q.Q.Y.Y.Y.T.T.Y.Y.Y.Y.Y.W.W.W.W.W.W.'.'.].oXoXOXOXOXoXoX{.{.].].].].{.oXoXwXOXOXOXoX[.oXoXoX[.[.[.[.[.[.[.[.[.[.[.[._.`.[.[.[._.[.[.[.[.{.oXoXoXoXoXoXoXoXoXoX{.{.{.oX{.oXoXoXoXoXoXoXoXoXoXoX{.oXoX{.{.].].].{.oXoXoXOXOXOXOXOXOXOXoXoX{.{.{.].].].~.~.].~.~.~.^.^.^.^.~.~.~.~.~.~.~.~.~.~.~.~.~.~.~.~.~.~.~._.[.~.].(.{.[.[.[.wXOXwXoX[.[.[.[.[.].",
"%.%.%.%.%.%.%.%.+.u r 6 6 6 0 w +.+.+.e w w 0 w 0 0 w w w w w w w w w w w w 0 0 w w w 0 0 r =.5.4.5.6.6.5.5.5.5.3.3.,.=.*.*.+.+.+.$.$.$.+.+.+.$.+.$.+.+.+.+.+.+.+.+.+.+.u e e e u u u p r r 9 9 M 9 9 8 8 8 8 : : 8 8 8 8 8 9 M M M M N M M M M M M 9 M U U U U T T ] ' ' ] ' T T U U U m n , % @ % , m m m m m m m U U m n : * @ * : n U m n n n m U M m W =             5 p i :.i i i i i i i i :.p t o               .     . O O @ = , c n c Z d c d Z Z Z Z Z Z d Z Z Z d d d d d , , , , , < < < < ; ; , , , - , o             O p i :.i i i i i i i i i i i i i i E E E E E E :.:.i i @.@.:.:.:.:.:.:.i i i i i i i i :.:.i i :.@.l i i i i i i i i i :.:.7         O = ; ; a ; ; ; ; ; - - - - - - - - - - - - - - - - - - - - - ; - h Q 0.0.w.w.w.i.<X<X<XyXyXyX<Xi.2.9 a a a - a z h h h h h k k k h h k h h h h h h h h h h h h h h h h h h g g j j k j k Y k k ^ ^ ^ ^ ` _ _ _ j.j.z.z.z.z.z.x.v.v.v.v.v.v.v.k.k.k.k.g.g.}.}.}.}.}.Y.Y..XQ.Q.Q.Q.Q.oXoXoXoXoXoXoXoXoXQ.Y.T.T.T.T.Y.Y.Q.Q.Q.Q.W.W.W.W.W.'.].{.oXOXOXOXoXoXoX{.{.{.{.{.oXoXoXoXoXoXoXoX[.[.[.[.[.[.[.[._._._._.[.`.`.`.[.[.[.[.[.[.[.[.[.[.[.[.[.[.[.{.{.{.{.{.{.{.{.{.[.[.{.{.{.{.oXoX{.{.{.{.{.{.{.{.{.{.{.{.{.{.oXoXoXwXOXOXOXOXOXwXwX[.{.{.{.~.~.{.~.~.~.~.~.~.~.~.~.~.~.~.~.(.(.(.(.(.~.~.~.~.~.~.~.~.~.~.[.[.[.[.(.~.].[.[.wXwXwXwXoX[.[.[.[.[.{.",
"%.%.%.%.%.%.%.%.+.+.r 6 6 6 6 w +.+.+.w w w 0 w 0 0 w w w w w w w w w w w w 0 0 w w r 0 0 r =.5.4.5.6.6.5.5.5.5.3.3.,.=.*.*.+.+.+.$.$.+.+.+.+.$.$.$.+.+.+.+.+.+.+.+.+.u u e e e u u u u r r r 9 8 9 8 8 8 8 8 8 : : : 8 8 8 8 M M 9 9 9 9 M M M M M 9 M U U U U T ~ ] ' ' ] ' T T c c m c n , % @ * b m m m m m m m m m n n : * @ * , n U m n U U m U n M E =             5 p i :.@.i i i i i i i :.p p o               . O O X @ * = , n n n c Z > > d Z Z Z Z Z Z d Z Z Z d d d d d d , , , , > , , , , > > d d 9 9 = .             7 :.p :.i i i i i i i i i i i i i l E E E E E E :.:.i i @.:.:.:.:.:.:.i i i i i i i i :.:.i i :.@.i i i i i i i i i i :.:.7         . = ; ; a ; ; ; ; ; - - - - - - - - - - - - - - - - - - - a - - ; - z Q 8.9.9.9.9.0.0.w.w.0.2.Q W h 9 a a a z h h h h h h k k k k h h h h h h h h h h h h h h h j j j j j j j j k k k k Y Y ^ ^ ^ ^ ( ` _ _ _ j.z.z.z.z.z.x.x.v.v.v.v.v.v.v.v.l.k.}.}.k.g.g.}.}.U.U.Y.U.U.Y.Y.Y.Y.Y.Y.Q.Q.Y.Q.Q.Q.Q.XXY.Y.T.T.T.T.Y.Y.Q.'.].].'.'.W.W.'.'.].{.oXwXwXwXoX[.[.{.{.{.{.{.[.[.[.[.[.[.[.[.[.[.[.[.[.[.[.[.[.[.[._._.`.`.`.`.`.[.[.[.[.[.[.[.[.[.[.[.[.[.[.[.[.[.[.[.[.[.[.[.[.[.[.[.[.[.[.{.{.{.{.{.{.{.{.{.{.[.[.[.[.oXoXoXoXwXOXOXwXwXwXwX[.{.{.{.~.~.(.(.(.~.~.~.~.~.~.~.~.~.(.(.(.(.(.(.(.(.(.~.~.(.(.(.(.(._._.[.[.[.[.(.{.{.[.wXwXwXwXwX[.[.[.[.[.[.",
"%.%.%.%.%.%.%.%.%.%.r 6 6 6 6 r $.+.$.w w w 0 w 0 0 0 w w w w w w w w w w w 0 0 w w r 0 6 r =.5.4.5.6.6.5.5.5.5.3.3.,.=.*.*.+.+.e e e e $.$.e e e e e +.$.e e u e u u u u u e e u e e p r p 9 9 9 9 8 8 8 8 8 9 8 8 8 8 8 8 8 8 9 9 8 8 8 8 9 M M M 9 M m m m U T ! ] ' ' ' R T U c c c n n , * % * c m U m m m m m m n n n : * @ * , n m n n U U m U n m W 8             o p i :.i i i i i @.i i i i p 7               O o * * : , > n U U n c d d Z d Z Z Z d Z Z d d Z Z d d d d d d d d d g g g g g g g g g g h h a X             o i p :.:.i i i i i i i E i i i i l E E E E E E :.:.i i i :.:.:.:.:.:.i i i i i i i i :.:.i i i @.i i i i i i i i i i i :.p O         = ; a a ; ; - - - - - - - - - - - - - - - - - - - - z - - z a - - - - a z z a a a a - a - ; ; - z z z h h h h k k h h h k k k k k h h h h h h h h h h h h h j j j j j j j Y Y Y Y Y Y ^ ^ ^ ( ( ` _ _ _ h.D.z.z.z.x.x.x.x.x.b.v.m.m.v.m.v.v.l.k.k.k.k.k.g.g.U.U.U.U.U.U.U.U.U.U.T.T.T.T.T.Y.Y.Y.Y.Y.Y.T.T.T.T.T.Y.Y.Q.Q.oX].].].].'.].].].{.[.wXwXwX[.[.[.{.{.{.[.[.[.[.[.[.[.[.[._.[.[.[.[.[.[._._._._.[.[.[._._.`.`.`.`.`.`._.[.[._._._.[.[._.[.[.[.[.[.[.[.[.[.[._._.[.[.[.[.[.[.[.[.[.[.[.[.[.[.{.[.[.[.[.[.[.[.oXoXoXwXwXwXoXoX[.[.{.{.{.(.(.(.(.(.(.(.(.(.(.(.(.(.(.(.(.(._._._._._._._._._._._._._._.[.[.[.[.[.[.[.[.[.oXwXOXwX[.[.[.[.[.[.[.",
"%.%.%.%.%.%.%.%.%.%.w 6 6 6 6 r $.+.$.w w w 0 w w w w w w w w w w w w w w w 0 0 0 r 0 0 6 r =.5.4.5.6.6.5.5.5.5.5.3.,.,.*.&.+.+.$.e e e $.$.e e e e e e e e e e e e u u u u u u u e e e r p p 9 M 8 9 9 9 9 9 8 9 8 8 8 8 8 8 8 8 8 9 9 9 9 9 9 9 M M M M m m T T [ ] ' ' ] R T U c c c n n c : % < c m U m m m m U m n n n : @ @ * , n n n n m n n m m U W 8             o p i :.i i i i i i i i i i p t .             O # = - , > n n n Z Z Z d d Z Z Z Z d Z Z d d d d Z d d d Z d d d d g g g g g g g g g g g h h h = .             t i :.:.i i i :.i i i i i i i i l l l E E E E E :.:.:.i :.:.:.:.:.i i i i i i i i i :.:.i i i i N i i i i i i i i i i i i o         o = a a a ; - - a a - - - - - - - - - - z z z z z z z z z z z z z z z z z z z z h h z z z z h h h h h h h k k k k h k k k k k k h h h h h h h h j j j j j j j j j j j k k Y Y Y Y Y ^ ^ ( ` _ _ _ _ h.h.h.z.x.x.x.x.x.b.b.A.m.V.m.m.m.m.m.v.l.k.k.k.k.k.g.g.g.g.U.U.U.U.U.U.U.g.T.T.T.T.T.T.T.T.T.T.U.U.T.T.T.T.T.Y.Q.oXoX{.].].].].].].].{.[.[.[.wX[.[.[.[.[.[.[.[._._.[.[.[.[.[.[.[.[.[.[.[._.[.[.(._._._._._._._.`.`.`.`.`._._._._._._._.[.[.[.[.[.[.[.[.[.[.[.[._._._._._.[.[.[.[.[.[.[.[.[.[.[.[.[.[.[.[.{.[.[.[.oXoXoXoXoXoXoX[.[.[.[.{.(.(.(.(.(.(.(.(.(.(.(.(.(.(.[._._._.[._.[._._._._._._._._.[._.[.[.[.wX[.[.[.[.[.[.OXOXwXwX[.[.[.[.oX[.",
"%.%.%.%.%.%.%.%.%.%.w 6 6 6 6 r +.+.$.w w w 0 w w w w w w w w w w w w w w w w w 0 r 0 6 6 r &.5.5.5.4.4.4.5.5.5.5.3.,.=.*.&.+.+.$.e e e $.$.$.e e e e e e e u u e e u u u u u u e e e r p p N 9 M M 9 8 8 8 8 8 8 8 : 8 8 8 8 8 8 9 9 8 8 9 M M 9 M M M M m m T T ] ] ] ] ] [ T U c c c n n > : % : b m m m U m m m m m n > * @ @ * : n n n n n n n n U M W 9 .           o p i :.i i i i i i i i i :.p t O             . X * , , > n c c c Z d d d Z Z Z Z d d Z Z Z Z Z Z Z Z d d d g U U U g g g Y Y g g g g g h g h ; X             5 :.p :.i i i :.i i i i i i i i l l l l E E E E E :.:.:.:.:.:.:.:.i i i :.:.:.:.:.:.i i i i :.@.@.:.l l i i i i i i i i l 7         O = a a a - a z - a - - - - - - - - z z z z z z z z h h h h h h h h h h h h h h h h k h h h h h h h h h h h k k k h k k k h h h h h h h j j j j j j j j j k j j j k k k Y Y Y ^ ^ ^ ` ` _ _ h.j.D.z.D.z.x.x.x.x.v.b.A.A.V.V.V.V.V.m.m.m.m.v.v.k.k.k.k.k.k.g.g.g.g.U.U.g.g.g.g.U.U.U.U.U.U.U.T.T.T.T.T.T.U.U.T.T.T.T.Y.Q.oX{.{.{.{.{.{.{.{.{.[.[.[.[.[.[._._._._._._._._._._._.[.[._._._._._._._._._.[._._._._._._._.`.`.`.`.`._._._._._.[.`.`.[.[.[.[.[.[.[.[.[.[.[._._.[.[.[.[.[.[.[.[.(.(.(.[.[.[.[.{.{.].'.].{.[.[.[.[.oXoX[.[.[.[.[.[.[._.(.[.[.(.(.(.(.(.(.(.(.(.[._._._._._._.[._._._._._._._.[._._._.[.[.[.wXwX[.[.[.oXoXOXOXwXwX[.[.[.[.oX[.",
"%.%.%.%.%.%.%.%.%.%.w 6 6 6 6 r e +.e w w w w w 0 w w w w w w w w w w w 0 w w w 0 0 0 6 6 r &.5.5.5.6.6.4.5.5.5.5.3.3.,.*.&.+.+.e e e e $.$.e e e e e e e e u y e u u u u e e y e e r p 9 M M M 8 8 : : : : : : : : : : 8 8 9 M 8 8 8 8 8 8 9 9 9 M M M m m m T T ! ] ] ] ] [ T U c c n v n > : % * , m m m m m m m m m n : * @ * : n n m n m m n n n U n W 9 .           O p i :.i i i i i i i i i i i p o               . X = , 9 n c > Z Z Z Z Z Z Z Z Z d d Z d Z Z Z Z Z d d d d g g g g g g g g g g g g g g g g g a +             O i p :.i i i i i i i i i i i i l l l l E E E E E E E :.:.:.:.:.:.i i i :.:.:.:.:.:.@.i i l :.@.:.:.i i i i i i i i i i i t .       . = a a a a z z z z z z z z z z z z z z z z z z h h h h h h h h h h h h h h k k h h h h h h h h k k k h h h k k k k k k k k k h h h j h h j j j j j j j j j j k k k ^ ^ ^ ^ ^ ^ ( ` _ _ h.D.z.z.x.x.x.x.x.b.A.m.V.V.B.N.B.B.B.B.B.B.$Xm.m.m.v.l.l.k.k.k.k.k.k.k.g.g.g.g.g.g.g.g.U.U.U.U.U.U.U.g.g.U.U.U.U.U.U.T.T.T.Y.Y.Q.oX{.oXoX{.{.{.{.{.[.[.[.[.[.[.[._._._._._._._._.[._._._._.[._._._._._._._._._._._._.`._._.`.`.`.`.`.`._._._._.[._._.`.`.[._._._._._._.[.[.[.[.[.[.[.[.[.[.[.[.[.(.].].{.[.{.{.'.P.P.P.].{.[.[.[.[.[.[.[.[.[.[.[.[._._._._.[.[.[.[.(.(.(.(.[._._.[.[._._._.[.[._.[.[.[.[._._._.[._.[.[.[.wXwXwXwX[.[.wXwXOXOXwX[.[.[.[.oX[.",
"%.%.%.%.%.%.%.%.%.%.w 6 6 6 0 r e +.e w w w 0 w 0 w w w w w w w w w w 0 0 0 w w w 0 0 0 6 0 +.3.5.5.5.4.4.4.5.5.5.3.3.,.*.&.+.+.+.+.+.+.+.+.+.+.e e e e u u u u u u u u u e y y p p p 9 9 M M M M 8 : : b b b b b b b : : : 8 b : : 8 8 8 8 8 8 9 9 M M M m m T ~ ! ] ] ] ] ! T U n c n n n > : @ % , m U m m m m m m m > * * * : 9 n m m m m m n m n U n W p .           O p i :.i i i i i i i i @.i i i 7                 O = , 9 n Z > Z Z Z Z Z Z Z Z Z Z Z Z Z d Z d d Z Z d d g g g g g g g g g g g g g g g g g d z = O             7 i i i i N i i i i i i i i i i l l l E E E E E l E E :.:.:.:.:.i i i :.:.:.:.:.:.i i i i i @.i i i i i i :.:.i i i i i p o         o a 9 h z z h z h h z z z z z z z z z z z z h h h h h h h h h j j k h h h h k k k h k k k k h h h k h h h k k k h k k k k k h h h h h j j j j j j j j k k k k ^ ^ ^ ^ ( ( ` ` _ h.h.D.z.x.x.x.x.x.A.N.N.N.B.B.B.B.B.B.B.B.B.B.B.B.$XB.m.m.m.v.l. X X X Xk.k.k. Xk.}.}.k.k.k.g.g.g.U.U.g.g.g.g.U.U.U.U.U.U.U.U.U.T.T.Y.Y.Q.].oXoXoX{.{.{.{.[.[.[.[.[.[.[.[._._._._._._._._._._._._.[._._._._._._._._._.(._._._.`.`.`.`.`.[.`.`._.[._._.[.[._._._.[.[.[._._._.[._._.[.[.[.[.[.[.[.[.[.[.{.].!.!.^.{.].'.P.T.T.P.!.(.[.[.[.[.[.[.[.[.[.[.[.[.(._._.[.[.[.[.[.[.[.[.[.[.[.[.[.[.[._._._.[.[._._._._._._._._._.[.[.[.[.wXwXwXwXwXOXOXOXOXwX[.[.[.[.oX[.",
"%.%.%.%.%.%.%.%.%.%.w 6 6 6 0 r e +.e w w w 0 0 w w w w w w w 0 w w w 0 0 0 w w w 0 0 0 6 0 +.3.5.5.5.5.6.4.5.5.5.3.3.,.*.&.+.+.+.+.+.+.+.+.+.+.e e u u u u u u u u u u u e y r p p p M M M M M M M M M m m m n b b b b : : : : : : : : 8 8 8 8 9 9 9 M M m m U T ! ] ] ] ] ! T U n n n n n > : @ % , m m m m m m m m m > * % : 9 n n n n m m m U U n W n W N .           . p i :.i i i i i i i i :.i i i 7                   o : 9 n Z Z Z Z Z Z Z Z Z Z Z Z U Z Z Z d d d Z d Z Z g g g g g g g g g g g g g g g g d d h a o             o :.i i i i i i :.:.:.i i i i i i i l E E E N l l E E :.:.:.:.i i i i :.:.:.:.:.:.i i i i i i i i i i i :.:.:.i i i i l i 5         o a z h h h h h h h h h h z z z z z z z z z h h h h h h h k k k j k k k k h h h h W k h h h k k k h h h h k h k h h h h h h h h h h h h j j j j j k k k Y Y ^ ( ( ( ` _ _ _ h.D.z.x.x.x.x.b.b.A.N.V.N.N.N.B.B.&X&X&X&X&X&X&X&XB.$X&X&Xm.m.m.m.#X#X X X X Xl. X Xl. X X X X X X X}.}.}.}.g.g.U.U.U.U.U.g.U.U.U.U.T.U.T.T.Y.Y.'.oXoXoX{.{.[.[.[.[.[.[.[._.[._._._._._._._._._._._._._._._._._.(._._._._.(.(._._.`.`.[.[.[.[.`.[.[._.(._._.[._._.[.[.[.[.[.[.[.[.[.[._._.[.[.[.[._._.[.[.(.!.P.P.P.'.E.P.T.g.T.T.E.{.[.[.[.[.[.[.[.[.(.[.[.{.(.(.[.[.[.[.[.[.[.[.[.[.[.[.[.[.[.[._._._._._._._._._._.[._.[.[.[.[.[.[.[.wXOXOXOXOXOXOXOXwX[.[.[.[.[.[.",
"%.%.%.%.%.%.%.%.+.+.e 6 6 0 0 0 e e e w w w w w 0 0 w w w w w w w w w w w w w w r 0 0 0 6 0 +.3.5.4.4.4.5.5.5.5.3.3.3.,.*.&.+.+.+.+.e e e e e e e e e e e e u u e e e e r r 9 9 M M M M M M M M m B m T T T T T m m n b b b : : : : : : : 8 8 8 9 9 M n n n m U T ! ] ] ] ] ~ T U c n n n n > : @ % : n m m m n m m m n 9 , 9 M n m U m n n m m n M M m U W 9 O             t @.:.:.@.i i i i i @.i i i i p                   X : , 9 > Z Z Z Z Z Z Z Z Z Z Z Z Z Z Z Z d d d d d d d d d g g g g g g g g g g g g Y g g z a =             . p p i i i i i :.:.i i i i i i i i i E E E E E E l N i :.:.:.i i i :.i i i i @.@.@.i i i i i @.&.i i i @.:.i i i i i i i 7         O ; z h h h h h h h h h h h h h h z z z h h h h h h h h h k k k k h h k k h h h h h h h k k k k k h k k k h h h h h h h h h h j j h g j j j j j j k Y Y ^ ^ ( ` ` _ _ h.D.D.x.x.x.x.b.b.A.m.N.m.B.B.N.B.B.B.C.%X%X%X&X%X&X&X&XB.B.&XB.B.B.m.m.m.m.#X#X#X#X#X#X#Xm. X X X X X X X X X X X}.}.}.g.}.g.g.g.g.g.g.U.U.T.U.T.T.T.Y.Y.'.oXoX{.{.[.[.[.[._._._._._._._._._._._._._._.[.[.[.[.[.[.[.[.(.(._._._._._._._.`.[.[.`.`._._.[._._._.[.[.[.[.[.[.[.[._._._.[.[.[.[.[.[._._.[.[.[._.[.{.E.T.T.T.T.T.T.g.I I T.P.{.{.[.[.[.[.[.[.[.[.[.[.[.[.[._._.[.[.[.[.[.[.[.[.[.[.[.[.[.[.[.[.[.[.[.[.[.[.[.[.[.[.[.[.[.[.[.[.[.[.[.wXOXOXOXOXOXwXoX[.[.[.[.].",
"%.%.%.%.%.%.%.%.+.+.e 6 6 0 0 w e e w w w w w w 0 0 w w w w w w w w w w w w w w r 0 0 0 0 6 u 3.4.4.4.4.5.5.5.5.3.3.3.,.*.&.+.+.+.+.e e e e e e e e e e e e u u e e p N N 9 M M M M M M M M M m m m m T T ~ ~ T T T T U m m v M b b : : : 8 8 9 8 8 M M n n m m T ~ ] ] ] ] T T U c c n n n > : @ * : n m m m n m m m n n 9 9 M n n n n n n n n n M M n n U 9 .             t @.:.:.i i i i i i @.i i p i i O                 X : > 9 > Z Z Z Z Z Z Z Z Z Z Z Z Z Z Z Z d d d d d d d d d g g g g g g g g g g g d g g g h 9 = .             7 i i i :.:.i :.:.@.i i i i i i i i E E E E E E E E i :.:.:.i i i :.i i i i :.:.i i i i i i l :.i i i @.:.@.i i i i :.@.t O         = a h h h h h h h h h h h h h h z h h h h h h h h h k h k k k k h h k k h h h h h h h h k k h k h k k k h h h h h h h h h h j h j j j j j j j j Y ^ ^ ( ` _ _ _ h.D.z.x.x.x.b.b.A.A.V.N.N.B.B.B.B.B.B.B.B.B.C.&X&X&X%X&XC.B.B.B.B.B.B.B.m.M.M.m.#X#X#X#X#X#X#Xm.#X#X#X#X#X#X#X X X X X X X X Xk.}.k.k.k.g.g.U.U.U.g.g.T.U.T.Y.P.'.].{.{.[.[.[._._._._._._._._._._._._._._._.[.[._._.[.[._._._.(._._._._._._.`.`.`.`.`._._._._._._.`.[.[.[.[.[.[.[.[._._._._.[.[.[.[.[._._.[.[.[.[.{.].P.T.g.T.T.T.T.T.g.g.T.P.{.oXoX[.[.[.[.[.[.[.[.[.[.[.[.[.(.[.[.[.[.[.[.[.[.[.[.[.[.[.[.[.[.[.[.[.[.[.[.[.[.[.[.[.[.[.[.[.[.[.[.[.oXwXwXwXwXwXwXoX[.[.[.[.].",
"%.%.%.%.%.%.%.%.+.+.e 6 6 0 0 w w w w w 0 w w w 0 0 w w w w w w w w w w w w w w r 0 0 0 0 6 e ,.5.4.4.4.6.6.5.5.5.3.3.,.=.&.+.u +.u e e e e u u e e e e e u p p r N N N N M M M M M m m M m m m B m m T T T ~ ~ [ ~ ~ ~ T T m m n n b b : : : : 8 : : M M n n m U T ! ] ] ] T T A c n n n n c : @ @ : n m m m n m m n n n n n 9 M 9 : , , : : : , : : : : 9 9 O             t @.:.l i i i i i i i @.i p i i o               . = : > 9 > Z Z Z Z Z U U Z Z d Z Z S S d d d d d d d d d d d g g g g g g g g g g g d g d g h h a X             o i i i :.:.:.i @.:.i i i i i i i i E E E E E E E E i :.:.:.i i i :.i i i i i i i i i i i l l i i i i :.:.i i i i i i @.p o         X a h h h h h h h h h k k h h h h h h h h h h h h h h h k k k h h h h h h h h h h h h h h h h h h k k k k h h h h h h h j j h h j j k k k k k k ^ ( ` _ _ _ D.z.z.x.x.x.b.A.N.V.V.N.N.N.N.N.B.B.B.B.C.C.C.C.C.C.B.&X&X%X&X&XB.B.B.B.B.B.N.M.M.M.#X#X#X#X#X#X#XM.#X#X#X#X#X#X#X#X#X#X#X#X#X X X X Xl. X Xk.}.}.k.k.g.g.g.g.U.T.T.T.Y.].{.{.[.[.[._._._._._._._._._._._._._._.[._._._._._._._._./._._._._._._._._.`.`._._.`._._._.`.[.[.[.[.[.[.[.[.[._._._._._.[.[._._._.[.[.[.[.{.].P.T.T.g.g.g.T.T.g.g.g.T.'.{.oX{.{.{.[.[.{.{.{.{.{.{.[.[.{.(.{.{.{.{.[.[.[.[.[.[.[.[.[.[.[.[.[.[.[.[.[.[.[.[.[.[.[.[.[.[.[.{.[.{.{.oXoXwXwXwXoX[.oX{.[.[.[.'.",
"%.%.%.%.%.+.%.%.%.+.w 6 6 0 0 w w w w w 0 0 w w 0 w w w w w w w w w w w w w w w w 0 0 0 0 6 w =.5.4.6.6.6.6.5.5.5.3.3.,.=.*.%.+.+.u e e e e u u e e e r e p N N M M M M M M M m M B B m m m m m m m B B T T T [ [ [ ~ ~ ~ T T T U U m n b : : : : : : b b b n n U T ! [ ] ] ~ T m c c n m m c : @ @ : n m U U m m m n n n n , : : * * * @ * * * % @ @ * * 9 8 .             t @.i i i i i i i i i :.i p i :.5               O = , > > c U Z Z Z Z U Z Z Z Z Z Z U S d d d d d d d d d d d g g g g g g g g g g g g g d g g h a +               t i i i :.:.i i :.i i i i i E E E E E E E E E E E i :.:.:.i i i :.i i i i i i i i i i i :.l l i i i :.:.i i i i i i i i 7         . = 9 h h h h h h h h k k h h h h h h h h h h h h h k k k k k h h h h h k h h h h h h h h h h h h h h k h h h h h h j j j j h j k k k k k Y ( ( ( ` _ _ q.D.z.z.x.x.b.A.N.N.N.N.B.B.B.B.B.B.B.C.B.B.C.C.C.C.C.&XC.&X&X&X&X%XC.C.C.C.B.B.N.N.m.m.M.#XM.M.M.C.M.M.M.M.M.M.M.M.M.m.M.M.#X#X#Xm.#X#X#X#X#X X X X X Xk.k.k.g.g.g.g.g.g.T.Y.'.].{.[.[._._._._._._._._._._._._._._._._._._._._._._././._._._._._._._._.`.`._._._._._._._.[.[.[.[.[.[.[.[.[._._.[._._._._._._._.[._.[.[.].P.T.T.T.g.T.T.g.g.g.g.T.T.'.{.oX{.{.{.[.oX{.{.{.{.{.{.{.{.{.{.{.{.{.{.[.[.[.[.oXoX{.{.{.{.{.{.{.{.{.{.{.{.{.{.{.{.{.{.{.{.{.{.{.{.{.{.{.{.{.{.oX{.oX{.{.{.oXR.",
"%.%.%.%.%.%.%.%.%.+.w 6 6 0 0 w w w w w 0 0 0 w w w w w w w w w w w w w w w w w w 0 0 0 0 6 w =.5.4.6.6.5.5.5.5.5.5.3.,.=.=.&.+.u u u u u u e e e e e r p p M M M M M M m m m B m m m m m m m m m m B B B T T T [ [ ~ ~ ~ ~ ~ ~ ~ T T m m n b : : : : : : b n n U U T ! ] ] R T m c v n m m n : * @ * > m U U m m m n n : : * % @ @ @ * * : : : : : : : , 9 9 O             t @.@.i i i i i i i i :.i i i :.7               X : , > > n U Z Z Z Z Z Z Z Z Z Z U U S d d d d d d d d d d d g g g g g g g g g g g g g g g g z 9 ; .             7 i E i i :.i i :.:.:.:.:.E E E E E E E E E E E E i :.:.:.i i i :.:.:.:.:.:.:.:.:.i i @.:.i i i i i :.:.i i i i i i p i p O       . o 9 h h h h h h h h k h h h h h h h h h h h h h h k k k k h h k k k k k h h h h h h h h h h h h h k h h h h h j j j j j j k j k k k Y ^ ^ ( ( ` _ _ D.z.x.x.x.b.V.V.N.B.B.B.C.B.B.B.B.C.C.C.C.C.C.C.C.C.C.C.&X&X&X&X%X%X&XC.C.C.C.B.B.m.m.m.m.M.M.M.M.M.M.M.M.M.M.M.M.M.M.M.M.B.M.M.M.M.M.#X#X#X#X#X#X#X X X Xl.k.k.k.g.g.g.g.g.T.T.P.'.{.[.[._._._._._._._._._._._._.[._._._._._._._._._././._._._._._.`.`.`.`._._.`.`._._.(._._._.[.[.[.[.[.[.[._._._._._._._._._._.[.[.[.{.!.P.T.T.g.g.g.g.T.g.g.g.T.P.R.{.oXoX].].].].].R.].R.R.R.R.R.R.R.'.].].].].].].].].].R.R.R.'.'.R.R.R.R.R.R.R.R.'.'.R.R.].].].R.R.].].].R.R.R.R.R.Y.Y.Y.P.P.P.R.T.",
"%.%.%.%.%.%.%.%.%.+.w 6 6 0 q w w w w w 0 0 0 w w w w w w w w w w w w w w w w w r 0 0 0 0 6 w &.5.4.6.6.5.5.5.5.5.5.3.3.,.=.&.%.u u u u u u r r t e p M M M M M M M M B B B m B B B m m v v v v m m m B B B T T T T T [ ~ ~ ~ ~ ~ ~ T T T U n v b : : : : b c n m U T ~ ] ] ! T U c v n m m n : * @ * , n m m m m m n n : * * * : : , 9 n n n n m n n U U W N #             q @.i @.i i i i i i i :.i i i i t               X , , > c c n Z c Z Z Z Z Z Z Z U U Z Z d d d d d d d d d d d g g g g g g g g g g g g g d d g z h ; O             O i :.i p E :.i :.i :.:.:.E E E E E E E E E E E E i E E E i i i E :.:.:.:.:.:.:.:.i i @.@.i i i i i :.:.i i i i i i i i i 5         O 7 p h h k h h h h k h h h h h h h h h h h h h h k k k k h h k k k k k h h h h h h h h h h h h h k h h h h j j j j k k k k k k ^ ^ ^ ^ ( ` _ _ h.D.x.x.x.b.A.V.N.N.B.B.B.B.C.B.B.B.B.M.M.M.M.C.&XC.C.C.C.C.&XC.C.%X%X%X&XC.C.&XC.B.B.N.m.m.m.m.m.M.M.M.M.&X&X&X&X&X&X&X&XM.M.M.M.M.M.M.M.m.M.#X#X#X#X#X#X#X X X X X X Xk.g.g.g.g.g.T.Y.].[.[._._._._._._._._._._._._._._._._._._._._._._._._._._._._._.`.`.`._._._._._._._.(._._._.[.[.wXwXwX[.[._.[._._.[.[._.[._.[.[.[.{.].P.T.T.g.g.g.g.g.g.g.g.g.g.T.Y.R.Y.Y.P.P.T.T.T.T.T.T.T.g.g.g.g.g.g.g.g.g.g.g.g.g.g.g.g.g.g.g.g.g.g.g.g.g.g.g.g.g.g.g.g.g.g.g.g.g.g.g.g.g.g.g.g.g.g.g.g.g.g.T.T.g.",
"%.%.%.%.%.%.%.%.%.+.w 6 6 6 0 w e w w w w r 0 w w w w w w w w w w w w w w w w w r 0 0 0 0 2 0 +.3.5.6.6.5.5.5.5.5.5.3.3.,.=.&.%.u u u u u p e r p p N M M M M M M B m B B B B m B B B B v v m m v v B v v B B B T T T T [ [ [ [ [ [ ~ ~ ~ T T m n c : : , , b n n U T T ! ] ! T U c v n m U n : * @ @ , n m m m m n n c , : : , 9 n n U U m m m n n n U U U N =             q @.i i i i i i i i i i i i i i i O             X , > > > n n Z c Z Z Z Z Z Z Z U U Z Z U U S S d d S g g d d g g g g g g g g g g g g g d g d z h , + .             8 N E i E E i :.i i i i i i i i E E E E E E E E i E E E i i i E E E :.:.:.:.:.:.i i i i i i i i i :.:.i i i i i i :.i i t O       . = 9 h h h h h h h h h h h h h h h h h h h h h h k k k h h h h h k k k h h h h h h h k k h h h k k k h j j j j j k k k Y ^ ^ ^ ^ ( ( ( ` _ _ h.D.x.x.b.A.V.V.V.V.Z.B.B.B.B.B.M.M.M.M.M.M.M.#XM.&X&X&X&XB.B.C.Z.Z.C.C.C.&XC.C.&XC.C.B.B.N.m.m.m.m.m.m.N.C.C.C.M.M.&X&X&X&XC.C.C.C.M.M.M.#XM.M.#X#X&X#X#X#X#X#X#X#X#X#X X X X X}.g.g.T.Y.].{.[._._._._._._._._._._.[._.[.[._._._._._._._._._._._._._._._.`.`.`._._._._._.`._._._._.[.[.[.wXwXwX[.[.[.[.[.[.[.[.[.[.[.[.[.{.{.^.P.T.T.g.g.g.g.g.g.g.g.g.g.g.g.T.g.g.g.g.g.g.g.g.g.g.g.g.g.g.g.g.g.g.g.g.g.g.g.g.g.g.g.g.g.g.g.g.g.g.g.g.g.g.g.g.g.g.g.g.g.g.g.g.g.g.g.g.g.g.g.g.g.g.g.g.g.g.T.g.",
"%.%.%.%.%.%.%.%.%.+.w 6 6 6 0 w e w w w w r 0 w w w w w w w w w w w w w w w w w r 0 0 0 0 6 0 u 3.5.4.4.5.5.5.5.5.5.3.3.,.=.&.%.u u u e e p p p N N N M M M B B B B B m B B B B B B B B v v m m v v B B B b b B v B T T [ [ [ [ [ ~ ~ ] ] ] T T m n b b : : b n n m U T ! ] ! T U c v v m U n : % @ @ : n m U m m n n n c n n U m U U U U m m m U n n U U U W =             t @.i i i i i i i i i i i i i i :.o             X , > > > c n Z c Z Z Z Z Z Z Z Z U Z Z U U U S d d Y Y g g d g g g g g g g g g g g g g g U U z h a a .             = p E i E E i :.i i i i i i i i E E E E E E E E i E E E i i i E l E :.:.:.:.:.:.i i i i i i i i i :.:.i i i i i i :.i i i o         o 9 z h h h h h h h h h h h h h h h h h h h h h k h k h h h h h k k h h h h h h h k k k k k h k k j j j j j j k k Y ^ ( ( ( ( ( ` ` _ _ D.z.x.x.b.V.V.V.V.V.Z.Z.Z.Z.B.B.B.B.M.M.M.M.M.M.#X#XM.M.M.&X&XB.&X&XZ.Z.B.B.B.B.B.&XC.C.C.C.C.B.m.m.A.A.m.m.m.B.C.C.M.B.C.C.&X&X&XC.&X&X&X&X&X&X&X&X&X&X&X&X&X&X&X#X#X#X#X#X#X#X X X.XU.U.T.Y.].{.{.[.[.[.[.(.(.(.(._._.[._._.[._._._._._._._.(._._._._._._._.`.`.`._._._._.`.`.[.[.[.[.[.[.[.wXwXwX[.[.[.[.(.[.[.[.[.[.[.[.{.{.{.].P.T.g.g.g.g.g.g.g.g.g.g.g.g.g.g.g.g.g.g.g.g.g.g.g.g.}. X X X X X X X X X X X X X X.X X X X X X X X X X X X X X X X X X X.X.X.Xk.l.l.l.l.k.k.k.k.}..X.X}.T.T..Xg.",
"%.%.%.%.%.+.+.+.+.+.w 6 6 0 r w w w w 0 0 w w w w w w w w w w w w w w w w w w w 0 0 0 0 0 6 6 w =.4.6.4.4.4.4.4.5.5.3.3.,.=.&.&.N N p r r 9 N N M M M M B B B B B B B B v B B B B B B B B B B B B B B B B B B B B B B T T [ [ [ [ ~ [ [ [ ] ~ ~ ~ T m v b b n n m m U T ! ] ! T U c v v n U n , * @ @ : n U U n n n n n n m U U U U U U m m m n n U n m U U n = .           7 @.i i i i i i i i i i i i i :.:.7             O 9 > c n n c c c c Z Z Z Z Z Z Z Z Z Z Z Z Z Z Z d S S S d d d d d d d g g g g g g g g U g g g z d , =               p i i E E i i N N i i i l i i E E E i l i i i i E E E i i i i i i i i i :.:.:.@.:.:.:.:.:.:.:.i i i i i i i i i p i i p t .       O 7 9 h h h h h h h h h h h h h h h h h h h k h h h h k k k k k k k h k k k h h h k k k h h j j j j j j k k k k Y ^ ^ ( ( ( ` ` _ _ h.D.x.x.b.V.V.V.Z.Z.Z.%XZ.Z.B.B.B.#X#X#Xm.m.#X#X#X#X#X#X#X#X#Xm.m.B.&X&X&X&X&X&X&XC.&X&X&X&X&XC.C.B.M.B.m.A.A.A.A.A.A.m.m.m.N.N.C.C.M.M.C.&X&X&XC.C.C.C.C.C.C.&X&X&XC.&X#X#X#X#X#X#X#X X X}.g.T.R.].{.{.[.[.[._._._.[.[._._._._._._._.[._._._._._._._._._._._._._._._._.[._._.`.[.[.[.[.[.[.[.[.wXOXOXwXwX[.[.[.(.(.[.[.[.[.{.{.{.{.R.P.T.T.g.g.g.g.g.g.k.k.k.k.k.k.k.k.k.k.k.k. Xl.l. X X X X X X X X X X X X X X X X X X X X X X X X X X X X X X X X X X X X X X X X Xl. Xl. X Xl.l.l. X X X X X X Xg.",
"%.%.%.%.+.%.%.+.+.+.w 6 6 0 r w w w w 0 0 w w w w w w w w w w w w w w w w w w w 0 0 0 0 0 6 6 w =.4.4.4.5.4.4.4.5.5.5.3.,.=.&.&.N N N N N N M M M M M M B B B B B B B B v v B B B B B B B B B B B B B B B B B B B B B D T T [ [ [ ~ [ [ [ ] ~ ~ ~ ~ U m n n n m n m U U T ! ! T U n c v n U n , * @ @ : n U U n m n n n m m U U U U U U U U m n n U n U U U M = .           7 @.i i i i i i i i i i i i i :.:.7             O 9 > > n n c c c c Z Z Z Z Z Z Z Z Z Z Z Z Z Z Z Z S S S Z d d d d d d g d g g g g g g U U g g z d > = .             t l i i E i i N i i i i l i i i i i i l i i i E E E E i i i E i i i :.:.:.:.:.@.@.:.:.:.:.:.:.i i i i i i i i i i p i i y o       . = a h h h h h h h h h h h h h h h h h h h h h h h h k k k k h h h h h h h h h h h h k h j k k k Y k k Y Y Y ^ ^ ( ( ` _ _ _ _ h.D.z.x.x.b.V.V.Z.Z.Z.B.B.&X%XZ.B.B.M.#X#X#X X X X X X X#X*X*X#X#Xm.m.m.M.#X&X&X&X&XC.C.C.M.M.M.C.C.&XC.C.C.B.N.m.A.x.x.A.A.A.A.A.A.A.m.m.m.m.m.m.m.m.m.N.N.N.N.M.M.M.M.M.M.&X#X#X#X#X#Xl.l. Xk.g.T.R.{.{.[.[.[.[._._.[.[.[._._._._._._._.[.`.`._._._._._._._._._._._._._._._._._._.[.[.[.[.[.[.[.[.wXOXwXwX[.[.[.[.[.[.[.[.[.[.[.].'.R.P.T.T.g.g.g.g.k.}.}.l.l. X X X X X X X X X X X X X X X X X X X X X X#X#X#X X X X X X X X#X#X#X#X#X#X#X#X#X#X#X#X#X#X#X#X#X#X#X#X#X#X X X#X X#X#Xl.l. X X X X X X Xk.",
"%.%.%.%.%.%.%.%.+.+.w 6 6 0 r w w w w 0 0 w w w w w w w w w w w w w w w w w w 0 w w 0 0 0 6 6 0 *.3.4.4.4.4.5.5.5.5.3.3.,.=.&.N N N N N M M M M B B B B B B B v B B B B v v v v B v B B B B v v B B B B v B v v B B B B B T T T T ~ [ [ [ [ ~ ~ ] ~ T U m n n n n m m U T T T T T U n n n m n , % @ @ : c m U U m m n n m m U U m U U U U m m m n U n U U U M : .           7 @.i i i i i i i i i i i i i i :.t .           . : , > c c c c c c Z Z Z Z Z Z Z Z Z Z Z Z A A A A Z Z S S Z Z d d d d d d d d Z Z d d Z U U Z d d z , o             5 i i i i i i i i i i i l l i i i i i l l i i E E E E E i E E :.:.:.:.:.:.:.:.i @.i :.:.E E :.i i i i i i i i i i p i i i 7         X a h h h h h h h h h h h h h h h h h h h h k h h k k k k h h h k h h h h h h h h k j k Y k k k Y Y Y ^ ^ ^ ( ( ` ( _ _ _ h.D.z.x.x.b.V.V.B.Z.Z.Z.Z.B.B.B.B.B.M.M.M.#X#X#X X Xl.l. X X*X*X*X#X Xl.l.m.m.m.M.M.B.C.C.C.M.M.M.M.M.&X&X&X&XC.&XM.m.A.A.A.A.A.A.l.A.l.l.A.A.A.l.l.l.l.l.A.l.l.A.m.A.A.A.A.A.A.m.l.l.l.l.l.k.k.k.k.U.Y.].{.[.{.[.[._._._._.[.[._._._._._._._._.`.`._._._._._._._._._._._._._._._._._._.[.[.[.wX[.[.[.[.wXwXwXwX[.[.[.[.[.[.[.[.[.[.{.'.P.T.T.g.U.g.}. X X X X X X X X X X X X X#X#X#X#X X X X X#X#X#X#X#X#X#X#X#X#X#X#X#X#X#X#X#X#X#X#X#X#X#X#X#X#X#X#X#X#X#X#X#X#X#X#X#X#X#X#X#X#X#X#X#X#X#X#X#X#X#X#X#X X#Xk.",
"%.%.%.%.%.%.%.%.%.+.w 2 6 0 w e w w w 0 0 w w w w w w 0 0 0 w w 0 w w w w w w 0 w w 0 0 0 0 6 0 %.3.4.4.4.4.5.5.5.5.5.3.,.,.&.N N N N M M M M M B B B B B v v v B B B B B B B B B v v B B v v B B B B B v B B v b B B B v B T T T ~ [ [ [ [ ~ ~ ] ~ ~ T U m m n m m m U T T T T T U n n m m n , % @ @ : c m U U m m m m m m U U U U U U U m m n n U n U U U U a O           7 @.i i i i i i i i i i i i i i :.i o             = , > c c c c c c c Z Z Z Z Z Z Z Z Z Z Z A A A A Z Z Z Z Z Z d d d d d d d d d d Z Z Z Z Z Z d d z > =             O p E N i :.i i i i i i l l l i i i i l l i l E E E E E E E E E E E E E E E E i i i i :.:.:.:.i i i i i i i i i :.p i i i t         . ; z h h h h h h h h h h h h k k h k j j k j h h h h j j h h h k h h h h h h h h j j k Y k k Y Y Y ( ^ ( ( ` ` _ _ _ _ j.z.z.x.x.b.A.N.V.B.N.B.B.B.m.m.m.m.m.m.m.#X#X X Xl.l.l.l. X X X*X X X Xl.l.l.l.l.m.m.m.m.m.m.m.m.m.m.M.M.C.C.C.C.C.M.M.N.m.m.m.m.A.A.A.A.A.l.l.l.l.l.l.l.l.l.l.k.l.l.k.k.k.k.k.k.j.h.k.k.k.k.k.k.g.g.Y.R.{.[.[.{._.[._._._._.[._._._._._._._._._.`.`._._._._._._.[.[.[._._._._._._._._._.[.[.[.[.[.[.[.[.wXOXOXOXwX[.[.[.[.[.[.[.{.{.].P.T.g.g.g.g..X X X X X X#X#X#X#X#X#X#X#X#XM.M.#X#X#X#X#X#X#X#X#X#X#X#X#X#X#X&X#X#X#X#X&X&X#X#X#X#X&X#X&X&X#X#Xm.m.m.m.#X#X&X&X#X#X#X#X$X$X#X#X#X#X&X&X&X&X#X#X#X#X#X#X*Xk.",
"%.%.+.+.%.%.%.%.%.%.w 2 2 0 w e w w w 0 0 w w w w w w 0 0 0 w w 0 w w w w w w 0 w w 0 0 w 0 6 0 +.3.4.4.4.4.5.5.4.4.5.3.3.,.=.N N N M M M M M B B B m m m m B B B B B B v B v B B B v v v B B B B B B B v B B B v B B B B B B T T T [ ~ [ ~ ~ ~ ] ] ~ T T U m m m m m m U T T T U m m n n m n > : % : > n m U m U U m m m U U U U U U U U U U n n U n U U U U 9 O           7 @.i i i i i i i i i i i i i p :.:.s             # , > c c c c c c c c c c Z Z Z Z Z Z Z Z Z Z Z Z Z d Z Z Z Z Z d Z Z Z Z Z Z Z Z Z Z Z Z Z Z Z Z d d , .             t E E i :.i i i i i i i i i i i i i l l l l E E E E E E E E E E E E E E E E i l i i :.:.:.:.i i i i i i i i i :.p i p i i O         = a h h h h h h h h h h h k k k j j j j k k k j h j j j j j j j h h h j h h h h h j j k k Y Y ( ^ ( ( ( ` _ _ _ _ h.z.z.x.x.x.b.A.m.m.m.m.m.N.N.m.m.m.m.m.l.l. X X X X Xl.l.l.l..X.X.X.X.X X X Xl.l.l.l.l.l.l.l.A.A.l.l.A.A.A.A.m.m.m.m.m.M.M.C.M.M.m.m.m.m.m.m.A.A.A.A.A.A.l.l.l.l.l.l.A.l.k.k.k.k.k.k.k.k.k.k.k.k.k.g.g.}..X{.{.{.[.[.[.[.[._._.[.[.[._._._._._.[.[._._._._._._._._._.[.[.[.[.[._._._._._.[.[.[.[.[.[.[.[.[.wXwXwXwXwXwXwX[.[.[.[.[.[.[.].P.T.T.T.}..X.X X X X X X#X#X#X#X#X#XM.M.m.m.M.M.#X#X#X#X#X#X#X#X#X#X#X#X#X#X$X#X&X&X$X$X&X&X$X$X$X$X&X&X$X$X&X&X&X&XB.B.$X&X&X&X&X&X&X&X&X&X&X&X&X&X&X&X&X&X#X#X#X#X&X#X&Xl.",
"%.%.+.%.%.%.%.%.&.%.r 2 2 0 w $.w w 0 0 0 w w w w w w w w w w w 0 w w w w w w 0 w w 0 0 w 0 6 6 e ,.5.4.4.4.4.5.4.5.5.3.1.<.N N N M M M B B m B B B B B m m B B B B v v B B B B B B B B B B B B B B B B B B B B b B B B B v B B T T T [ [ T ~ ~ [ ] ~ ~ T U m n n m m m U U U U U n n m n m n c , , > n m m m m m U U m U U U U U U U U U U n n n U n U U U U 9 X           7 @.i i i i i i i i i i i i i p :.:.7             X , , 9 c c c c c c c c c c Z Z Z Z Z Z Z Z Z Z Z Z d d d Z Z Z Z Z Z Z Z Z Z Z Z Z Z Z Z Z Z Z Z Z Z > X             7 E E i :.i i i i i i i i i i i i i l l l E l E E E E E E E E E E E i i i i i i i i @.:.:.:.i i @.@.i i i i i i i i p p :.o         o a h h h h h k k k h h h h h h h h h h j j h j h h h h j h h h h h j j h h h j j j j k k Y ^ ^ ^ ^ ` ` _ _ _ h.h.z.x.x.x.v.b.m.A.A.A.A.m.m.m.m.m.m.m.A.l.l.l. X X X X X X X X.X.X.X.X.X.X.X.X X Xl.l.l.l.l.k.l.l.l.A.A.A.A.l.A.l.l.A.A.A.m.m.M.M.M.M.M.M.M.M.M.m.m.m.m.m.m.A.A.m.A.A.l.A.A.l.l.l.l.l.l.l.l.l.k.k.k.k.}.Y..XoX{.[.[.[.[.[.[._._._._.[.[._._._._._._._.[._._._._._._._._.[.[.[.[.[.[._._._._.[.[.[.[.[.[.[.wXwXwXwXwXwXwXOX[.[.[.[.[.[.[.[.'.P.T.T.U..X.X X X X X#X#X#X#X#X#X#X#XM.M.M.M.#X#X#X#X#X#X#X#X#X#X#X#X#X#X#X#X#X$X$X$XB.$X$X$X$X$X$X$X$X$X&X$X&X&X&X$XB.$X$X$X&X&X&X&X&X&X&X&X&X&X&X&X&X&X&X&XM.&X&X#X&X#X&Xv.",
"+.%.%.%.%.%.%.%.&.&.w 2 2 q e $.w w w w 0 w w w w w w w w w w w w w w w w w w 0 0 w 0 r w r 6 6 r *.5.5.4.4.4.4.5.5.5.1.1.<.N N N M M B m m B B B B B B m m m B B v v v B B B B B B B B B B B B B B v B B B B B B b v v v B B B B T T [ [ [ [ [ ~ ~ ~ ~ T U m n n m n n m m U U m n n m n n n n n n n m n m m m m U U U U U U U U U U U U U n n n U n U U U U 9 X           7 @.i i i i i i i i p :.i i i i :.i q             . = 9 n n c c c c c c c c c c c c Z Z Z Z Z Z Z Z Z Z d d Z A A A Z Z Z Z Z Z Z Z Z Z Z Z Z Z Z Z U Z > : .           o E E i :.i i i l i i l i N i i i i l l l E l l E E l l E E i i i i i i i i i i i i @.@.:.:.l l i i i i i i i i i i i p :.7         . 7 p h h h h h k k k h h h h h h h h h h h h h h h h h j h j h j j j j h h j j j j j j k Y ^ ^ ^ ( ` _ _ h.D.z.x.x.x.b.b.V.m.m.m.m.A.A.m.m.m.m.m.m.m.l.l.l. X X X X X X.X.X.X.X.X.X.X.X.X.X.X.X X Xl.l.l.l.l.l.A.A.A.m.m.m.m.A.l.A.A.A.l.l.m.m.m.m.M.M.M.M.M.&X&X&X#X#XM.m.m.m.m.m.m.l.m.l.l.l.l.l.l.l.l.l.l.l. X.X.X.X.X{.{.[.[.[.[.[._._._._._._._._._._._._._._._._._._._.[._.[._._._._.[.[.[.[.[.`._._.[.[.[.[.[.[.wXwXwXwXwXwXwXOXwX[.[.[.[.[.[.{.{.R.T.T.Y..X X X X X#X#X#X#X#X#X&X#X&X&XM.M.M.M.M.#XM.M.M.M.M.#XM.M.#X&X#X&Xm.m.B.$X$X$XB.V.$X$X$X$X$X$X$X$X$X$X&X&XB.B.B.B.$X$X$X$X&X&X&X&X&X&X&X&X&X&X&X&XB.&XB.&X&X&X&XM.&Xv.",
"+.+.%.%.%.%.%.%.&.&.w 2 2 q $.$.w w 0 w w w w w w w w w w w w w w w w w w w w w 0 w 0 0 w r 6 6 0 &.3.5.4.4.5.4.4.5.5.1.1.1.W N M M B B m m B B B B B B m m B B B v v v B B B B v B B B B B B v B B v B B B v v B b v b b B B B B T T T [ [ [ [ [ [ ] ~ ~ T U m n n m n n n n n m n n n n n m n n n n m n n m m m m U U U m U U m m m m U n n n n n n n U U U 9 X           7 @.i i i i i i i i p :.i i :.i :.:.t .           . * 9 9 n c c c n c c c c c c c c Z Z Z c c Z Z Z Z Z Z Z Z A Z Z Z Z Z Z Z Z Z Z Z Z Z Z Z Z Z Z Z Z > 9 .           O N E i :.i i i l i i l N N i i i i l l l E i l E E l l E E i i i i i i i i i i i i i i l :.E i i i i i i i i p i p i i :.7           # 9 9 h h h h k k k k h h h h h h h g h h h h h h h h h h h h h h h h h h h j j j j j k ^ ^ ^ ^ ( _ _ D.z.x.x.b.V.N.N.V.V.V.V.V.B.B.B.N.B.B.B.m.m.m.l. X X X X X X X.X.X.X.X.X.X.X.X.XR..X.X.X.X X X X X Xl.m.m.m.m.m.m.m.m.M.M.m.m.m.l.A.A.l.A.A.m.m.m.M.M.&X&X&X$X#X&X#XM.M.#X#X#X#X#X#X X X X X X X X X.X.X.X.XoXoXoXoX{.[.[.[.[.[._._._._._._._._._._._.[._._._._.[.[.[.[.[.[._._._.[.[.[.[.[.[.[._._.[.[._._.[.[.wXwXwXwXwXwXwXwXwXwX[.[.[.[.[.{.oXR.T.U..X X X X#X#X#Xm.m.#X#XM.M.B.B.C.B.M.M.M.M.M.#XB.B.B.B.&XB.B.B.&X&X$XB.B.&X%X$X$X$X$X$X$X$X$X$X$X$X$X$X$X$X$X$XV.V.V.$X$X%X%X%X%XZ.Z.Z.Z.&X&X&XB.B.B.B.B.B.&X&X&X&XB.$Xv.",
"+.+.%.%.%.%.%.%.%.&.e 3 3 r w u w w 0 w w w w w w w w w w w w w w w w w w w w w w 0 0 0 0 0 0 6 r u ,.5.4.5.5.4.5.5.1.1.1.<.W N M B m B m v B m B B B B B B B B B B B B B B B B B B v v v B B B B v B B B B B B B B B v v v B B B B T T T T T ~ ~ ~ ] ~ ~ T T m n m U m n n n n n n n n n n n n m m m m m m m m m m m m m m U U U n n n U U n n n n n U U U U 9 o           7 @.i i i i i i i i i i i i i i i i i o             = 9 > > c n n c c c c c c c c c c c c c c c c c c c Z Z Z Z Z Z Z Z Z Z Z Z A A A Z Z Z Z Z Z Z Z A Z > =             p i i i i i i i i l l E @.i i E E E E i i i i i i E E E E i i i i l l i i i i l l E E N N i i i i i i i i i i i i i i i i O         O p a h h h h k k k h k h h h h h h h h h h g g g g g h h h h g g g g g g h j j j k k ^ ^ ^ ( ` ` _ j.x.x.b.V.N.V.B.B.B.B.B.B.B.B.B.B.B.B.B.M.M.#X#X#X X X X X X X X.X.X.XR.R..X.X.X.X.X.X.X.X.X.X.X.X X X X#X#Xm.m.m.#X#X#X#XM.M.m.m.m.A.l.l.l.l.l.A.m.m.m.#X#X&X#X#X#X#X#X X X X X X X X X X.X.X.X.X.X.XoXoXoXoXoXoX[.[.[.[.[.[.[.[._._._._._._._._._._._._.[.[._._._._._._._._._._._._.[.[._._.[.[.[.[.[.[.[.[.[.[.wXwXwXwXwXwXwXwXOXoX[.[.[.[.{.oX].R.Y.T..X X X X#X#X#X#X#XM.M.M.M.M.M.M.M.M.M.M.M.M.M.M.M.M.M.M.&XB.B.&X&X$X$X$XV.$X$X$X3X3X3X3X3X3X$X$X$X$X$X$X$XV.V.Z.Z.Z.%XV.V.$X%X%X%X&X$X%X&X%X%X$X$X$XB.&X&XB.%X&X&X&X%Xv.",
"u +.%.%.%.%.%.%.%.&.e 3 3 r w u w w 0 w w w w w w w w w w w w w w w w w w w w w w 0 0 0 0 0 0 0 0 u ,.5.5.5.5.5.5.5.1.1.1.W W N M B m B v v B m B B B B B B B v B B B B B B B B B v v v B B v v B v B B B B B B B B B B B v v v B B T T T T T ~ ~ ~ [ ~ ~ T T U m m U m m m n n n n n n n n n n n n m m m m m m m m m m n n n m n n n n U U U n n n n n n U U 9 #           7 @.i i i i i i i i i i i i i i i i i o             # , , > n c c c c c c c c c c c c c c c c c c c c c Z Z Z Z Z Z A Z Z Z C C A A A A A A A Z A Z Z Z Z U = .           7 E i i i i i i i i i E @.i i i i E E i i i i i i i E E E i i i i l l i i @.@.l l E E i i i i i i i i i i i i i i i i i i o         . a a h h h h k k k h h h h h h h h h h h g g d g z z g h h h g g g g d g j j j k k ^ ^ ^ ( _ _ _ j.x.x.b.V.V.B.B.B.&X&X&X&X&X&X&X&X&XB.&X#X#X#X#X#X X X X.X.X X.X.X.X.X.X.X.X.XR..X.XR.R.R..X.X.X.X.X.X X X X X X X#X#X#X#X#X#Xm.m.m.m.l.l.l.l.l.l.l.l.l.l.l.l.l.m.m.l.l.l.l.l.l.l.l..X.X.X.X.X.X.XoXoXoXoXoXoX{.{.oX[.[.[.[.[.[.[.[.(.[.[._.[.[.[.[._._._._.[.[.[.[._._._._.[.[.[.[.[.[.[.[._./.[.[.[.[.[.[.[.[.[.[.[.oXwXwXOXOXOXOXwXoX[.[.[.{.{.{.].R.Y.Y. X X X#X#X#X#X#X#X#XM.M.M.M.M.M.M.M.C.C.C.M.M.C.&X&XM.M.&XB.B.&X&X$X$X$XV.V.V.V.3X3X3X3X3X3X3X3X3X3X3X3X$X$XV.Z.Z.Z.V.V.V.%X%X%X&X$X$X$X%X%X$X$XV.$X%X%X$XB.B.B.&X&X%Xv.",
"+.+.%.%.%.%.%.%.%.&.w 3 3 r w u w w w w w w w w w w w w w w w w w w w w w w w w w 0 0 0 0 0 0 0 6 w *.3.5.5.5.5.5.1.1.1.<.W W N B B m B v v B B B B B B B B v v B B v v B B B B B v B v B B v v B v v v v v B B B B B B B B v v B B B T T T [ [ ~ [ [ ~ ~ ~ T T m m m m m m m m n n n n n n n n n n n n n n n n m m m n n n n n n n n n U U n n U n n n n U U 9 =           7 i i i i i i i i i i i i i i i i i i 7             X : , > n > > c c c c c c c c c c c c c c c c c c c Z Z Z Z Z Z A A Z Z Z A A A A A A A Z Z Z Z Z Z Z Z , X           o E i i i i i i i i i i i i i i i E E i i i E i i i E E E i i i i l l E &.@.@.@.i @.@.i i i i i i i i i i i i i i i i i i 7           = a h h h h k k k h h h h h h h h h h h g g z d d g g g g g g d j j j j j k k Y ^ ^ ^ ` _ _ z.z.x.v.m.V.B.B.B.&X&X&X&X&X&X&X&X&X&X&X#X#X#X#X#X#X X X X X.X.X.X.X.X.XR..X.X.XR.R.R.R.].R.R.R.R.R..X.X.X.X X X X X X X X X X X X X X Xl.l.l.l.l.l.l.l.l.l.k.k.k.k.k.k.k.k.l..X.X.X.X.X.X.X.XoXoXoXoXoXoXoX{.[.[.[.[.[.[.[.[.[.[.[._._.[.[.[.[.[.[.[._._._.(.(._.[.[.[.[.[.[.[.[.[.[.[.{.{.[.[.[.[.[.[.[.[.[.{.[.[.[.[.oXoXwXOXOXOXOXOXwXoX[.[.{.{.{.oXoXoX.X.X X X#X#X#X#X#X#X#XM.M.M.M.M.M.M.M.C.C.C.C.C.M.M.&X&X&X&XC.B.B.B.&XV.$X$XV.b.n.n.S.1X3XpXpX3X3X3X3X3X3X3X3X$X$XV.Z.Z.V.Z.Z.$X%X%X&X&X$X$X%X%XZ.V.V.$X$XZ.V.B.B.B.&X&X%Xv.",
"+.+.%.%.%.%.%.%.%.&.e 3 3 0 w u e w 0 w w w w w w w w w w w w w w w w w w w w w w 0 0 0 0 0 0 0 2 r %.3.5.5.5.1.5.1.1.1.W N m m B m m B v B B B B B B B B B v v B B B B B B v v v v B B B B v v B v v v v v v B B B B B B B B B b B B B T T [ [ [ ~ ~ ~ ] ~ T T m m m m m m m n n n n n n n n n n n n n n n n n n n n n n n n n U n n n U U n n U n n n n n U n =           7 i i i i i i i i i i i i i i i i i i p .           . = , > n > c c c c c c c c c c c c c c c c c c c Z Z Z Z Z Z Z A A A A C C A A A A A A A A A A A Z Z Z > *           . E i i i i i i i i i i i i i i i E E i i i i i i i i i E i i i i l E E @.@.@.@.@.@.@.@.i i i i i i i i i i i i i i i i i i O         X 9 z z h h h h h h h h h z h g g g h h g g d d d g g d d g g g j j j k k Y ^ ^ ` ` _ _ z.z.x.v.v.V.B.B.B.B.&X#X&X&X&X&X&X#X#X#X#X#X#X#X#X#X#X X X X.X.X.X.X.X.X.XR.Y.R.R.R.R.R.R.R.].R.'.R.R.R.R.R..X.X.X.X X X X X X X X X X X X X X Xl.l.l.l.l.l.l.l.k.k.k.k.k.k. X.X.X.X.X.XoXoXoXoXoXoXoX{.{.{.{.{.{.[.[.[.[.[.[.[.[.[.[.[._._.[.[.[.[._._._._._.(._.[._.[.[.[.[.[.[.[.[.[.{.[.[.[.[.[.[.[.[.[.[.[.{.[.{.[.oX[.oXwXwXOXOXOXOXOXOXwXoXoXoXoXoXwXOX;XoX.X X#X#X#X#X#X#X#XM.M.M.M.M.M.M.M.M.C.C.C.C.C.C.C.&X&X&X&XC.B.B.B.B.$X$XV.b.n.n.n.S.S.1XyXpXpX3X3X3X3X3X3X3X3X$X$XZ.V.Z.Z.%XZ.%X%X&X%XV.V.V.Z.Z.V.V.V.V.%X$XV.$XV.&XB.$Xm.",
"+.+.%.%.%.%.%.%.%.&.e 3 2 0 w u w w r w r r w w w w w w w w w w w w w w w w w w w 0 0 0 0 0 0 0 2 r +.=.5.5.1.1.1.1.1.<.W N B m m m m B B B B B B B B B B B B v B B v v v v v v v B B B B B v v B v v v v B B B v v v B B v B v v v v B T T [ [ [ [ ~ ~ ~ ~ ~ T U m m m m m n n n n n m m m n n n n n n n n n n n n n n n n n m U U U U n n n n U n n n n n U 9 =           7 i i i i i i i i i i i i i i i i i :.i o             = 9 > n c c c c c c c c c c c c c c c c c c c c Z Z A Z Z Z Z A C C C C C C A A A Z Z A A A A U Z A Z Z , O           t E i i i i i i i i i i i i i i E E i i i i i i i i i i i i E E E l @.@.i i i i @.i i i i i i i i i i i i i i i i i i i :.o         . a a 9 h h h h h h h h z z z z z g g d d g d d d d d d g g j j j Y j Y Y ^ ( ` _ _ j.z.x.v.v.m.V.m.B.B.$X$X$X$XB.B.#Xm.#X#X#X#X#X#Xm.#X#X#X#X X X X.X.X.X.X.X.XY.Y.Y.Y.R.R.R.R.R.R.R.R.R.R.R.R.R.R..X.X.X.X.X.X.X.X.X.X X X X X X X X X X X X X X X.X.X.X.X.X.X.X.X.X.XoXoXoXoXoXoX{.{.{.[.[.[.[.[.[.[.[.[.[.[.[.[.[.[.[.[.[.[.[.[.[.[.(.(.(._._._._._.[.[.[.[.[.[.[.[.[.[.[.[.[.[.[.[.[.{.{.{.{.{.{.{.{.{.].].'.R.R.R.].].{.{.oXoXoXoX.XQ.R.R..XoXoXoX.X X X#X#X#XB.#X#XM.M.M.M.M.&XC.C.C.&X&X&X&XM.M.M.M.C.&X&X&X%X%XB.Z.V.V.V.b.n.D.w.w.w.s.S.<XyXyXpX3X3X3X3X3X3X3X3X3X$XV.Z.Z.Z.Z.Z.%X%X%XZ.V.V.V.V.V.V.V.V.$X$X$X%XV.V.V.$Xm.",
"u +.%.%.%.%.%.%.%.&.e 2 2 0 w +.w w r w r r w w w w w w w w w w w w w w w w w w w w 0 0 0 0 0 0 6 6 e *.3.5.1.1.1.1.1.W N m B m m m m B B B B B B B B B B B B B B B v v v B v v B B v B B B v v B v v v v B B B B B v v B B B B B B v B B T [ [ [ [ ~ [ ~ ~ ~ T U m m m m m n n n n n m m m m n n n n n n n n m m m m n n n n n U U n n n n n n n n n n n U U n =           5 i i i i i i i i i i i i i i i i i i i 7             = 9 n 9 n U c c c c c c c c c c c c c c c c c c c Z A Z Z Z Z C C C C Z Z A A A A A A A A A A A A U A A c X           7 :.i i i i i i i i @.@.i i i i E E i i i i i i i i i i i i l l i i @.@.i i i i i i i i i i i i i i i i i i i i i i i i &.7           = a a z h h h h z z z z z z z d g d d d d d d f d d d d j j j Y Y Y ^ ^ ( ` _ j.j.z.v.v.v.V.m.m.m.B.B.$X$X#X#X#Xm.#X#X#X#X#X#X#X#X#X#X#X X X X X X.X.X.XR.Y.Y.Y.Y.P.P.R.R.R.R.R.R.R.R.R.R.R.R.R.R.R.R..X.X.X.X.X.X.X.X.X.X.X.X.X.X.X.X.X.X.X.X.X.X.X.X.X.XoXoXoXoXoXoX{.{.{.{.{.{.[.[.{.{.[.[.[.[.[.[.[.[.[.[.[.[.[.[.[.[.[.[.[.[.[.[.[.[.[.[.[.[.{.{.[.[.[.{.{.{.{.{.{.{.{.{.{.].].].R.R.R.P.P.P.P.P.P.P.T.T.T.T.T.T.T.T.T.T.T.T.T.T.T.T.T.T.T.T..X.X X X X#X#X#XB.C.M.M.&XM.M.M.M.C.C.C.&XC.C.C.M.M.M.C.C.B.B.B.%X%X%X%XV.V.b.n.w.q.9.9.d.d.u.S.S.<XyXpXpX3X3X3X3X3X3X3X3X3X$X$X$XZ.%X$X$XV.V.V.V.V.V.b.b.V.V.V.$X$X$X$X%X$X3XV.",
"u +.%.%.%.%.%.%.%.&.e 2 2 0 e +.w w r r r r r w w w w w w w w w w w w w w w w w w w w w 0 0 0 0 6 6 w &.3.3.3.1.1.1.1.W N M m m m m m B B B v v B B B B B B B B v v v v B B B B B B v v v B B v B v v v B B B B v B B B B B B B B B B v B T [ [ [ [ [ [ [ ] ] ~ ~ U m m m n n m n m m m U n m m m n n n n n m m m m m n n n m m n n U U U U U U U n U n n U U n 8 .         5 i i i i i i i i i i i i i i i i i i i t .           X = 9 9 n U c n n n n c c c c c c c c c c c c c c A A Z Z Z Z C C C Z Z A A A A A A A A A A A A A U U A U , .         o E i i i i i i i i i i i i i i E E i i i i i E i i i i i @.@.i i i i @.i i i i i i i i i i i i i i i i i i i i u i i i i t .         o a a z h h h z z z z z z z d d g d d g d d g d f g g g j j Y Y Y ^ ^ ` _ _ j.z.z.v.v.m.V.#X#X#Xm.#X#X#X#Xm.#X#X#X#X#X#X#X#X#X X X X X X X X.X.X.X.X.XR.R.R.Y.Y.Y.R.R.R.R.R.R.R.!.R.R.R.R.R.R.].].R.].].].].]..X.X].].oXoX.X.X.X.X.X.X.X.XoXoXoXoXoX{.oXoXoXoXoX{.{.{.[.[.[.[.{.{.[.[.[.[.[.[.[.[.[.{.[.[.[.[.[.[.[.[.[.[.[.[.[.[.{.{.{.{.{.{.].].{.{.].].].].R.R.R.R.P.Y.Y.T.T.T.T.T.T.g.g.g.g.g.g.g.g.g.g.g.g.g.g.g.g.g.g.g.g.g.g.g.g.U.g.g.g.g.g.k.k.l.l.m.M.M.C.C.M.M.&XM.&X&X&X&X&X&X&X&XC.C.C.&X&XC.M.B.B.&X$X$X$X$XV.b.n.n.w.w.w.w.w.w.d.u.i.S.<X<XyXyXyX3X3X3X3X3X3X3X3X$X$X%X$XV.$XV.V.b.b.b.b.b.b.b.b.V.$X$X3X%X$X$X3Xb.",
"u +.%.%.%.%.%.&.%.&.e 2 2 0 e +.w w r r r r r w w w w w w w w w w w w w w w w w w w w w 0 0 0 0 6 6 0 %.,.3.3.1.1.1.<.W N B m m n m m B B B v v B B B B B B B B B B B B B B B B B B B B B B B B B v B B B B B B B B B B B B B B B B B v B T [ [ [ ~ [ ~ [ ] ] ] ~ U m n m n m m n m m m U U m m m m n n n m m m m m m n m m m m U U U U U U U U U U U n n U U n 8 .         5 i i i i i i i i i i i i i i i i i i :.p o             @ 9 9 9 U n n n n n U n n c c c c c c c c c c c A A A Z Z Z Z Z Z Z Z Z A A A A A A A A A A A D U T D T U X         . i i i i i i i i i i i i i i i E E i i i i i E i i i i i i @.i i i @.@.i i i i i i i i i i i i i i i i i i i i i i i i @.i O         O a a z h h h z z z z z z z d z d d d g j j j g g g g j j j Y ^ ^ ^ ` _ _  .z.x.v.v.m.$X$X$X&X#X#X#X#X#X#Xm.#X#X#X#X#X#X X X X X X X X X X.X.X.X.XR.R.R.R.Y.Y.P.R.R.R.R.R.].'.'.R.R.!.!.!.!.].].].].].].{.{.{.{.{.{.{.{.{.{.oXoXoX{.oXoX{.{.{.{.{.[.[.{.{.oX{.[.[.[.[.[.[.[.[.[.[.[.[.[.[.[.[.[.[.[.[.[.[.[.[.[.[.[.[.[.[.[.{.{.].'.'.'.'.Y.Y.P.Y.P.P.T.T.T.T.T.g.g.g.g.g.g.g.g.g.g.g.g.g.g.g.g.g.g.g.g.g.g.g.g.g.g.k.k.k.k.k.k.k.k.g.g.k.g.k.k.k.k.k.l.l.m.M.M.M.M.C.C.C.M.&X&X&X&X&X&X&X&XC.C.C.C.&X&X&XC.B.B.B.$X$X$XB.V.b.n.q.w.w.w.w.w.u.d.d.u.s.i.S.<XyXpXpX3X3X3X3X3X3X$X3X$X$XV.$XV.V.b.b.b.n.n.n.n.n.b.V.$X$X3X$X$X$X3Xb.",
"u u %.%.%.%.%.&.%.%.u 6 2 6 w u e w w r r r w w w w w w w w w w w w w w w w w w w 0 w w w 0 0 0 6 6 6 e =.3.1.1.1.1.W N m m m m m m m B B B B B B B B v v m m m n m m m B B B B n B B B B B B B B B B B n B B B B B B B B B m m B B B B B B T ~ ] ~ ~ ~ [ ] ] 0.0.~ m n n n v n m m m m m m m m m m m m m m m m m m m m m m m n m m m U U U U U U U U U n n U n 9 .         o i i i i i i i i i i i i i i i i i p :.i 7 O             X : 9 n n U U n U U Z Z Z c c c c c c c c n c c c Z C A A Z Z A A A A A A A D D D D D D D A R G D R R T c       .   8 :.p i i E i i i i :.i i i i i E E E i i i i i i i E :.:.E E :.:.:.:.i i i i @.:.:.i i i i i i i i i i i i i i i i i i i 5           = a a z h h h h g g g g g g g g g g j Y Y Y Y S j Y Y j k ^ ^ ` ` ` j.j.j.k.v.v.m.m.#X#X#X#X#X#X#X#X#X#X X X X X X X X X X X X.X.X.X.X.X.X.XR.R.R.R.R.R.R.R.R.R.].].].].].^.].!.!.!.!.!.!.!.^.^.].].{.{.{.{.{.{.{.{.{.{.{.{.{.{.{.{.{.{.{.{.{.{.{.{.{.{.{.{.[.[.[.[.[.[.[.[.[.{.{.{.[.[.[.[.[.{.[.[.[.[.[.{.{.[.{.{.].R.R.P.Y.T.T.T.T.T.T.U.T.g.T.g.g.g.g.g.g.U.g.g.g.g.g.g.g.}.}.k.}.}. X X X X Xl.l.l. Xl.l.l.k.l.l.l.l.l.l.l.l.l.l.l.l.l.l.l.l.l.l.m.m.M.M.M.M.M.M.M.M.M.M.&X&X&X&X&X&XC.C.C.M.C.C.C.B.B.B.%XB.B.V.V.b.n.q.w.u.u.u.w.w.d.d.d.u.d.u.s.S.<XiXyXyX3X3X3X3X3X3X$X$X$X$X$XV.V.n.D.z.q.q.q.q.q.n.b.$X%X3X3X3X$X3XV.",
"u u %.%.%.%.%.&.%.%.u 6 2 6 w u e w w r r r r 0 w w w w w w w w w w w w w w w w w 0 0 w w 0 0 0 6 6 6 w &.3.1.1.1.1.W N m m n m m B B B m v B B B B B v v v m v m m m n n B B B B B B B m B B B B B B B B B B m B B B B B B B B B B m v v B T ~ ~ ~ ~ ~ ] ] ] w.w.0.T n n n n m m m m m n n n n n n n n n n n n n m m m m m m m m m m m U U c c U U U n n n n n 9 .         o i i i i i i i i i i i i i i i i i i :.:.p o               . o : 9 9 9 9 9 > c c U U U n c c c Z U c c Z Z Z Z Z Z A A A A A D D D A D T R R R R R D R G G ' | ' T X         = :.i i i i i i i i i i i i i i E E E i i i i i i i i :.:.E l :.:.:.:.@.i l i @.i i l i i i i i i i i i i i i i i i i i i t .         X ; a a z h z d h h g g d d g g g g S Y / / ^ Y S S S Y S ^ ` ` _ j.j.j.j.k.v.v.m.#X#X#X#X#X#X#X X X X X X X X X X X.X.X.X.X.X.X.X.X.X.X.XR.R.R.R.R.R.R.R.R.R.].].].].].].^.^.!.!.!.!.!.!.^.^.~.].].{.{.{.[.{.{.{.{.{.{.{.{.{.{.{.{.{.{.{.{.{.{.[.[.[.[.[.[.[.[.[.[.[.[.[.{.{.{.[.[.[.[.[.[.[.[.[.[.{.{.{.].].R.R.P.P.T.T.T.g.g.g.g.g.g.g.g.g.g.g.g.U.U.}..X.X.X.X.X.X.X X X X X X X X X X X X X X X X X X X X X X X X X X X X X X X X X X X X Xl.m.m.m.M.M.#X&XC.M.M.M.M.&X&X&X&X&X&X&X&XC.C.C.C.&X&XC.B.B.&X%XB.B.V.V.b.n.q.9.u.u.u.u.w.w.w.u.d.d.d.u.s.i.S.<XyXyX3X3X3X3X3X$X$X$X$X$XV.V.b.D.q.q.q.9.q.q.n.n.V.3X%X3X3X$X3Xb.",
"u u %.%.%.%.%.%.%.%.u 0 2 6 w e e w w r r r r w w w w w w w w w w w w w w w w w w 0 0 w w 0 0 r 6 2 2 r %.3.1.1.1.1.W m m n m m m v v v v v v v v v v v B m m n n m n m M n M M M M B B M B M M m m B B B B B B v B B B B B B B v v B v v B T T ~ ~ ~ ~ ~ ] 0.w.K.w.~ m v n n m m m n n n v v v n n n n n n n n n n n m n n n n n n n n n n c c U U U n n n n n 9 O         o i i i i i i i i i i i i i i i i i :.i i :.t o                   . X X = * * = 9 9 n n U U n c c c v v c c Z U U U A A A D A A A D R R R R R R R R R R R R { ..X.| 9         . i :.i i i i i i i i i i i i i E E E E E E i i i i i :.:.:.l :.:.E :.N E i l i i i i @.&.i i i i i i i i i i i i i i i p :.o         . = a a z h g d g g g d d d d d f f S ^  . ./ / S S S K K / ` ` j.j.k.k.k.l.v.l. X X X X X X X X X X X X X.X.X.X.X.X.X.X.X.X.X.XR.R.R.R.R.Y.R.R.R.R.R.R.R.R.'.].].].].].].].^.^.!.!.!.!.^.^.~.~.].(.(.{.[.[.(.(.{.{.{.{.{.{.{.{.(.[.[.{.[.[.[.[.[.[.[.[.[.[.[.[.[.[.[.[.[.[.{.{.[.[.[.[.[.{.{.{.{.].].R.P.P.T.T.T.T.T.g.g.g.g.g.g.g.g.g.g.k.}..X X X X X X X X X X X X X X X#X#X X X X X X X X X X X X X X#X X X X#X#X#X#X#X#X#X#X#X#X#X#X#X#X#X#X#X#X#X#X#X#X&XC.&X&X&X&X&X&X&X&X&X&X&X&XC.C.C.&X&X&XC.B.B.&X%XZ.V.V.b.n.q.9.9.u.u.w.w.w.w.w.w.w.d.d.d.d.w.s.S.<XyXpX3X3X3X3X3X$X$X$X$X$XV.b.D.q.q.q.q.q.q.q.n.b.$X$X%X3X$X3Xb.",
"u u +.%.%.%.%.%.%.%.u 0 2 6 w e e w w r r r r w w w w w w w w w w w w w w w w w w 0 0 0 w 0 0 0 0 6 2 6 u ,.3.3.1.W N m m n n n m v m m v v v v v B B B B n M M M M n M M M M M M M M M M M M M M M M M B B B B B B B B B B B B m B B B B B T T ~ ~ ~ ~ ~ ] 0.i.L.L.0.~ n n n n m m n n v n n n n n n n n n n n n m n n n n v c n n n n v n n n n U U n n n n n 9 X         o i i i i i i i i i i i i i i i i i i i i i p 7 O                           . . O X @ = : 9 9 n U U U U U U U U U U Z A U U U U T T R R R R R R R R R R { { ..X.X.w.! .         t >.i i i i i i i i i i i i i E E E E E E E i i i i :.:.:.:.@.@.:.:.l @.l @.i i i i :.@.i i i i i i i i i i i i i i p i :.t           o a a z h h d h g g g g d d d f f S /  .j. ./ K K S K K ` ` j.k.k.k.k.k.l. X X X X.X.X.X.X.X.X.X.X.X.X.X.X.X.X.X.X.X.X.X.XR.R.R.R.R.R.R.R.R.R.R.R.R.!.!.!.!.].{.{.{.].].].~.~.^.^.!.!.^.~.~./././.(.[.[.[._._.[.(.[.[.[.[.(.(.[.[.[.[.[.[.[.[.[.[.[.[.[.[.[.[.[.[.[.[.[.[.{.{.[.[.{.{.{.{.].].Y.Y.T.T.T.g.g.g.g.g.g.g.g.}.}..X X Xk.k.g.k. X*X#X#X#X#X#X#X#X#X#X#X#X#X#X#X#X#X#X#X#X#X#X#X#X#X#X#X#X#X#X#X#X#X#X#X#X#X#X#X#X#X#X#X#X#X#X#X#X#X&X&X#X#X#X#X#X&XC.&X&X&X&X&X&X&X&X&X&X&X&XC.C.C.C.&X&XC.B.B.&X%X%XV.b.z.D.9.9.w.u.u.u.u.w.u.w.w.w.w.u.w.w.0.u.u.i.<XyX3X3X3X3X3X$X$X$X$X$XV.b.D.z.q.q.q.9.9.q.q.n.b.$X$X%X$X3XV.",
"y u +.%.%.%.%.%.%.%.+.r 6 6 r e e w w r r r r w w w w w w w w w w w w w w w w w w 0 w w 0 0 0 0 0 6 2 6 e =.1.1.1.W N M m n n n v v v m v v v v B n n n n M M M M M m m m m m m M M M M M M M M M M M M M M M B M M B m m m m B m B m m m m m T ~ ~ ~ ~ ~ ~ 0.i.L.L.i.] U n n n m n n n n n c c n n n n n m m m m m m m m m m m n c v v v v n n n U U n n U U n 9 X         O i i i i i i i i i i i i i i i i i i i i p i p 7 o                                   . . O X = = - 9 n U U T U U A T T T T U U T T D G R R R R ' ' { | | ....X.X.w.w.%         = >.i i i i i i i i i i i i i E E E E E E E i i i i &.&.:.:.:.:.:.:.:.:.@.i i i i i :.:.:.i i i i i i i i i i i i i p i i :.O         O = a h h h h g d d d d d d d f f f K ` } o.` K K K K L k.k.k.k.k. X.X.X.X.X.X.X.XoXoXoXoXoXoXoXoXoXoXoXoXoXoX.XR.R.R.R.R.R.R.R.R.R.R.R.'.R.'.'.!.!.!.!.!.^.^.{.{.{.].~.~.~.~.].~.~.~.~.~././._./.[._._._._._././././.[.[._._.[.[.[.[.[.[.[.[.[.[.[.[.[.[.[.[.[.{.[.[.[.[.[.[.[.{.{.].R.P.T.T.T.T.g.g.g.g.g.g.k.k.k.k.k.l. X X X Xl.k.k.k.k. X#X#X#X#X#X#X#X#X#X#X#X*X#X#X#X#X#X#X#X#X#X#X#X*X#X#X#X#X#X#X#X#X#X#X&X#XM.M.#X#X#X#X#X#X#X#X#X#X&X&X&XB.B.B.&XM.&X&X&XC.&X&X&X&X&X&X&X&X&XC.C.C.C.C.C.C.B.B.&X&X%XV.V.D.D.9.9.9.w.u.u.u.u.u.u.u.w.w.w.u.u.d.d.u.w.n.1X3X3X3X3X3X%X$X$X$X$X$XV.b.n.n.D.z.z.q.q.q.z.b.V.$X$X$X3Xb.",
"y u %.%.%.%.%.%.+.%.+.r 6 6 w e e w w r r r r w w w w w w w w w w w w w w w w w w 0 w w 0 0 0 0 0 6 2 2 r %.1.1.1.W N m m m m m v m m m m m n n n n n n M M M M M M M M M M M M M M M M N N N N M M M M M M M M M M M M M M B B m m m m m B m T ~ ~ ~ ~ ~ ~ 0.s.L.<XL.0.~ m n n n m n n n m m v n n n n m m m m m m m m U U T T m m m c v v n n c n n n n m n n 9 X         O p i i i i i i i i i i i i i i i i i i i i i p t t 7 o .                                         . X X = = , n U U Z U T T R R R R R R R R ' ' { { | ....X.w.w.q.w.w.>         O @.E i i i i i i i i i i i i E E E E E E E E i i i &.&.:.:.:.:.:.:.:.:.:.i i i i i :.:.:.i i i i i i i i i i i i i i i i :.7         . X - z z d d f f f f f f f f f f V J K L P P I I P g.k.|..X.X.X.X.XoXoXoXoXoXoXoXoXoXoXoXoXoXoXoXoXoXoXoXoX{.R.R.R.R.R.R.R.Y.R.R.R.R.'.'.'.].^.^.!.^.!.^.^.^.{.{././.~.~.~.~.~.~.~.~.~./././.[.[._._._._._.[._._._._.[.[.[.[._._._._._.[.[.[.[.[.[.[.[.[.[.[.[.[.[.[.[.{.{.{.R.R.R.T.T.g.g.g.g.g.g.k.k.k.k.k.l.l.l.l.l.l. X X#X#X#Xm.l.k.k.k.k.l.m.#X#X#X#X#X#X#X#X#X#X#X#X#X#X#X#X#X#X#X$X$X#X#X$X$X&X&X#X#X#X#X#X#XM.M.#X&X#X#X#X#X#X&X&X&X&X&X&X&X&X&X&X&X&X&X&XC.C.C.C.C.&X&X&X&X&XC.C.C.C.C.C.C.B.B.B.&XZ.Z.V.b.D.q.q.9.9.9.9.9.9.9.9.d.w.w.w.w.w.w.w.d.9.q.n.S.3X3X3X3X%X$X$X%X%X$XV.V.b.b.b.b.b.b.b.b.x.b.V.V.$X$X3Xb.",
"e u %.%.%.%.+.%.+.%.+.w 6 6 r e e w w r r r r w w w w w w w w w w w w w w w w w w 0 w w 0 0 0 0 6 6 2 3 6 u ,.1.1.W N M m m m M B B n m n M M M n n n n M M M M M M M M M N M M N N N N N N N N N N N N M N M M M M M M M N N N M M B B B M M m ~ ~ ~ ~ ~ ~ 0.w.L.L.L.i.0.~ m n n m n m m m v v B B B m m B B B m m m m U T T T T T U U m n n n v n n n n n n n 9 o         . y i i i i i i i i i i i i i i i i i i :.:.i p i i @.p t 8 7 o o O .                                       . O X @ * : 9 U ~ ! ] | ! ! | | | | ..X.X.X.X.w.w.w.w.w.w.! .         t :.E i i i i i i i i i i i E E E E E E E E E E E l l l l :.:.:.:.:.:.:.:.i i i i l i i i i i i i i i i i i i i i i i i :.p O         X = , - & & & f f f V V V V J K K I I I I g.g.}..X.X.XoXoXoXoXoXoXoXoXwXwXwXoXoXoXoXwXoXoXoXoXoXoXoXoX{.].R.R.R.P.P.P.P.P.P.P.P.P.P.E.'.!.^.].^.^.^.^.^.~.~./././././././.~.~.~.~.~././._._.[.[._._._._.[.[._._._._.[.[.[.[.[.[._._._._.[.[.[.[.[.[.[.[.[.[.{.{.{.{.{.R.R.R.Y.T.T.g.g.g.k.k.l.l.l. X X Xl.l.l.l.l.l.l.m.m.#Xm.m.M.#Xm.A.l.k.h.h.k.l.l.m.#X#X#X#X#X#X#X#X#X#X#X#X#X#X#X#X#X#X#X#X&X$X&X&X&X#X#X#X#XM.M.M.#X&Xm.#XM.#XB.B.B.B.C.C.&X&X&X&X&X&X&X&XC.C.C.C.C.C.&X&X&X&XC.&XC.C.&XC.C.C.B.B.B.Z.B.Z.Z.V.b.n.n.D.z.z.z.q.q.q.q.w.w.w.w.w.w.w.w.w.q.q.z.n.V.3X3X%X%X$X$X%XV.$X$XV.V.V.V.V.3X$X$X$XV.V.V.V.$X$X3Xb.",
"e u %.%.%.+.+.%.+.%.+.w 6 6 r e e w w r r r r w w w w w w w w w w w w w w w w w w 0 0 0 w w w 0 6 6 2 3 6 u =.1.1.W N M m m m M n n n n n n M M n n n n M M M M M M M N N N N N N N N N N N N N N N N N N N N N M M M M M N N N M N N M M M m N W ~ ~ ~ ~ ~ 1.0.s.L.L.L.i.0.~ n m m m m m m v v m m B m B B B B m m m m m U U T T T T T U U U m v n n n n n n n 9 #         . t i i i i i i i i i i i i i i i i i :.:.i :.:.:.i >.>.>.<.<.:.:.:.p p t 7 7 o o O .                                     . O + 8 9 ~ ! 9.w.w.w.w.w.X.w.w.w.w.w.w.w.w.w.o         7 :.E i i i i :.:.i i i i i E E E i E E E E E E l l l l l :.:.:.:.:.:.:.:.i i i i i i i i i i :.:.i i i i i i i i i i u :.:.o         O ; U Y / H L L o.} } k.}.}.}.|.|.}.g.I I I U..XoX;XoXoXoXoXoXoXoXoXoXoXoXoX{.{.oXoXoXoXoXoXoXoXoX{.].R.R.P.P.P.P.P.P.P.P.P.P.P.P.P.P.!.^.^.].].].~.~.~.~./././././././._./.(.(._._._._.[.[.[._._._._._.[.[.[.[._._.[.[._.[._._._._._.[.[.[.[.[.[.[.[.[.[.{.{.{.].R.R.Y.T.T.U.U.U.}..X X X X X X X X X X#X Xl.l.l.l.l.m.m.m.#XM.M.&X&X#Xm.m.A.l.k.k.k.k.l.l.v.m.m.m.m.m.m.m.#X#X#X#X#Xm.M.M.#X#X#X#X$X&X&X&XM.M.M.M.m.M.M.#Xm.#X&XB.B.&X&X&XM.M.M.C.C.C.C.M.&X&XC.C.C.C.C.&X&X&X&XC.&X&XZ.Z.%X%X%XC.B.C.C.%XB.Z.Z.V.V.V.V.b.b.b.b.n.n.n.n.n.n.n.n.n.n.n.n.n.n.n.n.D.b.V.3X3X$X$X$X$XV.$X$X$XZ.Z.V.V.$X$X$X$XV.Z.V.V.%X$X3Xb.",
"r u %.+.%.&.%.%.%.&.+.w 6 6 q $.e e w w w w w w w w w w w w w w w w w w w w w 0 0 w 0 0 0 0 0 0 0 0 2 3 2 r &.3.1.W N M m M n m n n n n n n n M M M M M M M M M N N N N N N N N N N N N N N N N N N N N N N N N N N N N N N N N N N N N N N N N ~ ~ ~ ~ ~ ~ 1.0.w.i.<X<XL.i.0.U m m m v v v m m B B m m B B B B m m m m m B B m T T T ~ T T T U n c v c n n n n 9 =           t i i i i i i i i i i i i i i i i i i :.:.i i i i :.:.:.:.:.:.:.:.:.:.:.:.:.:.:.:.p t t 7 7 o o o .                                 . o 7 E 2.w.w.@X@X@X@X@X@X@XK.w.w.9         O :.i E p i i :.i i i i i i i i i E E i i i i i i i i :.:.:.:.i i i i i i i i i i :.i i i i i i i i i i i i i i i i i p i :.t           h q.@X+X+X-XXXoXoXoXoXoXoXoXoXoXoXU.I I I T.oXoXoXoXoX{.{.oX{.oX{.[.{.{.{.oXoXoX{.[.[.{.{.{.].R.P.P.T.P.P.P.P.P.P.P.P.P.P.P.P.P.P.!.!.~.].~.~.~.~.~.~.~._././././././././.(.(.(.(._._._._._._._._._._.[._._._._._._._._._.[.[.[._._._._._._.[.[.[.[.[.{.{.].R.R.Y.U.}.g.}. X X X X X X#X#X#X#X#X#X#X#X#X#XM.m.m.m.m.m.M.M.M.M.M.M.M.M.M.M.#Xm.m.A.l.k.h.h.h.h.h.j.k.l.l.l.A.A.m.m.m.m.m.m.m.m.B.&X&X&X&X&X&X&X&X&X&X&X&X&X&XB.&X&XB.&X&X&XC.C.C.C.C.C.C.C.C.C.&X&X&XC.C.C.&X&XC.C.C.C.Z.C.C.%XZ.C.%XC.C.C.&X&XC.Z.Z.V.V.$X3XV.V.V.V.V.V.V.V.V.V.b.b.b.V.V.b.b.V.V.V.V.V.$XV.V.%X%X$XV.$X$X%X%X%X%X%X$XV.$XV.$X%X$X$X$X3Xv.",
"r u %.+.%.&.%.%.%.%.+.w 6 6 0 $.$.e w w w w w w w w w w w w w w w w w w w w w 0 0 w 0 0 0 0 0 0 0 0 2 3 2 r N ,.1.W N M M m M m M M n n M M M M M M M M M M M N N N N N N N N N N N N N N N N N N N N N N N N N N N N N N N N N W W W W N N N N ~ ~ ~ ~ ~ 1.1.1.0.s.L.<XL.L.0.~ m m m m m m m B B B m m B B B B B v m m m B B B m T T T T T T T m m c v v n n n n =           t i i i i i i i i i i i i i i i i i i :.:.i i i i i :.:.:.:.:.:.:.:.:.:.:.:.:.:.:.:.:.:.:.:.:.E i p t t 7 5 o O .                               X X : W 2.w.i.<X<X1X1X2.O         p :.i i i :.i i i i i i i i i i E E i i i i i i i i :.:.:.:.i i l i i i i i i i i i i i i i i i i i i i i i i i i i i i :.i O         9 n.:X>X>X;X;X;XoXoX;XoXoXoXoXoXoXY.I I I T.oXoXoX[.[.[.[.[.[.[.[.[.[.[.[.[.[.[.[.[.{.].!.R.P.T.T.T.T.T.T.P.P.P.P.P.P.P.P.P.P.P.P.!.^.~.(.~.~.~.~.~.~.(._.~.~._._._._._._.(.(.(._._._._.[.[.[.[.[.[.[.[.[._._._._._._._._.[.[.[.[._._._._._.[.[.{.(.{.].R.R.Y.T.Y. X X X X X X X X X#X#X#X#X#X#X#X#X#X#XM.M.#XM.M.M.M.M.M.M.M.M.M.M.M.M.M.#X#XM.m.m.m.A.x.j.h.h.h.h.h.h.h.h.h.h.h.h.j.j.k.j.l.x.x.A.m.m.B.m.$X$X&X%X%X%X%X&X%X&X%X&X&X&X&X%X&X%X%X%X%X%X%XB.&X%X%X%XC.C.B.C.C.C.%X&X&XZ.C.%X&XC.C.C.C.C.C.B.B.Z.Z.Z.V.V.$XV.V.V.V.V.V.V.V.V.V.V.V.$X$X3X3X3XV.V.V.Z.Z.$X%XV.%X%X%XZ.Z.%X%XB.Z.%X%X%X%X$X%XV.V.V.V.$X$X%Xb.",
"w u +.+.%.&.%.%.%.&.+.e 0 6 0 e +.e w w w w w w w w w w w w w w w w w w w w w 0 w w 0 0 0 0 0 0 0 0 2 3 3 6 u =.1.<.N M M M M m M M M M M M M M M M M M M N N N N N N N N N N N N N N N N N N N N N N N N N N N N N N N N N N N W W W W W N N N W ~ 1.1.1.1.1.1.1.0.s.i.s.0.~ T m m m m B m m m B B m m B B B B B B v v v m B B B B m T T T ~ ~ T U m v v n n n n =           t E i i i i i i i i i i i i i i i i i :.:.i i i i i i i i i i i i i i i i :.:.:.:.:.:.:.:.:.:.:.:.:.:.:.:.:.i p t t 7 o O .                                   . O = 8 =           7 <.i :.i :.p :.i i i i i i i i E E i i i i i i i i :.:.:.:.i i E E @.i i i i i i i :.:.:.i i i i i i i i i i i i :.i i :.:.7         %  .+X-X-X;XoXoXoXoXoXoXoXoXoXoXoXQ.g.I I T.{.[.[.[.[.[.[.[.[.[.[.[.[.[.[.[.[.[.{.^.!.P.P.T.T.g.g.g.T.T.T.P.P.P.P.P.P.P.P.P.P.!.!.^.~.~.(._.(.~.~.~.~.(._._._._._._._._._._._._._._.[.[.[._._._.[.[.[.[.[._._._.[._._._._.[.[.[._._._.[._._.[.{.{.{.].R.R.Y.Y..X X X X X X#X X#X#X#X#X#X#X&X&XM.M.&X&X&XB.M.M.M.#X&X&XM.M.&X&X#X&X&X&X&X&X#X&X&X&X&X&X&XB.m.m.A.l.l.k.k.k.h.h.h.h.h.h.h.h.h.h.h.h.j.j.h.h.j.x.x.A.m.m.m.m.m.m.m.B.m.m.B.B.m.m.m.m.m.m.m.m.B.B.m.m.B.B.%X%XZ.Z.C.C.C.C.&X&X&XC.C.C.C.&X%X%X%X%X%XZ.Z.Z.%X%XZ.Z.Z.Z.%XZ.Z.Z.Z.Z.Z.Z.$X$X$X$X%X$X%XZ.%XZ.Z.Z.%X%XZ.V.Z.Z.%XZ.%XZ.Z.Z.Z.Z.V.V.%XZ.%XZ.%X%X$Xx.",
"w +.+.+.%.%.%.%.%.+.+.e 0 6 0 e +.e w q w w w w w w w w w w w w w w w w w w w w w w w 0 0 0 0 0 0 0 6 2 2 6 y =.1.<.N N M M M M M M M M M M M M M M M M p p N N N N N N N N N N N N N N N N N N %.N N N N N N N N N N N N N &.=.N W <.<.<.<.W W W ~ 1.1.1.<.1.1.1.1.1.1.~ N M M m m m B B B m m B B v v v B B B B B v v v v v B B B B B T T T T T T m n c n n n n - .         8 E i i p i i i :.i i i i i i i i i i :.:.i i i i i i i i i :.:.:.:.i i i i i i i :.:.:.>.:.:.:.:.:.:.:.:.:.<.:.:.:.:.:.>.i t 5 o         . .                                     O :.i E i :.i :.i i i i i i i i :.:.i i i i i i i i :.:.:.:.i i E E @.@.i i i i i i i :.:.i i i i i i i i i i i i :.i i i :.t         . U @X-XoXoXoXoXoXoXoXoX{.[.{.oXoXoXT.I I T.{.{.[.[.[.[.`.`.`.[.`.`.`.[.[.[.[.[.~.!.P.T.T.T.T.g.T.T.T.T.P.P.P.P.P.P.P.P.P.E.!.!.^.~.~.~._.[._._.(.(.(.(._.(.(.(._._._._._._._._._._.[.[.[._._._._._._._._._._._.[._._._._.[._.[._._.[.[._._.[.{.{.{.R..X.X.X.X X X X#X#X#Xm.M.M.#X&X&X&X&X&XM.M.C.C.&XC.C.C.C.M.&XM.M.M.C.&X&X&X&X&X&X&X&XM.#X&X&X&X&X&X&X&X&X&X&X&XM.M.m.m.m.A.A.A.l.j.j.j.j.j.j.j.h.h.h.h.h.h.h.h.h.h.h.h.h.h.h.h.h.h.h.h.h.h.h.h.h.h.h.h.h.h.h.h.h.x.x.N.B.%X%X%X%X%XC.%X%X%X%X%X%X%X%XZ.Z.Z.Z.Z.Z.Z.Z.Z.Z.Z.Z.Z.%X%X%X%XZ.Z.Z.%X%XZ.Z.Z.Z.%XZ.%X%XZ.Z.Z.B.B.N.N.Z.B.B.B.B.N.N.V.V.N.N.N.A.A.x.x.x.b.h.",
"w +.+.u %.%.%.%.%.+.+.+.0 6 6 w +.e w w w w w w w w w w w w w w w w w w w w w w 0 0 w w w 0 0 0 0 0 6 2 3 6 e &.,.,.N N N M M M M M M M M M p p p p p p p p p p u u N N N %.N N %.%.%.%.N N N N %.%.%.%.%.%.N N N N N N N N &.&.N <.<.1.1.<.<.<.<.<.1.<.<.<.<.N W N N N M M n m m m m m B B v v B v v v B B B B B B v v v v B B B B v B B B T T T T U m n n n n n 9 O         7 E i i i i i i E i @.@.i i @.i @.i i :.:.i i i @.i i i i i :.:.i i i i i i i i :.i i i i i i i i :.:.:.i i i i i :.:.:.i :.:.<.<.:.t 5 O                                           p :.i i i :.i :.i i i i E l :.:.:.:.i i i i :.i i :.:.:.:.i i :.@.@.@.i i i :.:.:.i i i i i i i i i i i i i i i i i i i :.i O   .     <  .+X-XoXoXoXQ.oXoXoX{.[.{.{.oXoXT.g.I T.{.[.[.[.[.[.[.`.`.`.`.`.[.[.[.[.[.{.^.P.T.T.T.T.T.T.T.P.P.P.!.].].].!.!.!.P.P.!.!.!.~.~.~._._.[.[._._.(.(._.(.(._._._._._.(._._._._._._._._._._._._._._._._._._._._.[._._.[._._._._._.[.[._.[._.{.{.{.oX.X.X.X X X X X#X#X#X#X#X#X#X#XM.M.M.M.&X&XM.M.M.&X&X&X&X&X&XM.M.C.&X&XC.&X&X&X&X&X&X&X&X&X&X&XC.&X&X&XM.M.&X&X&X&X&X&X&X&X&X&XC.C.B.B.C.B.B.B.m.m.m.A.x.x.x.j.j.j.h.h.h.h.h.h.h.h.h.h.h.h.h.h.h.h.h.h.h.h.h.h.h.h.h.h.h.h.j.A.m.C.%X%XB.B.B.B.B.B.N.B.Z.Z.Z.Z.Z.Z.Z.Z.Z.Z.Z.%X%X%X%X%X%X%X%XZ.%XZ.Z.Z.Z.Z.Z.Z.%XZ.Z.Z.B.B.N.N.N.B.B.m.N.m.m.A.A.x.x.h.h.h.h.h.h.h.h.h.",
"w u +.u %.&.%.%.%.+.+.+.0 6 6 w +.e e w w w w w w w w w w w w w w w w w w w w w 0 0 w w w 0 0 0 r 6 6 2 3 2 r %.=.,.&.N N M M M M M 9 p p p p p p p p p r r e r u u u N %.%.%.%.%.%.%.%.%.N N N %.%.%.%.%.%.%.%.N N N N N &.&.&.<.<.<.1.1.1.<.<.<.<.<.=.&.N N N N N N N M M m m m m m m B B v B B B B B B B b b B B B v B B B B B v v v m B m m T T T U m n n n n 9 o         5 E i i i i i i i @.@.@.@.i i i i i :.:.:.i i i @.i i i i i i i i i i i i i i :.:.i i i i :.:.:.:.p i i i i i i i p i i E :.E i p :.:.:.:.t = .                       .             7 :.i i i :.i :.i i i E E i :.:.:.:.i i i :.:.i i :.:.:.:.i i :.i @.@.i i i :.:.:.i i i i i :.i i i i @.i i i i i i i i i :.7         X R |.XXoXXXQ.Y.Y.'.oX{.{.{.{.{.oXY.g.I T.{.[.[.[.[.[.[.[.[.[.`._._.[.[.[.[.{.!.P.T.T.T.T.T.P.P.!.^.].{.{.].].~.!.!.!.!.!.^.].~.~.~.~.(.[._._._._._.(.(._._._._._._._._._._._._._._._._._._._._._._._._.[.[.[.[.[._.[.[._._._._._.[._.[.[.{.{.{..X.X.X X X X X#X#X#X#X#X#X#X#X#XM.M.M.M.M.M.M.&X&X&X&X&X&X&XM.M.M.M.C.&XM.C.M.M.C.C.&X&X&X&X&XM.M.M.M.C.M.M.M.M.M.M.&X&X&X&X&X&X&X&X&X&X&X&X&XC.C.C.B.B.&X&X&XB.B.B.B.m.m.m.m.m.A.A.m.m.m.m.m.m.m.m.m.B.m.B.B.B.m.A.x.j.h.h.h.h.h.h.j.x.x.A.A.A.A.A.N.N.A.A.A.A.A.N.N.N.A.V.V.V.V.V.V.V.V.V.N.N.N.N.N.N.N.N.m.m.m.b.b.b.A.A.x.x.x.x.j.h.h.h.h.h.h.h.h.h.h.h.h.h.h.h.x.h.",
"r u +.u %.&.%.%.%.+.+.+.0 2 6 w $.e e e w w w w w w w w w w w w w w w w w w w w 0 0 w w w w 0 0 0 0 6 2 2 3 0 u =.,.=.N N p p p r r r r p p r r p p u u u u e e u u e u u u N N +.+.%.%.%.%.N N %.%.%.%.%.%.%.%.N N N N N &.N N =.=.<.<.<.<.<.<.=.=.N N N N N N N N M M N m m m m m m m B B B B B B B B b b b v B B B v B B B v B v v m B B B B m U U U m n n n n n #         o i i i i i i i i @.@.i i E l i i i :.:.:.i i i @.i i i i i i i i i i i i i i i i i i i i i i i i i i i i i i i i E E i i i i i i i i i :.:.:.p t O .                               O i E :.i :.i :.:.i i i i :.:.:.:.:.:.i i :.:.i i :.:.:.:.i i :.:.i i i i :.:.:.:.:.i i i i i i i i i i i i i i i i p :.i :.p .       . z X.+XXX|.U.T.T.Y.'.oX{.{.{.[.{.E.T.g.P.{.[.[.[.[.[.[.[.[.[.`.`.`.`.`._._.~.!.P.P.P.P.P.!.'.].{.{.[.[.].].].~.^.~.].].].].].(.~.~.~.(.(.(._.[._._._._._._._._._.(.(.(._._._.(._._._._._._._._._._._._._._._._.[._._._._._.(.(._._.[.[.[.{.{..X.X.X X X X#X#X#X#X#X#X#XM.M.M.#X#X&X&X&XM.M.M.&X&X&X&X&X&XM.M.M.M.M.M.M.M.M.M.M.C.C.C.M.M.M.M.M.M.N.M.M.M.M.M.M.m.M.M.M.&X&X&X&X&X&X&X&XM.M.M.C.&XC.C.B.B.B.C.&X&X&X&X&XB.B.B.B.B.B.C.C.%X%X%X%X%X%X%X%X%X%X%X%X%X%X%X%X&XB.m.x.j.h.h.h.h.h.h.h.h.h.h.h.h.h.h.h.h.h.h.h.h.D.x.x.x.x.x.x.x.x.x.x.x.x.x.x.h.h.h.h.h.h.h.h.h.h.h.h.h.h.h.h.h.h.h.h.h.h.h.j.x.x.m.m.m.m.B.x.",
"r u +.u %.&.%.%.%.+.+.+.0 2 6 w $.$.e e w 0 w w w w w w w w w w w w w w w w w w 0 0 w w w 0 w w w 0 6 2 2 2 6 e &.,.=.N p r p p t t t t r r r r r r p u u u y e e e e u u u u u e +.+.%.%.N N %.%.%.%.%.%.u %.%.N N N N N N N N N =.=.=.=.N N N N N N N N N N N N N N N U ~ U m m m m v B B B B B B B B B B B v m m m v v m m v B B B B B B m m m m m m n n n n n n =         o i i i i i i i i i i i E E l l i i :.:.:.i i i i i i i i i i i i i i i i i i i i i i i :.:.:.:.:.:.:.i i i i i i i i i i i i i i i i i i @.:.>.>.<.l t 5 o .                         t E i i i i :.:.i i i i :.:.:.:.:.:.i :.:.:.i i :.:.:.:.i i :.:.i i i i :.:.i i :.:.:.:.i i i i i :.:.i i i i i i p :.p i i =         % { |.|.I.I I I T.Y.oX{.[.[.[.[.^.P.T.P.[.[.[.[.`.`._.[.[.`.`.`.`.`.`.`._.~.^.E.E.!.!.].].{.[.[.[.[.[.{.{.{.].].].].].].].{.(.(.~.~.(.~.~.(._._._._._.[.[._._._._._./._._._.(._._._._.(.(.(.(.(.(._._._._._._._._._._._._.(.(._.[.[.[.{.{.{..X.X.X X X#X#X#X#XM.#X#X#X&X&X&XM.M.M.M.M.M.M.C.M.&X&XM.M.&X&X&X&X&X&X&XM.M.M.M.M.C.C.C.&XM.M.M.M.M.M.M.C.M.M.M.M.M.M.M.M.M.M.M.M.M.M.M.M.M.M.M.M.&X&X&XC.C.C.B.B.B.B.B.C.%X%X%X%X&X&X&X&XC.C.C.C.&X&X&X&XC.C.C.C.Z.&X&X&X&X&XB.C.B.N.A.x.h.h.h.h.h.h.h.h.h.h.` ` ` ` ` ` h.h.h.h.h.h.h.h.h.h.h.h.h.h.h.h.h.h.` ` ` ` ` h.` h.h.h.h.h.h.h.h.x.A.A.m.m.A.m.B.m.N.N.B.m.B.x.",
"r +.+.%.%.+.%.%.%.&.%.+.w 6 6 r e u e w w w r w w w w w w w w w w w w w w w w w 0 0 0 0 0 0 0 0 0 0 0 6 2 2 2 0 %.,.=.u p p p t t t t r r r e e e e e e e e u u u u u u u u u u u u u u %.%.%.%.%.%.%.%.%.%.%.%.%.%.%.%.N N N N &.&.&.N N N N N N N N N N N N =.N N N N N m m m M M B B m B B B B B B B m B m m B B B m m m B B B v B B m m m m B B m m m m m m n M =         O :.p i i p i i :.i i i i i i :.:.:.:.i i i i l i :.:.i i i i i i i i i i i i i i i i i i i i i i i i i i i i i i i i i i i i i i i i i i i i i i :.:.:.:.:.:.p t 7 o o .             o >.p :.i i i i i :.:.:.:.:.:.:.:.i i i :.:.:.:.:.:.:.:.:.:.:.:.:.i i :.:.:.:.:.i i i i i i i i i i i i i i i i i i i i i i y .       . T X.X.o.I I I G.Y.oX{.{.{.[.{.~.!.!.~.[.[.[.[.[.[._.[.`.`.`.`.`.[.[.[._./.~.~.~.].(.[.[.[.[.[.[.[.[.(.(.(.(.(.(.(.~.~.~.~.~.~.~.~.~.~.~.(._._._._.[._.(.(.(._._._.(._._._.(.(.(.(.(.~.~.~.~.~.~.~.~.~.~.~.~.~.~.~.~././.~.~.(.(.[.[.[.{.oX.X X X X X#X#X#X#X#X#X#X#XM.M.M.M.M.M.M.M.M.M.B.B.C.C.C.C.M.&X&X&XM.M.M.M.&X&X&X&X&X&X&X&XC.M.M.M.M.M.M.M.&XC.C.M.M.M.C.C.M.M.M.M.M.#XM.M.M.M.&X&XM.M.&X&XM.#X&X&XB.B.B.B.C.C.&XM.&XC.&XC.Z.Z.Z.&X&XZ.Z.Z.C.C.C.C.C.C.C.C.C.C.C.C.C.C.Z.%XC.B.B.m.m.m.A.A.x.j.j.j.j.h.h.h.h.h.h.h.h.h.h.h.h.h.h.h.h.h.h.h.h.h.h.h.h.x.x.A.A.A.A.A.m.m.m.B.C.C.Z.Z.Z.C.C.C.C.C.C.C.B.B.B.A.",
"r +.+.%.%.+.%.%.%.&.%.+.w 6 6 r e u e w w w r w w w w w w w w w w w w w w w w w w w 0 0 w w 0 0 q w 0 6 2 1 2 0 +.=.=.N p p p r t t t r r r e e e e e e e e u u u u u u u u u u u u u u %.%.%.%.N %.%.%.%.%.%.%.%.%.%.%.N N N N N N N N N N N N N N N N =.<.<.=.N N N N N M B B m M B B m B B B B v v v B B B B B B B B B B v v B B B B m m m m m m T m m m m m n M =         O i p i i i i i :.i i i E i i i i :.@.i i i i i i i i i i i i i i i i i i i i i i i i i i i i i i i i i i i i i i i i i i i i i i i i i i i i i i i i i @.:.:.@.@.:.:.p 7 o             i :.:.i :.i i i :.:.:.:.:.@.i @.i i i E i :.:.:.:.:.:.:.:.:.:.:.i i :.:.:.:.:.:.:.:.:.i i :.:.:.:.i i i i i i i i i i i i u o         < { o.L I I I P T.].{.{.[.[.[.{.(.~.(.[.[.[.[.[.[.`.[.[.`.`.`.`.[.[._.[._././.(.(.[.[.[.[.[.[.[.[.{.(.(.(.(.(.(.~.~.~.~.~.~.~.~.~.~.~.~.(._._._._._._.(._.(._.(._._.(.(.~.~.~.~.~.~.~.~.~.~.~.~.~.~.~.~.~.~.~.~.~.~.~./.~.~.(.[.[.[.[.{.oX.X.X X X X#X#X#X#X#XM.M.M.M.M.M.M.M.M.M.M.#XM.M.C.C.C.&X&X&X&X&X&X&XM.M.M.&X&X&X&X&X&X&X&XM.M.M.M.M.M.C.C.M.M.M.M.M.M.C.&X&X&X&X&X#XM.M.M.M.M.M.M.M.M.#X&X&X&X&X&X&X&X&X&X&X&X&XM.C.C.C.C.Z.Z.Z.Z.Z.Z.Z.Z.Z.Z.Z.Z.Z.C.C.C.C.C.C.C.C.C.Z.Z.C.C.C.C.C.C.C.C.B.B.B.B.B.m.m.m.m.N.B.B.m.m.m.m.m.m.m.m.m.m.m.m.N.N.m.m.N.B.B.C.B.B.B.C.C.C.C.&XC.Z.Z.Z.C.C.C.C.C.C.C.C.C.B.B.m.",
"r +.+.%.%.+.%.%.%.%.%.+.w 6 6 0 e u e w w w r w w w w w w w w w w w w w w w w 0 w 0 0 0 w w 0 0 w w 0 0 6 1 2 6 e &.=.N p p r r t r r t e e e e e e e e e e e u u e e e e e e u u N u u N u %.%.N %.%.%.%.%.%.%.%.%.%.%.u u N N N N N N N N N N N N &.<.<.1.<.<.W N N M M B B m m m B B B B B B v v v v v v B B B B B B B B B B B B B B m m B m m m T T T U m m n n =         O i i i i i i :.:.i i l i i i i i i i i i i i :.:.i i i i i i i i i i i i i i i i i i i i i i i i i @.i i i i i i i i i i i i i i i i i i i i i i i i p p i i :.:.p :.i p t             7 :.i :.i i i i i :.:.:.i i i i i i i i i :.:.:.:.:.:.:.:.:.:.:.:.:.:.:.:.:.:.:.:.:.:.:.:.:.:.:.:.:.i i i i i i i i i i i :.7         X A { L L I I P Y.].{.{.[.[.[.[.[.[.[.[.[._._._.[.[.`.`.`.`.`.`.[.[._._._._._.[.[.[.[.[.[._.[.(.(.(.~.~.~.~.(.(.(.(.~.~.~.~.~.~.~.~.~.~.(._.(._._._._._._._._.(.(.(.~.~.~.~.~.~.~.~.~.~.~.~.~.~.~.~.~.~.~.~.~.~.~.~.~.~.~.~.~.(.{.{.{.{.oX.X.X X X X X X#XM.M.M.M.M.M.M.M.M.M.M.M.M.M.M.M.&X&X&X&X&X&X&X&X&X#X#XM.M.C.C.M.M.M.M.M.C.M.M.M.M.C.C.&X&XM.M.M.M.M.M.&X&X&X&X&X&X#X#XM.M.M.M.M.M.#X#X#XM.&X&X&X&X&X&X&X&X&X&X&X&X&X&XM.C.C.C.C.C.C.C.C.C.Z.Z.Z.Z.Z.C.C.C.C.C.C.C.C.C.C.C.C.C.C.C.C.C.C.C.C.C.B.B.B.B.B.B.B.B.C.Z.C.C.B.B.C.C.C.C.C.C.C.C.C.C.C.C.C.C.C.B.C.C.C.C.B.B.C.C.Z.Z.Z.C.C.C.C.C.C.C.C.C.C.B.&Xm.",
"r +.+.%.%.+.%.%.%.%.%.+.e 6 6 0 e +.u w w w r w w w w w w w w w w w w w w w 0 0 0 0 0 0 0 0 0 0 0 w 0 0 6 2 1 2 r %.&.u u u r e r r e e e e e e e e e e e e e e e e e e e e e e u u u u u u N N N %.N %.%.N N N %.%.%.%.u u N N N N N N N N N N =.=.<.,.<.<.<.<.<.W N M M m m m m m M M B B B B B B B B B B B B B B B B B B B B m B B B m m m B m T ~ ~ ~ ~ T m m M 8         . p i i i i i @.i i i i i i i i i i i i i l i l @.i i i i i i i i @.i i i i i i i i i i i i i i i i i i i l i i i i i i i i i i i i i i i i i i i @.i i i i i i i p E p p i o           O :.i :.i i i i i i i i i i i i i i i i i l :.:.:.:.:.:.:.:.:.:.:.:.:.:.:.:.:.:.:.:.:.:.:.i :.:.:.i i i i i i i i i i i i :.t .         , H L L I I I Y.oX{.{.{.[.[.[.[.[.[.[._._._._.[.[.`.`.`.`._._._._._._._._._.[.[.[.[.[._._.(.~.~.~.~.~.~.~.(.(.(.(.~.~.~.~.~.~.~.~.~.~.(._._._._._._._._._.(.(.~.~.~.~.~.~.~.~.~.~.~.~.~.~.~.~.~.~.~.~.~.~.~.~.~.~.~.~.~.~.~.(.{.{.{.{.oX.X.X X X X#X#X#X#XM.M.M.M.M.M.M.M.M.M.M.M.#XM.M.M.#X&X&X&XC.&X&X&X&XM.M.M.M.M.M.M.M.M.M.M.M.M.M.M.C.C.C.C.&X&X&X&X&X&X&X&XM.M.&X#X#X#X#XM.#X#X#X#X#X#X#X#X&X&X&X&X&XM.&X&X&X&X&X&XM.M.C.M.C.C.C.C.C.C.C.C.C.C.C.C.C.C.C.C.C.C.C.C.C.C.C.C.Z.Z.Z.Z.C.C.C.C.M.M.B.B.N.N.N.B.N.N.B.C.C.C.C.C.C.C.C.C.B.B.B.B.B.C.C.C.B.B.B.B.C.C.C.C.C.C.C.C.Z.C.C.C.C.C.C.C.M.C.M.C.N.B.C.m.",
"r +.+.+.%.%.%.%.+.%.%.+.u 0 6 0 w +.+.w w w r w w w w w w w w w w w w w w w 0 0 0 0 0 0 0 0 w 0 0 w 0 0 6 2 2 2 0 +.&.%.u u y y r r r e e e e e e e e e e e e e e e e e e e e e u u u u u u u u N N %.%.N N u u N %.%.+.N u N N N N N N N &.=.<.1.1.<.<.<.<.<.<.<.N N N M M M M M M m m M B B M B B B B B B B B B B B B B B B B m B B B B B B B T ~ ~ ] ] ~ ~ T U U 8         . t :.p p i i i i i i i i i i :.:.i i i l E E @.@.i i i i :.:.:.:.@.@.N i i i i i i i i i i i i i @.i @.@.i @.E i :.i i i i :.i i i i i i i i i i p p i i i i i i E :.p p i 7             t :.i i i i i i i i i i i i i i i i i i E :.:.@.:.:.:.:.:.:.:.:.:.:.:.:.:.:.:.:.:.:.:.:.i i i i i i i i i i i i i i i i :.p o         % A ' L L I P Y.oX{.{.[.[.[.[.[.[.[._._._._._._._.[.[.[.[.[._._._._._._._._._._.[._._._./.~.~.~.~.~.~.~.~.~.~.~.~.~.~.~.~.~.~.~.~.(.~.(._._._.(.(._._._.(.(.~.~.~.~.~.~.~.~.^.^.^.^.^.^.!.!.^.^.^.~.~.~.~.~.~.~.~.!.~.~.~.].].{.{.{.{.oX.X.X X X X#X#X#X#X#XM.M.M.M.M.M.M.M.M.M.M.#X#X#X#XM.#X#X#X&X&X&X&XM.M.M.M.M.M.M.M.M.M.M.M.M.M.M.M.M.M.M.M.M.M.&X&X&X&X&X#XM.#X#X&X*X*X*X X#X#X#X#X#X#X#X#X#X&X&X&X&XM.M.C.&X&X&XM.M.M.M.M.M.M.M.M.M.M.M.M.M.M.M.C.C.C.C.C.C.C.C.C.C.M.M.M.C.C.C.Z.Z.Z.C.C.C.C.C.C.C.C.B.B.C.C.C.C.C.C.C.C.C.C.C.C.C.C.M.C.C.C.C.C.C.C.C.C.C.C.C.C.C.C.C.C.C.C.C.C.C.C.C.C.M.M.N.N.N.N.B.m.",
"r u +.%.%.%.%.%.+.%.+.+.u 0 6 0 w +.+.e w w r w w w w w w w w w w w w w w w w w w w w w q q w 0 0 w 0 0 0 6 2 2 6 e +.u +.u u u e e e r e e e e e e e e e e e e e e e e e e e e e u u u u e u u N N N %.N u u u N %.%.+.%.N N N N %.%.N &.&.,.1.1.1.1.1.1.1.<.<.<.N N N N M M M M M M M M M M M M M M M M M M M M M M M M M M M M M M M M B B m ~ ~ ] 0.0.] ~ ~ ~ W 9 .         t :.u u i p i i i i i i i :.:.:.i i l l N N @.@.:.:.:.:.:.:.:.:.l @.i i :.:.:.:.:.:.:.:.:.:.:.:.i i i l @.@.E N :.i i i i :.i i i i i i i i i i i i u i i i i i p p i p p p .           O :.p :.i i i i i i i i i i i i i i i E E :.:.:.:.:.:.:.:.:.:.:.:.:.E :.:.:.:.:.:.:.i i i i i i i i i i i i i i i i i i :.:.7         . > R L L P G.Q.oX{.{.[.[.[._.[.[._._._.[._._._.[.[.[.[.[._._._._.[._._._._._./././././.~.~.~.~.~.~.~.~.~.~.~.~.~.~.~.~.~.~.~.~.~.~.~.(.(.(.(.~.~.(.(.(.~.~.~.~.~.~.~.~.~.^.!.!.!.!.!.!.!.!.!.!.!.!.^.!.^.^.^.^.^.^.~.].].].].].].].{.oX.X.X.X X X X X X#X#X#X#X#X#X#X#X#X#Xm. Xl. X X X X X X#X#X#X#X#X#X&X&XM.M.M.M.M.M.M.M.M.M.M.M.M.M.M.M.M.M.M.M.M.#X&X#X#X#Xm.#X#X*X*X;X*X.X X X X X X X X#X#X#X#X&X#X&X&X&X&X&X#XM.C.M.M.M.M.M.M.C.M.M.M.M.M.M.C.C.C.C.C.C.C.C.C.C.C.C.M.M.C.C.C.C.C.C.C.C.M.C.C.C.C.C.B.B.C.N.N.N.N.N.N.N.N.N.N.N.N.N.N.M.B.C.N.C.C.N.N.N.N.N.C.M.M.M.M.M.C.M.M.M.C.C.C.M.M.M.m.N.N.m.M.A.",
"r +.+.%.%.+.%.%.+.%.+.+.#.0 6 6 w +.+.e w w w w w w w w w w w w w w w w w w w w w w w w q q 0 0 0 w 0 0 0 6 2 2 2 r u u +.u u u u y e e w w e e e e e e e e e e e e e e e e e e e e u u e e e u u u N u %.%.%.+.N %.%.+.+.+.%.%.%.%.&.&.&.=.,.1.<.<.<.<.<.<.=.=.&.N N N N N N 9 M M M 9 9 9 9 9 M M M M M M 8 8 8 8 8 8 8 8 M 8 M M b b M M M M ~ ~ ~ 0.0.0.0.] ~ ~ 9 .         7 :.u p i p i i i i i i i i i :.@.i i l l @.@.:.@.i i i :.:.:.:.i l E :.:.:.:.:.:.:.:.:.:.:.:.:.i l E E @.@.i i :.i i i i :.i i i i i i i i i i :.i i i i i i i p i E i p i o             p i :.i i i i i i i i i i i i i i i E :.:.&.:.:.:.:.:.:.:.:.:.:.:.E :.:.:.:.:.i i i i i i i i i i i i i i i i i i i i :.:.t .         < D O.L P I.Q.oX{.{.[.[.[._.[.[.[._.[._._._._._._._._._._._._._.[.[._././././.~./././.~.~.~.~.].~.~.~.~.~.~.~.~.~.~.~.~.~.~.~.~.~.~.~.~.~.~.~.~.~.~.~.~.~.~.~.~.~.~.^.^.!.!.!.!.!.!.!.!.!.!.!.!.!.!.!.!.!.!.!.!.!.!.].].^.].].].].{.oXoX.X.X.X.X X X X X X X X X X X X X X X X X X X X X X X X X X X#X#X#X#X#XM.M.M.M.M.M.M.M.M.M.#X#X&X&X&X#X#XM.M.M.M.M.M.#X#X X X X X*X;XoXoX.X.X.X.X.X.X.X.X X X#X#X#X#X#X&X&X&X#XC.C.C.M.M.&X&X&X&XM.M.&XM.M.M.M.M.C.C.C.C.M.M.C.C.M.M.C.C.&X&X&XC.C.C.C.C.C.C.C.C.C.C.C.C.C.B.B.N.C.C.C.C.C.C.C.C.C.C.C.C.C.C.C.C.C.C.C.C.C.C.C.C.C.M.M.M.M.M.M.M.M.M.M.N.m.M.m.m.m.m.m.A.",
"r u +.+.%.%.%.%.+.+.+.+.+.r 6 6 w +.+.e w w w w w w w w w w w w w w w w w w w w w w w w q 0 0 0 0 w w 0 0 6 2 2 2 r e e u u e u u y e e e e e e e e e e e e e e e e e e e e e e e e u u e e u e u u u +.%.%.%.%.N %.%.+.+.+.+.%.%.%.%.&.&.&.,.,.<.<.=.=.=.=.=.N N N N p 9 8 8 8 8 8 8 8 8 8 8 8 8 8 8 8 8 8 8 8 8 8 8 8 8 8 8 8 8 8 8 8 8 8 8 8 M N ~ 1.0.0.0.0.! ~ p .         7 :.p i :.p @.i i i i i i i i i @.i i i @.@.:.:.i i i i i i i :.l i :.:.:.:.:.:.:.:.:.:.:.:.:.:.i l l E @.@.i i i i i i i i i i i i i i i i i i i i i i i i i i i p p i i i 7             7 :.i i i i i i i i i i i i i i i i :.:.:.:.:.:.:.:.:.:.:.:.:.:.:.:.:.:.:.:.:.i i i i i i i i i i i i i i i i i i i i :.:.i o         X C H L P U.oXoXoX[.[.{.(.[.[.[.[.[._._.(._._._._._._._._._._._._./././.~.~.~.~././.~.~.~.~.~.~.~.~.~.~.~.~.~.~.~.~.~.~.~.~.~.~.~.~.~.~.~.~.~.~.~.~.~.~.~.~.~.~.^.^.^.!.!.!.!.!.!.!.!.!.!.!.!.!.!.!.!.!.!.!.!.!.!.!.!.^.^.^.].].].{.{.oX.X.X.X.X.X.X X X X X X X X X X X X X X X X X.X.X X X X X X X X X X#X#X#X#X#X#X#X#X#X#X#XM.#X#X#X&X#X#X#X#X#X#X#XM.l.l.l. X X X XoXoXoXoXoX.X.X.X.X.X.XoXoX.X X X X#X#X#X#X&X&X&X&X&X&X&X&X&X&X&X&XM.&XM.M.M.M.M.C.M.M.C.C.M.M.C.M.C.C.C.M.M.M.M.C.C.C.C.C.C.M.M.C.C.C.C.C.C.C.C.C.C.C.N.C.C.M.M.M.M.M.M.C.C.C.C.C.C.C.C.M.M.M.M.M.M.M.M.M.M.M.M.M.M.m.m.m.m.m.m.m.m.m.x.",
"r +.+.+.%.+.%.%.%.%.%.%.u e 6 6 r u +.+.e w w r w w w w w w w w w w w w w w w w q q w w w q q q q w q q 6 6 2 2 6 0 w u u u e e e e e w r r e e e e e e e e e e u u u y e e e e y u u u y y y y e u u N N u u u %.%.%.%.%.N u u N N &.&.&.,.,.,.,.=.&.N N &.&.N N p 9 8 8 8 8 8 8 8 8 8 8 7 7 7 7 7 8 7 7 7 7 8 7 7 7 8 8 7 7 7 8 8 8 8 8 8 8 8 8 M N ~ 1.2.0.0.0.2.N o         o :.p i i p i :.i i :.:.i i i i i i i i :.:.:.:.i i i i i i i i i i :.:.:.:.:.:.:.:.:.:.:.:.:.:.i i i i i i i i l l i i i i l i i i E :.i i @.i i i i i i i i i i i p E p i t .     .     o :.i i i i i i i i i i i i i i i i i i :.:.:.:.:.:.:.:.:.:.:.:.:.:.:.:.:.:.:.i i i i i i i i i i i i i i i i i i i i i i :.5         . ; F L P Y.oXoXoX[.[.[.[.{.{.{.[.[.(.(.(._.[.[.[._._._.(.~.~.~.~.~.~.~.~.~.~.~.].~.~.~.~.~.~.~.~.~.~.~.~.~.~.~.~.~.~.~.~.~.~.~.~.~.~.~.~.~.~.~.~.~.~.~.~.!.!.!.!.!.!.!.!.!.!.!.!.!.!.!.!.!.!.!.!.!.!.!.!.!.!.!.!.!.!.'.!.!.].R.R.R.R.oXoXoX.X.X.X.X.X.X.X X.X.X X X X X.X.X.X X.X.X.X.X.X.X.X X X X X X X X Xl.M.m.m.m.M.M.m.m.m.#X#X#X#X#X#X#X X X Xl.l.l. X X X X.X.X.XoXoXoXoX{.R.R..X.XoXoXoXoX.X X X#X#X#XM.M.#X&X&XC.&XM.&X&XC.C.C.&X&X&XM.M.M.M.M.M.M.M.M.M.&X&XC.C.C.C.C.M.C.C.&X&XM.M.C.C.C.C.C.C.C.C.C.C.C.C.C.M.M.M.M.M.M.M.M.M.M.M.B.B.M.M.M.M.M.M.M.M.M.C.C.M.M.M.M.M.M.M.M.M.M.M.m.m.m.m.m.A.m.l.",
"r %.+.%.%.%.%.%.%.%.%.%.+.w 0 6 r e +.+.e w w r w w w w w w w w w w w w w w w w q w w w w w w w q w q q 0 6 6 2 2 6 r w e u e e e e e e e r e e e e e e e e r r r r r e e e u u u u u e y e y y e e u u u u N N %.%.%.%.u u u u N N N &.&.&.&.&.&.&.N N N &.<.N N p 8 8 8 8 8 8 r 8 r 8 8 7 7 7 8 8 8 8 8 8 8 8 8 8 8 8 8 8 8 8 8 8 8 8 8 8 8 8 8 8 9 N W ~ 2.2.0.2.W o         o i p i i i i i i @.:.E i i i @.i i i i @.:.:.:.i i :.:.:.:.:.:.i i :.:.:.:.:.:.:.:.:.:.:.:.:.:.i i i i i i i i l l l @.i i i l i i l :.i @.@.i i i i i i i i i i i p i p i p o           . p i i i i i i i i i i i i i i i @.i @.@.:.:.:.:.:.:.:.:.E E :.:.:.:.:.:.:.:.i i i i i i i i i i i i i i i i i i i i i i :.7           + C L }.XXoXoX{.{.{.{.[.[.{.{.[.[.[.(.(.~.(.~.~.~.~.~.~.~.~.~.~.~.~.~.~.~.~.~.~.~.~.~.~.~.~.~.~.~.~.~.~.~.~.~.~.~.~.~.~.~.~.~.~.~.~.~.~.~.~.~.~.~.~.^.!.!.!.!.!.!.!.!.!.!.!.!.!.!.!.!.!.!.!.!.!.!.!.!.!.!.!.!.!.!.'.'.!.!.E.P.P.P.P.R.oXoXoX.X.X.X.X.X.X.X.X.X.X.X.X.X.X.X.X.X.X.XY.Y.R..X.X.X.X X X X X X X Xl.l.l.l.l.l.l.l. X X X X X X X X X X X X X X X X X.X.X.X.XoXoXoX{.oX].R.R..XoXoXoXoX.X X X X#X#XM.#X#X#X#X&X&X&X#X&X&X&X&X&X&X&XM.M.M.M.M.M.M.M.M.M.&X&XM.M.C.C.C.M.M.C.&X&XM.M.M.M.M.M.M.M.M.M.C.C.C.C.C.C.C.C.M.M.M.M.M.M.M.M.M.M.M.M.M.M.M.M.M.M.M.M.M.M.M.M.M.M.M.M.M.m.M.m.m.m.m.l.l.l.l.k.",
"r %.+.%.%.+.%.%.%.%.%.%.+.w 0 6 0 e +.+.e w w r w w w w w w w w w w w w w w w w w w w w w w w w w w w r 0 0 6 6 2 2 0 w e u e e e e e e e e e e e e e e e r r r r r r r r e e e u e e t r r r r r t e u u N N N %.%.%.%.u u u u N N N N N N N N N N N N &.,.,.&.N p 8 8 r 8 8 8 r r r 8 8 8 8 8 8 8 8 r 6 6 8 8 r r r r 6 6 r r 8 8 r 8 8 8 8 8 8 8 8 8 N W 1.0.0.0.1.#         . p i p i i i i i i i i i i :.:.i i i i @.:.:.:.:.:.:.:.:.:.:.:.i i :.:.:.:.:.:.:.:.:.:.:.E :.:.i i i i i i i i l l @.@.i E i i i i i :.i i @.i i i i i i i i i i E p i i i i 7             7 i i i i i i i i i i i i i l :.@.i i @.i :.:.:.:.:.i :.E :.:.:.:.i :.:.:.:.i :.:.:.i i i i i @.@.l i i i i i i i i i :.i t .         . < { |.XXoXoX{.{.{.{.{.[.[.{.{.(.(.(.(.~.~.~.~.~.~.~.~.~.~.~.~.~.~.~.~.~.~.~.].].~.~.~.~.~.~.~.~.~.~.~.~.~.~.~.~.~.~.~.~.~.~.~.~.~.~.~.~.~.~.^.!.!.!.!.!.!.!.!.!.!.!.!.!.!.!.!.!.!.!.!.!.!.!.!.!.!.!.!.!.!.!.E.P.'.'.P.P.P.T.T.T.T.Y.R.oXoX.XR.Y.Y.R..X.X.X.X.X.X.X.X.X.XR.Y.Y.Y.Y.Y.Y.Y.Y.Y..XY..X.X.X X X X X Xl.l.l.l.l.l. X X X X X X X X X X X X X X X.X.X.X.X.XoXoX{.{.].].].].{.{.oXoXoXoX.X.X X X X X X X X#X#XM.M.M.M.#X&X&X&X&X&X#XM.M.M.M.M.C.C.C.C.C.M.M.M.M.M.M.C.M.M.M.M.M.C.&XM.M.M.M.M.M.M.M.M.C.M.M.C.C.C.C.M.M.M.M.M.M.M.M.M.M.M.M.M.M.M.M.M.M.M.M.M.M.M.M.M.M.M.M.M.M.M.M.l.l.l.l.l.l. Xl.",
"r %.+.+.%.u %.%.%.%.%.%.+.y r 6 0 w +.+.u w w r w w w w w w w w w w w w w w w w w w w w w w w w w w w w 0 0 6 2 2 2 6 r w u u e e e e e e e e e r r e e e r r 8 8 8 6 6 r t e e e r 8 8 8 7 7 7 8 8 t p u N N N %.%.+.u u u u u N N N N N N N N N N N <.,.1.1.&.u p 8 r r r q r r r r r 8 8 8 8 6 r r r r r r r r r r 6 6 r r r r r r r r 6 6 r r 6 8 r 9 N 1.1.0.0.2.7           t :.p i i p i i i i i i i @.i i i i i i i l E :.:.:.:.i i i i i i :.:.:.:.:.:.:.:.@.@.i E :.:.:.:.:.:.:.:.:.:.E l @.@.@.&.i i i i l :.i i @.i i i i i i i i i i :.i i i i i p             5 i i i i i i i i i i i i i i l i @.i i i i :.:.:.:.:.:.:.:.:.:.:.:.:.:.:.:.:.:.:.:.i i i i i @.l :.i i i i i i i i i i p i O           X G |.XXoXoXoX{.{.{.{.{.{.{.].~.].].].^.!.!.!.!.!.!.!.!.!.!.!.^.^.].].].].~.~.].].].~.~.~.~.~.~.~.~.~.~.~.~.~.~.~.~.~.~.~.~.~.~.~.~.~.~.~.~.!.!.!.!.!.!.!.!.!.!.!.P.P.P.!.!.!.!.!.!.!.!.!.!.!.!.!.!.!.E.E.E.E.P.P.P.P.P.P.T.I I I T.Y.R.Y.Y.g.g.g.T.Y..XoXoX.X.XR.R.R.R.R.Y.Y.Y.Y.Y.Y.Y.Y.Y.Y.R.Y.Y.Y..X.X.X.X X.Xl.l.l.l. X X X X X X X X X X.X X.X.X.X.X.X.X.X.X.XoX{.{.{.].].{.].{.{.{.{.oX{..X.X.X X X X X X X Xl.m.m.M.m.M.#X#X&X&X&X&X&X&X&XM.C.C.C.C.M.M.M.M.M.M.M.M.C.M.M.M.M.M.M.&X&X&XM.M.M.M.M.M.M.M.M.M.M.M.C.C.M.M.C.&X&XM.M.M.M.M.M.M.M.M.M.M.M.M.M.m.M.m.m.m.M.M.l.l.l.l.l.l.l.l. X X X.X.X.X",
"r +.+.+.+.u %.%.%.%.%.%.%.u r 6 6 r +.+.+.e w w w w w w w w w w w w w w w w w w w w w w w w w w w w w 0 0 0 6 2 2 2 6 0 w u u u e e e e e e e e r r r r e r 6 8 7 7 3 7 8 8 t t r 8 8 7 7 # # # * 7 r p N N u N +.+.u u u u u u N N N &.&.&.N N &.&.:.,.1.1.1.&.u r r q q q q t r r r r r r r r r r r r r r r r r r r r r r r r 6 r r 6 r 6 r r r r r 8 8 8 N 1.0.0.2.8           7 :.i i :.i i i i i i i i i i i i i i &.N N l i i i i i i i i :.:.i i i i i i E l :.:.E l l :.:.:.:.:.:.:.:.:.E @.@.@.i @.:.i i i i :.i i i i i i i i i i i i i :.i i l i i i O           O i i i i i i i i i i i i l l i i i i i i i :.:.:.:.:.:.:.:.:.:.:.:.:.:.i i :.:.:.:.:.i i i i i i i i i i i i i i i i i p :.o           . C H.XXoXoXoXoXoX{.{.{.].].^.].'.!.!.!.!.!.!.!.!.!.!.'.!.!.'.'.^.].].].].].].].].].].].~.~.~.~.~.~.~.~.~.~.~.~.~.~.~.~.~.~.~.~.~.~.~.^.!.!.!.!.!.!.!.!.!.!.!.!.P.P.!.!.!.!.!.!.!.!.!.!.!.!.'.'.!.!.E.E.E.P.E.P.P.W.E.'.P.T.I I I I T.T.T.g.I I I I T.Y.oXoXoXoX.XQ.R.R.R.R.Y.Y.P.P.Y.R.R.R.Y.Y.Y.Y.Y.Y..X.X.X.X.Xk.k..X.X.X.X.X.X.X.X.X.X.X.X.X.X.X.X.X.X.XR.R.R.R.].{.{.{.{.{.{.].].].{.{.{.{.oX.X.X.X.X.X.X X X Xl.l.l. Xm.#XM.M.#X&X&X&XM.M.M.M.&XM.M.M.M.M.M.M.M.M.M.M.M.M.M.M.M.M.M.M.M.M.M.M.M.M.M.M.M.M.M.M.&X&X&X&X&X&X&X&X&X&X#XM.M.M.M.m.M.M.M.m.M.M.m.m.M.l.l.l.l.l.l. X X X X X X X.X.X.X.X.XR.",
"r +.+.+.%.+.%.%.%.%.%.%.%.u e 0 6 r u +.+.e w w r r r r r w r r 0 w w w w w w w w w w w w w w w q q 0 0 q 0 0 6 2 2 6 0 w u u u e w e e w e e e r r r r r r 8 7 7 3 3 7 8 8 8 8 8 8 7 * # # # # # * 8 p N N u u u u u u u N u N N N N &.N &.&.&.=.&.<.1.1.1.,.N p t q q r r q t r r r r r r r r r r r r r r r r r r r r r r r r r r r r r r r r 6 6 r 8 8 8 8 N 1.1.1.8 .         o :.i i :.i i i i i i i i i i i i i i @.@.E E i i i i i i i i :.:.i i i i i i E i :.:.E :.@.@.:.:.:.:.:.:.:.:.N i @.@.i i @.i i i @.:.i l i i i i i i i i i i p i i i i i i :.7             t i i i i i i i i i i i i i i i N i i i i i :.:.:.:.:.:.:.:.:.:.:.:.:.:.:.:.:.:.:.:.:.:.i i i i i i i i i i i i i i i p :.7           . < o.XXoXoXQ.Q.Q.].].].].'.].].'.'.!.!.'.'.'.'.'.!.'.'.'.!.'.'.'.'.^.].].].].].].].].].~.~.].].~.~.~.~.~.~.~.~.~.~.~.~.~.~.~.~.~.~.~.!.!.!.!.!.!.!.!.!.!.!.!.!.P.P.P.!.!.!.P.P.E.E.E.E.E.'.'.'.'.'.E.E.P.P.P.P.P.W.W.W.P.T.I I I I I g.g.I I I I I I U.Q.oXoXoXoX].].].R.Y.R.R.P.P.Y.R.R.R.R.R.R.R.Y.Y.Y.Y.Y.Y.Y.T.Y..X.X.X.X.X.X.X.X.X.XR..XoXoXoXoXoXoX{.].].R.].].{.{.{.{.{.{.{.].].].{.{.].].R.R..X.X.X.X.X.X.X X X X X X X#X#X#X#X#X#X#XM.#X#X#X#XM.M.M.M.M.M.M.M.M.M.&XM.M.M.#X#X#X#XM.M.M.M.M.M.M.M.#X#X#X#X#X#X#XM.&X#X#X#XM.M.#X#XM.M.M.m.M.l.l.l.l.l.l.l.l.l. X X X X X X.X.X.X.X.X.X.XR.].].{.R.",
"r +.+.+.%.u %.%.%.%.%.%.%.+.w 0 6 r e +.+.u e w 0 0 r r w w w w 0 w w w w w w w q w w w w w w w q q q r w 0 0 0 2 2 6 0 w e e e w w e e e w e e r r e e r r 7 7 7 # # # 7 7 8 8 8 8 7 = # # # # # = 8 t p u u u N u u u N N N u N N &.N &.&.&.&.=.=.,.1.1.1.>.N p t r q t r q q r r r r r r r r r r r r r r r 6 6 6 r r r r 6 6 r r 6 r r r r 6 8 6 8 8 7 7 7 7 8 9 p 7 .         O u i i l i i i i i i i i i i i @.i l @.@.@.@.i i i i i i i i :.:.i i i i i i :.:.:.:.:.:.:.:.:.:.:.:.:.:.:.:.i @.@.@.i i i i i i @.:.l l N i i i i i i i i i i i i i i i i :.t .           7 i i i i i i i i i i i i @.@.i @.i i i i i i :.:.:.:.:.:.:.:.:.:.:.:.:.:.:.:.:.:.:.:.:.@.i i i i i i i i i i i i i i i :.t .           X R |.XXXXQ.Q.Q.'.'.'.'.W.'.'.'.'.'.'.'.'.'.'.'.'.'.'.!.!.'.'.'.'.!.'.!.~.].].].].].].].].].^.^.^.~.~.~.~.~.~.~.~.~.~.~.~.~.~.~.~.!.!.!.!.!.!.!.!.!.!.!.!.P.P.P.P.P.P.P.P.P.P.P.P.P.P.P.P.E.E.E.W.E.P.P.P.P.P.Y.Y.Y.Y.Y.T.I I I I I I I I I I I I I T.Q.].].].].].].].'.'.R.R.P.P.R.R.R.R.P.R.Y.R.Y.Y.Y.Y.Y.Y.Y.Y.Y.Y.R.R.R.R.Q.Q.R.R.R.R.'.].oXoXoXoX{.{.].].].].].{.{.{.{.{.{.{.].].].].{.].].R.R.R.R.R..X.X.X.X.X.X.X.X X X X X X X X#X#X#X#X#X#X#XM.M.M.M.M.M.M.M.M.M.M.#X#X#X#X#X#X#X#X#X#X#XM.M.#X#X#X#X#X#X#X#X#X#X#X#X#XM.M.M.M.M.m.m.l.l.l.l. X Xl.l. X X X X.X.X.X.X.X.X.X.X.X.X].].{.].{.{.{.R.",
"r +.u +.+.u %.+.%.%.%.%.%.+.w 0 6 r w +.+.+.e w 0 0 r r w w w w 0 w w w w w w w q w w w w w w w y q w w w w 0 0 6 2 6 0 w w e w w w e w w e e r r r e r r 8 7 7 = # # # = 7 8 7 8 7 = # # # # # # = 7 r t u u u u u N %.N N N N N N &.&.&.&.<.<.<.=.,.1.1.,.&.N p t r t t t r r r r r r r r r r r r 6 6 6 6 6 6 6 r r r r r 6 6 6 6 6 6 6 6 8 8 6 7 3 7 7 # # # # # = o .           t :.i i i i i i i i i i i i i i :.@.@.@.@.@.:.:.:.i i i i i :.:.i i i i i i :.:.:.:.:.:.:.:.:.:.:.:.:.:.:.:.i @.@.@.i i i i i i i :.l E E i i i i i i i i i i i i i p i i i :.O           o i i i i i i i i i i i i i @.@.@.i i i i i i i :.i :.:.:.:.:.:.i :.:.:.:.i i :.:.:.:.:.:.i i i i i i i i i i i i i p :.i i O           . C X.|.XXQ.Q.Q.'.'.'.'.W.'.'.'.'.'.'.!.!.'.'.'.'.'.!.!.!.'.'.!.!.!.!.!.!.!.!.'.~.].].].].~.^.^.^.~.~.~.~.^.~.~.~.~.~.~.~.].~.^.!.!.!.!.!.!.!.!.!.!.!.!.P.P.P.P.P.P.P.P.P.P.P.P.P.P.P.P.P.P.E.W.E.P.P.P.P.T.T.Y.Y.Y.Q.Y.T.I I I I I I I I I I I I I T.Y.'.'.'.'.'.'.'.'.'.'.Y.P.P.P.P.P.P.P.P.P.P.P.P.P.P.P.P.P.P.Y.R.R.R.Y.Q.R.R.R.R.R.R.'.].{.{.oX{.{.{.{.].].^.].{.{.{.{.{.{.{.{.{.].].{.].].].].].R.R.R.oXoX.X.X.X.X.X.X.X X X X X X X#X#X#X#X#XM.M.M.M.M.M.M.M.M.M.M.#X#X#X#X#X#X#X#X#X#X#X#XM.M.l. XM.M.#X#X#X#X#X#XM.M.M.m.l.l.l.l.l. Xl.l. X X X X X X X.X.X.X.X.X.X.X.X.X.X{.{.{.{.{.{.~./.{.{.P.",
"w e u +.+.+.%.%.%.%.%.%.%.%.y r 6 6 r u +.+.e w w r 0 0 q w w 0 0 0 w w w w w w w w w w w w w w w w w q q q 0 6 6 2 2 0 r w w w e e e e r r r r r t t 8 8 8 7 7 # # # # = = = = = = = = # # # # # # * 8 9 p p p N p N N N N N N N N N N N N N <.<.<.<.1.1.<.N p p 8 8 8 8 r r r 8 r r 8 r r r r 8 8 8 r r r 6 6 6 6 6 6 r r 6 6 r r r 6 6 6 6 6 7 7 3 # # o o o o X o X .           7 :.i i p i i i i i i i i @.i i i @.@.i i i i i i i :.:.:.:.i i i @.:.:.:.:.i i i i i i i i i i :.:.:.&.i i l l @.@.@.i i i i i l E E l i i i i i i i i i i i i i i i i i i >.7           . i i i :.p i i :.i i i i @.i i l l i E E E E E E E E E E :.:.:.:.:.:.i i i i :.:.:.:.:.i i i i i i i i i i i i i i :.i :.i 7             % { |.XXXXQ.Q.'.'.Y.W.W.'.'.'.'.'.'.W.W.W.W.W.W.W.W.W.W.'.'.'.'.'.'.'.'.'.'.'.'.'.'.'.!.~.].].].~.^.^.^.~.~.^.^.^.].].].].!.!.!.!.!.!.!.!.!.!.!.!.!.P.P.E.E.P.P.P.P.P.P.P.P.P.P.P.P.P.P.P.E.E.E.P.Y.P.T.I T.T.Y.Y.Y.Y.T.I I I I I I I I I I I I I T.Y.'.'.'.'.'.'.].'.'.'.'.Y.P.P.P.P.P.Y.Y.Y.Y.P.P.P.P.Y.P.P.Y.Y.Y.R.'.Y.Y.Y.W.W.'.'.'.'.'.].].{.{.].].].].^.^.].{.{.{.{.].].].{.{.{.{.{.{.].^.].].].].].].].].R.R..X.X.X.X.X.X.X X X X X X X X#X#X#X#X#X#X#X#X#X#X#X#X#X#X#X*X*X*X*X*X#X X X X X X X X X X X X X Xl.l.l.l.l. X X X X X X X.X.X.X.X.X.X.X.X.X.XR.].].].].].].].].].].].^.^.^././.^.{.P.",
"e e u +.+.+.%.%.%.%.%.%.%.%.u r 6 6 r e +.+.e w w r 0 0 q q w w 0 0 w 0 w w w w w w w w w w w w w w w q q q 0 6 6 2 2 6 r w w w e e e r r r r r r r 8 8 8 8 7 7 = # # # # * = = * * = * # @ @ @ # # * 8 8 p p p N N N N N N p p 9 9 p N N W <.<.<.<.<.1.<.:.N p p 8 8 r r r r q 8 8 r 8 r r r r 8 8 r 8 r r r r 6 6 6 6 r 6 6 6 r r 6 6 8 6 7 3 # # # # o o o o o X X X .           o i i :.i :.i i i i i i @.@.i i i i i i i l i i i i i :.:.:.i i @.@.:.:.E :.i i i i i i i i i l :.:.:.&.i i E E i i @.i i i i i l E i l @.@.i i i i i i i i i i i i i i i i :.t             t :.i :.i :.:.i i i i i @.@.i i l l E E E E E E i E E E :.:.:.:.:.:.i i i i :.:.:.:.:.i i i i i i i i i i i i i i i i :.i 7             . A X.|.XXXXY.Y.Q.Y.Y.Q.Y.W.W.W.W.W.W.W.W.W.W.W.W.'.'.'.'.'.'.'.'.'.'.'.'.'.'.'.'.'.'.'.!.'.^.].].~.^.^.~.~.^.^.^.^.^.^.!.!.!.!.!.!.!.!.!.!.!.!.!.!.P.P.E.E.P.P.P.P.P.P.P.P.P.P.P.P.P.P.P.E.E.E.E.Y.T.T.I I T.T.P.Y.P.T.I I I I I I I I I I I I I T.Y.E.W.W.'.'.'.'.'.'.'.'.'.P.P.P.P.P.Y.Y.Y.Y.Y.Y.Y.Y.Y.Y.Y.Y.Y.Y.P.Y.Y.P.P.P.W.W.'.'.'.'.'.].].].].].].^.'.^.].].].].].].~.~.{.{.{.{.~.~.^.^.].].].].].].].].].].R.]..X.X.X.X.X.X.X.X X X X X X X X Xm.#X#X X X X#X#X X X X*X;X;X;X*X X X X X X X.X.X X X X X X X X Xl. X X X.X.X X X.X.X.X.X.X.X.X.X.X.XoX].].].].].].].].].^.^.^.^.^.~.^./././.{.P.",
"e u +.+.u +.%.+.%.+.+.%.%.%.u w 0 6 0 r u +.u w r r 0 0 q q 0 w 0 0 0 0 q w w w w w q w w w w w w w w q q q 0 6 0 2 2 6 0 w w w r e r r 6 7 7 7 8 8 8 8 8 8 8 7 = * # # # # * * * * * * % @ @ @ # = = 8 9 p p p N N N N N N 9 8 7 8 8 9 N W <.<.<.<.1.1.1.<.N N p t r r r r q r 8 8 r r 8 r r r 8 8 7 7 0 r r r r r r r r r 0 0 6 6 6 8 6 5 3 3 # # # o o o o X X X X o O           O p i :.p :.i i i i i i i i i i i i i l l l :.:.i i i i i i i i i i :.:.:.:.i i i i i i i i E E l :.:.i i i E l i i l l l l @.i i i @.@.@.@.i i i i i i i i i i i i i i i i i >.o           7 :.i @.i l :.p i i i i i i i i @.@.N i E E E E i i E E :.:.:.:.:.l l i i :.:.:.i i i i i i i i i i i i i i i i i i i :.:.p o       .     < ..|.XXXXQ.Q.Q.Y.Q.Y.Y.Y.Y.Y.Y.Y.Y.Y.Y.Y.Y.Y.Y.Y.Y.Y.Y.Y.Y.Y.Y.Y.P.P.P.P.P.P.P.P.W.W.'.'.'.].'.!.^.^.^.^.^.!.!.!.!.!.!.!.!.!.!.!.!.!.E.E.E.!.!.P.!.!.P.E.P.P.P.P.P.P.P.P.P.P.P.P.P.P.P.P.E.E.E.Y.T.G.I I I T.T.Y.Y.T.I I I I I I I I I I I I I T.Y.P.Y.Y.W.'.'.'.'.'.'.'.'.P.P.P.P.P.P.P.P.P.P.P.P.'.'.'.P.Y.Y.Y.P.Y.Y.P.P.P.P.W.'.'.'.'.'.'.'.'.'.'.'.'.!.!.^.].].].].].~.~.].].].].^.^.^.^.].].].].].].].].].].].].].].].R.R..X.X.X.X.X.X.X.X.X X X X X X X X X X X X.X.X.X;X;X;XoX.X.X.X.X.X.XoXoXoX.X.X.X.X.X.X.X.X.X.X.X.X.X.X.X.X.X.XoXoX].R.R.{.].].].].].].].~.~.~.~././.^.^.^.~.^././.).{.P.",
"e u u u u +.%.+.u +.+.+.%.%.u e r 6 6 r e +.u e w r r r q q 0 w 0 0 0 w q w w w w q q w w w w w w w w q q q 0 6 0 6 2 6 0 w w w r r r 8 7 7 7 7 8 8 8 8 8 8 8 8 = * # @ # # * * % % % % % % % % * = = 8 9 9 p p N N N N N p 9 = * * = 8 p W <.W <.1.1.1.<.<.N N p p t r t r r t r r r r r r r 0 7 7 7 7 7 0 0 r r r r r 6 r r 6 6 6 8 6 5 # # # # o o o X o o X o X o o O             7 :.i p i i i i i E i i i i i i i i l N l :.:.:.i i i i i i i i i :.:.:.:.i i i :.:.:.:.:.l l l :.:.i i i E E i i i i i l i i @.i @.i @.i i i i i i i i i i i i i i i i i i :.7           5 <.i p i p :.u i i i i i i i i @.@.@.i E E E E i i E E :.:.:.:.:.:.:.i i :.:.:.i i i i :.:.:.:.i i i i i i i i i i i i i :.7             X R H.|.XXXXQ.Q.Y.Y.Y.Y.Y.Y.Y.Y.Y.Y.Y.Y.Y.Y.T.Y.Y.Y.T.T.T.Y.Y.Y.Y.T.T.P.P.P.P.P.P.P.P.'.'.'.'.'.'.'.'.^.!.!.!.!.!.!.!.!.!.!.!.!.!.!.!.P.P.P.E.!.!.!.!.P.P.P.P.P.P.E.P.P.P.P.P.P.P.P.P.P.P.P.E.W.Y.Y.T.I I I I T.Y.Y.T.I I I I I I I I I I I I T.Y.W.E.Y.W.W.'.'.'.'.'.'.'.P.P.W.P.P.P.P.P.P.P.P.P.P.P.P.P.P.P.P.P.P.P.P.P.P.P.P.E.E.'.'.!.!.!.!.!.!.!.'.'.!.!.!.~.].].~.~.~.~.].].].].^.^.^.^.].^.!.^.].].].].].].].].!.].].].].].].R..X.X.X.X.X.X.X.X.X X.X.X.X.X X X.X.X.X.XoXoXoXoX.X.X.X.X.XoXoXoXoXoX.X.X.X.X.X.X.X.X.X.XoXoX{.{.{.{.{.{.].].].].].].].].^.^.^.^.^.~.~.~.^.^.^.^.~.~.^.)./.).{.P.",
"e e u u u u +.+.+.+.+.+.%.%.+.u r 6 6 0 w u u e w w r r q q 0 0 w w q q q w q q w q q w w w w w w w w w q w 0 0 0 6 2 6 0 q e w r 8 8 7 7 = = = = 7 8 8 8 8 8 8 : * % @ @ % % % % % % % % % % % % = = 8 9 9 p p p N N N p p a = % * = = 9 N W W W W W W W N N N p t t t t t t t r r r r r 8 8 7 7 7 7 7 7 7 7 8 r r 6 6 r r 6 6 6 6 6 5 # # o o o o o o X X X X o X X o O             o E i i i i i i i E E l l i i i i i i i i :.:.@.i i i i i i i i i :.:.:.:.:.:.:.:.:.:.:.:.@.@.@.i l i @.@.:.l l l i @.@.@.i i i i i i i i i i i i i i i i i i i i i i i i :.p i           o <.i i i i :.@.i i i i i i i i @.@.i i E E E E i i i E l l :.:.:.:.:.:.:.:.:.:.i i i i :.:.:.:.i i i i i i i i :.i i i i :.t             . , X.|.|.XXY.Y.Y.Y.Y.Y.Y.Y.T.U.T.T.U.T.T.T.T.T.T.T.T.T.T.T.T.T.T.T.T.T.T.T.T.T.T.P.P.P.'.'.'.].'.'.'.!.!.!.!.!.!.!.!.!.!.!.!.!.!.!.!.P.P.P.E.P.!.!.!.E.E.E.E.E.E.E.E.P.P.P.P.P.P.P.P.P.P.P.P.P.Y.Y.T.I I I I T.Y.Y.T.T.I I I I I I I I I I I T.Y.'.W.'.'.'.'.'.'.'.'.W.W.W.P.P.E.E.P.P.P.P.P.P.P.P.P.P.P.P.P.P.P.P.P.P.P.P.P.P.E.E.E.E.E.E.!.!.!.!.!.'.'.!.!.!.^.~.].~.~.~.~.~.~.~.^.^.^.].].].].^.^.].].].^.^.^.^.^.!.].].].].].].].].].R.]..X.X.X.X.X.X.X.X.X.X.X.X.X.X.X.XoXoXoXoX{.].R.R.{.oXoXoXoXoX{..X.X.X.X.X.XoXoX{.{.{.{.{.].{.].].{.].].].].].].!.^.^.].].^.^.^.^.^.^.^.~.~.~.^.).).~.[.E.",
"e e u u u u +.+.+.%.%.+.%.%.+.u w 0 6 6 w e u e w w r r w q 0 0 q q q q q q q q w w q w w w w w w w w w w q 0 0 0 6 6 6 r e e e 8 8 8 8 7 = = = = = = 8 9 9 9 8 : * % % % % % % % % % % @ % % % @ * : 9 9 9 9 p M N N N p 9 = * @ % % * 8 N E W W W W W W N N p 9 t 8 8 r r r t 8 8 r 8 8 8 7 7 7 7 7 7 7 7 7 7 7 7 7 7 r r 8 6 7 7 7 # # o o o o o o X X X X X X X X X O             O t p :.i l i i @.E E i i i i i i @.i i i i :.@.i i i i i i i i i :.:.:.:.:.:.:.:.i i i i @.@.@.i E i i @.@.l l l i @.@.@.i i i i i i i i i i i i i i i i i i i i i i i i i p :.s         o :.i i :.i i i i i i i i i i i i i l l E E E E i i i E l l :.:.&.:.:.:.:.:.:.:.:.:.:.:.:.:.:.:.i i i i i i i i :.i i i i :.p O             X | }.|.|.Y.Y.Y.Y.T.T.T.U.U.U.U.T.T.T.T.T.T.T.T.T.T.T.T.T.T.T.T.T.T.T.T.T.T.T.T.T.P.P.P.'.'.'.'.'.!.!.!.!.!.!.!.!.!.!.!.!.!.!.!.!.!.!.E.E.E.!.!.!.!.E.P.P.P.E.E.E.P.P.P.P.P.P.P.P.P.E.P.P.P.Y.Y.Y.T.I I I I I T.Y.P.T.G.I I I I I I I I I I Y.Q.W.W.'.'.'.'.'.'.'.'.'.W.W.P.E.P.P.P.P.P.P.P.P.P.P.P.P.P.P.P.P.P.P.P.P.P.P.P.P.E.E.E.E.!.E.E.!.!.!.!.'.!.!.!.!.!.^.].~.~.~.~.~.~.^.^.^.^.^.^.^.^.^.^.].].].].^.^.^.^.^.].].].].].].].].].{.{.].].].].oXoXoXR..XR.R.R.R.R.R.{.oX{.oXoX{.{.{.{.{.{.{.{.{.{.{.{.].oX].].oX{.{.].].{.{.{.{.].].].].].].].].].].^.^.].].].^.^.^.^.^.^.~.~.~.~.~.).).~.[.E.",
"e e u u u u %.%.+.%.%.+.%.%.%.u w r 6 6 w e u u w w w w 0 w 0 0 q q q q q q q q w w w w w w w w w w w w w w q 0 6 6 6 6 r r r r 8 8 8 8 = = = = # = = = : a , , : * * @ @ @ @ % @ @ @ @ @ @ @ @ @ * : 9 9 9 M M M N N N 9 , = % @ % % * : 9 M W W W W W E N M 9 9 9 9 9 8 8 8 9 8 8 8 8 8 8 8 7 = = = # # 7 7 7 7 7 8 8 8 8 8 8 7 7 # # o o X o o o o X X X o X X X X X X .             5 t :.:.l l @.@.@.@.i i i i i i i i i i i i i i i i i i i i i i :.:.:.:.:.:.i i i i i i i @.i E E l @.@.@.@.l l N i @.@.i i i i i i i i i i i i i i i i i i i i i i i i i i :.t O       7 :.i i i i p i i i i i i i i i i l l E E E E E i i i i l l :.:.:.:.E l :.:.:.:.:.:.:.:.:.i i i i i i i i i i i :.i i i i i i o             . Z ..|.|.}.U.U.U.U.U.U.U.U.T.T.T.T.U.U.U.U.U.U.U.U.U.U.U.U.T.T.U.T.T.T.T.T.T.T.T.P.P.P.'.'.'.'.!.!.!.!.!.!.!.!.!.!.!.!.!.!.P.P.!.!.!.!.!.P.E.!.!.!.E.P.P.P.P.P.P.P.P.P.P.P.P.P.P.P.E.P.E.E.P.W.Y.Y.T.G.I I I T.Y.Y.T.T.T.I I I I I I I I T.Y.'.W.'.'.'.'.'.'.'.'.'.'.'.W.P.E.P.P.E.P.P.P.P.P.P.P.P.P.P.P.P.P.P.E.E.P.P.P.P.E.E.E.'.W.W.'.!.!.!.!.!.!.!.!.!.!.!.^.~.~.~.~.~.].~.^.^.~.^.^.^.^.^.^.^.^.^.^.^.^.^.^.^.].].].].].].].].].].].].{.{.{.{.{.{.{.].].].].].R.R.].].{.{.{.oX{.{.{.{.{.{.{.{.{.{.].].].].].].].].].].].{.].].].].].].].].].^.^.^.^.^.^.^.^.^.^.^././.~./.).).~.).).).).).[.E.",
"e e u u u u +.+.+.%.%.+.%.%.%.+.e r 6 0 r w e u e w w 0 0 w 0 w q q q q q q q q w w w w w w w w w w w w w w 0 0 6 6 6 6 r r r r 8 8 8 8 = = = = # # * * = : , 9 : = * @ @ @ @ @ @ @ @ @ @ @ @ @ @ * : , 9 9 M M N M n 9 9 : % % @ * * * = 9 M N U U U W N M 9 9 9 9 9 9 9 8 9 9 8 8 8 8 8 8 7 = = # # # # # = 7 8 8 8 8 8 8 7 7 7 7 # o o X X X o o X X X X X o X X X X o .             O t i :.l l @.@.@.i i i i i i i i i i i i i i i i i i i i i i i :.:.:.:.i i i i i i i i i i i i i l @.i @.@.l l E i N &.i i i i i i i i i i i i i i i i i i i i i i i i i i i :.:.7 7 s t :.:.i i i p :.i i i i i i i i i i E E E E E E i i i i l l :.:.:.&.:.:.:.:.:.:.:.:.:.:.:.i i i :.i i i i i i i i i :.i i i :.7 .             % { X.}.}.I.U.U.U.U.U.U.U.U.U.U.U.U.U.U.U.U.U.U.U.U.U.U.U.U.U.U.T.T.T.T.T.T.T.T.P.P.P.'.'.'.'.!.!.!.!.!.!.!.!.!.!.!.!.P.!.!.P.P.P.!.!.!.E.E.E.E.!.E.P.P.P.P.P.P.P.P.P.P.P.P.P.E.E.E.E.E.E.P.W.P.Y.P.T.I I I T.P.P.P.P.T.T.I I I I I I I T.].].W.'.'.'.'.'.'.'.'.'.'.'.E.E.P.P.P.P.P.P.W.W.W.P.P.P.P.P.P.P.P.P.E.E.W.E.P.E.E.E.E.'.'.'.'.'.!.!.E.E.!.!.!.!.!.!.!.^.~.~.~.~.].~.^.^.^.^.^.^.^.^.^.^.^.^.^.^.^.^.^.^.].^.^.^.^.^.].].].].].].].].{.{.{.{.{.{.].].].].].].'.].{.{.{.{.{.{.{.{.{.{.{.{.{.{.].].].].].].].].].].].].].].{.].].].].^.^.!.!.^.!.!.^.^.^.^.^.^.~.).).).).).).).).).).).[.E.",
"e u u u u u +.%.%.%.+.%.%.%.%.%.u w r 0 r w e e e w r 0 q q q q q q 0 0 0 0 q q w w w w w w w w w w w w q q 0 0 6 6 6 6 r 8 8 8 8 a 9 8 : = * = % % % * * = : 9 , : % @ @ @ @ @ @ % % % @ @ @ @ % * , > 9 9 n n n n n 9 , : % @ @ @ * % = , 9 n n n n n n n 9 n 9 9 9 9 9 9 9 9 9 9 9 8 8 8 8 = = = # # # = = = 8 8 9 8 8 8 7 7 = # o o o o o X X o X X X o X X X X o o o O               o t :.:.i i i i @.:.:.u i i i l i i i i i :.:.i i i :.i i i i i i :.:.:.:.:.:.i i i i i i i i i i i i i i i i i i i i i i i i i i i i i i i i i i i i i i i i i i i i i i i i :.:.<.1.i i i i i i i i i i i i i i i i i i i i E i i i i i i i i :.:.:.:.:.:.:.:.:.:.:.:.:.:.:.:.:.:.i i i i i i i i i i i i i i i p t                 > X.}.P U.I.I.I.}.}.F.I.F.I.I.}.}.I.I.U.U.U.U.U.U.U.U.U.U.U.U.U.U.T.T.T.T.T.Y.Y.Y.Y.'.'.'.!.!.!.'.'.'.!.!.!.!.!.!.!.!.!.P.P.E.E.!.!.!.!.!.!.E.!.P.P.P.E.P.P.P.P.P.P.P.E.P.P.P.P.P.P.P.P.E.E.P.P.E.P.T.T.G.T.P.Y.Y.Y.Y.P.T.T.I I I I T.W.'.'.'.].'.'.].].].'.'.'.'.'.W.W.P.P.P.P.P.P.W.W.P.P.P.P.P.P.P.P.P.P.P.P.E.E.E.E.E.W.'.'.E.E.!.E.E.E.!.!.!.!.!.!.!.!.!.^.^.~.~.].].].~.^.^.^.^.^.^.^.^.^.^.^.^.^.^.^.^.^.].^.^.^.^.].].].].].].^.].].{.{.{.{.{.{.].].].].^.].].].].{.{.{.].{.{.{.{.{.{.{.{.].].].].].].].^.].].].].{.{.].].].].].^.^.^.!.^.^.^.^.^.^.~.~.~.~.~.~.).).~.~.).).).).).).[.!.",
"u u u u u u +.%.%.%.+.%.%.%.%.%.u w r 6 r r e e e w w r q 0 0 q 0 0 0 q 0 q q q w w w w w w w w w w w w w q 0 0 6 6 6 6 r r 8 8 8 9 9 9 : = = * = = % % = = : , , : * % % @ @ @ @ @ @ @ @ @ @ % % : , 9 n 9 n n 9 9 9 9 , * % % @ @ % % * , 9 n n n n n 9 9 9 9 9 9 9 n 9 9 9 9 9 9 9 9 9 9 8 : = = = = * * * = 8 8 9 9 8 8 8 7 = # o X X X X o X o X o o o X X X X o o o O .             . 5 t i N :.:.i i i i :.:.i i i i i i i :.i i i i i :.i i i i i :.:.:.i i i i i i i i i i i i i i i i i i i i i i i i i i i i i i i i i i i i i i i i i i i i i i i i :.i i i i i i i i i i i i i i i i i l i @.i i i i i i i E E i i :.i i i i :.:.:.:.:.:.:.:.:.:.:.:.:.:.:.l l i i i i i i i i i i i i i i i i i p .               % | |.J.J.} J.F.F.F.F.U.U.U.G.G.U.U.U.U.U.U.U.U.U.U.U.U.U.U.U.U.T.T.T.T.T.T.Y.Y.Y.Y.W.'.'.!.'.'.'.'.!.!.!.!.!.!.!.!.!.!.P.P.E.!.!.!.!.!.E.E.!.!.P.P.P.P.E.E.E.P.P.P.P.E.P.E.P.P.P.P.P.P.E.E.E.P.E.P.P.T.T.T.Y.Y.Q.W.'.Q.Y.P.T.T.T.T.P.W.'.W.'.].'.].].].].'.'.'.'.'.'.W.E.E.E.E.P.E.E.E.P.P.P.P.P.P.P.P.P.P.P.P.E.E.E.E.E.W.'.E.E.E.E.E.E.E.!.!.!.!.!.!.!.!.!.!.!.~.~.~.~.~.~.^.^.^.^.^.^.^.^.^.^.^.^.^.^.^.^.^.^.^.^.^.].].].].].].].].].].{.{.{.{.{.{.].].].^.^.].].].].{.{.{././.{.{.{.{.{.{.{.{.].].^.].].].{.{.{.{.].].].].].].].^.^.^.^.!.^.^.^.^.^.^.~.~.~.~.~.~.).).~.~.)./.).).).).[.!.",
"u u u u u u +.%.%.%.%.%.%.%.%.%.u e r 6 0 r e e u e w r q q 0 0 0 0 0 q q q q w w w w w w w w w w q w w w q 0 0 6 6 6 0 r 8 8 8 9 9 9 , , : : = * = % % % % : , , : * % % % @ @ @ @ @ @ @ @ @ % < : > n n n n n > n 9 , , * % % % % % % : , n n n 9 9 9 9 9 > > 9 9 9 9 9 9 9 9 9 9 9 9 9 9 9 9 : = = * = = * = - , 9 9 9 9 8 = # X X X X X X o X X X X o X X X X o X o X X O .             . o p p i @.:.:.i i i i i i :.:.:.:.l i i i i i i :.:.:.i i i :.:.:.i i i i i i i i i i i i i i i i i i i i i i i i @.@.i i i i i i i i i i i i i i i i i i i i i i i i i i i i i i i i i i i i i i i i i i i i i i i i i E E E i i :.:.:.:.:.:.:.:.:.:.:.:.:.:.:.:.:.:.:.:.:.i i i i i i i i i i i i i i i i i i i O               . U w.@X|.}.J.}.}.}.F.F.I.I.I.}.F.I.U.U.U.U.U.U.U.U.U.U.U.U.U.U.U.U.T.T.T.T.Y.Y.Y.W.'.'.'.'.'.'.'.'.!.!.!.!.!.!.!.!.!.E.P.P.'.'.!.!.!.!.P.E.P.P.P.P.P.P.E.E.E.E.P.P.P.P.E.E.E.P.E.E.E.E.E.E.E.E.E.E.Y.Y.P.P.Y.W.W.'.'.'.'.W.Y.Y.Y.Y.W.W.'.'.'.].].].].].].].'.'.'.'.'.'.'.E.E.E.P.P.E.E.E.P.P.P.P.P.P.P.P.P.P.P.E.E.P.E.E.E.E.!.E.E.E.E.E.!.!.!.!.!.!.!.!.!.!.!.!.!.~.~.~.~.^.^.^.^.^.^.^.^.^.^.^.^.^.^.^.^.^.^.^.^.^.^.~.~.~.~.].].].~.].].].{.{.{.{.{.].].^.^.!.^.^.^.].].].{./.{.{.{.{.{.{.{.{.{.{.].].^.].].{.{.{./.{.~.~.~.^.~.^.^.^.^.!.!.^.^.^.^.^.^.~.~.~.~.~.~.).~.~.~.)./.).).).).[.!.",
"u u u u u u u +.%.%.+.%.%.%.%.%.+.e r 0 6 r w e u u w w w w q 0 0 0 0 w q w w w w w w w w w w w w w w w w q 0 0 6 6 0 0 8 8 8 8 9 , , , , ; ; : : < * % % % < : , ; < * % % % @ @ @ @ @ @ @ % % : , > n U n n n c 9 > , , * % % % % % < , > n n n n n c c c c c 9 > > > > > > > > > > > > > > > , , : : : * < : , , , , 9 9 : = # X X X X X X o X X X X o X X X X o X X X X X O .               . s p :.i p i :.:.:.:.i i i i i i i i i :.:.i i i i i i i i i :.i i i i i i i i i i i i i i i i i i i i i i i i i i i i i i i i i i i i i i i i i i i i i i i i i i i i :.:.:.:.i i i i i i i i i @.i i i i i i i i i :.:.:.:.i :.:.:.:.:.:.:.:.:.:.:.:.E :.:.:.:.:.:.:.i i i i i i i i i i i i i i i i i i :.:.o                 @ | @X=X+X@X+X|.|.}.J.J.J.F.F.}.}.}.P P g.I.}.I.U.U.U.U.U.U.U.U.U.T.T.T.Y.Y.Y.Q.Q.'.'.].'.'.'.'.'.'.'.!.E.E.E.!.!.!.!.!.!.!.!.!.!.!.!.!.P.P.P.P.P.P.P.E.E.E.E.P.P.E.E.E.E.E.E.E.E.E.E.E.W.E.E.E.E.W.E.P.P.E.E.'.'.'.W.W.W.W.W.W.'.'.!.'.'.].].].].].].].].].'.'.'.'.'.'.!.!.!.E.E.E.E.E.E.P.P.P.P.P.P.P.P.P.P.E.P.P.E.E.!.!.!.E.E.E.E.!.!.!.!.!.!.!.!.!.!.!.!.!.!.~.~.~.~.^.^.^.^.^.^.^.^.^.^.^.^.^.^.^.^.^.^.^.^.^.~.~.~.~.~.~.~.].~.~.].].].{.{.{.{.].].^.^.^.^.^.^.].~.~././././.{.{././.~.{.{.{.].~.~.^.].{.{././././././.~.~.~.^.~.!.^.^.!.!.^.^.^.~.~.~.~.~.~.~.).).).).)././.).`.).[.!.",
"u u u u u u u +.+.+.+.%.%.%.%.%.+.u r 0 6 r r e u u w w w w q 0 0 0 w w w w w w w w w w w w w w w w w w q q 0 0 0 0 0 0 8 8 8 8 : : : : , , , , : : < < < < < , , < : < % % % % % % % % % % % % , , > n Z c c c c c > > , : % % % % < < , > c c Z Z Z c Z Z Z Z Z c > > > > > > > > > > > > > > > > , , , , , , , , > > > , : = @ X X X X X X X X X X X X X @ X X X X X X X X O O                   . o 7 p i p :.:.:.:.:.:.:.:.:.:.i :.:.i i i i i i i i i i i i i i i i i i i i i i i i i i i i i i i i i i i i i i i i i i i i i i i i i i i i i i i i i i i i i i i i i i i i i i i i i i i @.i i i :.i i i i i :.:.:.:.:.:.:.:.:.:.:.:.:.:.:.:.@.@.l :.&.:.:.:.:.:.i i i i i i i i i i i i i i i i p i :.:.5                   = T ] ..w.@X@X@X=X=X+X|.}.}.} } } F.F.}.F.F.F.F.I.I.U.U.U.U.U.U.Y.Y.Y.Y.Y.Y.Q.Q.'.'.'.'.'.'.'.'.'.'.'.E.E.E.P.P.!.!.!.!.!.!.!.!.!.!.!.!.!.!.E.E.E.P.E.E.E.P.E.E.E.E.E.E.E.E.E.E.E.E.E.W.W.E.E.E.E.E.E.E.E.E.'.'.W.E.E.E.E.!.E.'.'.'.'.'.'.'.^.^.^.^.^.^.^.^.'.!.!.!.!.!.!.!.E.E.E.E.E.E.E.E.!.E.P.P.P.P.E.P.P.P.P.P.!.!.!.!.E.E.E.!.!.!.!.!.!.!.!.!.!.!.!.!.!.!.~.~.^.^.^.^.^.^.^.^.~.^.^.^.^.^.^.!.^.^.^.^.^.^.~.~.~.~.~.~.~.~.~.~.~.~.].].(.(.(.(.(.].~.~.^.^.~.~.].]./././././././.~.~.~./.{.{.~.~.~.^.^././.].~././././.~.~.~.^.^.^.!.^.!.!.!.^.^.~.~.~.~.~.~.~.).).).).)./.).).`.).[.!.",
"u u u u u u u +.+.+.+.%.%.%.%.%.+.u w r 0 0 r e u u e w w w q 0 0 q w w r w w w w w w w w w w w w w q q q q 0 0 0 0 0 r 8 8 : , : : : ; , , , , < , < < < < , , , , < < % % % % % % % % % % < < , , > > c Z Z Z c c > > > , : < % < < , , c c c c c c c Z Z Z Z Z Z c c Z c c c c c c c c c Z Z c > > > > > , > > > > > > , , = @ X X X X X X X X X X X X X X X X X X X X X X X O .                       O o 7 y i :.:.:.:.:.i :.:.:.&.i i N N :.i i i i i i i i i i i i i i i p i i u i i i i i i i i i i i i i i i i i i i i i i i i i i i i i i i i i i i i :.i i i i i i i i i i i i i i i @.i i :.:.i i i i i :.:.:.:.:.:.:.:.:.:.:.:.:.:.:.:.:.l l i :.:.:.:.:.i i i i i :.i i i i i i i i i i i i i i :.7               .         . X X < , U ! ..w.@X=X=X=X+X+X|.}.F.F.}.}.}.I.I.U.U.U.U.U.Y.Y.Y.Y.Y.Q.Q.Q.Q.'.'.'.'.'.'.'.'.'.W.E.E.E.P.P.!.!.!.!.!.!.!.!.!.!.!.!.!.!.!.E.E.E.P.E.E.E.E.E.E.E.E.E.E.E.E.E.E.E.E.W.E.E.E.E.E.E.E.E.E.E.E.E.'.'.!.!.!.!.!.!.'.'.'.'.^.!.^.^.^.^.^.^.^.^.'.'.'.'.!.!.!.!.!.!.!.!.!.!.!.!.!.E.E.E.E.E.E.E.E.E.P.P.!.!.!.!.!.!.!.!.!.!.!.!.!.!.!.!.^.^.!.!.!.~.~.~.^.^.^.^.^.^.^.^.~.~.^.~.~.~.!.!.!.!.^.^.~.~.~.~.~.~.~.~.~.~.~.~.~.~.~.].(.(.(.(.(.].~.~.~.~.~.~.~.~.~.~././././.~.~.~.~.~.~.~.~.~.~.~.~.~.~.~.~.~.~.~.~.~.~.~.~.^.^.!.!.!.!.^.!.^.~.~.~.~.~.~././././.).).).).).`.).[.!.",
"u u u u e u u +.%.+.+.%.+.+.%.%.+.u e r 0 0 r w u e e w w w w 0 w w w w r r w w w w w w w w w w w w q q q q 0 0 0 r r 8 8 8 - : : : : ; , , , , , , , , , , , , , , , , < < % % < < : < < < < < , , , > > > d Z > c c > , , , , < , > > > > Z Z d d > > Z Z Z Z Z Z Z Z Z Z d > Z Z Z Z d Z Z Z > > > Z > > > > > > > > > > , : = @ X X X X X X X X X X X X X X X X X O X X X O O . .                             O o 7 t i :.:.&.&.:.:.:.&.:.:.:.:.:.:.:.:.:.:.i i i i i i i i i i i i i i i i i i i i i i i i i i i i i i i i i i i i i i i i i i i i i i i i i i i i i i i i i i i i i i i i l i :.:.:.:.i i i i :.:.:.:.i &.:.:.:.i i i i :.:.:.E l :.:.:.:.:.:.i l i @.i i :.:.i i i i i i i i i i i i i :.t                 . .                     . X = > U | w.@X@X=X=X|.|.|.|.}.}.}.}.}.Y.Y.Q.Q.Q.Q.Q.Q.Q.Q.'.'.'.'.'.'.'.'.'.W.W.E.E.P.E.!.!.!.!.!.!.!.!.!.!.!.!.!.P.!.!.E.E.E.E.E.E.E.E.E.E.E.E.E.E.E.E.E.E.W.W.E.E.W.E.E.E.E.E.E.E.E.E.W.'.'.!.!.!.!.!.!.^.^.^.!.^.^.^.^.^.^.^.].].~.~.^.^.^.!.!.!.!.!.!.!.!.!.!.!.!.!.!.E.E.E.E.E.E.E.E.!.!.!.!.!.!.!.!.!.!.!.!.!.!.!.!.!.^.^.^.^.~.~.~.~.^.~.~.~.~.~.^.^.~.~.^.^.~.~.~.^.^.^.^.^.~.~.~.~.~.~.~.^.~.~.~.~.~.~.~.~.~.~.~.~.~.~.~.~.~.~.~.~.~.~.~.~.~.~.~.~.~.~.~.~.~.~.~.~.~.~.^.~.~.~.~.~.~.~.~.~./.~.~.~.^.^.!.!.^.!.!.^.^.^.~.).~.).).)././.).).).).).).).).[.!.",
"u u u u e u u u +.+.+.%.%.+.%.%.+.+.u r r 0 r w u e w w w w w 0 w w w w 0 r w w w w w w w w w w w q q q q q 0 0 0 r r 8 8 8 - - : , : , , , , , , , , , , , , , , , , , , < < < < , , , , < < < < , , , > > Z Z Z Z Z > , , , , < , > Z Z > Z Z Z Z Z Z Z Z Z Z Z Z Z Z Z Z Z Z Z Z Z c > > > c c Z Z Z Z > > c c c > > c c > , = % X X X X X X X X X X X X X X O O O . O O O . O O X O .                                 O o 7 p i :.:.:.:.:.:.:.:.:.:.:.:.:.:.i i i i i i i i i i i i i i i i i i i i i i i i i i i i i i i i i i i i i i i i i i i i i i i i i i i i i i i i i i i i i i i i i i :.:.:.:.i i i i :.:.:.l l :.:.:.:.i i i i i i :.:.:.:.:.:.:.:.E E @.i @.i i :.:.:.i i i i i i i i i i i i :.p                                                       . = T | @X@X+X+X|.|.|.|.|.|.XXXXXXQ.Q.Q.Q.Q.Q.'.'.'.'.'.'.'.'.'.W.W.W.W.P.E.!.!.!.!.!.!.!.!.!.!.!.!.!.!.!.!.!.E.E.E.E.E.E.E.E.E.E.E.E.E.E.E.E.E.W.W.W.E.W.W.E.W.'.'.W.W.!.!.!.'.!.!.!.!.!.!.!.^.^.!.!.^.].].^.^.^.].].].].].].].].^.!.!.!.!.!.!.!.!.!.!.!.!.!.!.!.E.E.E.E.E.!.!.!.!.!.!.!.!.!.!.!.!.!.!.!.^.^.!.^.^.~.~.~.~.~.~.~.~.~.~.~.~.^.^.^.^.^.^.~.~.~.~.~.~.^.^.^.~.~.~.~.~.~.~.^.^.~.~.~.~.~.~.].].~.~.~.].].].~.~.~.~.~.~.~.~.~.~.~.~.~.~.~.~.~.~.~.~.~.~.~.~.^.^.~.~.~.~./././.~.~.~.~.!.!.!.^.!.!.!.^.^.~.).~.).).)./.).).).).).).).).).[.!.",
"u u u u u u u u +.+.%.%.%.%.%.%.&.+.y r r 0 r r w u u e w w r 0 r r r r w q q q q q q q q q q q q q q q r r r r 0 6 r 8 8 a : , : , , , , , , , , , , , , , , , , > > , , , , & , , , , , , , < < , , , > > > > c c c c > , , , , > > > Z Z Z Z Z Z Z Z Z Z Z Z Z Z Z Z Z Z Z Z Z Z Z > > > > Z Z Z d > > Z Z Z Z Z C c Z c > , , * % X X X X X X X X O O O O O O X X X X X @ % < v Z c , * X                                   . O o 7 7 t p p :.:.:.<.<.:.E E :.:.:.:.:.@.:.:.i i i i @.@.@.@.:.i i i i i i i i i i i i i i i i i i i i i i i i i i i i i :.:.i i i i @.@.@.@.i i i N i i i i :.:.:.:.i i i i :.:.:.E i l :.:.i i i i :.:.:.:.:.:.:.:.:.:.:.:.i :.:.:.:.i i i :.@.@.i i i i @.i i i i i i i i i o                 . O O .                                     . = U | @X+X+XXXXXXXXXXXXXXXQ.Q.XXQ.W.'.].'.'.'.'.'.'.'.W.W.E.E.P.E.'.'.!.!.!.!.!.!.!.!.!.!.!.!.E.E.E.E.E.E.E.E.E.E.E.E.!.!.E.E.E.E.E.E.E.E.'.W.E.E.E.'.!.E.E.E.E.E.!.!.!.!.'.'.!.^.^.^.'.'.].].~.~.].].^.^.^.].].].].~.^.^.!.!.^.!.!.!.!.!.!.!.!.!.!.!.!.!.!.!.!.!.!.!.!.!.!.!.!.!.!.!.!.!.!.!.!.!.^.~.!.!.!.!.!.!.~.~.~.~.~.~.~.~.~.~.~.~.^.^.~.~.~.^.~.~.~.~.~.~.~.~.~.~.~.~.~.~.~.~.~.~.~.~.~.~.~.~.~.~.~.~.~.~.~.~.~.~.~.~.~.~.~.~.~.~.~.~.~.~.~.~.~.~.~.~.^.^.~.~.~.~.~./.~.~.~.~.~.~.^.^.^.^.^.^.^.~.~.~.)././.)././.).).).).).).`.).[.^.",
"u u u u u u u u +.+.%.%.%.%.%.%.&.%.u e r 0 r r w u u e w w r 0 w 0 r r q q q q q q q q q q q q q q q q r r r r r r r 8 8 8 - : , , , , , , , , , , , , , , , , , , > > , > , , , , , , , , , , , , , > > > Z Z Z Z c c c > , , > > > > Z Z Z Z Z Z c c d d Z Z d d d d Z Z Z Z Z Z Z > > > c Z Z Z Z Z > > c c Z C C c c Z c > > , < % @ @ X X @ @ % % % % % < < , , , , v Z T R | | | R T n , @ X .                                       . . O o o 7 8 9 p E :.:.:.E E N E i E E E E E E E E i i i i i i i i i i i i i p p p i i i i i i i i i :.:.:.:.i i p i i i i @.i @.@.@.@.l N i i i i :.:.:.:.:.i i i :.:.:.E :.:.:.:.i i i i :.:.:.:.:.:.:.:.:.:.E :.i :.:.:.:.i i i @.@.@.i i i @.i i i i i i i i i :.7 O .     O o 7 7 t p i E E i t 7 5 o O                               X , | @X:X-XXXXXXXXXXXQ.Q.Q.'.'.'.'.].'.'.'.'.W.W.W.E.E.P.E.W.'.!.!.!.!.!.!.!.!.!.!.!.!.E.E.E.E.E.E.E.E.E.E.E.E.!.!.!.!.E.E.E.!.!.'.'.W.E.E.E.E.!.!.E.E.E.E.!.!.!.!.!.!.^.^.^.^.'.^.].].~.~.~.~.^.^.].].].].].].].^.^.^.^.^.!.!.!.!.!.!.!.!.!.!.!.!.!.!.!.!.!.!.!.!.!.!.!.!.!.!.!.!.!.!.!.!.^.~.!.!.!.!.^.^.~.~.~.~.~.~.~.~.~.~.~.~.~.~.~.~.~.~.~.~.~.~.~.~.~.~.^.^.~.~.~.~.~.~.~.~.~.~.~.~.~.~.~.~.~.~.~.~.~.~.~.~.~.~.~.~.~.~.~.~.~.~.~.~.~.~.~.~.~.!.^.^.^.~.~.~.~./.~.~.~.~.~.~.^.^.!.^.^.^.~.~.~.).)././.)././.).).).).).).`.).[.!.",
"u u u u u u u u +.%.%.%.%.%.%.%.%.%.+.u r 0 r r w e +.e w w r 0 0 0 0 r q q q q q q q q q q q q q q q q r r r r r r r 8 8 8 : : : , , , , , , , , , , , , , & & , , , > > > > > > > > > , , , , , , , > > d Z Z Z Z Z Z Z c > > > > > Z Z Z Z Z Z Z > > > > > > > > > > c Z c Z d Z d Z c c Z Z Z Z Z d Z Z c c C Z c c c c c c c > , , < < < , , , , , v c A A D D D R R R { { o.......{ ' R D A > < X O . .                                               . O o o = 7 8 t p p i i N E N N :.:.:.:.:.:.:.i i i i i i i i i i E i i i i i i i i p p p i i i i :.i i i i l i E E l l l l i i :.:.:.:.:.:.:.:.i i :.:.:.:.:.:.:.:.:.:.:.:.i i i i :.@.:.:.:.:.i i l i :.:.:.i i i @.@.l i l :.i i i i i i i i i i i :.i p t t p i i i i E E i i i :.:.:.<.:.i q 7 O O                         . o T w.=X=XXXXXXXXXXXQ.Q.Q.Y.'.].'.'.'.W.W.E.E.E.E.P.E.W.'.!.!.!.!.!.!.!.!.!.!.!.!.E.E.E.E.E.E.E.E.E.E.E.!.!.!.!.!.!.E.!.!.!.!.E.'.E.E.E.E.!.!.!.!.E.!.!.!.!.!.!.^.^.^.^.^.^.^.].].^.^.~.~.^.^.^.^.~.~.~.~.^.^.^.^.^.^.^.^.!.!.!.^.!.!.!.!.!.!.!.!.!.!.!.!.!.!.!.!.!.!.!.!.!.!.!.!.!.^.~.~.~.~.!.!.~.~.~.~.~.~.~.~.~.~.~.~.~.~.~.~.~.~.~.~.~.~.~.~.~.~.~.!.!.^.^.!.~.~.~.~.~.~.~.~.~.~.~.~.~.~.~.~.~.~.~.~.~.~.~.~.~.~.~.~.~.~.~.~.~.~.~.~.~.~.^.^.^.^.^.~.~.~.~./.~.~.~.~.~.~.~.^.~.^.^.^.^.~.).~././.).).).).).).).).).).`.).[.~.",
"u u u u u u u u %.%.%.%.%.%.%.%.+.%.%.u r 0 0 r w e +.u e w r 0 0 0 0 r q q q q q q q q q q q q q q q q r r r r r r r 8 a - : : : , , , , , , , , , , , , , & & , , , , > > > > > > > > , , , , > > > > d Z Z Z Z Z Z Z Z Z c c c c c Z Z Z Z Z Z Z > > > > > > d d > > c c > > c c c Z Z Z Z Z Z Z Z Z Z Z c c Z Z C C c c Z Z c Z Z Z Z Z A A A A A A D D G H H H H H O.L { o.o.o.} P L L { ' { ' R Z , , % % X X X O . .                                             . . . O o 1 s 5 6 q t u i i :.:.:.:.:.:.i i i i i i i i i i i p i i i i :.:.i i i i i :.i i i i l l N l :.:.:.:.:.:.:.:.:.:.:.:.:.:.:.:.:.:.:.:.:.:.:.:.:.:.:.:.i i i i E E :.:.:.:.:.l l l :.:.@.i i i @.@.l N l l i i i i i i i i i i p i i i i i i p i i i i i i i i :.:.i i i :.<.<.5.>.y 7 o .                       % U X.+X-XXXXXXXQ.Q.Q.Q.'.].'.'.W.W.E.E.E.E.E.E.'.W.'.!.!.!.!.!.!.!.!.!.!.!.!.E.E.E.E.E.E.!.!.!.!.E.!.!.!.!.!.!.!.!.!.!.!.'.'.!.!.!.!.!.!.!.!.!.!.!.!.!.!.^.^.^.^.^.].^.^.].].^.^.~.~.^.^.^.^.~.~.~.~.^.^.^.^.^.^.^.^.].^.^.!.!.!.!.!.!.!.!.!.!.!.!.!.!.!.!.!.!.!.!.!.!.!.^.^.^.^.~.~.~.~.~.~.~.~.~.~.~.~.~.~.~.~.~.~.~.~.~.~.~.~.~.~.~.~.~.~.~.~.~.~.~.~.~.!.~.~.~.~.~.~.~.~.~.~.~.~.~.~.~.~.~.~.~.~.~.~.~.~.~.~.~.~.~.~.~.~.~.~.~.~.~.~.^.^.!.!.^.^.~.~.~.~.~.~.~.~.~.~.~.~.^.^.^.~.~.~.).).).).)._._.).).).).`.`.`.`.).[.~.",
"e e e e u u u +.+.+.+.+.%.%.+.%.+.+.%.u w r 0 r r e +.u e w w 0 0 0 0 0 q q q q q q q q q q q q q q q q r r r r r r 8 8 8 : : : : : , , , , , , , , , , , , & & & , , > > > > > > > , , , , , , > > > c C Z Z Z Z Z Z Z Z Z c c Z Z Z Z Z Z Z Z Z Z > > > > > > c c c Z Z Z c c c c Z Z Z Z Z Z Z C Z Z C C C C C C c c c C C C Z Z A A A A A D D G G G G H H H H H H L L L L o.P o.o.P P o.o.o.o.{ { H G G D A A Z c , , < < * X X X X O .                                               . O o o 5 7 7 t t p p i :.:.<.<.<.:.:.:.:.:.:.:.:.i i p i :.l :.i i i i i i i i i l l :.:.:.:.:.:.:.:.:.:.:.:.:.:.:.:.:.E E @.l l :.:.:.:.:.:.i i i @.:.:.:.:.:.:.:.:.@.i i l i i i i @.E E l i i i i i i i i i i i i :.i i i i i i i i i p i i i i i i i :.:.:.@.i i t @.>.1.>.t 7 o O                     X T q.+X-XXXXXQ.Q.Q.'.'.'.'.W.E.E.E.E.E.E.E.'.'.'.!.!.!.!.!.!.!.!.!.!.!.!.E.E.E.E.!.!.!.!.!.!.!.!.!.!.!.!.!.!.!.!.!.!.!.!.!.!.!.!.!.!.!.!.!.!.!.!.^.^.^.^.^.!.].].].].~.~.^.^.^.^.^.^.^.^.~.~.~.~.~.~.~.~.^.^.^.~.~.~.^.!.^.^.!.!.!.!.!.!.!.!.!.!.!.!.!.!.!.!.!.!.!.^.^.^.~.~.~.~.~.~.~.~.~.~.~.~.~.~.~.~.~.~.~.~.~.~.~.~.~.~.~.~.~.~.~.~.~.~.~.~.~.~.~.~.~.~.~.~.~.~.~.~.~.~.~.~.~.~.~.~.~.~.~.~.~.~.~.~.~.~.~.~.~.~.~.~.~.~.~.~.~.~.^.^.!.^.^.^.~.~.~./.~.~.~.~.~.~.~.~.~.~.~.~.).~.).~.).)._._.).).).).).`.`.`.`.).[.~.",
"u e e e u u u +.+.+.+.%.%.%.%.%.+.+.%.+.e r 0 6 r w e u u e w 0 0 0 0 0 q q q q q q q q q q q q q w w q q r r r r 8 8 8 8 , , , : , , , , , , , , , , , , , , , , , , , > c > c > > , , , > > c c c c c c Z Z Z Z Z Z Z Z c c Z Z Z Z Z Z Z Z Z Z c c c c c c c c > Z Z Z Z Z > c c c c Z C C C Z Z C C C C , , c c , , , c C C C A A A A G G G G G G H H H H H H H L { L L L o.P o.} P P o.P o.L { L L L L L O.O.R R R R G D A U A Z > > , < < % % X X O O . . .                                         . . . . O o o 7 t p i :.:.<.<.:.:.i i i i i i i i i i i i i i i i l i :.:.i i i i i i E :.:.:.:.:.:.:.:.:.i @.@.E E :.:.:.:.:.i i i @.:.:.:.:.:.:.:.:.i i i i i i i i i i i l i i i i i i i i i i i i p p i :.:.i i i :.:.:.i i i i p p p i p p p p i :.:.@.@.:.:.:.>.@.0 o O                   * ' @X=XXXXXXXoX'.Q.'.'.W.E.W.W.W.E.E.E.W.'.'.!.!.E.!.E.E.E.E.!.!.E.E.E.E.!.!.!.!.!.!.!.!.!.!.!.!.!.!.!.!.!.!.!.!.!.!.!.!.!.!.!.!.!.!.!.!.!.!.^.^.^.^.!.!.^.].~.].~.~.^.^.^.^.^.^.^.~.~.~.~.~.~.~.^.^.^.^.~.~.~.~.^.^.^.^.^.^.^.^.^.^.!.!.!.!.!.!.!.!.!.!.!.!.^.^.^.~.~.~.~.~.~.~.~.~.~.~.~.~.~.~.~.~.~.~.~.~.~.~.~.(.~.~.~.~.(.~.~.~.~.~.~.~.~.~.~.~.~.~.~.~.~.~.~.~.~.~.~.~.~.~.~.~.~.~.~.~.~./././.~.~.~.~.~.~.~.~.~.~.~.~.~.~.~.^.^.^.^.~.~.~.~.~.~.~.~.).~.~.~.~.~.~.~.~.~.(.(.(.)._._.)._.).).).`.`.`.`.`.`.[.^.",
"u u e e u u u u +.+.+.%.%.%.%.%.%.+.+.+.u r 0 0 6 w e u +.u w w w r r r q q q q q q q q q q q q w w q q q r q r r 8 8 9 a , , , ; , , , , , , > , , > > , , , , , , , > c c c c > > , > > c c c Z Z c c c c Z Z Z Z Z Z Z c Z Z Z Z Z Z Z Z Z c c c c c c Z Z Z > c c Z Z Z c c c c c Z c c c c C c C C C c , c c c C C C C C A V A G G G G G G G H H H H H H H H H L L L L L o.P } } } o.} P P o.P o.o.o.L L L L L L L { { L L { { R H H G G D D D A A A U U U c > , < % X X X . . .                                           O o o 7 t p :.<.:.:.:.:.l i i i i i i i i @.@.i @.@.i i l i i i i i :.:.:.:.:.:.:.:.:.:.@.:.:.:.:.:.:.:.i i i i &.&.:.:.:.l :.:.@.i i i i i i i i i i i i i i i i i i i i i i i :.:.i i p p i :.p p i i i i i i :.:.:.i i :.:.:.i i i i :.:.:.:.>.>.3.:.5 O           .     X U X.+X-XXXoXQ.Y.'.'.'.W.W.W.W.E.E.W.'.'.'.!.!.!.!.E.E.E.E.!.!.!.!.!.!.!.!.!.!.!.!.!.!.!.!.!.!.!.!.^.^.!.!.^.^.^.'.'.!.!.!.!.!.!.!.!.!.!.!.^.^.^.^.!.^.^.^.^.~.~.~.~.~.~.~.~.~.~.~.~.~.~.~.~.~.~.~.~.~.~.~.~.~.~.~.].].^.^.^.^.~.~.].^.^.^.^.^.^.^.!.!.!.!.^.~.~.~.~.~.~.~.~.~.~.~.~.~.~.~.~.~.~.~.~.~.~.~.~.~.~.(.~.~.~.~.~.~.~.~.~.~.~.~.~.~.~.~.~.~.~.~.~.~.~.~.~.~.~.~.~.~.~.~.~.~.~.~././././.~./././.~.~.~.~././.~././.~.~.~.~.~.~.~.~.~././.).).).~.~.~.~.~.~.~.~.~.~.(.(.(._._._._._._.).).`.`.`.`.`.`.[.^.",
"u u e e u u u u +.+.+.%.%.%.%.%.%.+.+.+.u r 0 0 6 r e u +.u e w w w w w w q q q q q q q q q q q q q q q q r q r 8 8 8 a a , , , ; , , , , , , > , , > > , , > > > > > C c c > > d > > > c c c C Z Z c c c c Z Z Z Z Z Z Z Z Z Z Z Z Z Z Z Z c c c c Z Z Z Z Z Z > c Z Z Z Z c c c c C Z c c c c Z c C C C c c c V C C C C A A D G G G G G G G G H F F F F F H H H O.L L L L L o.P P P P } } } P P P P P o.o.o.o.o.o.o.o.o.o.o.L L L L { { { { { O.O.O.O.O.' ' ' ' R R R R T A A c > , : * @ X .                                             . O 5 7 t @.:.:.i p i i i i i i @.@.@.@.i i i i i i l l :.:.:.:.:.:.:.:.:.:.:.:.:.:.:.:.:.:.i i i i l l :.:.:.l i &.i i i i i i i i i i i i i i i i i i i i i i i i p i i i i i i p i i i i i i i i i i i i i :.i i i i i i i i i i i i :.:.:.:.7 .               . A X.+XXXXXoXQ.Q.'.'.'.W.W.W.'.'.W.'.'.'.!.!.!.!.E.E.E.E.!.!.!.!.!.!.!.!.!.!.!.!.!.!.^.!.!.!.^.^.~.~.~.~.~.~.~.^.^.!.!.!.!.!.!.!.!.!.!.!.!.!.^.^.!.!.~.~.~.~.~.~.~.~.~.~.~.~.~.~.^.^.~.~.~.~.~.~.~.~.~.~.~.~.].].].].^.^.^.^.~.~.~.~.~.~.~.~.~.~.~.].^.~.~.~.!.!.~.~.~.~.~.~.~.~.~.~.~.~.~.~.~.~.~.~.~.~.~.~.~.~.~.~.~.~.~.~.~.~.~.~.~.~.~.~.~.~.~.~.~.~.~.~.~.~.~.~.~.~.~.~.~.~.~.~.~.~././././.~.~././././././././././././.~.~.~.~.~.~.~.~.~./.).).).).~.~.~.~.~.~.~.~.~.~.~.~._._._._._.`.).).`.`.`.`.`.`.[.!.",
"e e e e u u u +.u +.+.%.%.%.%.%.%.%.%.u u w r 0 6 r r e +.+.e w q q r r r q q q q q q q q q q q q q w q q q r r 8 8 8 9 , , : : , , , , , , , > , , , > , > > > > > d d > > > > , d d , > > c c C C c c c c c c Z Z Z Z Z c c c c c c c Z Z c c c c c c c Z Z Z c c C c c c c c c C C Z C c c c c c C C C C C C C C C A A A G G G G G G G F H H H H H H H H H H O.L L L L L L P I P P P P P P P P P P P P } } } } } } P P P P P P P P P P P L P L L L L L L L L { { { { { { O.H H H H R D A C , < @ O .                                               O o p :.i i i i i i i i i i i @.i i i i :.:.:.&.&.l :.i i E E l i i i l l l i i i i i i i :.:.:.:.:.:.:.:.:.:.:.i i i i i i i i i i i i i :.i i i i i i i i i i i i i i i i i i i i i i i i i l i @.@.i i i i i i i i i i i i i :.:.:.:.:.7 O             . > X.XXXXXXQ.W.'.Y.W.'.'.W.E.!.'.'.'.'.'.'.!.!.!.!.!.!.!.!.!.!.!.!.!.!.!.!.!.!.!.!.^.^.^.^.^.~.^.^.].~.~.~.].].].^.^.!.!.!.!.!.!.!.!.^.^.^.!.!.!.~.~.~.^.^.^.^.^.~.~.~.^.^.^.^.^.^.^.^.^.^.^.^.~.~.~.~.~.~.~.~.^.^.^.^.^.^.^.].^.^.^.^.^.^.^.~.^.^.^.^.^.^.^.^.~.~.~.~.~.~.~.~.~.~.~.~.~.~.~.~.~.~.~.~.~.~.~.~.~.~.~.^.^.^.~.~.~.~.~.~.~.~.~.~.~.~.~.~.~.~.~.~.~.~.~.~.~.~.~.~.~.~.(./._._././././././././././././././././././.~.~.~.~././.~.~.~.~.~.~.~.~.(.(.(.(.~.~._._._.)._._._._.).`.`.`._.`.`._.`.`.`.!.",
"e e e e u u u +.u %.+.%.%.%.%.%.%.%.%.u u e r 0 6 0 r e +.+.e e q r r r r q q q q q q q q q q q t q w q q r r r 8 8 8 9 , , , : , , , , , , , , , , > > > , > > > > d d > > > > d d d , > > c c C C c c c c c c Z Z Z Z Z c c c c c Z Z c c c c Z Z Z Z Z c Z Z Z c c c c c C c c c c C C c c c C C C C C C C C A A A A G G G G G G G G H H H H H H F F H H H O.L L L L L L L P P P P P P P P P P P P P P } J.J.} } P P P P P P } P P } P } P } P P P o.o.o.o.o.L L L L L L L L O.O.O.O.R R R R T T A > < % X .                                             t :.i i i i i i i i i i @.i i i i :.:.:.:.:.l l i i E E l i @.@.i @.l l i i i i i i :.:.:.:.:.:.:.:.@.@.i i i i i i i i i i i i i i i i i i i i i i i i i i i i i i i i i i i i i i i i E i i @.i i i i i i i i i i i i i :.:.:.:.:.i p 7 .           X A }.XXXXQ.].'.'.'.'.'.W.'.!.'.'.'.'.'.'.'.'.!.!.!.!.!.!.!.!.^.^.^.^.!.!.!.!.!.!.^.^.^.^.~.~.^.~.~.~.~.~.].].].].^.!.!.!.!.!.!.!.!.!.!.!.!.!.!.!.!.^.^.^.~.~.^.~.~.~.^.^.^.^.^.^.^.^.^.^.].^.~.~.~.~.~.~.^.^.^.^.^.^.^.^.].^.~.~.^.^.^.^.~.~.^.^.^.^.^.^.~.~.~.~.~.~.~.~.~.~.~.~.~.~.~.~.~.~.~.~.~.~.~.~.~.~.~.~.~.^.~.~.~.~.~.~.~.~.~.~.~.~.~.~.~.~.~.~.~.~.~.~.~.~.~.~.~.~.~.~.~./././././././././././././././././././././.~.~.~.~././././.~.~.~.~.~.~.(.(._._.(.(._._._._._._._._.).`.`.`._.`.`.`.`.`.`.!.",
"e e e e u u u +.%.%.+.%.%.%.%.%.%.%.%.+.u u r r 6 6 r w u +.$.$.q r r r r q q q q q q q q q q q w q q q q r r r 8 8 8 9 , , , , , , , , , , , , , , , , > > > > > > d d > > > > C C C , , c c c C C C c C C Z Z Z Z Z Z Z c c c c Z Z Z c c Z c Z Z Z Z Z Z Z Z Z Z C C c c c c C C C C C C C C C C C C C C A A A A G G G G H H H H H H H H H H H H F F H F H O.L L L o.L L P P P P P P P P P P P P P P F.F.F.F.F.F.} } F.J.F.P P } } } } } } } P P P P P P P P P P P P P P P L L L L L L L { { { { ' R R G A Z : * @ X .                                   o :.i i i i i i i i i i i i i i i :.:.:.:.:.:.:.i i E E i @.@.i i @.:.:.:.:.:.:.:.:.:.:.:.:.i l :.:.i i i i i i i i i i i i i i i i i i i i i i i i i i i i i i i i l @.i i @.i i i i i i i i i i i i i i E i i i i i i i i i i i i :.:.@.7 o           X R |.XXXXoX'.'.'.'.'.W.'.!.'.'.'.'.'.'.!.!.!.!.!.!.!.!.!.!.^.^.^.^.^.^.^.^.^.^.].^.^.^.].].].~.].].].].].].].].~.^.^.^.!.!.!.!.!.!.!.!.!.!.!.!.!.^.^.~.~.~.~.~.~.~.].].^.^.^.^.^.^.].].].^.^.^.^.^.^.^.^.^.^.^.^.^.^.].].].~.~.~.~.~.~.~.~.^.^.^.^.^.~.~.~.~.~.~.~.~.~.~.~.~.~.~.~.~.~.~.~.~.~.~.~.~.~.~.~.~.~.^.^.~.~.~.~.~.~.~.~.~.~.~.~.~.~.~.~.~.~.~.~.~.~.~.~.~.~.~.~.~.~.~././././././././././././././././././././././.~.~.~.~././././././.~.~.(.(.(.(._._._._._._._._._._.).`.`.`.`.`.`.`.`.`.`.`.'.",
"e e e e u u u +.%.%.%.%.%.%.%.%.+.%.%.+.+.u e r 6 6 0 w u +.+.$.e r r r r w q q q q q q q q q q q q q q r r r 8 t 9 9 9 , , , , , , , , , , , , , , , > > > > > > c d d C d d d C C C C C C c c C C C C C C C C C c Z Z Z c c c c Z Z Z c Z Z Z Z Z Z Z Z Z Z Z Z Z Z C C C C C C C C c C C C C C C C C A A A A G G G G G H H H H H H G F F F F H H F F H H H O.L L L P P L P P P P P P P P P F.P P P F.F.F.F.F.F.F.F.F.F.F.F.F.P J.J.J.} } } } F.F.P P J.F.J.J.J.F.P P P P P P P P P P P P P L o.L L L { { { { ' ' R T Z > : % X O                     .   . :.i i i i i i i i i i :.i i i l :.:.:.:.:.:.:.i i i i i @.i i i @.:.:.:.:.:.:.:.:.:.:.:.:.@.l E :.i i i i i i i i i i i i i i i i i i i i i i i i i i i i i i i i i i i i i i i i i i i i i i @.i i l @.@.@.@.l l i i i i i i i i @.u i :.t o           < { |.XXQ.Q.'.W.W.W.W.'.!.'.'.'.'.'.!.!.!.!.'.!.!.!.!.!.^.^.^.^.^.^.^.^.^.^.^.].].^.^.].].].].].].].].].].~.].~.~.~.~.^.!.^.^.!.!.!.!.!.!.!.!.!.^.~.~.~.~.~.~.~.~.].].^.^.].].].].].].].].].].].].^.^.^.^.].^.^.^.^.^.^.].~.~.~.~.~.~.~.~.~.~.~.~.~.~.~.~.~.~.~.~.~.~.~.~.~.~.~.~.~.~.~.~.~.~.~.~.~.~.~.~.^.^.^.~.~.~.~.~.~.~.~.~.~.~.~.~.~.~.~.~.~.~.~.~.~.~.~.~.~.~.~.~.~.~.~./.~././././././././././././././././././././././././././././././.~.~._._.(._._._._._._._._._._.)._.`.`.`.`.`.`.`.`.`.`.[.!.",
"e e e e e u u +.+.+.+.%.%.%.%.+.+.%.%.%.u u e r 6 6 6 r e +.+.$.q r r r q q q q q q q q q q q q w w q r r r 8 8 8 8 9 9 , , , , , , , , , , , , , > > > > > > c c > > C d d d Z C C C C C C C C C C C C C C Z Z Z Z Z c Z Z c Z c c Z Z Z Z c Z Z Z Z Z Z c c c C C C C C C C C C C C C C C C C C C V A A G G G G G G G G G H H H H H H F F F F F F F F H F H L L L o.P P P P P P P P P P P P F.F.F.F.F.F.F.F.F.P F.F.F.I.I.F.F.}.}.}.}.F.F.F.F.F.F.F.F.F.F.F.F.F.F.F.F.F.F.F.P } } P J.P P P P } } } } o.o.L L { { { { ' R T T T U n : = X .               7 :.i i i i i i i i i l :.l i i i i :.:.:.:.:.:.i i i @.@.@.@.@.i i :.:.:.:.:.:.:.:.E l i i i i i i l l E i i i i i i i i i i i i i i i i i i i i i i i i i i i i i i i i i i i i i i i i i i i l i i i i i i i @.l i i i i i i i i i i i i i t o         . & } XXQ.Q.Q.Q.W.W.W.'.!.'.'.'.'.!.!.^.^.!.!.!.!.!.^.^.^.].].^.^.^.^.^.^.^.~.].~.].].].].~.~.~.~.~.~.].].].~.~.~.^.^.^.!.~.^.^.^.!.!.!.^.!.!.^.^.^.~.~.~.~.~.~.].~.~.].^.^.^.].].].~.~.~.~.~.~.~.^.^.^.^.].].^.^.^.^.].].~.~.].~.~.~.~.~.~.~.~.~.~.~.~.~.~.~.~.~.~.~.~.~.~.~.~.~.~.~.~.~.~.~.~.~.~.~.~.~.~.~.~.~.~.~.~.~.~.~.~.~.~.~.~.~.~.~.~.~.~.~.~.~.~.~.~.~.~.~.~.~.~.~.~.~.~.~././././././././././._._._._././._._._._._./._._._._./././.(.(.(._.(._._.(.(._.).).)._._._._.`.`.`.`.`.`.`.`.`.`.`.^.",
"e e e e u u u +.+.+.%.%.%.%.+.+.+.%.%.+.+.u u e 0 6 6 0 w +.+.$.q e r r e q q q q q q q q q q q w w r r r r 8 8 8 8 9 9 , , , , , , , , , , , , > > > > > > > > c c C C d C d Z C C C C C C C C C C C C C C c c Z Z Z Z Z Z Z c c c Z c Z Z c Z C C C C c c c c c c c c C c c C C C C C C C C C V A A G G G G H G G H H H H H H H H H H H G F F F F F F F F H L o.P P I I P P P P P P P P P P P F.F.F.P F.F.F.F.P F.F.F.I.I.F.F.I.I.I.I.I.}.}.}.}.}.}.}.}.F.F.F.F.F.F.F.F.F.F.F.F.F.F.F.P F.J.J.} } } } } } } } o.o.o.o.{ { ' ! ! ' ] ! ~ 9 o             7 :.:.i i i i i i i i i l :.l i i i i :.:.:.:.:.:.i i i i @.@.i i i i i i i i i i i i E i i i i i i i i i E E i E E i i i i i i i i i i i i i i i i i i i i i i i i i i i i i i @.i i i @.i i i i i i i i i i i i &.:.i i @.@.i i i i i :.E p i i 7 o         X H |.XXXXQ.Q.W.W.W.'.!.'.'.'.'.!.^.^.^.^.^.^.^.^.].].^.~.~.^.^.^.^.^.~.^.~.~.~.~.~.~.~.].].~.~.].~.].].].~.~.~.^.^.^.!.~.~.^.^.^.^.^.^.^.^.~.~.^.~.~.~.~.~.~.~.~.~.^.^.^.^.~.~.~.~.~.~.~.~.~.~.~.~.~.~.^.^.^.^.^.^.~.~.~.~.~.~.~.~.~.~.~.~.~.~.~.~.~.~.~.~.~.~.~.~.~.~.~.~.~.~.~.~.~.~.~.~.~.~.~.~.~.~.~.~.~.~.~.~.~.~.~.~.~.~.~.~.~.~.~.~.~.~.~.~.~.~.~.~.~.~.~.~.~.~.~.~.~.~.~./././././././././._._._._._._././._._._._._._._._._._._._._.(.(._._._._._.(._.).).).)._._._._._._.`.`.`.`.`.`.`.`.`.^.",
"e e e e e u u +.+.+.%.%.%.%.+.+.+.+.+.u u u u e r 6 2 6 w $.+.$.w e q q e q q q q q q q q w q q w w r r r r 8 8 8 8 9 9 , , , , , > , , , , , , > > > > > > > > d d d d C C C C C C C C d C d C C C C C c c C C Z c Z Z Z c c c c c c c Z Z C C C C C C c c c c c c c c c c C C C C C C C V A A S G G G G G H H F H H H H H H H H H H H G F F F F F J J A F H L o.P P P P P P P P P P P P P P P F.F.P P P P P F.F.F.I.I.I.I.I.I.F.I.I.I.I.I.I.I.I.I.I.}.I.I.I.F.F.F.F.F.F.F.F.F.I.I.F.F.F.F.F.F.F.F.F.F.F.P P J.} o.o.o.o.o.{ { ' ' | w.2.p o         . 7 <.i i i i i i i i @.i @.:.:.@.@.i @.@.:.:.:.:.:.:.i i i i i l @.i i i i i i i i i i i E @.i i i i i i i i @.@.i i i l i i i i i i i i i i i i i i i i i i i i i i i i i i i i i i i i i i i i i i i i @.@.i i i i i i i l i i i i i i i i i i :.:.t 7 O       . & } |.XXY.Q.W.Y.W.W.!.'.'.'.'.'.^.^.^.].].].~.~.^.].].~.^.^.^.^.~.~.~.~.~.~.~.~.~.~.~.~.~.~.~.~.~.~.~.~.~.~.~.^.^.^.^.^.~.~.~.^.^.^.^.^.~.~.~.^.~.~.~.~.~.~.~.~.~.~.~.~.~.~.~.~.~.~.~.~.~.~.~.~.~.~.~.^.^.^.^.^.^.~.~.~.~.~.~.~.~.~.~.~.~.~.~.~.~.~.~.~.~.~.~.~.~.~.~.~.~.~.~.~.~.^.^.~.~.~.~.~.~.~.~.~.~.~.~.~.~.~.~.~.~.~.~.~.~.~.~.~.~.~.~.~.~.~.~.~.~.~.~.~.~.~.~.~.~.~.~././././././././._._._._._._._._._._._._._._._._._._._._._._._.(.(.(._._._._._._.`.`.`.`._._._._._._._.`.`.`.`.[.`.`.`.^.",
"e e e e e u u +.+.+.%.%.%.%.+.+.+.+.u u u u u e r 0 3 6 r e +.$.w e q q e q q q q q q q q w q q r w q q r r 8 8 8 8 9 9 , , , , , , , , , , , , > > > > > > > > d d d d d C C C C C C C d d C C C C C c c c c C C Z Z Z Z c c c c c c c Z Z C C C C C C c c c c c c c C C C C C C C C C V A G G G G G G G F F H F H H H H H H H F F G F F F F F F F J V V F O.L P P P I P P P P P P P P P P P P P P P P P P P F.I.I.I.I.I.I.I.I.F.I.I.I.I.I.I.}.I.I.I.I.I.I.I.I.}.}.I.I.I.I.I.I.F.F.I.F.F.F.F.F.F.F.F.F.F.F.F.F.} P P P } } o.o.......| n O         o i :.p i :.i i i i i i i i @.:.:.:.@.i @.i :.:.:.:.:.:.i i E E E l l i i i i i i i i i i i @.@.i i i @.@.i i i i @.@.i i i i i i i i i i i i i i i i i i i i i i i i i i i i i i i i i i i i i i i i i i i :.i i i i i i i i :.:.i i i i i i :.i i :.:.:.y s         % o.}.Y.Y.Q.W.P.W.W.E.'.'.'.'.'.^.^.^.^.^.].~.^.].].~.~.^.^.^.^.~.~.~.~.~.~.~.~.~.~.~.~.~.~.~.~.~.~.~.~.~.~.~.^.^.^.^.^.~.~.~.~.~.^.^.~.~.~.~.~.^.^.~.~.~.~.~.~.~.~.~.~.~.~.~.~.(.(.(.~.~.~.~.~.~.~.~.^.^.^.^.^.~.~.~.~.~.~.~.^.^.^.^.^.~.~.~.~.~.~.~.~.~.~.~.~.~.~.~.~.~.~.~.~.^.^.^.~.~.~.~.~.~.~.~.~.~.~.~.~.~.~.~.~.~.~.~.~.~.~.~.~.~.~.~.~.~.~.~.~.~.~.~.~.~.~.~.~.~.~././././._././././._._._._._._._._._._._._._._._._._._._._._._._.(.(._._._._._._._.`.`.`.`._._._._._._._.`.`.`.`.[.`.`.`.^.",
"e e e e u u u u +.+.%.%.%.%.%.+.+.u +.+.u u u u w r 2 6 0 e $.$.e w w w w w w w q q q q e e r r r r r r r 8 8 8 9 9 9 , , , , , , , , , , , , , > > > > C C c > d d c C C d Z Z C C C C C C d C d d C c c c Z Z C C c Z c c c c c c Z Z Z Z Z Z c c C C C C C C C C C C C C C C C V A A G G G G G G G F F F F F F F F F F F F F H H H H H F F F F F V V V J L o.P P I I I P P P P P P P P P P P P P P P P P F.I.I.I.I.I.I.I.I.I.I.}.I.F.F.I.}.I.I.I.I.}.}.}.}.}.I.I.I.I.I.I.I.I.I.I.I.I.I.I.I.I.I.I.I.I.F.F.F.F.F.J.J.} } J.H.X.X.w.] p o       . 7 W <.E i i l i i i i i i i i @.@.@.@.:.:.:.:.i i i i i i @.i :.:.:.i i i i i i i i i i i i i :.@.i i :.:.:.i E i i i i i i i l i i i i i N N E i i i i @.@.i i E E i i i :.i @.:.:.i i i i E i i i i i i i i :.:.i i :.:.i i i i i i i i i i i @.@.i i :.:.:.t o       X H }.|.XXY.W.W.W.P.W.!.!.!.!.!.^.^.~.^.~.~.~.~.~.^.^.^.^.~.~.^.^.^.^.~.~.~.~.~.~.~.~.~.~.~.~.~.~.~.~.~.~.~.~.~.~.~.~.^.^.^.^.^.^.^.^.^.^.~.~.~.~.~.~.~.~.~.~.~.~.~.~.~.~.~.~.~.~.~.~.~.~.~.~.~.~.~.~.~.~.~.~.~.~.~.~.~.~.~.~.~.~.~.~.~.~.~.~.~.~.~.~.~.~.~.~.~.~.~.~.~.~.~.~.~.~.~.~.~.~.~.~.~.~.~.~.~.~.~.~.~.~.(.(.(.(.(.(.(.(.~.~.~.~.~.~.~.(.(.(.~.~.~.~._._.(.(._._./././././././._._._./._._._._._._._._._._._._._._._._._._._._._._._._._._._._._.`.`._._._._._._._.`.`.`.`.`.`.`.`.`.`.`.wX^.",
"e e e e u u u u +.+.%.%.%.%.+.+.+.+.+.+.u u u u w r 6 2 6 w $.$.e w w w w w w w q q q q e e e r r q r r r r 8 8 9 9 9 , , , , , > , , , , , > > > > > > C C c c C C C C C d Z Z C C C C C C d C d d C c c c Z d C C c C c c c c c c Z Z c c Z c c c c c c c C C C C C C C V V V A A S G G G G G G G G F F F F F F F F F F F F F H H H H H H H F F G V V V J L o.o.P I I P P P P P P P P P P P P P P P P P P F.I.I.I.I.I.I.I.I.I.I.}.}.I.I.I.I.I.I.I.I.I.I.I.I.I.I.I.I.I.I.I.I.I.I.I.I.I.I.I.I.I.I.I.I.I.F.F.F.F.F.P } } } X.H.@X..| , .       o t i E i p i E l i i i i i i i i @.@.@.@.N :.:.:.:.:.i i i i i i :.:.i i i i i i i i i i i i i i i i i i i i i i :.:.:.:.:.:.i i i i l :.:.:.:.@.E E E E E N p p E i i E :.i i :.i i :.i i i i E i i i i i i i i :.:.i i :.:.i i i i i i i i i i i i i i i :.:.:.i o       X G } }.Q.Y.W.'.W.W.W.!.'.!.!.!.^.^.^.^.~.~.~.~.~.^.!.^.~.~.^.~.^.^.~.~.~.~.~.~.~.~.~.~.~.~.~.~.~.~.~.~.~.~.~.~.~.~.~.^.^.^.^.^.^.^.^.^.~.^.~.~.~.~.~.~.~.~.~.~.~.~.~.~.~.~.~.~.~.~.~.~.~.~.~.~.~.~.~.~.~.~.~.~.~.~.~.~.~.~.~.~.~.~.~.~.~.~.~.~.~.~.~.~.~.~.~.~.~.~.~.~.~.~.~.~.~.~.~.~.~.~.~.~.~.~.~.~.~.~.~.~.(.(.(._.~.(.(.~.(.~.~.~.~.~.~.(.(.(.(.~.~.~.~._._.(.(._._._././././././._._._./._._._._._._._._._._._._._._._._._._._._._._._._._._._._._.`.`._._._._._._._.`.`.`.`.`.`.`.`.`.`.`.wX^.",
"e e e e e u u +.+.%.%.%.%.%.%.%.+.+.+.u u u u u e r 6 3 6 r e $.e e w w w w w w q q q q e e e e q q q e r t 8 8 9 9 9 , , , , , > , , > > > d d > > > > C C c c C C C C C C Z C C C C C C C C C C C C c C c Z C c c C c Z c C C Z Z Z C C C c c c c c c c c C C C C C C V A A A G G G G G G G G G G F G F F F F F F F F F F H H F H H H H H H H H F J V V J L P o.P I I P P P P P P P P P P P P P P P P P P P P I.F.F.I.I.I.I.F.I.I.I.}.I.I.F.I.F.I.I.I.F.F.I.I.I.I.I.I.I.I.I.I.I.I.I.I.I.I.I.I.I.I.I.I.F.F.F.F.F.} } J.}.|.@Xw.2.:         # p :.:.E p i l i p i i i i i i i i @.@.N E E l E :.:.:.:.:.i i i i i i i i i i i i i i i i i i i i i i :.i i i i :.E i i i E i E :.:.E :.:.:.:.:.i u p p t t p i N i i i E :.i i :.i i i i i i i i E E E E E :.:.:.:.i i i :.:.i i i i i :.i i i i i i i i i :.:.:.E 7       X A } }.Q.Y.Y.'.'.W.'.!.'.!.!.!.^.^.^.!.].].].~.^.^.^.~.~.^.^.^.^.~.~.~.~.~.~.~.~.~.~.~.~.~.~.~.~.~.~.~.~.~.~.~.~.^.^.~.~.~.~.~.~.^.^.^.^.^.~.~.~.~.~.~.~.~.~.~.~.~.~.~.~.~.~.~.~.~.~.~.~.~.~.~.~.~.~.~.~.~.~.~.~.~.~.~.~.~.~.~.~.~.~.~.~.~.~.~.~.~.~.~.~.~.~.~.~.~.~.~.~.~.~.~.~.~.~.~.~.~.~.~.~.~.~.~.~.~.~.(.(._._.(.~.~.~.~.~.~.~.~.~.~.~.~.(.(.(.~.~.~.(._._._._._./._._././././._._._._._._._._._._._._._._._._._._._._._._._._._._._._._._._._._._.`.`.`.`.`._._._.`.`.`.`.`.`.`.`.`.`.`.`.wX~.",
"e e e e e u u +.%.%.%.%.%.%.%.+.+.+.+.u u u u e u w 6 3 3 6 w e e e e e w w w w q q q q e e r r w r q e r t 8 8 9 9 9 , , , , , > , , > > > d d c > > > C C c c C C C C C C Z Z C C C C C C C C C C C c C C Z C > c C C c C C C c c C C C C c c C C C C C C C C C C V A A A S G G G G F F F F F F F G F F H H H F F F F F F H F F F F H H H H H H F F V V J L P o.P I P P P P P P P P P P P P P P P P P P P P P I.F.F.I.I.I.I.I.F.F.I.I.}.I.F.I.F.F.F.P F.F.F.I.I.I.I.I.I.U.U.U.I.I.I.I.I.I.I.I.I.I.I.I.F.F.F.F.F.J.J.J.}.@Xq.R = .     . 7 E W i i E E E i i i i i i l i i i i i i l E l l l l :.:.:.:.:.i i i i i i i i i i i i i i i i i i i i i :.i i i i :.:.E E :.:.:.:.:.E p 9 8 = o X O . .   . . O o = 7 p l i i :.:.i i i i i i i i i i i i i i i i i i i i i i i i i :.E :.:.:.i i i i i i i i i :.:.E 7       X A o.}.Y.Y.Q.'.'.W.'.'.'.!.!.!.^.^.^.!.].].].~.~.^.^.^.^.^.^.^.^.~.~.~.~.~.~.~.~.~.~.~.~.~.~.~.~.~.~.~.~.~.~.~.~.~.~.~.~.~.~.~.~.^.^.^.^.^.~.~.~.~.~.~.~.~.~.~.~.~.~.~.~.~.~.~.~.~.~.(.(.~.~.~.~.~.~.~.~.~.~.~.~.~.~.~.~.~.~.~.~.~.~.~.~.~.~.~.~.~.~.~.~.~.~.~.~.~.~.~.~.~.~.~.~.~.~.~.~.~.~.~.~.~.~.~.~.~.~.(._._._.(.(.~.~.~.~.~.~.~.~.~.(.~.(.(.(.~.~.(.(._._._._._._._._._._._./._._._._._._._._._._._._._._._._._._._._._._._._._._._._._._._._._._.`.`.`.`.`.`._.`.`.`.`.`.`.`.`.`.`.`.`.`.wX~.",
"e e e e e u u +.+.+.%.%.%.%.u u +.+.u u u e e e +.e r 6 3 6 r e e e e e w w w w q e e e w r r r e r r r 8 8 9 9 9 9 , , > > , , > , , , > , > > > > > c c c c > d Z Z C Z Z Z Z C C C C C C C C C C C c c > C C c c C c c c C C c c c C C C C C C C C C C C C C A A A S G G G G F F F F F F F F F F F F H H H H F F H H H F F F F F F H H H H H H H F F J J L o.o.P P I P P P P P P P P P P P P P P P F.F.F.F.P P F.}.F.P P P P P P F.}.I.I.I.F.P P P P P P F.F.I.I.I.I.F.U.U.U.I.I.I.I.I.I.I.I.I.I.I.I.F.F.F.F.F.}.J.J.H.X.T %       O 7 E E E E N N N i p i E i i l l i i i i i l l E i i i i :.:.:.:.i i i i i i i i i i i i i i i i i i l i :.:.:.:.:.:.:.i :.:.:.:.i 8 o o .                               o 5 t p i :.:.i i i i i i i i i i i i i i i i i i i i i i i i i :.:.:.:.:.E l l l l i i i @.:.:.i 7       X A o.}.|.Y.Q.'.'.'.'.'.'.'.'.!.^.^.^.~.~.].].~.~.~.~.~.~.~.~.~.~.~.~.~.~.(.(.(.~.~.~.~.~.~.~.~.~.~.~.~.~.~.~.~.~.~.~.~.~.~.~.^.^.^.^.~.~.~.~.~.~.~.~.~.~.~.~.~.~.~.~.~.~.~.~.~.~.~.~.(.(.~.~.~.~.~.~.~.~.~.~.~.~.~.~.~.~.~.~.~.~.~.~.~.~.~.~.~.~.~.~.~.~.~.~.~.~.~.~.~.~.~.~.~.~.~.~.~.~.~.~.~.~.~.~.~.~.~.~.(.(.(.(.(.(.~.~.(.(.(.(.~.~.~.~.~.~.(.(.(.(.(.(.(.(.(.(./._._._._._././._./._._._._._._._._._._._._._._._._._._._._._._._._._._._._._._._._._._.`.`.`.`.`.`.`.`.`.`.`.`.`.`.`.`.`.`.wX~.",
"e e e e e u u +.+.+.%.+.%.u u u u u u u u e e e +.e r 6 3 6 r e e e e e w w w w q e e e w w w r r r r r 8 9 9 9 9 9 , , > > , , , , , , > , > > > > > > c c c > C C C C C C C Z d d C C C C C C C C C c , > d d d d c C c c c c c Z Z C C C C C C C C C C C V V A G G G G G G G F F F F F F F F F F F F H H H H F F H F F F F F F H H H H H H H H H H H F F L L o.P P P P P P P P P P P P P P P P P P F.F.F.F.F.P I.}.P L J J L L P } }.}.}.F.P L L L L L P P F.F.F.F.F.F.F.F.F.I.I.I.I.I.I.I.I.I.I.I.I.F.F.F.F.F.J.}.|.X.R %       o t :.N i E E E i p i i i l i l l l i i i i i i l l i i i i i i i i i i i i i i i i i i i i i i i i i i l i :.:.:.:.:.:.:.i i t o O                                           . o 8 p i i i i i i i E E i i i i i i i i i i i i i i i i i :.:.:.:.:.:.E l :.l l i i i @.i :.E 7       X G L }.|.Q.Q.'.'.'.'.'.'.'.'.!.^.^.^.~.~.^.^.~.~.~.~.~.~.~.~.~.~.~.~.(.(.(.(.~.~.~.~.~.~.~.~.~.~.~.~.~.~.~.~.~.~.~.~.^.~.~.~.~.^.^.^.~.~.~.~.~.~.~.~.~.~.~.~.~.~.~.~.~.~.~.~.~.~.~.~.(.(.(.~.~.~.~.~.~.~.~.~.~.~.~.~.~.~.~.~.~.~.~.~.~.~.~.^.^.~.~.~.~.~.~.~.~.~.~.~.~.~.~.~.~.~.~.~.~.~.~.~.~.~.~.~.~.~.~.~.~.(.(.(.(.(.(.~.(.(.(.(.~.~.~.~.~.~.(.(.(.(.(.(.(.(.(.(./._._._._._././._._._._._._.`.`.`.`.`._._._._._._._._._._._._._._._._._._._._._._._.`.`.`.`.`.`.`.`.`.`.`.`.`.`.`.`.`.`.`.`.wX~.",
"e e e e e u +.+.+.+.+.+.%.u u u u u u u u e e u +.u w r 3 3 0 w e e e e w w w w r q e e w w w w r r r r 8 9 9 9 9 9 , > > > , , > , , , > d > d > > C C c c > > C C C C C C C C d d d d C C C C C C C c , , d d d d d c c c C C C C C C C C C C C C C C C V A G G G G G G G G F F F F G G F F F F F F F F H H H F F F F F F F F H H H H H H H F F F H H F F O.L o.P P P P P P P P P P P P P P P P P P F.F.F.F.F.F.I.}.P J V V V J L } }.}.}.P I O.J V J J L P F.F.F.F.F.F.F.I.F.U.U.I.I.I.I.I.I.I.I.I.I.F.F.F.J.J.J.|.w.! % .     o p E p N E p i p p i i E i p l l l l i i i i @.i i i i i i i i i i i i i i i i i i i i i i i i i i i i E E E :.:.:.:.i t 7 7 .                                                     o 7 i :.l i i i i E E i i i i l i i i @.i i i i i i i i :.@.i :.:.i i @.@.i i i i i i i i i 7       % G L I.}.Y.Q.].'.'.].'.'.'.'.^.^.^.^.^.^.!.!.!.~.~.~.~.~.~.~.~.~.~.~.~.~.~.~.~.~.~.~.~.~.~.~.~.~.~.~.~.~.~.~.~.~.~.~.~.~.~.~.~.~.~.~.~.~.~.~.~.~.~.~.~.~.~.~.~.~.~.~.~.~.~.~.~.~.~.~.(.(.~.~.~.~.~.~.~.~.~.~.~.~.~.~.~.~.^.^.^.^.~.~.^.^.^.^.^.^.~.~.~.~.~.~.~.~.~.~.~.~.~.~.~.~.~.~.~.~.~.~.~.~.~.~.~.~.~.~.~.~.(.(.(.(.(.~.(.~.(.(.~.~.~.~.(.(.(.(.(.(.(.(.(.(.(.(././._._._._././._._._._._.`.`.`._._._._._._._._._._._._._.`.`.`.).)._._._._.`.`.`.`.`.`.`.`.`.`.`.`.`.`.`.`.`.`.`.`.`.`.`.`.wX~.",
"e e e e u u +.+.+.+.+.+.u u u u u u u u u u u u +.u e r 6 3 6 r e e e e w w w w r q q w w w w w r r r r 8 9 9 9 9 9 > > > > , , > , , > d d d d > C C C C c > > C C C C C C C C d d d d C C C C C C C C , , d d d d d c c c C C c c C C C C C C C C C V V A G G G G G G G G G G F F F F F F F F F F F F F F H H F F F F F F F F H H H H H F F F F F H H F F O.L o.P P P P P P P P P P P P P P P P P P F.F.F.F.F.F.I.F.P J & & V J L } }.}.}.P O.J V & V J L P I.F.F.F.F.F.F.I.I.U.U.U.U.I.I.I.I.I.I.I.I.F.J.J.}.}.|.X.! %       o p E p E E i :.p i i i i l l i E l l i i i i :.@.@.i i i i i i i i i i i i i i i i i i i i i i i i i i E E E :.:.:.:.p 7 o                     . O X X % % : , > , , , < X .           s p :.i i i i :.E E E i E E E E E :.:.:.i i i i i i i :.@.@.i i i i @.i @.@.i i i i i i u 5       % R L I.}.Y.Q.].].'.].'.'.'.'.^.^.^.^.^.!.!.!.!.~.~.~.~.~.~.~.~.~.~.~.~.~.~.~.~.~.~.~.~.~.~.~.~.~.~.~.~.~.~.~.~.~.~.~.~.~.~.~.~.~.~.~.^.~.~.~.~.~.~.~.~.~.~.~.~.~.~.~.~.~.~.~.~.~.~.~.(.~.~.~.~.~.~.~.~.~.~.~.~.~.~.^.^.^.^.^.^.^.^.^.^.^.^.^.^.^.~.^.~.~.~.~.~.~.~.~.~.~.~.~.~.~.~.~.~.~.~.~.~.~.~.~.~.~.~.~.~.~.~.(.(.(.(.~.(.(.(.(.~.~.~.(.(.(.(.(.(.(.(.(.(.(.(.(./././._._./././._._._._._.`.`.`._._._._._._._._._._._._.`.`.`.`.`.`.`._.`.`.`.`.`.`.`.`.`.`.`.`.`.`.`.`.`.`.`.`.`.`.`.`.`.`.wX~.",
"e e e e e e %.e %.%.%.%.+.u u u u u u u u u u u u +.e e r 3 3 r w e e e w w w w w w w r r r r r r r r 8 9 9 9 9 , > > > , , , > , > > d > > > > C c > > c c c C C C C C C C C C C C C C C C C C C C C d d C C C c C C C C c c , C C C C C C C C C C A G G G G G F G G H G G G G F F F F F F F F F F F F F F F F F F H H H H H H H H H F F H H H H H H H H F H L P P P P P P P P P P P P P P P P P P P P P F.I.I.I.I.F.L J f & f V J o.} }.}.P O.J V & V J L P I.F.F.F.F.I.F.F.F.F.F.F.U.U.U.I.I.U.I.}.F.}.F.}.}.}.H.| :     . o p i i E E i i i i i i i i i i i i i i i i i i i i i i i i i i i i i i i i i i i @.@.i i p i i i p E :.f.f.:.:.:.:.p 7 O                 . X % , C A G R ' { o.....X.X.....' v @ .       O 8 :.:.i i i i i i i :.i i :.:.@.i i i i i i i i i i i i i i i @.@.@.@.:.i i i i i :.i i o       < H P g.U.Y.Q.].].'.'.].'.].!.^.^.^.~.^.^.^.^.^.^.~.~.~.~.~.~.~.~.~.~.~.~.~.~.~.~.~.~.^.!.!.~.~.~.~.~.~.~.~.~.~.~.~.~.~.~.~.~.~.~.~.~.~.~.~.~.~.~.~.~.~.~.~.~.~.~.~.~.~.~.~.~.~.~.~.~.~.~.~.~.~.~.~.~.~.~.~.~.~.~.~.~.~.~.^.^.^.^.^.^.^.^.^.^.^.^.~.^.~.~.~.~.~.~.~.~.~.~.~.~.~.~.~.~.~.~.~.~.~.~.~.~.~.~.~.~.~.~.~.(.(.(.(.~.~.~.~.~.(.~.~.~.~.~.~.(.(._._._._._.(.(././._._._._._._._._._._._._._._._._._._._._._._._._._._._._._._._._._._.)._._._.`.`.`.`.`.`.`.`.`.`.`.`.`.`.`.`.`.`.`.`.`.`.wX~.",
"e e e e e e %.e %.%.%.%.+.u u u u u u u u u u u u +.u e r 6 3 6 w e e e w w w w w w w r r e r r r r r 8 9 9 9 9 , > > , , , , , , > > d > > > Z C c c > c c c C C C C C C C C C C C C C C C C C C C C d d d d C C C C C C C C C C C C C C C C C A A G G G G G G F G G G G G G G F F F F G F F F G F F F F F F F F F F F H H F F H H H F F H H H H F H H H F H O.L o.P P P P P P P P P P P P P P P P P P P F.F.I.I.I.F.L J V f f V J L }.}.}.P O.V f & V J L F.I.F.F.F.F.F.F.F.F.F.F.F.U.I.U.I.I.I.F.F.F.F.F.}.}.H.| , .     X p i i N N N i i i i i i i i i i i i i i i i i i i i i i i i i i i i i i i i i i i i @.:.:.i p p i :.:.:.:.:.:.E p 7 o               O * , U T ' { { o.....} } } J.} } } } X.X.| R * X     . 8 i i i i i i i i i i i i i :.@.i i i i i i i i i i i i i i i @.@.@.@.i i i i i i :.i p O     . > { P I.U.Y.Q.'.].'.'.'.'.].].^.~.^.].^.^.^.^.^.^.~.~.~.~.~.~.~.~.~.~.~.~.~.~.~.~.~.~.~.~.~.~.~.~.~.~.~.~.~.~.~.~.~.~.~.~.~.~.~.~.~.~.~.~.~.~.~.~.~.~.~.~.~.~.~.~.~.~.~.~.~.~.~.~.~.~.~.~.~.~.~.~.~.~.~.~.~.~.~.~.~.~.~.~.^.^.^.^.^.^.^.^.^.^.^.^.~.^.~.~.~.~.~.~.~.~.~.~.~.~.~.~.~.~.~.~.~.~.~.~.~.~.~.~.~.~.~.~.~.(.(.(.(.(.(.(.(.(.(.~.~.~.~.~.~.(.(._.(._._._.(.(././._._._._._._._._._._._._._._._._._._._._._._._._._._._._._._._._._._._.`.`.`.`.`.`.`.`.`.`.`.`.`.`.`.`.`.`.`.`.`.`.`.`.`.wX~.",
"r e e e e e %.e +.+.%.%.u u u u u u u e e e e u u +.u e e 6 3 2 r w e e w w w w w w r r r r r r r r 8 8 9 9 9 9 , > > , , , , , , , d > > > d d d d C c c c d C C C C C C C C C C C C C C C C C C C C d d d d d C C C C C C C C C C C C C C A A S G G G G G G G F G G G G G G G G G G G G G G G G G F F F F F G F F F F F F F F H H F F F F H H G F H H H F F H L L P P P P P P P P P P P P P P P P P P P P F.F.I.}.P P J V V f f V L } }.}.L J V & & V J P F.I.F.F.F.F.F.F.F.F.I.F.F.I.U.I.I.I.}.F.J.J.} }.|.}.| , .     o t E E E N E i i i i i i i i i i i i i i i i i i i i i i i i i i i i i i i i i i i i :.i p i :.l i i :.i p N E p 7 o .           . O > U ' { o.o.o.o.o.o.o.P L L L L I I P P } } X.X.R Z X     o p E i i i i i i i i i i i :.i i i i i i i i i i i i i i i i N N l l i i i :.i :.:.i 0 .     X U { P I.Y.Y.W.'.'.'.'.'.'.'.~.^.].~.].^.^.~.~.~.^.~.~.~.~.~.~.~.~.~.~.~.~.~.~.~.~.~.~.~.~.~.~.~.~.~.~.~.~.~.~.~.~.~.~.~.~.~.~.~.~.~.~.~.~.~.~.~.~.~.~.~.~.~.~.~.~.~.~.~.~.~.~.~.~.~.~.~.~.~.~.~.~.~.~.~.~.~.~.~.~.~.~.~.^.^.^.^.^.^.^.^.^.^.^.^.^.^.^.~.~.~.~.~.~.~.~.~.~.~.~.~.~.~.~.~.~.~.~.~.~.~.~.~.~.~.(.~.~.~.(.(.(.(.(.(.(.(.(.~.~.~.~.~.~.~.(.~.(._._._._.(.(././._._._._._._._._._._._._._._._._._._._._._._.`.`.`.`.`._._._._._._._.`.`.`.`.`.`.`.`.`.`.`.`.[.`.`.`.`.`.`.`.`.`.`.`.`.`.wX~.",
"r e e e e e e e u +.%.+.u u u u u u e e e e u u u +.u u u r 3 3 0 r w w w w w w w w r w e r r r r r 8 8 9 9 9 9 , , > , , , , , , > d d d d d d d d c c c C C C C C C C C C C C C C C C C C C C C C C f c f d d d d C C C C C C C C C C A A A G G G G F F F F F F G G G G G G F G G G G G G G G G G G F F F F G F F F F F F F F H H F F F F H H H F F H H H F F O.L L P P P P P P P P P P P P P P P P P P P F.F.F.}.F.P L J V f & f J L } } L J V & & V J P F.I.I.I.I.I.I.I.I.I.I.F.F.I.I.I.I.I.I.F.J.J.} }.|...9 O     o t W p E E E i i i i i i i i i i i i i i i i i i i i i i i i i i i i i i i i i i i i i :.@.p p i :.E E @.:.i t = O             . X > T | o.o.P P P P L I I P P P P P P P P P P P F.J.}.H.o.U @   . t :.:.i i i i i i i i i i i i i i i i i i i i i i i @.i i i E l l l i i :.:.i :.i y 5       % R { P U.Y.Y.W.'.'.'.'.'.'.].].^.^.~.~.^.^.~.~.~.^.~.~.~.~.~.~.~.~.~.~.~.~.~.~.~.~.~.~.~.~.~.~.~.~.~.~.~.~.~.~.~.~.~.~.~.~.~.~.~.~.~.~.~.~.~.~.~.~.~.~.~.~.~.~.~.~.~.~.~.~.~.~.~.~.~.~.~.~.~.~.~.~.~.~.~.~.~.~.~.~.~.~.~.~.^.^.^.^.^.^.^.^.^.^.^.^.^.^.~.~.~.~.~.~.~.~.~.~.~.~.~.~.~.~.~.~.~.~.~.~.~.~.~.~.(._.(.(.(.(.(.(.(.(.(.(.(.(.~.~.~.~.~.~.(.(.(.(._._._._._.(././._._._._._._._._._._._._._._.`.`.`.`._._._._.`.`.`.`.`.`.`.`._._.`.`.`.`.`.`.`.`.`.`.`.`.`.`.`.`.`.`.`.`.`.`.`.`.`.`.`.`.wX~.",
"0 e e e e e e e u u u u u u u u u u u e e u u u u +.u u u r 6 2 6 0 w w w w w w w w w w e e r r 8 t 8 9 9 9 9 , > > > > , , , , > d d d d d C C d d d > C d C Z C C C C C C C C C C C C C C C C C C C d d d d d d C C C C C C C C C V A A G G G G G F G F G F G F G G G G G G F G G H H G G G G G G G G G G F F F F F F F F F F H F F F F F F H H H F H H H F F O.O.L L P P P P P P P P P P P P P P P P P P P F.P F.}.F.} L J V f & V O.P } L J V & & V J P F.}.I.I.I.I.I.I.I.I.I.I.F.I.I.I.I.}.I.F.F.J.J.|.X.D X     o t E E E N N i i i i i i i i i i i i i i i i i i i i i i i i i i i i i i i i i i i i i i u @.:.i p i E i i 7 o O             O % Z R o.o.o.o.L I P P P P P F.F.U.U.U.U.U.U.U.U.}.}.}.}.|.|.|.X.U O   = p :.i i i i i i i i i i i E i i i i i i i i i :.:.@.@.i i i i l l :.i :.i i :.i t o     . , R P P U.Y.Y.Y.'.'.'.'.!.^.].].^.^.^.^.^.^.^.~.~.~.~.~.~.~.~.~.~.~.~.~.~.~.~.~.~.~.~.~.~.~.~.~.~.~.~.~.~.~.~.~.~.~.~.~.~.~.~.~.~.~.~.~.~.~.~.~.~.~.~.~.~.~.~.~.~.~.~.~.~.~.~.~.~.~.~.~.~.~.~.~.~.~.~.~.~.~.~.~.~.~.~.~.~.~.~.^.^.^.^.^.^.^.^.^.^.~.~.~.~.~.~.~.~.~.~.~.~.~.~.~.~.~.~.~.~.~.~.~.~.~.~.~.~.~._.(.(.(.(.(.~.~.~.~.(.(.(.(.(.(.~.~.~.~.~.~.(.(._._._._.(.(./._._._._._._._._._._._._._._._.`.`.`.`.`.`._._.`._.`._.`.`.`.`.`.`.`.`.`.`.`.`.`.`.`.`.`.`.`.`.`.`.`.`.`.`.`.`.`.`.`.`.`.`.wX~.",
"3 e e e e e e e u u u u u u u u u u u u u u u u u +.u u u w 6 3 2 6 r w w w w w w w w w e e r r t 8 9 9 9 9 , , > > > > , , , > > > > > > > c c d d d Z C C C Z C C C C C C C C C C C C C C C C C C C C C C C C d d C C C C C C V V A A A G G G G G G F F G G G F G G G G G H F G G H H G G G G G G G G G F F F F F F F F F F F H F F F F F F H H H H H H H H H F J O.L L o.P P P P P P P P P P P P P P P P P P P F.}.}.J.P O.J & & & J L } P O.V & & V J P F.}.I.I.I.F.F.F.I.I.F.I.F.I.I.}.}.I.I.P } } H.X.T %     O 7 N E i E i i i i i i i E i i i i i i i i i i i i i i i i i i i i i i i i i i i i i i i i @.:.i i &.:.t 7 o .             . % Z R ..} P I P L I I P P P F.U.U.U.U.U.Y.Y.Y.Y.Y.Y.XXXXQ.XXXXXX|.@X| %   o p :.:.i i i i i i i i i i :.i i i i i i i i :.:.E :.:.i l i i l i i i i i i :.t 7 .     X Z L P P U.Y.Y.Y.'.'.'.^.!.^.].].^.!.!.!.^.^.^.~.~.~.~.~.~.~.~.~.~.~.~.~.~.~.~.~.~.~.~.~.~.~.~.~.~.~.~.~.!.~.~.~.~.~.~.~.~.~.~.~.~.~.~.~.~.~.~.~.~.~.~.~.~.~.~.~.~.~.~.~.~.~.~.~.~.~.~.~.~.~.~.~.~.~.~.~.~.~.~.~.~.~.~.~.~.~.~.~.^.^.^.^.^.^.^.^.^.~.~.~.~.~.~.~.~.~.~.~.~.~.~.~.~.~.~.~.~.~.~.~.~.~.~.~.~.(._._.(.(.(.(.(.(.~.~.(.(.(.(.(.(.~.~.~.~.~.~.(.(._._._._.(.(././._._._._._._._._._._._._._._._._._._.`.`._._._._._._._._._._.`.`.`.`.`.`.`.`.`.`.`.`.`.`.`.`.`.`.`.`.`.`.`.`.`.`.`.`.`.`.wX~.",
"3 e e e u e e e u u u u u u u u u u u u +.+.+.+.u +.u u u e 0 6 3 6 r r w w w w w w w e e e r r 8 t 9 9 9 , , , > > > > , , > > > > > C c c c c d d Z Z C C Z Z C C C C C C A A C C C C C C C C C C C C C C C C C C C C C C A A A A S G G G G G H H F G G G G G H G G G G G G F G G G G F F F F G F G G G F F F F F H F H F F F F F F F F F F F F H H F F F F F F F F H L L L P P P P P P P P P P P P P P P P P P P P I.}.} L O.V & & V L } } L V & & V J P F.}.I.I.I.F.F.F.I.I.F.I.I.I.I.}.I.P P P P o...R < .   . 7 N N p E i i i i i i i i E i i i i i i i i i i i i i i i i i i i i i i i i i i i i i i i i :.@.i i p t o O             O % A R o.o.L L L P P P P P U.U.U.U.Y.Y.Y.Y.Q.Q.Q.XXQ.Q.Q.Q.Q.Q.XXXXXXXX+XH., . O t :.:.i i i i i i i i @.@.:.i i i i i i i i i E E i i l i &.@.@.i i i i i i i 7 o       % R L I g.U.Y.Y.W.'.'.!.!.!.^.].].].^.^.^.^.^.^.^.~.~.~.~.~.~.~.~.~.~.~.~.~.~.~.~.~.~.~.~.~.~.~.^.~.~.~.~.!.!.~.~.~.~.~.~.~.~.~.~.~.~.~.~.~.~.~.~.~.~.~.~.~.~.~.~.~.~.~.~.~.~.~.~.~.~.~.~.~.~.~.~.~.~.~.~.~.~.~.~.~.~.~.~.~.~.~.~.~.^.^.~.~.^.^.^.^.^.~.~.~.~.~.~.~.~.~.~.~.~.~.~.~.~.~.~.~.~.~.~.~.~.~.~.~.(._._.(.(.(.(.(.(.(.(.(.(.(.(.(.(.~.~.~.~.~.~.(.(._._._.(.(.(._._._._._._._._._._._._._._._._._._._._.`.`.`._.`.`.`.`.`.`.`.`.`.`.`.`.`.`.`.`.`.`.`.`.`.`.`.`.`.`.`.`.`.`.`.`.`.`.`.`.`.`.wX~.",
"1 r e e %.e e e u u +.u u u u u u u u u +.+.+.+.u %.+.+.+.e 0 6 3 6 r r r w w w w w w e e e r r 8 9 9 9 9 , , > > > > > > > > > > > c c c c c Z d d Z Z Z C Z Z C C C C C C A A C C C C C C C C C C C C C C C C C C C C A A A A A G G G G G G G G G G F F G G G G G G G G G G H G H H H G G F F F G G G G F F F F H H H H H F F F F F F F F F F F F H H F F F F F F F H H O.L L P P P P P P P P P P P P P P P P P P P P }.} P L V V & V H } } L J V & V J P F.}.I.I.I.F.F.F.I.I.F.I.I.I.I.I.F.P I L L { R , X     7 p p W N p E l i i i i i i i i i i i i i i i i i i i i i i i i i i i i i i i i i i i i i i i @.i i p 7 O             O % U ' | o.L L P P P P P F.I.U.U.Y.Y.Y.Q.Q.Q.Q.Q.Q.Q.Q.Q.Q.Q.Q.Q.Q.Q.Q.XXXX-X@XU O O t :.:.i i i i i i i i i i :.:.i i :.:.:.i i i i i i i i i @.@.i i i i i i i p 7 O       , { L P g.U.Y.Y.W.'.'.!.!.!.^.].].].].^.^.^.^.^.^.^.~.~.~.~.~.~.~.~.~.~.~.~.~.~.~.~.~.~.~.~.^.^.^.~.~.~.~.!.!.!.~.~.~.~.~.~.~.~.~.~.~.~.~.~.~.~.~.~.~.~.~.~.~.~.~.~.~.~.~.~.~.~.~.~.~.~.~.~.~.~.~.~.~.~.~.~.~.~.~.~.~.~.~.~.~.~.~.~.^.^.^.~.^.^.^.^.^.~.~.~.~.~.~.~.~.~.~.~.~.~.~.~.~.~.~.~.~.~.~.~.~.~.~.~.(._._.(.(.(.(.(.(.(.(.(.(.(.(.(.(.~.~.~.~.(.(.(.(._._._._.(.(._._._._._._._._._._._._._._._.`._._._._.`.`.`._.`.`.`.`.`.`.`.`.`.`.`.`.`.`.`.`.`.`.`.`.`.`.`.`.`.`.`.`.`.`.`.`.`.`.`.`.`.`.wX~.",
"o 0 e e e e e e e u u +.+.u u u u u +.%.+.+.u u %.%.u u u e r 2 3 2 6 r r r r r e e w e e r r 8 9 9 9 9 , , > > > > > > > > > > > > > > > > C C Z Z Z Z Z Z Z Z C C C C C C C A C C A A C C C C C C C C C C C C A A A A V A A G G G G G G G G G F G F F F F F F G G G G H H G G F F F F G G G F F F F F F F F F F H F F F F F F F F F F F F F F F F F H F F F F H H H H J H L L L L P P P P P P P P P P P P P P P P P P F.} P P O.V & & J P }.} J V & V O.P F.}.I.I.F.F.F.I.I.I.F.I.I.}.I.I.}.P L L L R > X     o t E E p i E i i i i i i i i i i i i i i i i i i i i i i i i i i i :.i i i i i p i :.:.i i i E @.i q o             X < A ' { o.o.L L I P P P F.U.U.Y.Y.Y.Y.Q.Q.Q.Q.Q.Q.Q.Q.Q.Q.W.'.'.'.'.'.Q.XXXXXX-X+XR X . t E i i i i i i i i i i i i i i i l l l E l N i l :.i i i i i i i i :.i :.i t 7       @ U { } P I.Y.Y.W.E.E.'.'.!.!.^.^.].~.~.].].~.~.~.~.~.~.~.~.~.~.~.~.~.~.~.~.~.~.~.~.^.^.^.^.~.~.^.^.!.!.^.~.^.^.^.^.~.~.~.~.~.~.~.~.~.~.~.~.~.~.~.~.~.~.~.~.~.~.~.~.~.~.~.~.~.~.~.~.~.~.~.~.~.~.~.~.~.~.~.~.~.~.~.~.~.~.~.~.~.~.~.~.~.~.^.^.^.^.^.^.^.~.~.~.~.~.~.~.~.~.~.~.~.~.~.~.~.~.~.~.~.~.~.~.~.~.~.~.(.(.(._._.(.(.(.(.(.(.(.(.(.(.(.~.~.~.~.~.~.(.(.(._._._._._._._././._._._._._._._._._._._.`.`.`.`.`.`.`.`.`.`.`._._.`.`.`.`.`.`.`.`.`.`.`.`.`.`.`.`.`.`.`.`.`.`.`.`.`.`.`.`.`.`.`.`.`.`.`.`.`.^.",
"o 6 w w e e e e e u u +.+.+.+.+.u u +.%.+.+.u u %.+.u u u e r 3 3 3 6 r r r r r w w w w w r 8 8 9 9 9 , , , > > , > > > > > > > d d d > > > c C Z Z Z Z Z Z Z Z C C C C C C C C C C A A C C C C C C C C C C C C A A A A A A G G G G G G G G G G G G G G F F G F G G G H H H G G F F F F G G G F F F F F F F F F H F F H F F F F F F F F F F F F F F F F F F F F F F F F J J O.H L L L L P P P P P P P P P P P P P P P P P P P P L J f & J L J.} L J & V L P F.}.I.I.I.I.F.F.I.I.U.I.F.I.I.F.F.P L L G , @ .   o 7 p W E i N E i i i i i i i i i i i i i i i i i i i i i i i i i i i i i i i i i :.i p p i :.:.i t 7 O           X , ! | { { o.} P P P P F.U.U.U.U.Y.Y.Y.Q.Q.Q.Q.Q.Q.Q.Q.Q.Q.Q.Q.Q.Q.Q.'.'.'.Q.XXXXXXXX@XT X O t i i i i i i i i i i i i i i @.i i i E E @.@.i @.i i i i i i i i i i :.:.:.t o       * R o.P P U.Y.Y.W.'.E.'.'.!.!.^.^.^.].~.^.^.~.~.~.~.~.~.~.~.~.~.~.~.~.~.~.~.~.~.~.~.~.~.~.~.~.^.^.^.!.!.^.!.!.!.!.^.~.~.~.~.~.~.~.~.~.~.~.~.~.~.~.~.~.~.~.~.~.~.~.~.~.~.~.~.~.~.~.~.~.~.~.~.~.~.~.~.~.~.~.~.~.~.~.~.~.~.~.~.~.~.~.~.~.~.^.~.^.^.^.^.^.~.~.~.~.~.).~.~.~.~.~.~.~.~.~.~.~.~.~.~.~.(.(.(._.(.(.(.(.(.(._.(.(.(.(.(.(.(.(.(.(.(.~.~.~.~.~.~.(.(.(._._._._._._._././._._._._._._.(.(._._.`._.`.`.`.`.`.`.`.`.`.`._._.`.`.`.`.`.`.`.`.`.`.`.`.`.`.`.`.`.`.`.`.`.`.`.`.`.`.`.`.`.`.`.`.`.`.`.`.`.^.",
"O 3 r w e e e e e +.%.%.%.+.+.%.u u %.%.+.+.+.+.%.%.u u +.u r 6 3 3 6 r r r r r w e w e e t t 9 9 9 9 , , > > > , > > > > > d d Z Z > c c c C C Z Z Z Z Z Z C C C C C C C C C C C C C C C C C C C C C C C C C A A A A A S S G G G G G G G G G G G H H H G G G G G G G G H G G G F G F G G G G F F F F F F F F F F F F F F F F F F F F F F F G F F F F F F F F F F F F F F J J J O.O.O.L L L L P P P P P I I L L L L L I P P P P L O.V V V L } }.P J J J L F.I.F.I.I.I.I.I.I.I.I.U.I.F.I.I.I.}.} o.H , + .   . 7 p E E E i E E i i i i i i i i i i i i i i i i i i i i i i i i i i i i i i i i i t i :.i @.:.@.y o           O - R ' { o.o.P P P P P F.U.U.Y.Y.Y.Y.Y.Q.Q.W.W.W.W.Q.Q.Q.Q.Q.Q.Q.W.Q.Q.Q.Q.'.Q.Q.XXXXXX=X@XZ . X p i i i i i i i i i i i i i i :.@.i i i @.@.@.@.@.i i @.i i i i i i i :.@.:.7 .     . , { } P P U.Y.Y.'.'.E.!.'.!.!.!.^.^.^.^.^.^.~.~.~.~.~.~.~.].~.~.~.~.~.~.~.~.~.~.~.~.~.~.~.~.^.^.^.!.!.!.!.!.!.^.!.^.~.~.~.~.~.~.~.~.(.~.~.~.~.~.~.~.~.~.~.~.~.~.~.~.~.~.~.~.~.~.~.~.~.~.~.~.~.~.~.~.~.~.~.~.~.~.~.~.~.~.~.~.~.~.~.~.~.~.~.~.^.^.~.~.~.~.~.~.).).~.~.~.~.~.~.).).~.~.~.~.~.~.~.~.~.(.(.(._.(.(.(.(.(.(.(.(.(.(.(.(.(.(.(.(.(.(.(.(.(.(._._._.(._._._._._._._././._._._._._._.(.(._._._._.`.`.`.`.`.`.`.`.`.`._._._._._._.`._.`.`.`.`.`.`.`.`.`.`.`.`.`.`.`.`.`.`.`.`.`.`.`.`.`.`.`.`.`.`.`.].",
"O 3 0 r e e e e u +.%.%.%.%.%.%.+.+.%.%.%.%.%.%.%.%.+.u u u e r 3 3 6 r r r r w e e e r t t 9 9 9 9 9 , > > > > , , > > > > > d Z C > > > > c c C C Z Z Z C C C C C C C C C C C C C C A A C C C C C C C C C A A A A A G G G G G G F H F F F F F G G G G G G G F G G G G H G G G G G G F G G G G F F F F F F F F F F F F F F F F F F F F F F G G F F F F F F F F F F F F F F F F J J O.O.O.O.O.O.L L L L L L L L L L L L I P P P P L H V V J P }.F.L L L P I.I.I.F.F.I.I.I.I.I.I.I.}.I.I.I.}.}.} o.A < .   . # i E l i i E E i i i i i i i i i i i i i i i i i i i i i i i i i i i i i i i i i i i :.:.:.:.u 5 .         . % U | o.o.o.P I P P P G.U.U.Y.Y.Y.Y.Q.Q.Q.W.W.W.W.W.W.Q.W.W.W.W.Q.W.W.Q.Q.Q.Q.Q.Q.XXXXXXXX=XK.<   o p i i i i i i i i i i i i i i l @.i @.i i @.@.@.i i i i i i i i i E i :.@.t 5       X A L P P U.Y.Y.Q.'.!.!.!.!.!.!.!.^.^.^.^.^.^.~.~.~.~.].].].].~.~.~.~.~.~.~.~.~.~.~.~.~.~.~.~.^.^.^.!.!.!.^.^.~.^.^.^.~.~.~.~.~.~.~.~.(.(.(.~.(.(.~.~.~.~.~.~.~.~.~.~.~.~.~.~.~.~.~.~.~.~.~.~.~.~.~.~.~.~.~.~.~.~.~.~.~.~.~.~.~.~.~.~.~.^.^.^.^.~.~.~.~.~.~.~.~.).~.~.~.~.~.~.).).).~.~.~.~./.~.~.~.~.(.(._.(._._.(.(.(.(._._.(.(.(.(.(.~.~.~._._._._._._._._.(._._._._.(._._._._._._._._._._._._._._._._.`._._._._._._._._._._._._._././././././.`.`._._._._.`.`.`.`.`.`.`.`.`.`.`.`.`.`.`.`.`.`.`.`.`.`.`.].",
"O o 2 r e e u e u u +.%.%.%.%.%.%.%.%.%.%.%.%.%.%.+.u u u u e r 3 3 3 r r r w w r e t t t 9 9 9 , > > > > > > , > > > > > > > > c > c c > > > C d Z Z Z C C C C C C C C C C C C A C C C A A A C C C C C A A A A A S G G G G F G F F F F F F F F F G G G G G F F G G G G F F H H F F H F F F F F F H F F F F F F F F F F F F F F F F F F F F F F F F F F F F F F F F F F F F H H J J J J J J J J J J O.J J J J J J L I L P P P P F.P L J J J L P }.P P P F.F.I.}.F.F.I.I.I.I.I.I.}.}.I.I.U.}.|.}.| < X .   o t p N i i N E i i N i i i i i i i i i i i i i i i i i i i i i i i i i i i i i i i i :.i :.@.7 o           O ; ! | o.o.P P P P P I.I.U.Y.Q.Q.Y.Q.Q.Q.Q.Q.W.W.W.W.'.'.W.W.W.W.W.W.W.W.Q.Q.'.'.'.Q.XXXXXXXX=X..@   7 p i i i i i i i i @.@.:.@.@.:.@.:.i i i i i i i i i i i i i i i i E :.:.:.7 O     . , { L P P U.Y.Y.'.'.!.!.!.!.!.!.!.!.'.^.^.^.^.~.~.~.~.].].].].~.~.~.~.~.~.~.~.^.^.^.^.^.^.^.^.^.^.^.^.^.^.^.^.~.~.^.^.~.~.~.~.~.~.~.(._._.(.(.(.(.~.~.~.~.~.~.(.(.~.~.~.~.~.~.~.~.~.~.~.~.~.~.~.~.~.~.~.~.~.~.~.~.~.~.~.~.~.~.~.~.~.~.^.^.^.^.~.~.~.~.~.~.~.~.~.~.~.~.~.~.~.~.~.~./.~.~.~././.~.(.(._._._._._._._.(.(.(.(._._.(.(.(.(.(.(.(.~._._._._._._._._._._._._._._._._._._._._._.(._._._._._._._.`.`.`._._._._._._._._._._._._././././._._._._._.`.`.`._._._._.`.`.`.`.`.`.`.`.`.`.`.`.`.`.`.`.`.`.`.^.",
"o o 3 r r e u e u u +.%.%.%.%.%.%.%.%.%.N %.%.%.+.+.u e u e w r 3 3 3 0 r r r e e r 8 t 9 9 9 9 , > > > > > , , > > > > > > > > > > > , > c > C C Z Z C C C C C C C C C C C C C A C A C A A A A A A A A A A A S G G G G G F F F F F F F F F F F F G G G G F F F G F G G F H H H F H H F F F F F F H F F F F H H F F F F F F F F F F F F F F F F F F F F F F F F H F F F F H H H F J J J J J J J J J J J J J J J L I P P P F.F.F.F.F.P L O.L P P F.F.F.F.F.F.F.I.I.I.I.I.I.I.I.I.I.}.I.I.}.|.+XH.R X     . 7 E p i i N E E i i N i i i i i i i i i @.@.i i i i i i i i i i i i i i i i i i i i i :.:.t s .           X U | ..o.P P I P I P I.U.U.Q.Q.Q.'.Q.'.Q.Q.Q.Q.W.'.W.'.'.'.'.'.'.'.'.'.'.W.Q.Q.'.'.'.Q.XXXXXX-X=X! O   7 E i i i i i i i i @.@.@.@.@.@.@.@.i i i i i i i i i i i i i i @.:.i :.i p o       X U o.P P I.U.Y.R.'.'.!.!.!.!.!.!.!.!.^.^.^.^.^.~.~.~.~.~.~.~.].~.~.~.~.~.~.~.~.^.^.^.^.^.^.^.^.^.^.~.~.^.^.^.^.~.~.~.~.~.~.~.~.~.~.~.(._._.(.(.(.(.(.~.~.~.~.(.(.(.(.(.~.(.~.~.(.~.~.~.~.~.~.~.~.~.~.~.~.~.~.(.(.(.(.~.~.~.~.~.~.~.~.~.^.^.^.^.~.~.~.~.~.~.~.~.).~.~.~././.~.~.~.~./.~.~.~.~.~.~.~.~.(.(._._._._._._.(.(.(._._.(._.(.(.(.(.(.(._._._._._._._._._._._._._._._._._._._._._.(.(._._._._._.`.`.`.`._._._._._._._._._._._._././././._._._._._._._._._._._._.).).).).`.`.`.`.`.`.`.`.`.`.`.`.`.`.`.^.",
"o o o 3 r w u e e u %.%.%.%.%.%.%.N %.%.%.%.%.%.%.%.+.u e e w r 3 2 3 0 r r r e r p 9 9 9 9 9 , > > > > , , , , c > c > > > > > > > c > > c c C Z Z C Z C C C C C C C C C C C C A A A A A A A A C C A A A A A G G G G G F F F F F F F F F F F F F F G G G G F F G F F F F H H H F H H H F F F H F F F F F F F F F F F F F F F F F F F J J J J F F F F F F F F F H F F F F H H H H F F J J J J J J J J J J J O.L P P F.F.F.F.F.F.F.}.F.P P P P F.F.F.F.I.F.F.F.I.I.I.I.I.I.I.I.I.U.}.}.|.XX=X@X| < .   . o p E l N N E E E i i N i i i i i i i i i i i i i i i i i i i i i i i i i i i i i i i i :.t o           . ; ! | o.} } I L P I.U.I.U.Y.Y.Q.Q.Q.Q.Q.'.Q.W.W.W.W.W.W.W.'.'.W.'.'.'.'.'.'.'.'.W.'.'.'.Q.XXXX-X+XX.;   . t E i i i i i i i i @.@.@.@.:.:.@.:.i i i i i i i i i i i i i i i i i i t 5 .       % R o.P P }.Y.Y.'.'.!.!.'.'.!.!.!.!.'.^.^.^.^.^.~.~.~.~.~.~.~.~.~.~.~.~.~.~.~.~.~.~.~.~.^.^.^.^.~.~.~.~.~.^.^.^.~.~.~.~.~.~.~.~.~.~.~.(.(._.(.(.(.(.(.(.(.(.(.(.(.(.(.(.(.(.(.(.(.(.(.(.(.(.(.(.(.(.(.(.(.(.(.(.(.(.(.(.~.~.~.~.~.~.~.~.^.^.^.^.~.~.~.~.~.~.~.~.~.~.~./././././.~.~.~.~.~.~.~.~.~.~.~.~.~.(.(.(.(.(._.(.(.(.(._.(.(._._._._.(.(._._._._._._._._._._._._._._._._././._._._._.(.(._._._._._._._._._._._._._._._._._._._._._._._._._._._.)._._._._.).).).).).).).).`.`.).).`.`.`.`.`.`.`.`.`.`.`.^.",
"1 O o 3 6 r u e e u e %.%.%.%.%.%.%.%.%.%.%.%.%.%.%.%.+.u e w r 6 2 3 6 r r e e t 9 9 9 9 9 9 , > > , , , , , , > > c > > c C C c c c c > > c C Z Z C Z C C C C C C C C C C C C C C C A A A A A V V V A A A S G G G G G F F F F F F F F G F F F F F G G H F F G G G F F F H H H F H H H F F F H F F F F F F F F F F F F F F F F F F J V V J J F F F F F F F F F F F F F F F F F H H F J J J J J J J J J J L P P F.F.F.F.F.F.F.F.F.I.F.G.F.F.F.F.F.F.F.F.I.I.I.I.I.F.F.F.F.I.I.I.U.|.XXXX-X:XX.C O     o t E p l N E i i i i N N i i i i i i i i i i i i i i i i i i i i i i i i i i i i :.:.i i 7 .           O Z ! ..} P I I I P F.U.U.U.Y.Q.Q.Q.Q.Q.W.W.'.W.W.'.'.'.'.'.'.'.'.E.E.'.'.'.'.'.'.'.Q.Q.'.'.Q.XXoX:XX.c     o i p i i i i i i i i @.@.:.:.:.:.@.@.i i i i i i i i i i i i i i i i i p 7 .       . , { P P g.}.Y.W.'.'.!.'.!.'.!.!.^.^.^.^.^.^.^.^.~.~.~.~.~.~.~.~.~.~.~.~.~.~.~.~.~.~.~.~.~.~.~.~.~.~.~.~.~.~.^.^.~.~.~.~.~.~.~.~.~.~.~.~.(._.(.(.(.(.(.(.(.(.(.(.(.(.(.(.(.(.(.(.(.(.(.(.(.(.(.(.(.(.(.(.(.(.(.(.(.(.(.(.(.~.~.~.~.~.~.~.^.^.^.^.~.~.~.~.~.~.~.~.~.~./././././././././.~.~.~.~.~.~.~.~.~.(._._._.(._._.(.(.(.(.(._.(._._._._._._._._._._._._._._._._._._._._._._././._._._._._.(.(.(.(._._._._._._._._._._._._._._._._._.`.`.`.`._._._.)._._._.`._._._._._._._._.`.`.).).).).`.`.`.`.`.`.`.`.`.].",
"3 1 o o 3 r e e e u +.+.N %.%.N %.%.N N N N %.%.+.+.u u u u e r 3 3 3 6 r 8 8 9 9 9 9 9 9 > > > , , , > > > > > c c C > > > > > > > > > , d C C C C C C C C C C C C C C C C C C C C C C C C A A A A A S S G G G G G G G F F F H F F F F F F F F F F F F F F F F F F F F F F F H H F F F F F H H F F F F F F F H H H F F F F F F F F F V V V A A F F H F F F F G F F F F F F F F F F F F F J J J J J J L P P F.}.F.F.F.F.F.F.F.F.I.I.I.I.I.I.F.F.F.F.F.F.F.F.F.F.I.F.F.I.U.U.}.}.Y.XXXX-X-X@XR X     . 7 p E i i i N E E E N N i i i i i i i i i i i i i i i i i i :.:.i i i i i i i i i :.f.q o             % U o.o.} o.P I P P U.U.Y.Y.Y.Q.Q.Q.Q.Q.Q.W.W.W.W.W.W.W.W.W.'.W.W.W.E.E.E.'.'.'.'.W.].P.'.'.Q.XX;X=XX.< .     7 <.i E E i i i @.i @.@.@.@.@.&.@.@.i :.N i N i i i i i i u i i i i i >.7 .         % G { P P U.Y.Y.Y.'.'.'.!.!.!.!.!.!.!.^.^.^.~.~.~.~.~.~.~.~.~.~.~.~.~.~.~.~.~.~.~.~.~.~.~.~.~.~.!.^.^.~.~.~.~.~.~.~.~.~.~.~.~.~.~.~.~.~.).(.(.(.(.(.(.(.(.(.(.(.(.(.(.(.(.(.(.(.(.(.(.(.(.(.(._._._._.[._._._._.(.(.(.(.(.~.~.~.~.~.~.~.~.^.^.~.~.~.~.~.~.~.~.~.~././././././.~.~./././.~.~././././.(._._._._._.(._.(._.(.(._._.[._._._._._._._._._._._._././././._._._._././././._._._._._._._._._._._._._._._._._._._._._._._._.).)._._._._._._._._._._._._._._._._._.).)._._._.`.`.).`.`.`.).).).).`.`.`.`.`.].",
"3 3 o o o 3 r e e e +.+.%.%.%.%.%.%.N N N N %.%.+.+.N u u e r r 7 3 3 7 8 8 9 9 9 9 9 9 9 > > > > > > > > > > > > c C c > > > > > > > > C d C C C C C C C C C C C C C C C C C C A A A A A A A A A A S G G G G G G G G F F F F F F F F F F F F F F F F F F F F F F F F F F F F H H F F F F F H H F F F F F F F F H F F F F F F F F F F V V V J J F F H F F F F A J J J F F F F F F F J J J J J J O.L P P F.F.}.}.F.F.F.F.}.}.}.}.I.I.I.I.I.F.F.F.F.F.F.F.F.F.F.F.I.I.I.U.U.U.|.|.XX|.|.|.}.R *       o t i E E N i N E E E E l i i i i i i i i i i i i i i i i i i i i p p i i i i i p i p t o           . : R | o.} o.P P P G.I.U.Y.Y.XXQ.Q.Q.Q.Q.Q.'.'.'.'.'.W.W.W.W.W.W.W.W.W.E.E.E.W.'.'.W.W.W.'.Q.Q.oXoX+Xo.% .       7 1.<.p p p i i :.:.f.&.@.i u u i @.&.i i i i i i i i i i i i i i i i 7 o         . , H { P P U.Y.Y.'.'.'.'.!.!.!.!.!.!.!.!.^.^.~.~.~.~.~.~.~.~.~.~.~.~.~.~.~.~.~.~.~.~.~.~.~.~.~.~.!.^.^.~.~.~.~.~.~.~.~.~.~.~.~.~.~.~.~.~.).(.(.(.(.(.(.(.(.(.(.(.(._._.(.(.(.(.(.(.(.(.(.(.(.(._._._._.[._._._.[._.(.(.(.(.~.~.~.~.~.~.~.~.^.^.~.~.~.~.~.~.~.~.~.~././././././.~.~./././././././././.(._._._._.(.(._._._.(.(._._._._._._._._._._._._./././././././._._._._././._./._._._._._._._._._._._._._._._._._._._._._._._._._._._._._._._._._._._._._._._.)._._._._._._._._.`.`.).).`.`.).).).).`.`.`.`.`.].",
"2 3 1 o o 1 2 w e e +.+.%.%.%.%.%.%.%.+.N %.%.%.%.%.N u u e r r 7 3 3 7 8 8 9 9 9 9 9 9 > > > > > > > c c c > c c C c c C c , , c c c c C C C C C C C C C C C C C C C C C C C C A A A A A A A A S S G G G G G G G G G G F F F F F F F F F F F F F F F F F F F H F F F F F F F F H F F F F H H H H H H H H F F F H F F F F F F F F F A V V V V V J F H H F F F J V V V V J F F J J J J J J J J L L P J.}.}.}.I.I.F.F.F.F.F.I.I.I.I.I.I.I.F.F.F.F.F.F.F.F.I.F.I.U.U.U.U.Y.Y.XXXX|.I.I L o.G < .       7 E E i E N i N N N N N N i i i i i i i i i i i i :.i i i i :.i i i i i i i @.i i p 7 .           X c ] ..} o.o.P P P U.U.Y.Q.Q.Q.Q.Q.Q.Q.Q.'.'.'.'.'.'.'.'.W.W.W.W.E.E.W.E.W.E.E.W.W.W.W.W.W.].Q.Q.oX|.' %           o i :.1.1.<.:.i i i :.i @.:.:.:.:.i u :.:.:.:.:.i i i i i i i :.:.p t O           % D L o.P U.U.Y.Q.'.'.'.!.!.!.!.!.!.!.!.!.!.!.~.~.~.~.~.].].~.~.~.~.~.~.~.~.~.~.~.~.~.~.~.~.~.~.~.~.^.^.^.~.~.~.~.~.~.~.~.~.~.~.~.~.~.^.~.).(.(._._.(.(.(.(.(.(.(._._._.(.(.(._._._.(.(.(.(.(.(.(.(._._._.[._._._._.(.(.(.~.~.~.~.~.~.~.~.~.^.~.~.~.~.~.~.~.~.~.~.~././././././.~.~././././././././././._._._._._.(._._.(.(.(.(._._._._._._._._.(.(././././././././._._._._._._._./._._._._._._._._._._._._._._._._._._._._._._._._._._._._._._.).)._._._._._._._._._._._._.`.`._.)././.).).).).).).).).`.`.`.`.`.!.",
"2 3 3 1 o o 3 r w e +.+.%.%.%.%.%.%.%.+.%.%.%.%.%.%.N u u e r r 7 7 7 7 8 9 9 9 9 9 > > > d d d d d Z Z Z C C d C C c c C c > > c c c c d C C C C C C C C C C C C C C C C C C C C A A A A A A A G G G G G G G G F F G F F F F F F F F F F F F F F F F F F F F F F F F F F F F F F F F F H H H H H H H H H H H H H F F F F F F F F F F V V V V V J F F H G F F J V V V V V J J J J J O.O.L L P P P F.F.F.F.F.F.F.F.F.F.F.F.I.I.I.I.I.I.I.F.F.F.F.F.F.I.I.I.I.U.I.U.U.Y.XXQ.XXXX}.I J J f % .       O t :.E i E N i i l l i i i i i i i i i i i i i i :.:.:.i i i :.i i i i i p i @.i p 7 O         . % U ....o.P P P P F.U.Y.Y.Q.Y.Y.Q.Q.Q.Q.Q.Q.Q.W.'.'.'.'.W.W.W.W.W.W.E.E.W.'.W.W.W.W.W.W.W.'.'.Q.Q.XXXXo.%                 . o 7 t :.<.>.:.:.:.@.@.i u i @.&.i i i i i i p p p i i p i :.t o           O & R o.} I.U.Y.Y.W.'.'.'.!.!.!.!.!.!.!.!.!.!.^.^.~.~.~.~.].].~.~.~.~.~.~.~.~.~.~.~.~.~.~.~.^.~.~.~.~.^.^.^.~.~.~.~.~.~.~.~.~.~.~.~.~.~.^.~.).~.~.~.(._._._._._._._._._._._._._._._._._._._.(.(.(.(.(._._._._._._._._.(.(.(.~.~.~.~.~.~.~.~.~.^.~.~.~.~.~.~.~.~.~.~.~./././././././.~./././.~././././././._._._._._._._.(.(.(.(.(._._._._._._.(.(.(.(././././././././._._._._._./././._._._._._._._._._._._._._._._._._._._._._._._._._._._._._._._._._._._._._._._._._._._._./.).).)./.).).).).).~.).).).).`.`.`.`.!.",
"2 3 2 3 o o o 3 r e +.+.%.%.%.%.%.%.+.+.%.%.%.%.%.N u u u p t r 7 * 7 8 a 9 9 9 > > > > > d d d Z C Z Z d d C C c c c , C C C c > > > d C C C C C C C C C C C C C C C C C C C C C A A A A A A A G G G G G G G G F G G F F F F F F F F F F F F F F F F F F F F F F F F F F F F F F F H H H H H H H H H H H H H H H F F F F F F F F F F V V V V V J F F G G F F J V V V V V V J J J O.L P P P F.}.I.I.F.F.F.F.F.I.F.F.F.F.F.F.F.F.I.I.I.F.F.F.F.F.F.F.U.U.U.U.U.U.U.Y..XXXXXXXXX}.L J & % .         7 p N E i i E i i i i i l l i i i i i i i i i i i i :.i i i i i i i i i i i i i p =           . : ! | o.o.P P P F.U.U.Y.Y.Y.Y.Y.Y.Q.Q.Q.W.Q.'.W.W.W.W.W.W.W.W.W.W.E.E.E.W.W.'.'.'.W.W.W.W.W.'.].W.Q.oXXXV                           O o 7 p :.:.:.:.:.N N i i i N &.&.i :.:.:.i :.:.l i t o             % A { P } U.U.Y.'.'.!.'.!.!.!.!.!.!.!.!.!.!.!.!.~.~.~.^.~.].].~.~.~.~.~.~.~.~.~.~.~.~.~.~.^.^.!.!.^.~.^.^.^.~.~.~.~.~.~.~.~.~.~.~.~.~.~.^.~.).).~.(.(._._._._._._._._._._._._._._._._._._.(.(.(.(.(.(.(.(.(.(._._._._.(.(.(.~.(.~.~.~.~.~.~.~.~.~.~.~.~.~.~.~.~.~.~.~.~.(.(.(.~.~.(.(././.~.~.~./././././._._._._._.(._.(.(.(.(.(.(.(.(.(._.(.(.(.(.(.~.~.(.(.(._.(.(._._._._.(.(.(.(./././._._._././._._././././.).)._._._._._._._._._._._._._._._._._._._._._._._._._._._._.).).).)./.).).).).).).).).).)./.`.`.`.!.",
"2 3 3 3 3 o o 3 6 r e +.N %.%.N %.%.+.+.%.%.%.%.%.N u u p p t r 7 = 8 : 9 9 , , > > > > d d d d Z Z Z C C C C C c c c c C C C C > C d C C d C C C C C C C C C C C C C C C C A A A A A G G G G G G G G G F G G G F F F F H F F F F F F F F F F F F F F F F F F F F F F F F F H H F F H H H H H H F H H H H H H H H F F F F F F F F F F V V V V V J F F H H F F V C V V V V J O.O.L P } J.F.F.F.F.I.F.F.F.F.I.F.F.F.F.F.F.F.F.F.F.I.F.F.F.F.F.F.F.F.F.F.F.F.U.U.U.Y..XQ.Q.Q.Q.XX}.L J < X         O t E p E E p E i @.@.i i l i i i i l E i i i i i i i i i i i i i i i i i i E E p = .           , T { { L P P P F.}.Y.Y.Y.Q.Q.Y.Y.Q.Q.'.Q.Q.W.W.W.W.W.W.W.W.W.W.W.W.W.W.E.E.W.W.'.'.W.W.W.W.W.'.'.W.'.XX|.v   .                             . O 5 7 t i :.:.:.:.N :.:.:.:.:.:.:.:.i :.:.t o             X > R o.P I.U.Y.Y.'.W.E.!.!.!.!.!.!.!.!.!.!.!.!.^.~.~.~.~.~.~.~.~.~.~.~.~.~.~.~.~.~.~.~.~.^.!.!.!.!.^.~.^.^.^.~.~.~.~.~./.~.~.~.~.~.~.~.~.^.~.).~.~.(.(._._._._._._._._.(.(._._._._._._._._._._.(.(._._.(.(.(.(._._._._.(.(.(.~.(.~.~.~.~.~.~.~.~.~.~.~.~.~.~.~.~.~.~.~.~.~.(.~.~.~.~.(././.~.~.~./././././._._._._.(.(.~.(.(.(.(.(.(.(.(.(.(.(.(.(.(.~.~.~.~.~.(._.(.(._._._._.(.(.(.(././._._._._._./._._./._._./._._.).)._._._._._._.).)._._._._._._._._._._._._.).)._._._._.).).).).).).).).).).).).^.).).).`.`.`.!.",
"2 2 2 3 3 1 o o 3 6 r e u N %.N %.%.N N %.%.%.%.u u u p p p p 8 8 8 8 a 9 , > > > > > > c Z Z Z Z Z Z C Z Z Z C c C C C C c C C C C C d C C C C C C C C C C C C C C C C A A A A A A G G G G G G G G G F F G G F F F H H F F F F H H F F F F F F F F F F F F F F F H F F F F H H F H H H H H H H H H H H H H H H H F F F F F F F G F G V C C V V V A F H H F J V C V V V J O.L o.} J.J.F.F.F.F.F.F.F.F.I.I.F.F.F.F.F.F.F.F.F.I.I.F.F.F.F.F.F.F.F.F.F.F.U.U.U.U.Y..XQ.XXoXXXXXXXXX} C % .         7 p E i E E i E i i @.i i l l i i i i i i i i i i i i i i i i i i i i i i E i t # .   .     O , R ' O.L L L P F.U.Y.Y.Y.Y.Y.Y.Y.Y.Y.Y.Q.'.'.W.W.W.W.W.W.W.W.W.W.W.W.W.W.W.W.W.W.'.'.W.E.W.W.W.'.W.'.'.Q.|.V .                                       . O o 7 t i i :.:.:.:.:.:.:.i t t 7 o             . < R L o.P I.Y.Y.'.'.'.!.!.!.!.!.!.!.!.!.!.!.^.!.^.~.~.~.~.~.~.~.~.~.~.~.~.~.~.~.~.~.~.~.~.!.!.!.!.!.~.^.^.^.~.~.~.~.~.~.~./.~.~.~.~.~.~.~.^.~.).~.~._._._._._._.(._._._._._._._._._.[._._._._._._._._._._._.(.(.(._._._.(.(.(.(.(.~.~.~.~.~.~.~.~.~.~.~.~.~.~.~.~.~.~.~.~.~.(.(.(.(.~.~././././././././././._._._././.~.(.(.(.(.(.(.(.(.(.~.(.~.~.~.~.~.~.~.~.~.(.(._.(._._._.(.(.(.(.(././._._._._././._._._./._._._._._._._._._._._._._._._._._._._._._._._.)._._._._._._._._././././.).).).).).).).).^.).).).`.`.`.^.",
"2 3 3 3 3 2 o o 1 3 r e u N %.%.%.%.N N N N %.%.u u u p p p 9 8 8 9 9 , > > > > c c c > c Z Z Z Z Z C Z Z Z C C C C C C C C C C C C C C C C C C C C C C C C C C C C C C A A A A S G G G G G G G G G F F G G F F H H H H F F F F H H F F F F F F F F F F F F F F F F F F F H H H F H H H H H H H H H H H F F F F H F F F F F F F G F G V C C C V V J F H H F J V V V V V J L P J.F.F.F.F.F.F.F.F.F.F.}.I.F.F.F.}.F.I.I.I.I.I.I.I.F.F.F.F.F.F.F.F.F.F.U.U.U.U.Y.Y.XXXXXXoXQ.XXXXXXo.& X         o t p E E i i E i i i @.i i l l i i i i @.i i i i i i i i i i i i p i i i i i t =           . < R R ' L L L P F.U.Y.Y.Q.Y.Y.Y.Y.T.Y.Y.Y.Y.Q.'.W.W.W.W.W.'.'.W.W.W.W.W.W.W.'.W.W.W.'.'.W.E.W.W.W.'.'.'.'.Q.XXO.X   .                                           . . o 5 7 7 t t t t t 7 o O               @ U { L P I.}.Y.Y.'.].'.!.!.!.!.!.!.!.!.!.!.!.!.^.^.~.~.~.~.~.~.~.~.~.~.~.~.~.~.~.~.~.~.~.^.^.!.!.!.!.~.~.^.^.~.~.~.~.~.~././.~.~.~.~.~.~.~.^.~.)._._._._._._.(.(.(.(.(._._._.[._._._.[.[._._._._.[._._._._._.(.(.(._._._.(.(.(.(.(.~.~.(.~.~.~.~.~.~.~.~.~.~.~.~.~.~.~.~.~.~.(.(.(.~.~.~./././././././././././._._././.~.(.(.(.(.(.(.~.~.~.~.~.~.~.~.~.~.~.~.~.~.(.(._.(._._.(.(.(.(.(.(._._._._._._././._._._./._._._._._._._._._._._._._._._._._._.).)._._.)._._._._._._._._./././././.).).).).).).).).^.).).).`.`.`.^.",
"6 6 3 3 2 2 3 o o 1 3 r e +.+.+.%.N N %.N N u u u u N N p 9 9 9 9 , , , > > > > > c > c > C Z Z Z Z Z Z C C C C C C C C C C C C C C C C C Z C C Z Z C C C C C C A C A A A A S G G G G G G F F F G G G G F F F F F G F F F H H H H H H F F F F F F F H F F F F F H H H H F F F F F F F H H H H H H H F F F H F F F F F F F F F F F F F V V V V V V J H H H F V V V V V J L P } F.}.F.F.F.F.F.F.F.I.I.I.I.I.I.I.I.I.F.F.F.I.I.I.U.U.U.U.F.F.F.F.F.F.F.F.U.Y.Y.Y.Q.Q.Q.XXQ.XXXXXX+X| %   .     . 7 i i i E :.:.:.:.i l i i i i :.:.i i i i i i i i i i E E i i i i @.i i i :.t o           X v G H O.O.L L I P U.Y.Y.Y.Y.Y.T.T.T.T.T.Y.Y.Y.Q.Q.Q.Q.W.W.W.W.W.W.W.W.W.W.W.W.W.W.W.W.W.W.W.W.E.E.E.E.W.W.W.'.XX}.F % . .                                                       . O . . .                 O Z { o.P P I.U.Y.Q.'.'.'.!.!.!.!.!.!.!.!.^.^.^.!.^.~.~.!.!.~.~.~.~.~.~.~.~.^.~.~.^.^.^.^.~.^.^.^.^.^.^.^.^.~.~.~.~.~.~.~.~.~.~.(.~.~.~.~.~.~.~.~.~.(._._._.(._._././._._._._._._._._._._.[._.[._._._._._._._._._._.(.(.(.(.(.(.(.(.~.~.(.~.^.^.~.~.~.~.~.~.~.~.~.~.~.~.~.~.~.~.~.~.~.~.~.~.(.(.(._._.(.~.~././././._._._._._._._._._._._._._.(.(.~.~.~.~.~.(.(.(.(.~.~.(.(.(.(.(.(.(.(._._._._._._._._././._._._._._._._._._._._._._._._._._.)._._._._._._._._._._._.).).).).).).).).).).).).).).).).).).).).).).`.`.`.[.~.",
"6 3 3 3 3 3 2 1 o o 3 6 e e +.%.%.%.%.%.N N u u u u N N p 9 9 9 , , > > > > > > > > > c Z d Z Z Z Z C Z C C C C C C C C C C C C C C C C Z Z C C Z Z Z C C C C C C A A A A A G G G G G G G F F F G G F F F F G G G G F F H H H H H H H F F F F F F F H H F F F F F F F F F F F F F F F H H H H H F F F F F F F F F F F F F F F F F F F V V V V V V F { { L F V V V V V J L } F.}.F.F.F.F.F.F.F.F.I.I.I.I.I.I.I.F.I.I.F.F.I.I.I.I.F.F.I.I.F.F.F.F.U.U.U.U.Y.Q.Q.Q.'.oXQ.oXXXXX-X|.C X         o t i E E E :.i i i :.:.i i i i i i i i i i i i i i i i i i i i i i i i :.E 7 o           X > T R { O.O.L L P I.U.Y.Q.Q.Y.Y.T.T.T.T.T.T.Y.Y.W.W.Q.Q.W.W.W.W.W.W.W.W.W.W.E.W.W.W.W.W.W.W.E.E.E.E.E.E.W.'.W.W.Q.XX|.} H F D D T R R H T A c , < % X O .                                                 O < R o.o.P P U.Y.Y.'.'.'.'.!.'.!.!.'.!.!.^.~.^.^.!.^.~.~.~.!.^.~.~.~.~.~.~.~.~.~.~.^.^.^.^.~.^.^.^.^.^.^.^.].~.~.~.~.~.~.~.~.~.(.(.(.~.~.~.~.~.~.~.~.(.(._._.(._._._._._._._._._._._._._._._._._._._._._._._._._._._.(.(.(.(.(.(.(.(.(.~.(.~.~.~.~.~.~.~.~.~.~.~.~.~.~.(.(.~.~.~.~.~.~.~.~.~.~.~.(.(.(._.(.(./././._._._._._._._._._.(.(._._.(.(.(.~.~.~.~.~.~.(.(.(.~.~.(.(.(.(.(.(.(.(._._.(.(._._._._._._././._._._._._._.).).).).).).).)._._.)._._._._._._._._._._.).).).).).).).).).).).).).).).).).).).).^.).`.`.`.`.~.",
"6 2 3 3 6 3 3 2 o o o 3 r e +.+.%.%.%.%.N N u u u p N N p 9 9 9 9 9 > > > > Z Z d d > c Z Z Z C Z C Z Z Z Z C C C C C C C C C C C C C Z Z Z Z C Z Z Z C C C C C C A A A S G G G G G G G G F F G F F F F F F H F H G G F F H H H H H H F F F F F F F F F F F F F F F F F F F F F F F F H H H H H H H F F F F F F F F F F F F F F F F F V V V V V V H o.X.o.F V V V f V O.} J.F.}.F.F.F.F.F.F.F.F.F.F.F.F.F.F.F.F.I.I.F.F.F.I.I.I.I.F.F.I.F.F.F.F.U.U.U.XXQ.Q.XXXXQ.oXQ.oXQ.XX-XL @         O 7 i E E E E :.i i :.:.:.:.:.i i i i i i i i i i i i :.i i i i i i i i E i 7 o           X n ! ' ' { L L L I F.}.Y.Q.Q.Q.Q.Y.T.T.T.T.T.T.Y.W.W.W.W.W.W.W.W.W.W.W.W.W.E.E.E.E.E.W.E.W.E.E.E.E.W.W.W.W.W.'.'.'.'.XXXXXX}.} } } } } } } o.o.{ { { ' H D Z , % % X O .   .                                 = R o.} P P F.U.Y.Y.'.'.'.'.!.!.!.!.'.^.~.].].].^.!.^.^.~.~.^.!.~.~.~.~.~.~.~.~.~.~.~.^.^.~.~.^.^.^.^.^.^.^.].~.~.~.~.~.~.~.~.(.(._._././././.~.~.~.(.(._._._._._._._._._._._._._._._._._._._._._._._._._.~.~._._._.(.(.(.(._.(.(.(.(.(.(.(.~.~.~.~.~.~.~.~.~.~.~.~.~.~.~.(.(.~.~.~.~.~.~.~.~.~.~.~.~.(.(.(.(._._._._._._._._._._._._.(.(.(.(.(.(.(.(.(.(.(.(.(.(.(.~.~.(.(.(.(.(.(.(.(.(._._.(.(.(.(._._._._._._._._._._._._.).).).).).).).).).).)._._._._._._._._._._.).).).).).).).~.).).).).).).).).).).).^.^.~.).`.`.`.~.",
"6 6 2 2 2 2 2 3 3 o o 1 3 r e +.%.%.%.%.u u N u u p p N M M n n n > c c c c c Z d > c Z d Z C C C C Z Z C C C C C C C C C C C C C C C Z Z Z C C C C C C C C A A A A A S G G G G G G G G G F G G F F F F F F H H H H G F F F H H H H H H H H H H F F F F F F F F F F F F F F H H F F F H H H H H H H H H H H H H F F F F F J J J J F F J V V V V V H X.H.o.F V V V & J L } J.F.F.}.}.F.F.F.F.F.I.F.F.F.F.F.F.F.F.I.I.I.F.F.I.I.I.I.I.I.I.F.F.F.U.T.U.Y.XXXXQ.Q.Q.Q.XXQ.Q.XX-X|.& .         o t f.E E E E :.:.:.:.:.:.:.:.:.i i i i i i i i i i i :.i i :.E i i i E i 7 o           X n ! | { O.L L L I P I.U.Y.Q.Q.Q.Q.Y.T.T.T.T.T.T.Y.W.W.'.'.W.W.W.W.W.W.W.W.W.W.E.E.E.E.E.E.W.E.E.E.E.W.W.W.W.W.W.W.'.'.Y.Y.Y.}.I.P P P o.P P P P } } } } } } } o.{ ' R R T A c , < % X O                     X Z { o.P P P I.Y.Y.Q.'.'.'.'.!.!.!.!.!.^.^.].].].].^.^.~.~.~.~.!.!.~.~.~.~.~.~.~.~.~.~.~.~.~.~.~.~.^.^.^.^.^.].~.~.~.~.~.~.~.~.~.(._._././././.~.(.(.(.(.(._._._.(._._._._._._._.(._._._._._._.(.(.(.(.(.(.~.~.~.~.~.~.~.(.(.(.(.(.(.(.(.(.(.~.(.(.~.~.~.~.(.(.~.~.~.~.~.(._.(.~.(.~.~.~.~.~.~.~.~.~.~.~.(.(.(./._._._._._._._._._._._._._.(.(._._.(.(._._._.(.(.(.~.(.(.(././.(.(.(.(.(.(._._.(.(.(.(._._._._._._.).).).)._._._._._._._././._._._._._._._._._._._._._._.)._._.).).).).).).~.).).).`.).`.`.).).).^.~.`.`.`.`.~.",
"6 6 6 2 2 2 2 2 3 1 o o 2 6 e +.%.%.%.+.u u u u N N M M M n n n n n c > > > C C d C c Z Z C C C C C Z Z C C C C C C C C C C C C C C C C C C C C C C C C C C A A A A G G G G G G G G G G F F F F F F F F F F F F H H G F F F F H H H H F F H H H F F F F F F F F F F F F F H H H F F F H H H H H H H H H H H F F F F F J J J J J O.O.H J V V V V V H X.}.o.J V V V & J o.F.F.F.F.F.F.F.F.F.F.I.I.F.F.F.F.F.F.F.F.I.I.I.F.F.F.F.F.I.F.F.F.F.F.U.U.Y.Y.XXXXQ.Q.oXoXXXQ.Q.Q.oX=XR X         . 7 i :.:.:.E E :.:.:.:.:.:.:.:.:.:.:.:.i i i i i i i i i i i i i i i E N 8 O           . 9 ' { { o.L L L I P F.U.U.Y.Y.'.'.Q.Y.T.T.T.T.T.T.Y.W.W.W.W.W.W.W.W.W.W.W.W.W.W.W.W.E.E.E.W.W.E.E.E.E.W.W.W.W.E.E.Y.W.'.Q.Y.Y.Y.U.U.F.P P P P P F.F.F.} } P } P P P P o.} } } o.o.o.{ R U * O               O , R o.o.P P F.}.Y.Y.W.W.W.'.'.!.E.E.!.!.^.].~.~.].].^.^.~.~.~.~.!.!.~.~.~.~.~.~.~.~.~.~.~.~.~.~.~.~.~.^.^.^.~.~.~.~.~.~.~.~.~.~.~.~.(._././././.(.(._._._.(.(.(._._././././._._.(._._._.(.(.~.~.~.~.~.~.~.~.~.~.~.~.~.~.~.~.~.(.~.~.(.(.(.(.(.(.(.~.~.~.~.~.(.(.~.~.~.~.~.~.~.(.~.~.~.~.~.~.~.~.~.~.~.~.~.~.(.~.(.(._._._._._._._._._._._._._._._._._._._._.(.(.(.(.(.(.(././././././././._._._._._._.(._._._._._./._._._._._._._._././././._._._._./._._._._._._._._._._././._.).).).).).).).).).).`.`.`.`.).).).^.).).`.`.[.).",
"6 6 6 6 2 2 2 2 3 3 o o o 3 r e u u +.N u u u u N N M M n n n n c c c c > > Z d c d Z C Z C C C C C C C C C C C C C C C C C C C C C C C C C C C d d C C C A A A A S G G G G G G G F F F F F F F F F F F F F F G H H G F F F F F F F H F F F H H F F F F F F F F F F F F H H H H F F H H H H H H F H H H H F F F J J J J J O.L L P } o.H V f V V V H } H.L J V V V & J P F.F.F.F.F.F.F.F.I.I.I.I.I.I.I.I.F.F.F.F.I.I.I.F.F.F.I.I.U.F.F.F.U.U.U.U.Y.Q.Q.Q.XXXXQ.Q.Q.XXoXoX-X|.<           O 7 :.:.:.:.E E i i i :.i :.:.:.:.:.:.:.i i i i i i i i i i i i i E E i 7 O             > ! o.o.o.L L L P P U.U.U.U.Y.Y.Q.Q.W.Y.Y.T.T.T.T.T.Y.W.W.W.W.W.W.W.W.W.W.W.W.W.W.W.W.W.W.W.W.W.W.W.W.W.E.E.E.E.E.W.W.W.W.Y.Q.Q.Y.Y.Y.Y.U.U.U.U.U.U.U.U.U.U.I.P P P P P P P P P P } } } } o.H V % X .     . X < G { o.I P F.U.Y.Y.Q.W.W.W.W.'.!.E.!.!.!.^.].(.{.{.].~.^.~.~.^.~.!.!.~.~.~.~.~.~.^.~.~.~.~.~.~.~././.~.~.~.~.~.~.~.~.~.~.~.~.~.~.~.~.(.(././._._.(._._._._._.(.(.(.~.(././.(.(.(.(.(._._.(.~.~.~.~.~.~.~.~.~.~.~.~.~.~.^.^.^.~.~.~.~.~.~.(.(.(.(.(.~.~.~.~.~.~.(.~.~.~.~.~.(.~.~.~.~.~.~.~.~.~.~.~.~.~.~.~.~.~.~.(.(.(.(._._._._._._._._._._._._._._._._._._.(.(.(.(.(.(./._._._./././././._._._._._._._./._._._._._._./._./././._._._./._./._._._._./._._._._._._._._._._././._.).).).).).).).).).).`.`.`.`.).).).).).`.`.`.`./.",
"6 6 6 6 2 2 2 2 3 3 3 o o 1 2 r u u u N u u u u N N M M n n n c c c c c > > d d d C Z C Z C C C C C C C C C C C C C C C C C C C C C C C C C C d d C C C A A A A S G G G G G G G G F F F F F F F G G G G G G G G H H G F F F F F F F F F F F F F F F F F F F F F F F F F F F F F F F F H H H H H F H H H F J J H O.O.L L L P P J.F.}.} O.V & & V V H } H.L J V V V V J } F.F.I.F.F.F.I.F.I.I.I.I.I.I.I.I.F.F.I.I.I.I.I.I.F.F.I.I.F.F.F.F.U.U.U.Y.Q.Q.Q.Q.XXQ.Q.Q.'.oXoXoX+XH O           . 7 t E E E E E i i i i :.:.:.:.:.:.:.i i i i i i i i i i i i i l E t 7 O           O = ! | o.P o.L I I P F.U.U.U.T.Y.Y.Q.'.Q.Y.P.T.T.T.T.P.Y.W.W.W.W.W.W.W.W.W.W.W.W.W.'.'.'.'.'.'.'.'.'.W.W.W.E.E.E.E.E.W.'.W.W.W.W.Y.Q.Y.Q.Q.Y.Y.Q.Q.Q.Y.Y.Y.Y.Y.Y.U.U.I.U.I.I.U.U.F.P P P P F.J.P L H V & % % & C F L L L P P U.Y.Y.Y.W.'.W.W.W.W.E.E.E.E.!.!.].{.{.{.(.].!.~.~.~.^.!.~.~.~.~.~.~.~.^.^.~.~.~.~.~.~./././.~.~.~.~.~.~.~.~.~.~.~.~.~.~.~.~.(././._._.(.(.(._._.(._._.(.~.~././.(.(.(.~.(._._.(.~.~.~.~.~.~.~.~.~.~.~.~.~.!.^.!.!.!.!.~.~.~.~.(.(.(.(.(.~.~.~.~.~.~.~.~.~.~.~.~.~.~.~.~.~.~.~.~.~.~.~.~.~.~.~.~.~.~.~.~.~.~.(.(.(.(._.(.(.(.(._._._._._._._._._.(.(.(._._._._._._._._./././././._._._._._._._././._._._._._./._._././._._._./._._._._._._._._._._._._._._._._._./.).).).).).).).).).).).).`.`.`.`.`.).).).).`.`.`.[./.",
"6 6 6 6 2 2 2 2 3 3 3 1 o o 3 6 u u u N u u y p p N M n n n c c c c c c > > C C d d C C C C C C C C C C C C C C C C C C C C C C C C C C C C d d C C C A A A A A G G G G G G G G G G F F F F F G G G G G G G G G H H G F F F F F F F F F F F F F F F F F F F F F F F F F F F F F F F F H H H H H H H H H F F H H L L P } J.J.F.F.F.}.J.L V V V V V F } H.o.J V V V V O.} F.F.I.F.F.F.I.I.I.I.I.I.U.U.U.U.U.U.U.U.U.I.I.I.F.F.F.I.F.F.F.F.U.U.Y.Y.Q.XXQ.Q.Q.Q.Q.'.Q.oXXX-X|.&   .           o 5 t i i i i i i i :.:.:.:.:.:.:.i i i i i i i i i i p i i i l i 7 O           . = ~ | o.P I P P P F.F.U.U.U.U.U.T.Y.'.'.Q.W.Y.T.T.T.T.Y.W.'.'.'.'.W.W.W.W.W.W.E.E.W.'.'.'.'.'.'.'.'.'.'.W.W.E.E.E.E.W.W.W.E.E.'.W.W.W.E.W.'.W.W.W.W.Q.Q.Q.Q.Q.Q.Q.Q.Y.Y.Y.Y.Y.Y.Y.U.U.U.U.U.}.}.J.} o.L L H L L L L L I P P I.U.Y.W.Y.W.'.W.W.W.E.E.E.E.E.E.!.^.(.{.[.(.].!.^.^.^.^.!.~.~.~.~.^.~.~.^.^.^.^.~.~.~.~././././.~.~.~.~.~.~.~.~.~.~.~.~.~.~.~.(././._._.(.(.(.(.(.(.(._.(.~.~.~.~.(.(.(.~.(._._.(.~.~.~.~.~.~.~.~.~.~.~.~.~.!.!.!.!.!.!.^.~.~.~.(.(.(.(.(.~.~.~.~.~.~.~.~.~.~.~.~.~.~.~.~.~.~.~.~.~.~.~.~.~.~.~.~.~.~.~.~.~.~.~.(.(.(.(.(.(.(.(._._._._._._._._._._._._._._._._._._._._./././././._._._._._._._././._._._._._./._._._.(._._._._._._._._._._./._._._._._._._._._._.).).).).).).).).).).).).).`.).`.`.`.).).).).`.`.`.[.).",
"6 6 6 6 6 2 2 2 6 2 2 2 o o o 3 r e u u u u p p N M M M n n c > c c c c Z Z d d d d d C C C C C C C C C C C C C C C C C C C C C C C C C C C C C C C A A A A S G G G G G G G G G G G G F F F F G F F F G G G G G H H H H H H H H G G F F F H H H F F F F F F F F F F F F F F F F H H H F F F F H H H F J J O.L P } } F.F.F.F.F.F.}.F.}.o.J & V v V J o.J.o.J v V & J L J.}.}.F.F.I.I.I.I.F.I.I.I.I.I.F.F.F.F.F.F.F.F.F.F.I.I.U.U.F.F.F.T.T.Y.Y.Q.Q.Q.Q.'.'.Q.Q.Q.'.Q.oXXX{ X                 . . o = t p i l i i @.:.:.:.:.E E E i i i i i i i i i i i i p 7 O             : R { o.L L L P F.I.I.U.U.T.T.T.T.T.Y.Y.Q.'.'.Y.Y.P.P.P.P.Y.W.'.'.W.E.W.W.W.W.E.E.E.E.!.!.E.E.'.'.'.'.E.E.E.W.'.'.E.E.E.E.E.E.'.'.'.'.W.W.W.E.'.'.'.'.W.W.W.W.W.W.W.W.Y.Y.Y.Y.Y.Y.Y.Y.Q.Y.Y.Y.Y.U.U.U.I.F.P P P P P P I I P U.T.Y.Y.W.W.W.E.E.E.E.E.E.P.P.E.E.!.^.~.(.[.(.].~.~.~.^.!.^.~.~.~.^.^.^.^.~.^.~.~.~.~.~././././././.~.~.~.~.~.~.~.~.~.~././.~.~./././././.(._.~.~.(._._._.(.(.(.(.(.(.~.~.~.(.(.(.~.~.~.~.~.~.~.~.~.~.~.~.~.!.!.!.!.!.!.!.^.~.~.~.(.~.~.(.(.~.~.~.~.~.~.~.~.~.~.~.~.~.~.~.~.~.~.~.~.~.~.~.~.~.~.~.~.~.~.~.(.(.(.(.(.(.(.~.(.(.~.(.(.(._.(.(.(.(._.(.(./././._._._._._._._._./._._._./././.(.(._._._._._._._._._._././././._._._././._._._._._._._._._._._._._._._._._._._.).).).).).).).).).).`.`.`.`.`.`.).).`.`.`.`.`.).",
"6 6 6 6 6 2 6 6 6 2 2 3 3 o o 3 6 r e e e u p p M M M n n n > > c c d Z Z Z c > d d d C C C C C C C C C C C C C C C C C C C C C C C C C C C A A A A A A D D S S G G G G G G H G G G G G G G G G G G G G H H H H G G G G G G F F G H F F F H H H F F F F F F F H F F F F F H H H F F F H H H H H F F O.O.L P } } J.F.F.F.F.F.F.F.F.P }.} J v V V V J } }.} L V V V O.} }.F.F.F.F.I.I.I.I.F.I.I.I.I.I.U.U.U.I.F.F.F.F.F.F.I.I.U.U.F.F.F.T.T.Y.Q.Q.oXQ.Q.'.'.Q.Q.Q.Q.Q.Q.XXH O                         . o o 7 t @.@.@.:.:.i l l i i i i :.i i p p :.@.:.p 7 .           . * T | { L L L I P I.}.}.U.U.T.T.T.T.T.P.Y.Q.'.'.Y.Y.Y.Y.Y.Y.Y.W.W.W.W.W.W.W.W.W.W.E.E.E.!.!.E.'.'.'.'.E.E.E.E.W.'.'.'.E.'.'.'.'.E.E.E.E.W.W.W.W.'.'.'.'.W.W.W.W.W.W.W.W.W.Q.Q.Q.Q.Q.Q.Q.Q.Q.Y.Y.Q.Y.Y.Y.U.U.U.F.P P P P P T.U.Y.Y.Y.W.W.W.W.E.E.W.E.E.E.P.P.E.E.!.^.].{.[.(.].~.~.~.~.!.^.~.~.^.^.^.^.^.~.^.~.~.~.~.~.~././.(.(./.~.~.~.~.~.~.~.~.~.~././.~.~./././././._.(.~.~.(.(._.(.(.(.(.(.~.~.~.~.~.~.~.~.~.~.~.~.~.~.~.~.(.(.~.(.^.!.!.!.!.!.!.!.!.^.~.(.(.~.(.(.(.~.~.~.~.~.~.~.~.~.~.~.~.~.~.~.~.~.~.~.~.~.~.~.~.~.~.~.~.~.~.~.~.~.~.~.~.(.(.(.(.~.~.(.(.(.(._.(.(.(._._.(.(._._._._._._._._._._./._._._./././.(.(._._._._._._._._._._./._././._._._./._._._._._._._._._._._._.)._._._._._._._.).).).).).).).).).).`.`.`.`.`.`.`.`.`.`.`.`.`.).",
"6 6 6 6 6 6 6 6 2 2 2 2 3 o o o 2 0 e e e e p p 9 9 M n n 9 > > > Z Z Z C Z c c C C d C C C Z Z C C C C C C C C C C C C C C C C C C C C C A A A A A A A D D G A G G G G G G G G G G G G G G G G G G G G G G G G G G G H H H F F G G G F F F F F H F F F F F F F F F F F F F H H F F H H H H J J H O.L o.} J.J.F.F.F.F.F.F.F.F.F.F.F.}.} O.V & V V J } }.J.P L O.O.P }.}.F.F.F.F.I.I.I.I.F.F.I.I.U.U.U.I.U.U.I.U.F.F.I.F.I.I.I.U.F.F.U.U.Y.Q.Q.Q.oXQ.Q.'.'.Q.Q.Q.Q.Q.XXXXJ .   .                           . O o 0 q y i :.:.:.E i i i i i i i :.i i i 7 O           . < T | o.O.O.O.L P F.U.}.U.Y.T.T.T.G.G.T.T.Y.Q.'.'.W.W.Y.Y.W.W.W.W.W.E.W.W.W.W.W.E.W.W.W.W.!.!.!.'.'.W.W.W.W.W.W.W.'.'.!.!.'.'.'.'.E.E.E.E.W.W.W.W.'.'.'.'.W.W.W.W.W.W.W.W.W.W.W.W.W.W.Q.Q.W.Q.W.Q.Q.Y.Y.Y.Y.Y.Y.U.U.U.T.T.T.T.Y.Y.W.W.W.E.W.W.W.W.W.E.E.E.P.P.E.E.!.!.].(.(.(.].~.~.!.!.!.^.^.~.^.^.^.^.^.~.^.~.~.~.~.~.~.[.[.(.[./.~.~.~.~.~.~.~.~.~./././.~.~.~././././._._.~.~.~.~.~.~.~.~.~.~.~.~.~.~.~.~.~.~.~.~.~.~.~.~.~.~.(.(.(.~.!.!.!.!.!.!.!.!.!.!.~.~.(.(.(.(.~.~.~.~.~.~.~.~.~.~.~.~.~.~.~.~.~.~.~.~.~.~.~.~.~.~.~.~.~.~.~.~.~.~.~.~.~.~.~.~.(.(.~.~.(.(.(.(.(.(.(._._.(.(.~._._._._._._._._./././._._./././.(.(.(.(._._._._._._._._._._._._._._././._._._._._./._._._._.(._._._._._._._._._._._._._.).).).).).`.`.`.`.`.`.`.`.`.`.`.`.`.[.~.",
"6 6 6 6 6 6 6 6 2 2 2 2 2 3 o o 1 2 w e e r r p 9 9 M n n 9 > > d d d > c Z c c C C Z C C C Z Z C C C C C C C C C C C C C C C C C C C C C A A A A A G G G G R R G G G G H H H H H H H H G H G H G G G G G G G G H H G G G G F F G G G F F F F F F F F F F F F F H H F F F F F H H H H H J J J H L o.} J.F.F.F.F.F.F.F.F.F.F.F.F.F.F.}.J.L V & V V J } }.F.J.J.} } J.}.F.F.I.I.F.F.I.I.I.I.F.I.I.F.U.I.F.U.I.I.F.I.I.I.F.I.I.I.U.F.U.U.Y.Y.Q.Q.Q.oXQ.Q.'.Q.'.Q.Q.Q.XXoXXXH X                                       . o o 7 7 t p i i :.:.i i i :.:.:.t o           . % T | o.L O.O.L I P U.U.Y.Y.Y.T.T.G.I T.T.Y.Q.Q.'.'.W.W.W.W.W.W.W.W.W.E.W.W.E.W.W.E.'.'.'.'.!.'.'.W.W.W.W.W.W.W.W.W.'.'.!.E.'.'.'.'.E.E.E.E.W.W.W.E.'.'.'.'.'.'.'.'.'.'.'.'.W.W.W.W.W.W.W.W.W.W.W.Q.Q.Q.Q.Y.Y.Y.Y.Y.Y.T.Y.Y.P.P.Y.W.W.W.E.E.W.W.W.W.E.E.E.E.P.P.E.E.E.!.].(.{.(.(.].~.^.!.!.!.^.^.^.^.^.^.^.~.~.~.~.~.~.~.~.(.(.[.[.(./.~.~.~.~.~.~.~.~./././.~.~.~.~.~.~./._.~.~.~.~.~.~.~.~.~.~.~.~.~.~.~.~.~.~.~.~.^.~.~.~.~.~.~.~.~.~.].!.!.!.!.!.!.!.!.!.!.^.~.~.~.(.(.].].~.~.~.~.~.~.~.~.~.~.!.!.!.!.^.^.~.~.~.~.~.~.~.~.~.~.~.~.~.~.~.~.~.~.~.~.~.~.~.~.~.~.~.~.(.(.~.(.(._._.(.(.~._.(.(.(._._._._././././._._./._.(.(.(.(._._._._./._._._._._._._._._./././._._._././._._._._.(.(._._._._._._._._._._._._.`.`.`.`.).).`.`.`.`.`.`.`.`.`.`.`.`.[.~.",
"6 6 6 6 6 2 2 2 6 6 6 2 2 3 o o o 3 r e e r p p 9 9 9 9 9 9 > > d d d d c c c c C C Z C C C C Z C C Z Z Z Z C C C C C C C C C C C C C C C A A A S S S G G G G G G G G G G G G G G G G G F F G G G G G G G G G G G G G G G G F H H G G G G F F F F F F F G G H H H F F F F F H H H G F F H H L L } J.}.}.}.F.F.F.F.F.F.F.F.F.F.F.F.F.F.}.} J V V v F } }.P F.}.J.}.F.F.F.F.I.I.I.F.F.F.I.I.I.I.I.F.F.F.U.U.I.I.I.F.F.F.F.F.F.U.I.U.U.U.Q.Q.Q.Q.Q.XXQ.Q.'.'.Q.'.Q.Y.XXoXXXP < .                                             . o o 7 t p :.:.:.:.:.i 7 o           . = T ..} o.L L I I P P F.U.Y.Y.Y.Y.T.T.T.T.P.Y.Q.Q.'.Q.W.W.W.W.W.W.W.W.W.W.W.W.W.W.W.W.'.'.'.'.W.W.W.W.W.W.W.W.W.W.W.W.W.W.W.E.E.E.E.E.'.'.'.'.W.E.W.E.W.W.W.W.E.E.E.E.E.E.E.E.!.E.E.W.W.W.W.E.W.W.W.Q.W.Q.Q.W.W.Q.Q.Y.Y.Y.Y.Y.Y.Y.W.W.W.W.W.W.W.W.W.'.!.E.E.E.E.E.E.E.E.!.].(.{.{.(.].~.~.!.!.!.!.!.^.^.~.~.~.~.^.~.~.~.~.~.~.(.(.[.[.[./.~.~.~.~.~.~.~.~./././.~.~.~.~.~.~./.~.~.~.~.~.~.~.~.~.~.~.~.~.~.~.~.~.~.~.^.^.^.^.~.~.~.~.~.~.~.].!.!.!.!.!.!.!.!.!.!.!.^.~.].].].~.~.~.^.^.^.^.^.^.~.~.~.^.!.!.^.!.~.^.~.~.~.~.~.~.~.~.~.~.~.~.~.~.~.~.~.~.~.~.~.~.~.~.~.~.~.~.~.~.~.~.(.(.(.(.(.(._._.(.(.(.(.(.(._._._._._._._._._._._.(._._._._._._._._._._._._._._._./._._._._././././._._._.(._._._._._._._._._._._._.)._._._.`.`._.`.`.`.`.`.`.`.`.`.`.`.`.).",
"6 6 6 6 6 2 2 2 6 6 6 2 3 2 3 o O o 3 r e r t p 9 9 9 9 9 > > > > d d d Z Z c c C C Z C C C C C C C Z C Z Z C C C C C C C C C C C C Z C A A A D G G G G G G G G R R R R G G G G G H H H G G G H G G G G G G G G R G G G G H H H H G G G G G G G F F F F F F F F F F F F H H H H H F F H L o.} } }.}.I.I.I.I.F.F.F.F.F.F.F.F.F.F.F.F.F.}.} L V & v O.} }.F.F.F.J.F.F.F.F.F.F.F.I.F.F.F.F.F.F.I.U.F.F.F.F.F.I.F.F.F.F.F.F.U.U.U.U.U.U.Y.XXoXQ.Q.Q.Q.Q.Q.'.'.Q.Q.Q.'.Q.XXXX|.{ , @ X X % < < * % X .             .                   . O o o 5 7 7 o .           O % T | o.o.P P P P P F.G.G.U.Y.Y.Q.Y.Y.T.T.T.Y.Q.Q.W.W.W.W.W.W.W.W.W.W.'.'.'.W.W.W.W.W.W.W.'.'.'.W.W.W.W.W.W.W.W.W.W.W.W.W.W.E.E.E.E.E.E.'.'.'.'.W.W.W.W.W.W.W.W.W.W.W.W.W.W.W.W.!.W.W.W.W.W.W.W.W.W.W.W.W.W.'.'.W.W.'.'.Q.Y.'.'.'.'.'.W.W.W.W.W.W.E.W.'.!.E.E.E.E.E.E.E.E.!.~.~.{.{.(.(.~.~.!.!.!.!.!.^.^.^.~.~.~.^.~.~.~.^.~.~.~././.(.[.(./.~.~.~.~.~.~.~././._./.~.~.~.~.~.~.~.~.~.~.~.~.~.~.~.~.~.~.~.~.~.~.~.~.~.^.^.^.^.~.~.~.~.~.~.~.^.!.!.!.!.!.!.!.!.!.!.!.^.].~.~.^.^.^.^.~.^.!.!.^.~.~.~.~.^.!.!.!.!.^.^.~.~.~.~.~.~.~.~.~.~.~.~.~.~.~.~.~.~.~.~.~.~.(.~.~.~.~.~.~.~.~.~.(.(.(.(.(.(._._.(.(.(.(.(.(./././._._._._._._._.(.(._._._._._._._._._._._._././././././././././._./._._._.(._._._._._._._._.)._._._.).)._._._.`.`.`.`.`.`.`.`.`.`.`.`.`.`.^.",
"6 6 6 6 6 2 2 2 2 6 2 2 3 3 3 o o o 3 6 r r p p 9 9 9 9 > > > > > > d Z Z Z C d d d Z C C C C C C C C C Z C C C C C C C C C C C Z Z Z A A A A A T T T T R R R R R R R R R R R R R R R R G G G R R R R R R R R R G G G G G G H G H G G G G H H H H H H F F F G F F F F F F H H H H H L L } }.}.}.I.I.F.I.I.I.I.F.I.I.I.I.F.F.F.F.F.F.F.F.F.P O.J V L J.F.F.F.F.F.F.F.F.I.F.F.F.F.F.F.F.F.F.I.F.F.F.F.U.U.U.U.F.F.F.F.U.U.F.U.F.U.U.Y.XXQ.Q.Q.Q.Q.Q.Q.Q.'.'.'.Q.Q.'.XXXXXXXX|.o.O.G H H { { { R R c , % X O                                               .     % D { o.P P P P P I.I.I.U.G.T.U.Y.Q.Y.Y.Y.Y.Y.W.'.Q.W.W.W.W.W.W.W.W.W.W.W.W.W.W.W.W.W.W.W.W.W.W.W.W.W.W.W.W.W.E.W.E.E.W.W.'.'.'.'.E.E.E.E.'.'.'.'.W.W.W.W.'.'.W.'.W.W.W.W.W.'.'.'.W.W.W.W.W.W.W.W.W.W.W.W.Y.Y.W.W.W.W.W.W.W.W.W.Q.'.W.W.W.W.W.W.W.E.E.'.'.'.!.E.E.'.W.E.E.!.!.^.].(.(.(.(.~.~.!.!.^.!.!.^.^.^.^.^.].^.~.~.~.^.^.~.~.~.~././.[.[./.~.~.~.~.~./././._._./.~.~.~.~.~.~.~.~.~.~.~.~.~.~.~.~.~.~.~.~.~.~.~.~.^.^.~.~.~.~.~.~.~.~.~.^.!.!.!.!.!.!.!.!.!.!.!.^.~.~.~.^.^.^.~.^.^.^.!.^.~.~.~.~.^.~.~.~.~.~.~.~.~.~.~.~.~.~.~.~.~.~.~.~.~.~.~.^.^.~.~.~.(.(.(.(.~.~.(.~.~./.(.~.~.~.(.(.(._._._.(.(.(.(.(././././././._._._._._._._._._._._._._._._._._._././././././././._._._._._._._._._._._._._._._._._._._._.)._._._.`.`.`.`.`.`.`.`.`.`.`.`.`.`.[.^.",
"6 6 6 6 6 2 2 2 2 2 2 2 3 3 2 3 o o o 3 r t p p 9 9 9 9 > > > > > > c Z Z d C d d d Z C C C C C C C C C C C C C d d Z Z Z Z Z C Z Z Z Z A A A A Z Z Z Z A d d d d d d d d d d d f f f f f f f f d d d C C C C C A A S G G G G G H H G G G G G G F F F F F F H F F F F F F F F F J L o.J.}.}.I.I.F.I.I.}.I.I.I.}.F.F.F.I.F.F.F.F.F.F.F.F.}.}.} L L P }.F.F.F.F.F.F.}.}.F.F.I.I.F.F.F.F.F.F.F.F.F.F.F.U.U.U.U.U.U.F.F.F.U.U.U.F.F.U.Y.XXXXQ.Q.Q.Q.Q.Q.Q.'.'.Q.Q.Q.Y.XXXXQ.Q.XX|.|.J.} } } } } o.o.o.{ H D Z , % % . .                                         X U { o.o.P J.F.F.}.U.U.U.F.G.G.U.U.Y.Y.Y.Y.Y.W.W.'.Q.W.W.W.W.W.W.E.'.'.W.W.W.W.W.W.W.W.W.E.E.E.E.W.W.W.W.W.W.W.W.W.E.E.E.W.'.'.'.'.W.E.E.'.E.E.E.E.W.W.E.E.'.'.'.'.'.'.'.'.'.'.'.'.'.'.'.'.'.'.'.'.W.'.'.'.'.'.'.'.W.W.W.W.W.W.W.P.'.'.'.'.'.W.W.W.!.!.'.'.!.!.!.!.W.W.!.!.!.!.^.].~.~.(.~.~.~.!.!.^.!.!.^.^.^.^.^.].^.^.].~.^.^.].~.~.~././.[.[.[././.~.~.~././._.[._./.~.~.~.~.~.~.~.~.~.~.~.~.~.~.~.~.~.~.~.~.~.~.~.~.~.~.~.~.~.~.~.~.~.~.].^.!.!.!.!.!.!.!.!.!.!.!.^.~.~.~.~.^.^.~.~.^.^.^.^.~.~.~.~.~.~.~.~.(.~.~.~.~.~.~.~.~.~.~.~.~.~.~.~.~.~.~.^.^.~.~.(.(.(.(.(.(.(.(.~.(././.~.~.~.~.(.[.(.(.(.(.(.(.(.(././././././._._._._._._._._._._._._._._._._._._././././././././._._._._._._._._._._._._._._._._._._._._.).)._._.`.`.`.`.`.`.`.`.`.`.`.`.`.`.[.^.",
"6 6 6 6 6 6 6 6 2 2 2 2 6 3 3 2 o O o 3 6 r p 8 t a - , , , , , , , > > d d d d d d d d d d Z C C C C C C C d d d d d Z Z d d d d d , - - , - - ; ; ; ; < < < < ; ; ; ; ; ; ; ; ; ; ; ; ; ; - - & & & & & & & & & f f f f f d d S S S S S S G G R R R R H H H H H H H F F F F H o.o.} } }.}.}.I.P I.I.I.I.I.I.I.I.I.I.I.I.I.I.I.F.F.F.F.}.}.}.}.}.}.}.I.F.F.F.F.I.I.I.I.I.I.I.I.I.I.I.I.I.I.I.I.I.I.I.I.U.U.U.I.F.F.I.I.I.I.U.U.U.XXXXQ.Q.Q.Q.Q.'.'.'.'.Q.Q.Q.'.Q.Q.Q.Q.XXXXXXY.}.}.P P P P P P o.} } } } o.O.J > < % X . .                               . , ' o.o.o.P F.I.}.}.U.U.U.U.G.T.T.T.T.Y.Y.Y.Y.Q.'.'.'.Q.W.W.W.W.W.'.'.'.W.W.W.W.W.W.W.E.W.W.W.W.'.'.E.E.E.E.W.'.'.W.!.!.!.!.!.!.'.'.W.W.'.'.'.'.'.!.'.'.'.'.W.W.W.E.'.'.'.'.'.'.'.'.W.W.W.W.W.W.W.W.'.'.'.W.W.W.W.W.W.W.'.'.'.'.W.'.'.'.'.'.'.'.'.W.W.W.W.!.!.E.E.E.!.!.E.E.!.!.!.^.^.^.].].~.~.!.!.!.!.!.^.^.~.~.^.].~.~.~.~.~.~.~.~.~.~.~.~./.(.[.[./.~.~.~.~././._._./.~.~.~.~.~.~.~.~.~.~.~.~.~.~.~.~.~.~.~.~.~.~.~.~.~.~.~.~.~.~.~.~.~.~.~.^.!.!.!.!.!.P.P.!.!.!.!.^.^.!.^.!.!.!.!.^.^.^.^.~.~.~.~.~.^.^.^.~.~.~.~.~.~.~.~.~.~.~.~.~.~.~.~.^.^.~.~.~.(.(.(.(.(.(.(.~.~.~.~.(.(.~.~.(._._._.(.(._._._._.(.(.(.(.(.(._._._._._._._._._._._._._._./././._._._._._.(.(.(._._._././._._._._._._._._._._._._._._._.(._._._._._._._.`._.`.`.`.`.`.`.`.`.`.`.`.`.`.`.^.",
"6 6 6 6 6 6 6 6 2 2 6 2 6 3 3 2 1 o o 1 5 r t 8 7 = = = < ; ; ; < ; ; ; , , , , d d d d d d d d Z d Z Z Z Z d d d d , , , , , < < < % % < < % ; < < ; ; ; ; ; ; ; ; ; - ; - - - - - - - - - - - ; ; ; ; ; ; ; ; ; ; ; ; ; < < < < & , & f f d C S S G G G G G H G G H H H H L L o.} J.}.}.}.}.P }.I.I.I.}.}.F.P I.I.I.I.I.I.I.I.I.I.I.I.I.I.I.}.I.I.I.I.I.I.I.I.I.I.I.I.I.I.I.I.U.U.I.I.I.I.I.U.I.I.U.U.U.U.U.U.I.I.I.I.I.U.U.U.Y.Q.Q.Q.Q.'.Q.Q.'.'.Q.Q.Q.'.Q.Q.Q.Q.Q.Q.Q.Q.XXY.}.}.I.P P P P P P P } } } } o.o.o.{ R A C < % X .                         @ A { L o.} P F.I.}.}.U.U.U.U.G.G.T.T.T.U.T.Y.Y.Q.Q.Q.Q.W.W.W.W.W.W.W.'.'.W.W.W.W.'.'.'.W.W.W.W.W.W.W.W.W.W.E.E.E.E.E.W.W.W.W.W.W.'.'.'.'.'.'.'.'.'.'.E.E.'.'.'.'.'.'.W.W.W.W.W.W.W.W.'.'.'.'.'.'.'.'.'.'.'.'.W.W.W.W.W.W.'.'.'.'.W.W.'.'.'.'.'.'.W.W.W.W.'.!.!.!.!.!.!.!.E.E.!.!.!.^.^.^.^.].~.~.^.!.!.!.!.^.^.~.~.~.~.~.~.~.~.~.~.~.~.~.~.~.~./.(.[.(.~.~.~.~.~.~./._._././.~.~.~.~.~.~.~.~.~.~.~.~.~.~.~.~.~.~.~.~.~.~.~.~.[.[._._.~.~.~.~.~.~.^.!.!.!.!.!.P.P.!.!.!.!.^.^.!.^.!.!.!.!.^.].^.^.~.~.~.~.^.^.^.^.^.^.~.~.~.~.~.~.~.(.~.~.~.~.~.~.^.^.~.(.(.(.(.(.(.(.(.(.~.~.~.~.~.(.~.~.(._._._.(._._._._._.(.(.(.~.~.~.~.~.(._._._._._.(.(.(.(.(.(././././._._._._.(.(.(._._._.(./.(.(._._._._.(.(._._._._._._._.(._._.(._._._.`.`.`.`.`.`.`.`.`.`.`.`.`.`.`.`.`.~.",
"6 6 6 6 0 6 6 6 6 2 6 6 6 6 3 3 1 o o o 3 r 8 8 = = = % % % % % % % % % % % < < ; , , , , > > d d d d d d d , , - , ; ; < < < < ; ; ; ; ; ; ; ; ; ; ; ; ; ; ; ; - - - - - - - - - - - - - - - - - - - - - - - - - - - - - ; ; ; ; ; ; ; < ; < & & f f d f C V S G H H H O.{ } } }.}.}.g.}.}.}.}.}.I.I.I.F.I.}.}.I.I.I.I.I.I.I.I.I.I.I.I.I.F.F.F.I.I.I.I.I.I.I.I.I.F.F.I.I.I.I.I.U.U.U.U.U.I.I.I.U.U.U.I.U.U.U.I.U.I.I.I.I.U.U.U.Y.XXQ.Q.Q.'.Q.Q.Q.Q.Q.XXQ.Q.Q.Q.Q.'.'.Q.Q.Q.Q..XXXXXY.}.}.}.}.I.I.I.P P P P P P o.o.o.o.o.{ H G > < X . .               . ; R O.L o.} F.I.I.U.I.U.U.U.U.T.T.T.T.T.T.T.T.Y.Q.'.Q.W.W.W.W.W.W.'.'.'.'.'.W.W.W.W.W.'.'.'.'.'.W.'.'.W.W.W.'.'.'.'.'.'.'.'.'.W.P.W.W.E.E.E.W.W.W.'.W.W.W.W.W.W.W.W.W.'.'.'.'.'.'.'.'.W.W.'.'.'.'.'.'.'.'.'.'.'.'.W.'.W.W.W.W.'.'.'.'.'.'.'.'.'.'.'.'.'.'.!.!.!.!.E.E.!.!.!.E.!.!.!.!.^.^.^.^.].].~.!.!.!.!.^.^.^.~.~.^.~.~.~.~.~.~.~.^.^.~.~.~./././.~.^.^.~.~.~.~./._._././.~.~.~.~.~.~.~.~.~.~.~.~.~.~.~.~.~.~.~.~.~.~.~.~.[.[.[.[.(.~.~.~.~.~.^.!.!.!.!.!.!.P.!.!.!.!.^.!.!.^.^.!.!.!.^.~.^.^.~.~.~.^.^.^.^.^.^.^.~.~.~.~.~.~.~.~.~.~.~.~.~.(.(.(.(.(.(.(.(.(.(.(.~.~.~.~.~.~.~.(.~.~.~.~.(.(._._._._._._._.(.~.~.~.~.~.~.~.~.(.(.(._.(.(.(.(.(.(././././._._././.(.(.(.(.(.(.(.(.(.(.(.(.(.(.(.(.(.(.(.~.(.(.(.(._._.(._._._.`._.`.`.`.`.`.`.`.`.`.`.`.`.`.`.[.^.",
"6 6 6 6 0 0 0 6 6 6 6 6 6 6 2 3 3 o o o o 7 r 7 = = = = % % % + % % % + + % % % ; ; ; ; ; ; , , , - - ; ; ; ; ; ; ; < ; ; ; ; ; ; ; ; ; - - - - ; ; ; ; ; - - - - - - - - - - - - - - - - - - - - - - - - - - - - - - - - - - - - - - - ; ; ; ; < < ; < < & & f f f C A G /  .X.}.}.|.}.}.}.}.F.P I.}.}.I.I.F.}.I.I.I.I.I.I.I.I.I.I.I.I.I.F.P P F.F.I.I.I.I.I.I.I.I.F.F.I.I.I.I.F.U.U.U.U.U.U.U.U.U.U.U.U.U.U.I.U.I.I.I.U.U.U.U.Y.XXQ.Q.Q.Q.Y.Y.XXXXXXXXQ.Q.Q.Q.'.'.Q.Q.Q.Q.Q..XQ.Q.Q.Q.Q.Q.XXXXXXXX|.}.I.P P I L L L o.} } o.o...{ T > * X             X > H O.L P P I.I.U.U.U.U.U.U.U.U.T.T.T.T.T.T.T.Y.Q.'.Q.'.'.W.W.W.'.'.'.'.'.'.'.'.W.W.P.'.'.'.'.'.'.'.'.'.'.W.W.E.P.P.E.P.P.P.P.W.'.'.'.E.E.W.W.'.'.'.'.'.'.'.'.'.'.W.W.W.W.'.'.'.'.'.'.E.E.'.'.'.'.W.W.'.'.'.'.'.'.'.'.W.W.W.W.'.'.'.'.W.'.'.'.'.'.'.'.'.'.'.!.!.!.!.E.!.!.!.!.!.!.!.!.^.^.^.^.].^.^.!.!.!.!.!.^.^.^.~.^.^.^.~.~.~.~.].~.~.~.~.~.~.~.~.^.^.^.^.~.~.~./././././.~.~.~.~.~.~.~.~.~.~.~.~.~.~.~.~.~.~.~.~.~.~.~.~.~.~.~.~.~.~.~.~.~.~.!.!.!.!.!.!.!.!.!.!.!.!.^.!.^.^.^.!.!.!.^.^.^.^.^.^.^.^.^.!.^.^.^.^.^.~.~.].~.~.].].~.~.~.~.~.~.(.(.~.~.~.~.~.~.~.~.~.~.~.~.~.(.(.(.(.(.~.~.(._._._._._._._._.(.~.~.~.~.~.~.~.~.~.(.(.(.(.(.(.(.(.(.(.(.(._.(.(.~.~.(.(.~.~.(.(.(.(.~.(.(.(.(.(.(.(.(._._._._._._._._._.(._._._.`._.`.`.`.`.`.`.`.`.`.`.`.`.`.`.[.^.",
"6 6 6 0 0 6 6 6 6 6 6 6 6 6 6 2 2 o o o o 6 8 7 = = = + + + + + % + + + + + + + + + + + + + + + % % % ; + ; ; ; ; ; ; ; ; ; ; ; ; ; ; ; ; ; ; ; - ; ; - - - - - - - - - - - - - - - - - - - - - z z - - - - - - - - - - - - - - - - - - - ; - - - - ; - ; ; & & < < & < & f V S / o.k.|.|.|.}.}.}.}.P P P P F.P I.I.I.I.I.I.I.I.I.I.I.I.I.I.I.I.F.I.I.I.I.I.I.I.I.I.I.I.I.I.I.I.F.F.U.U.U.U.I.I.U.U.U.U.U.U.I.I.U.U.I.I.U.U.U.U.Y.XXXXQ.Q.XXQ.Q.Q.Q.Q.Q.Q.Q.Q.Q.Q.Q.Q.Q.Q.Q.Q.Q.Q.Q.Q.Q.Q.Q.Q.XXXXXXXX.X|.}.U.P P P P } } } } } k.X.X.| R Z % X       O < A H L P P F.I.U.U.U.U.U.U.U.U.I.T.T.T.T.T.T.T.T.Y.'.'.'.'.W.W.W.W.'.'.'.'.'.'.'.'.W.W.'.'.'.'.'.'.'.'.!.E.E.'.'.'.'.].'.'.'.E.'.!.W.W.W.W.W.W.W.W.W.P.P.W.W.W.W.W.'.'.W.W.W.'.'.'.'.'.W.'.'.'.W.W.W.W.W.W.W.W.'.'.'.'.'.'.'.'.'.'.'.'.W.W.'.'.'.'.'.'.'.'.!.'.'.!.E.E.!.E.E.E.!.!.!.!.^.^.^.^.^.^.!.!.!.!.!.!.^.^.^.^.^.~.~.^.~.~.~.~.].~.~.~.~.^.^.^.~.!.^.!.~.~.~.~.~.~.~.~.~.~.~.~.~.~.~.~.~.~.~.~.~.~.~.~.~.~.~.~.~.~.~.~.~.~.~.~.~.~.~.~.~.~.!.!.!.!.!.P.P.P.!.!.!.!.^.!.!.^.^.!.!.!.!.^.^.^.^.^.^.^.^.^.^.^.^.^.~.~.~.~.~.~.~.~.~.~.~.~.~.~.(.(.~.~.~.~.~.~.~.~.~.~.~.~.(.~.(.(._._.(.~.~.~.(.(.(.(.(._._._.(.(.~.~.~.~.~.~.~.~.~.~.~.~.~.~.~.~.~.~.~.~.~.~.~.~.(.(.~.~.~.~.~.(.(.(.(.(._._._._.(.(._._._._._._.(.(._._._.`.`._.`.`.`.`.`.`.`.`.`.`.`.`.`.`.[.^.",
"6 6 6 6 6 6 6 6 6 6 2 2 2 2 2 2 3 1 o o o 3 7 7 = = = = + + + + + + + + + + + + + + + + + + + + + + + + + + ; ; ; ; ; ; ; ; ; ; ; ; - - - ; - ; ; ; ; ; - - - - - - - - - - - - - - - - - - - - - z - - - - - - - - - - - - - - - - ; - - ; - - - - - d - - f f - - ; ; < % % % % & f S / } |.|.|.|.}.}.}.I.I.I.g.I.I.I.I.I.I.I.I.I.I.I.I.I.I.I.I.I.I.I.I.I.I.I.I.I.I.I.I.I.I.I.F.F.U.U.U.U.U.U.U.U.F.F.U.U.F.U.U.U.U.I.I.U.U.U.U.U.U.T.U.U.U.U.Y.Y.Y.Y.Y.Y.Y.Y.Y.Y.Y.Y.Y.Y.Y.Y.Y.Y.Q.Y.Y.Q.XXXXXXXXXX.X.X|.}.U.g.g.g.P P g.g.}.}.}.}.X.X...R & < % % , A G H L P P P I.I.U.I.I.F.I.I.I.g.U.U.T.T.T.T.T.T.Y.Q.Q.'.'.'.'.W.W.'.'.'.'.'.'.'.'.'.'.'.'.'.'.R.R.R.R.R.R.'.R.R.R.R.R.R.R.R.R.'.'.'.'.].].'.'.'.'.'.'.'.'.'.'.'.'.'.'.'.'.'.'.'.'.'.'.'.'.'.'.'.'.'.'.W.W.W.'.'.'.'.'.'.'.'.'.'.'.'.'.W.W.W.W.E.E.W.W.E.'.!.E.'.'.'.'.!.E.E.!.!.!.!.!.^.^.^.^.^.!.!.!.!.!.!.!.^.^.~.~.^.^.^.^.].~.~.~.^.^.].].~.~.^.^.~.!.^.!.~.~.~.~.~.~.~.~.~.~.~.~.~.~.~.~.~.~.~.~.~.~.~.~.~.~.~.~.~.~.~.~.~.~.~.~.~.~.~.~.~.~.!.!.!.!.!.P.P.P.!.!.!.!.^.!.!.!.!.!.!.!.!.^.^.^.^.^.^.^.].^.^.^.^.^.~.~.~.~.~.~.~.~.~.~.~.~.~.~.~.~.(.~.~.~.~.~.~.~.~.~.~.~.(.(.(.(._._.(.(.(.(.(.(.(.(.(._._._.(.(.~.~.~.~.~.~.~.~.~.~.~.~.~.~.~.~.~.~.~.~.~.~.~.~.~.~.~.~.~.~.~.~.(.(.(.(.(.(.(.(.(.(._._._._.(.(._._.(._._._.`.`.`.`.`.`.`.`.`.`.`.`.`.`.`.`.[.^.",
"6 6 6 6 6 6 6 6 6 6 2 2 2 2 2 2 3 1 o o o o 7 7 = = = + + + + + + + + + + + + + + + + + + + + ; ; ; ; ; ; ; ; ; ; ; ; ; ; ; ; ; ; ; ; ; ; ; ; ; ; ; ; ; - - - - - - - - - - - - - - - - - - - - - - - - - - - - z - - - - - - - - - - - - - - - - - - - - - - - ; ; d d d d f f ; < < % < & f S o.X.|.|.|.}.}.g.}.}.I.I.I.I.I.I.I.I.I.I.I.I.I.I.I.I.I.I.I.I.I.I.I.I.I.I.I.I.I.I.I.I.I.I.I.I.I.I.F.F.F.F.U.U.U.U.U.F.F.I.I.I.I.U.I.I.I.U.U.U.U.U.U.U.U.U.U.U.U.U.U.U.U.U.U.U.U.U.U.U.U.U.U.U.}.}.|.|.|.|.|.|.}.}.}.}.}.I.g.g.I.}.|.}.}.}.k.} o./ R R G G H H H L P P } I.I.I.I.I.P I.g.g.g.g.U.T.T.T.T.T.Y.Y.Y.Q.'.'.'.'.'.W.W.'.R.R.'.'.'.'.].'.'.'.'.R.R.R.R.R.R.R.R.R.T.g.g.g.g.g.g.T.T.Y.Y.Y.Q.Q.Q.Y.Y.Q.Q.Q.Q.Q.Q.'.Q.Q.Q.R.Y.Y.Q.'.'.'.'.'.'.'.'.'.'.'.'.'.'.'.'.'.'.'.'.'.'.'.'.'.'.'.'.'.W.W.W.W.E.E.E.W.E.W.W.E.'.'.'.'.!.E.!.!.!.!.!.!.^.^.^.^.^.^.!.!.^.~.!.!.^.^.~.~.~.~.^.^.^.].^.^.^.^.].].^.~.~.~.~.~.!.^.~.^.~.~.~.~.~.~.~.~.~.~.~.~.~.~.~.~.~.~.~.~.~.~.~.~.~.~.~.~.~.~.~.~.~.~.~.~.~.~.~.~.!.!.!.!.!.!.P.!.!.!.!.!.^.!.!.!.!.!.!.!.^.].].~.~.~.].].].].^.^.^.^.~.~.~.~.~.~.~.~.~.~.~.~.~.~.~.~.~.~.~.~.~.(.~.~.~.~.~.~.~.(.~.(.~.(.(.(.(._.(.(.(._._._._._.(.~.~.~.~.~.~.~.~.~.~.~.~.~.~.~.~.~.~.~.~.~.~.~.~.~.~.~.~.~.~.~.~.~.(.(.(.(.(.(.(.(.(.(.(.(.(.(.(.(._._._._._.`.`.`.`.`.`.`.`.`.`.`.`.`.`.`.`.`.[.^.",
"6 6 6 6 6 6 6 6 6 2 2 2 2 2 2 2 3 1 o o o o # 7 = = = + + + + + + + + + + + + + + + + + + + + + + + = ; ; ; ; ; ; ; ; ; ; ; ; ; ; ; ; ; ; ; ; ; - - - - - - - - - - - - - - - - z d d z - - - - - - - - - - - - z z - - - - - - - - - - - - - - - - - d - - - - d d d d d f d d d d d d & & < & & f J L } }.|.|.}.}.}.I.I.I.I.I.I.I.I.I.I.I.I.F.I.I.I.I.I.I.I.I.I.I.I.I.I.I.I.I.I.I.I.I.I.I.I.F.F.F.F.F.U.U.F.F.F.F.F.F.I.I.I.I.I.I.I.I.U.U.I.I.U.U.U.U.I.I.g.g.I.I.U.I.I.I.U.U.U.U.U.}.U.U.U.U.U.}.}.}.}.}.}.}.}.}.}.}.}.}.}.}.}.|.|.|.|.k.} } { o.{ H H H O.P P } }.}.I.I.g.g.I.I.g.g.g.g.U.U.U.G.T.T.Y.Y.Q.Y.'.'.R.R.R.'.'.'.'.'.'.].].].].'.].].R.R.R.R.R.R.R..X.X.XU.I I I I I I I I I I I I I I I I g.g.T.U.U.T.T.T.U.Y.Y.Y.Y.Y.Y.Y.Y.Y.R.Y.Y.'.'.'.'.'.'.'.'.'.'.'.'.'.'.'.'.'.'.'.'.'.!.W.W.'.'.'.'.'.'.E.W.W.W.'.'.'.'.!.!.!.!.!.!.!.!.!.!.^.^.^.^.'.'.~.~.!.!.^.~.~.~.~.~.~.^.].^.^.^.].].^.^.~.^.^.^.~.~.^.~.~.^.^.^.^.^.^.~.~.~.~.~.~.~.~.~.~.~.~.~.~.~.~.~.~.~.~.~.~.~.~.~.~.~.~.~.~.~.~.~.~.~.!.!.!.!.!.!.P.P.!.!.!.!.^.!.!.!.!.!.!.!.^.].].].~.~.].].].].~.^.^.^.!.~.~.~.~.~.~.].~.~.~.~.~.~.~.~.~.~.~.~.~.~.~.~.~.~.~.~.~.~.~.~.~.~.(._._._._._._._._._._._.(.~.~.~.~.~.~.~.~.~.~.~.~.~.~.~.~.~.~.~.~.~.~.~.~.~.~.~.~.~.~.~.~.~.~.~.~.(.(.(.(.(.(.(.(.(.(.(.(.(.).)._._.`.`.`.`.`.`.`.`.`.`.`.`.`.`.`.`.`.`.[.^.",
"2 6 0 6 6 6 6 6 6 6 2 6 6 6 6 6 2 3 o o o o o s = = = = + + + + + + + + + + + + + + + + + + ; ; ; ; + ; + ; ; ; ; ; ; ; ; ; ; ; ; ; ; ; ; ; ; - ; - - - - - - - - - - - - - - z - z z z d d - - - - - z - - z z - - - - - - - - - - - - - - - - - - - - - - z z f d d z z z z z z d d d d d d d f f & & f J O.o.} }.|.}.}.I.I.I.}.g.g.g.I.I.U.I.F.I.I.I.I.I.U.U.I.I.I.I.I.I.I.I.I.I.I.F.F.F.F.F.F.F.F.F.I.I.I.I.I.I.I.I.I.F.F.F.F.F.I.F.I.F.U.U.U.U.I.I.I.U.I.I.}.}.}.}.}.}.g.g.g.g.g.g.g.g.k.k.k.k.k.k.g.g.g.k.}.}.}.}.k.}.}.|.|.|.|.|.|.k.} } o.o.{ { L L L P P } g.I.I.I.I.g.g.g.g.U.U.U.g.g.U.U.U.U.Y.Y.Y.Q.Y.Y.Q.Q.Q.Q.].].].R.Q.Q.R..X.X.XR..X.X.X.X.X.X.X.X.X.X.X.X X}.k.g.g.g.g.g.I I I I I I I I I I I I I I I I I I I g.g.g.T.T.T.T.T.T.T.T.T.Y.Y.Y.Y.Y.Y.Y.Y.Y.Q.Q.'.'.'.'.'.'.'.'.'.'.'.'.'.'.'.P.'.'.'.'.'.'.!.!.!.'.!.'.'.'.'.^.^.!.].].'.'.].].~.].].].].~.~.~.].^.~.~.~.~.~.^.].~.~.~.~.].^.^.!.~.~.^.^.^.^.].].~.~.~.~.~.~.~.~.~.].~.].~.~.~.^.!.!.].].^.^.^.~.~.~.~.~.~.~.~.~.~.~.~.~.].~.].^.!.!.!.!.!.!.!.!.!.!.^.^.!.!.!.!.!.!.^.^.~.^.^.^.].].].^.!.!.^.].!.!.!.~.~.~.!.].^.~.~.~.~.~.~.~.~.~.~.~.~.~.~.~.~.~.~.~.~.~.~.~.~.~.(.(.(.(.~.~._._._._._.(.(.~.~.~.~.~.~.~.~.^.~.~.~.~.~.~.~.~.~.~.~.~.~.~.~.~.~.~.~.~.~.~.~.~.~.(.(.(.(.(.(.(.(.(.(._./._._._._._._._._.`.`.`.`.`.`.`.`.`.`.`.`.`.`.`.`.`.`.~.",
"2 6 0 4 4 4 6 6 6 6 2 6 6 6 6 6 2 3 o o o o o s = = = = + + + + + + + + + + + + + + + + + + ; ; ; ; ; ; ; ; ; ; ; ; ; ; ; ; ; ; ; ; ; ; ; ; ; - ; - - - - - - - - - - - - - - - - - - z d d - - - z - - - - z z z - - - - - - - - - - - - - - - - - - - - z z z d z z z z z z z d d d d d d f f d d f f f f f & V J L } |.|.}.}.I.I.I.I.I.I.I.I.I.I.I.I.I.I.I.I.I.I.I.I.I.I.I.I.F.I.I.I.F.F.I.I.I.I.F.F.F.F.I.I.I.I.I.I.I.F.F.F.P P P P P I.I.U.U.I.I.}.}.}.}.g.k.k.P P P P L L L L L L L L L L K L L L L L L o.} } } } k.k.k.k.k.k.k.k.k.k.k.k.k.}  .o.o.} } } } k.g.g.I.I.}.g.}.}.I.I.U.U.U.I.U.U.U.U.Y.Q.Q.Y.Q.R..XR.R.R.R..XR.R.R..X.X.X.X.X.X.X.X.X.X.X.X X X X X X X X X X X X X X X Xk.k.g.g.g.g.g.g.g.g.I I I I I I I I I I I I I I I I I I I I I I I g.T.T.T.T.T.Y.Y.Y.Y.Y.Y.Y.Y.R.R.'.'.'.'.'.'.'.'.P.'.'.'.'.'.'.'.'.'.'.'.'.'.'.'.'.'.'.'.'.!.^.].].'.].].].~.~.^.].].].].].~.~.^.].~.~.~.~.~.^.^.^.~.~.^.^.^.^.^.].~.~.^.~.~.].~.~.~.~.~.~.~.~.~.~.~.].].].^.^.^.^.~.~.~.~.~.~.~.~.^.^.~.~.].~.^.!.!.!.!.!.!.!.!.!.!.!.^.^.!.!.!.!.!.^.^.^.].^.^.^.].^.^.^.!.^.^.].^.!.!.^.~.~.^.].^.~.~.~.~.~.~.~.~.~.~.^.~.^.^.^.~.~.~.~.~.~.~.~.~.~.(.(.(._.~.~./.(._._._.(.(.(.~.~.~.~.~.~.^.^.~.~.~.~.~.~.~.~.~.~.~.~.~.~.~.~.~.~.~.~.~.~.~.~.~.(.(.(.(.(.(.(.~.(.(.(./././._._._._._._.`.`.`.`.`.`.`.`.`.`.`.`.`.`.`.`.`.`.~.",
"1 2 4 4 4 4 6 6 6 6 2 2 6 2 6 6 3 2 o o o o o # = = + + + + ; ; + + = = + + ; ; + + + + + ; ; ; + ; ; ; ; ; ; ; ; ; ; ; ; ; ; ; ; ; ; ; ; ; ; - ; - - - - - - - - - - - - - - - - - - - - z - - - - - - - - z z z z - - - - - - - - - - - - - - - - - - - - z z - z z z z z z f d d d d d d d d f d g g g d f f f f f V H o.k.}.}.}.I.P P I.I.I.F.P P P F.I.I.I.I.I.I.I.P I.I.I.F.F.I.I.F.F.F.F.P F.F.I.F.F.F.P I.P P P P P F.I.I.}.}.}.|.|.}.}.}.}.k.} } o.L L H K F J S S S S S S S S S S S S F K K K K K K K / / ` ` ` o. .} k.k.k.k.k.k.k.k.k.k.k.j.k.k.k.k.k.k.k.k.k.k.}.k.k.}.k.g.}.g.g.}.I.}.}.|..X.X.X.X.X.X.X.X.X.X.X.X.X.X.X.X.X X X X X X X X X X X X X X X X X X X X X X Xl.l.l.l.l. Xl.l.l.l.l.l.k.k.k.k.k.k.g.g.g.I I I I I I I I I I I I I I I I I I I I I I I I T.T.T.T.T.T.Y.Y.Y.Y.Y.'.'.'.R.R.Q.Q.'.'.'.'.'.'.'.'.'.'.'.'.'.'.'.].].'.'.'.].].'.'.^.].^.^.].].'.'.'.'.'.'.^.].^.^.^.^.^.~.].].^.^.^.!.!.!.!.!.^.^.^.^.^.].].].~.~.(.].~.~.~.~.~.~.~.].].^.^.^.~.~.~.~.~.~.~.~.^.^.~.~.~.~.!.!.!.!.!.!.!.!.!.!.!.!.!.!.!.!.!.!.^.^.].].].^.^.^.^.^.^.^.^.^.^.~.~.~.~.~.~.^.^.~.^.^.~.~.].].~.~.~.~.~.~.~.!.~.^.~.~.~.~.~.~.~.~.~.~.~.(.(._.(.~.~.~._._.(.(.(.~.~.~.~.~.~.~.^.^.~.~.~.~.~.~.~.~.~.~.~.~.~.~.~.~.~.~.~.~.~.~.~.~.(.(.(.(.(.(.(.(.~.~.~.(././._._._._._._._._.`.`.`.`.`.`.`.`.`.`.`.`.`.`.`.`.`.).",
"1 2 6 0 4 4 6 6 6 6 2 2 2 2 6 6 3 2 o o o o o # = = = + + + + ; + = = ; ; ; ; ; ; ; ; + ; ; ; ; + + + ; ; ; ; ; ; ; ; ; ; ; ; ; ; ; ; ; ; ; ; ; ; ; - - - - - - - - - - - - - - - - - - - z - - - - - - - - z z z z - - - - - - - - - - - - - - - - - - - - z z z z f f z d d f d d d d d d g d g d d g j j g g g f f f f f J J P k.|.}.}.I.P P U.I.I.I.I.I.I.I.I.I.I.I.P I.I.I.I.I.I.g.F.F.F.P g.g.F.I.I.F.F.F.g.P P P g.}.}.}.}.k.k.k.} } o.L O.K F F S S S S S S S S S S S S S S S S S S S S S K K K ^ ^ ^ / / / ` ` `  . .j.j.j.j.k.j.j.k.k.k.k.k.k.k.k.k.k.k.k.k.k.k.k.k.k.k.k.k.k.k.k.k.k.k.}.}.|.|..X.X.X.X.X.X.X X X X X Xl.l. X Xl.l.l.l.l.l.l.m.m.m.M.M.#X#X#X#X#X#X#X#X#Xm.m.m.m.m.m.m.m.m.m.M.m.m.m.l.l.l.l.l.l.l.k.k.k.k.k.k.k.g.g.I I I I I I I I I I I I I I I I I I I I I I g.g.T.T.T.T.Y.P.Y.Y.Y.Y.Y.Y.Y.W.Y.Y.'.'.'.'.'.'.'.'.'.].'.'.'.'.'.'.'.'.'.^.!.!.!.'.'.'.'.!.!.!.].].!.^.^.^.^.^.].].^.^.^.!.!.!.!.!.^.^.^.^.^.^.^.^.^.~.].{.].].~.~.].].^.^.^.~.^.^.~.~.~.~.~.~.~.^.^.^.~.~.^.^.!.!.!.!.!.!.!.!.!.!.!.!.^.!.!.!.!.!.^.^.].].].].^.^.].~.^.].].].~.~.{.~.].].].^.^.^.^.^.~.~.~.~.~.^.~.~.~.~.~.~.~.~.~.~.~.~.~.~.~.~.~.~.~.(.(._.(.(.~.~.(._.(._._.(.~.~.~.~.~.~.!.^.~.~.~.~.~.~.~.~.~.~.~.~.~.~.~.~.~.~.~.~.~.~.~.~.~.~.~.~.~.~.(.(.(.~.~.~./._._._._._._._._._.`.`.`.`.`.`.`.`.`.`.`.`.`.`.`.`.`.~.",
"1 2 6 4 4 4 6 6 6 6 6 6 2 2 2 6 3 2 o o o o o # = + + + + + + + + + + + ; + ; ; ; + + + + + + + + ; ; ; ; ; ; ; ; ; ; ; ; ; ; ; ; ; ; ; ; ; ; ; ; - - - - - - - - - - - - - - - z - - - - z - - - - - - - - - z z - - - - - - - - - - - - - - - - - - - - - - z z z z f f d d d d d d d g g g g d d g j g d d d g g j j d f f f V F { } k.}.}.I.I.I.I.I.I.I.I.I.I.I.I.I.I.I.I.I.I.I.I.I.I.I.I.I.I.F.P P F.F.I.I.}.}.}.}.}.k.} P L L K F S S S V f f f f f f d S S S S S Y ^ ^ ^ Y Y Y Y Y ^ ^ ^ ^ ^ ^ ^ ^ ^ ` ` ` ` ` `  .j.j.j.j.j.j.x.j.j.j.j.j.j.j.j.j.j.k.k.k.k.k.k.k.k.k.k.k.k.k.k.k.k.k.k.k.k. X X X X X X X X X X X X X Xl.l.l.m.#X#X#X#Xm.m.m.m.M.M.M.M.m.m.M.M.M.M.M.M.#X#XM.M.m.M.M.M.M.M.M.M.#XM.m.m.m.m.m.m.m.m.m.m.m.l.l.l.l.l.k.k.k.k.k.k.k.k.k.g.g.g.g.I I I I I I I I I I I I I I I I I I g.g.g.T.T.U.T.T.T.T.T.P.Y.Y.Y.P.P.P.W.W.W.'.'.'.'.'.'.].].].].'.'.'.'.'.'.'.'.!.!.!.^.'.'.!.!.!.^.~.~.^.^.^.^.!.!.!.!.!.^.^.^.^.^.!.~.~.!.'.P.P.P.'.].^.].].^.^.^.^.^.~.~.~.^.^.^.^.^.^.^.^.^.!.^.!.!.!.!.!.!.!.!.!.!.!.!.!.!.!.!.!.!.^.].].].].].^.^.].^.^.~.~.~.~.(.{.].].].].].].].].].].^.].^.^.!.~.~.~.~.~.~.~.~.~.].~.~.~.~.~.~.~.~.~.~.~.~.(.(.~.~._._.(.(.(.(.~.~.~.~.~.~.!.^.~.~.~.~.~.~.~.~.~.~.~.~.~.~.~.~.~.~.~.~.~.~.~.~.~.~.~.~.~.~.~.~.(.(.(.(._._._._._._._._._.`.`.`.`.[.`.`.`.`.`.`.`.`.`.`.`.`.`.~.",
"1 2 6 4 4 6 6 6 6 6 6 6 2 2 2 6 6 2 o o o o o o = = + + + + + + + + + + ; ; ; ; ; ; + + ; + + ; ; ; ; ; ; ; ; ; ; ; ; ; ; ; ; ; ; ; ; ; ; ; ; ; ; ; - - - - - - - - - - - - z z - - - - - - - - - - - - - - - - z - - - - - - - - - - - - - - - - - - - - - z z z z z f f d d d d d d d g g g g f d j j j j j j g f f d g g d d f f f V H o.} }.k.}.}.}.F.P I.I.P P P I.g.g.P P P P P P P I.I.I.g.g.}.}.}.}.}.g.k.} o.L L K F J S S V f f f f f f d j j S j S Y S S S S Y Y x x Y Y Y Y Y ^ ^ ^ ^ ^ ^ ^ ^ ^ ` ` ` ` _ _ _ j.j.j.z.z.z.x.x.x.z.z.j.j.j.j.j.j.k.k.j.k.v.k.k.k.k.k.k.k.k.l.k.k.l.l.l.l.l.l.l.l.l. Xl. X X#Xm.m.#X#Xm.m.M.M.#X#X#X#X#X#X#X#X#X&X&X&XM.M.&X&XM.M.M.M.&X&X#X#X#X#X#X#X#X#X#X#X#X#XM.m.m.m.M.M.#X&X&X&Xm.m.m.m.#X#Xm.#X#Xl.l.l.l.l.l.l.l.k.k.k.k.k.k.k.k.k.k.g.g.I I I I I I I I I I I I I I I I I I I g.g.g.T.T.T.T.T.Y.P.Y.Y.Y.Y.R.'.'.'.].].].].].].].].].].^.^.^.^.].'.'.'.!.!.'.'.^.^.^.!.'.!.'.!.!.!.^.^.!.!.!.~.].E.T.T.g.T.T.P.'.].].].^.^.^.^.].].].^.!.^.!.!.!.^.^.^.!.!.!.!.!.!.!.!.!.!.!.!.!.!.!.!.!.!.!.!.^.^.~.].].^.^.^.^.!.!.^.^.^.^.^.'.'.'.].].].^.^.^.].].].].].^.^.!.!.!.!.~.~.~.].].].].~.~.~.~.~.~.~.~.~.~.~.~.~.~.~.(.(.~.(.~.~.~.~.~.~.~.~.!.!.~.~.~.~.~.~.~.~.~.~.~.~.~.~.~.~.~.~.~.~.~.~.~.~.~.~.~.~.~.~.~.~._.(._.(._._._._._._._._._._.`.`.`.`.[.`.`.`.`.`.`.`.`.`.`.`.`.).",
"o 2 6 4 6 6 4 4 0 6 6 6 6 2 6 6 6 3 o o o o o o = = + + + + + = + + = = ; ; ; ; ; ; ; ; ; ; ; ; ; ; ; ; ; ; ; ; ; ; ; ; ; ; ; ; ; ; ; ; ; ; ; ; ; ; - - - - - - - - - - - - - z - - - - - - - - z z - z - - - - - - - - - - - - z z - - - - - - z z - - - - - - z z z z f d d d d g g g g g g g g g g g g d d d j d f d g d d d d d S f f f S / } } }.}.}.g.P P P P P P P P P P P P P g.g.g.} } k.k.k.k.} o.{ L / H S V f f f f f f f d g g j j d g j j Y Y j j j j j j j j Y Y j j j j Y Y ^ ^ ^ ^ ^ ^ ( ` ` ` _ _ _ _ j.j.j.j.z.z.z.z.x.x.x.z.z.z.z.z.j.j.j.x.j.x.v.v.v.v.v.k.v.v.v.v.v.l.v.v.v.v.v.v.m.m.m.m.m.m.m.m.m.m.M.M.#XM.M.M.#X#XM.M.&X&XM.M.M.M.M.M.M.M.M.M.&X&X&X&XM.M.M.M.M.M.M.M.M.M.M.#X&X&XM.M.M.M.M.M.M.#X#XB.m.M.M.M.#X#X#X#X#X#Xm.#X#Xm.m.m.m.m.m.m.m.m.l.l.m.l.l.k.k.k.k.k.k.k.k.g.g.g.I I I I I I I I I I I I I I I I I g.g.g.T.T.T.T.Y.Y.Y.Y.Y.W.W.'.'.].'.].].].].].].'.].].].'.'.'.'.'.'.'.!.!.!.!.'.'.!.!.'.!.!.E.'.'.'.P.g.I I I I T.P.Y.].].].^.^.'.^.].].].!.!.!.!.!.!.!.!.!.!.!.!.!.!.!.!.!.!.!.!.!.!.!.^.!.!.!.!.!.^.~.~.~.^.^.^.^.!.!.^.'.!.P.P.T.T.P.P.'.].^.^.!.'.!.^.^.].].].!.!.^.^.!.!.!.^.^.~.].].~.~.~.~.~.~.~.~.~.~.~.~.~.~.~.~.~.~.~./.~.(.~.~.~.~.!.!.~.~.~.~.~.~.~.~.~.~.~.~.~.~.~.~.~.~.~.~.~.~.~.~.~.~.~.~.~.~.~.~.~.~.~._./._._._.[._._._._._.`.`.`.`.`.`.`.`.`.`.`.`.`.`.`.`.`.).",
"o 2 6 4 6 4 0 0 0 6 6 6 6 2 6 6 6 3 1 o o o o o + + + + + + = = + ; = ; ; ; ; ; ; ; ; ; ; ; ; ; ; ; ; ; ; ; ; ; ; ; ; ; ; ; ; ; ; ; ; ; ; ; ; ; ; ; ; - - - - - - - - - - - - - z - - - - - - - z z z z - - - - - - - - - - - - z - - - - - - z z z z - - - - - z z z z d d d d g g g g g g g g g g h h h g g d h g g g g d d j j d f d g d f f f J L } }.}.}.}.}.}.}.}.}.}.}.}.}.}.}.}.}.}.k.k.} o.{ H F S f f f f f f f d d d d g g g g g g j j j g g j j j j k j j j j j Y Y Y Y Y Y Y Y ^ ^ ^ ^ ^ ^ ` ` ` ` _ _ _ j.j.j.j.z.z.z.z.z.z.z.z.z.z.z.z.z.z.j.x.x.x.x.x.v.v.v.v.v.v.v.v.v.v.v.v.v.v.A.m.m.m.m.m.m.m.m.m.m.m.m.M.M.#XM.M.M.#X#X#XM.&XM.M.M.C.C.M.M.&X&XM.M.M.M.M.M.M.M.M.M.&X&X&X&XM.M.M.M.M.C.C.B.M.m.M.M.M.#XM.M.N.M.C.M.m.m.m.#XB.B.B.M.M.m.m.m.N.N.m.m.m.m.#Xm.m.m.m.m.m.l.l.l.k.k.k.k.k.k.k.k.g.g.g.g.I I I I I I I I I I I I I I I I I I g.T.T.T.T.T.P.Y.Y.Y.Y.'.'.].].].'.'.].].].'.'.'.'.'.!.!.!.!.!.!.!.!.'.'.'.'.P.P.Y.R.Y.T.I I I I I I T.P.'.].].].].'.!.!.!.!.!.!.!.!.!.!.!.!.!.!.!.!.!.!.!.!.!.!.!.!.!.!.!.^.!.!.!.!.!.^.~.~.^.^.^.^.^.^.!.!.E.P.P.T.T.T.T.T.P.W.!.!.!.!.!.!.!.!.^.^.^.^.^.^.!.!.!.^.~.~.].].~.~.~.~.~.~.~.~.~.~.~.~.~.~.~.~.~.~././.(.(.(.~.~.~.!.!.~.~.~.~.~.~.~.~.~.~.~.~.~.~.~.~.~.~.~.~.~.~.~.~.~.~.~.~.~.~.~.~.~.(.(.(./././._.[.[._._._._._.`.`.`.`.`.`.`.`.`.`.`.`.`.`.`.`.).",
"o 2 4 4 4 6 0 6 6 6 6 6 2 2 6 6 6 2 2 o o o o o = + = = ; + + = ; ; ; ; ; ; ; ; ; ; ; ; ; ; ; ; ; ; ; ; ; ; ; ; ; ; ; ; ; ; ; ; ; ; - - - - ; ; ; ; ; ; ; ; - - - - - - - - - - - - - - - z z z z - - - - - - - z - - - - - - - - - - - - - - - - - - z z z z z z z z z d d g g z g g g g d d g g g g g g g g g g g g g g g g j g g g g g d d d f f f V H o.} k.}.}.}.}.}.}.}.}.}.k.k.} o.{ / H S S f f f f f f f d d g g g j j g g g g g g g g j j j j j j k k k k k k Y Y k k Y k Y Y k Y Y Y ^ ^ ^ ^ ( ( _ _ _ _ _ _ j.z.z.z.j.z.z.z.z.z.x.x.x.x.x.x.z.z.z.x.x.x.x.x.x.b.v.v.A.A.A.A.v.A.m.m.v.v.A.m.m.V.V.V.m.m.m.m.m.B.B.B.M.M.M.M.M.M.M.M.&X&X&XC.C.M.M.M.C.M.C.C.C.M.M.M.M.M.M.M.M.M.M.M.m.M.M.M.M.M.N.m.M.M.C.C.M.M.M.M.B.B.B.B.B.B.C.C.C.C.C.C.C.C.C.C.B.B.B.B.M.M.B.B.m.M.#Xm.M.M.m.m.m.m.l.l.l.l.l.l.l.l.k.k.k.k.k.k.k.k.k.g.g.g.g.g.I I I I I I I I I I I g.g.T.T.T.T.Y.Y.Y.Y.Y.R.Y.Q.Q.'.'.R.R.R.'.'.'.'.'.'.'.'.].!.'.P.T.T.T.T.T.Y.T.I I I I I I T.T.Y.'.'.'.'.'.P.!.!.!.!.!.!.E.'.'.!.!.!.!.!.!.!.!.!.!.!.!.!.!.!.!.!.!.!.!.!.!.^.^.].].].].^.^.^.^.'.W.Y.T.T.T.T.I I T.P.P.E.P.P.E.'.!.!.!.!.!.!.!.!.!.!.!.!.!.!.!.!.^.~.~.~.^.].].].~.~.~.~.~.~.~.~.~.~.~.(.(.(.(.~.(.(.~.!.!.~.~.~.~.].~.~.~.~.~.~.~.~.~.~.~.~.~.~.~.~.~.^.^.~.~.~.~.~.~.~.~.~.~.~.~.~./._._././.[.[.[.`._.`.[._._.`.[.`.`.`.[.`.`.`.[.`.`./.",
"1 1 6 4 6 6 0 6 6 6 6 6 2 2 6 6 6 2 3 o o o o o = + + = ; + ; ; ; ; ; ; ; ; ; ; ; ; ; ; ; ; ; ; ; ; ; ; ; ; ; ; ; ; ; ; ; ; ; ; ; ; ; - - - ; ; ; ; ; ; ; ; - - - - - - - - - - - - - - - - - - - - - - z z - - z - - - - - - z - z - - - z z z - - - - z z z z z z z z d d g g z g g g g g d g g g g h g g g g g g g g g g g g g g g g g g d d Y d f f f V F H L L o.} } o.L L H F J V f f f f f f f f f d g S g g g g j g g j j g g g g g g g j j g g j j j j k k k k k Y k k Y k Y Y k Y Y Y ^ ^ ^ ^ ( ( _ _ _ _ _ _ j.j.z.z.j.z.z.z.z.z.x.x.z.x.x.x.z.z.x.x.x.x.x.x.x.b.v.v.v.v.A.A.v.A.v.m.A.A.m.m.m.V.m.B.m.m.m.m.m.m.B.B.M.M.N.N.N.N.M.M.M.C.C.C.C.M.M.M.M.C.C.C.M.M.M.M.M.M.M.M.M.M.M.M.M.M.M.M.M.M.N.N.M.M.M.C.M.M.M.M.B.B.B.B.B.B.B.B.C.C.&XC.C.C.C.C.B.&XB.B.B.M.B.M.B.B.B.B.B.B.M.M.M.m.m.m.#X#Xm.m.m.m.m.l.l.l.l.l.l.l.l.l.k.k.k.k.k.k.g.g.g.I I I I I I I I I I I I I g.g.T.T.T.T.T.Y.Y.Y.Y.Y.R.'.'.'.].].].].].].'.'.T.I I I I I T.I I I I I I I I T.Y.Y.Y.P.T.T.T.T.P.E.!.!.!.'.'.!.!.!.!.!.!.!.!.!.!.!.!.!.!.!.!.!.!.!.!.!.!.!.'.'.'.'.'.'.'.!.!.'.W.P.T.T.T.G.T.G.I T.T.Y.P.E.!.!.!.!.!.!.!.!.!.!.!.!.!.!.!.!.!.!.!.!.!.!.!.^.~.~.].~.~.~.~.~.~.~.~.~.~.~.~.(.(.~.~.~.(.~.!.!.~.~.~.~.~.~.~.~.~.~.~.~.~.~.~.~.~.~.~.~.~.~.^.^.~.~.~.~.~.~.~.~.~.~.~.~.~././._././._.[._.`._.`.`.`.`.`.`.`.`.`.[.`.`.`.`.`.`.~.",
"1 1 2 6 6 6 0 6 6 6 6 2 6 6 6 6 6 6 3 o o o o o = + = = ; ; ; ; ; ; ; ; ; ; ; ; + + ; ; ; ; ; ; ; ; ; ; ; ; ; ; ; ; ; ; ; ; ; ; ; ; ; ; ; ; ; ; ; ; ; ; ; ; - - - - - - - - - - - - - - - - - - - - - - - - - - - - z z - - - z - - - z z z z z - - z z z z z z z z z z d d g g h h g g g g g g g g g g g g g g g g g g g g g g g g g g g g d d f d S S f f f f f f f f f f f f f f f f f f f f d d S S S g g g g g g j j g g g j j g g g g g g j j j j j j j j j j k k k k k k k k k Y k Y ^ ^ Y ^ ^ ^ ( ` _ _ _ _ _ _ _ h.j.D.z.z.z.z.z.z.z.z.z.z.z.x.x.x.x.x.x.x.x.x.x.b.v.b.b.b.A.A.b.A.A.m.m.A.m.m.m.m.m.m.m.m.m.m.m.m.m.m.M.N.m.m.m.m.N.N.M.M.M.M.M.M.M.M.M.M.C.C.M.M.M.M.M.M.M.M.M.M.C.M.B.C.C.C.C.C.C.B.N.M.N.C.M.M.M.M.B.B.B.B.B.B.B.B.C.&X&XC.&XC.C.&X&X&X&X&XB.&X&XM.B.&X&X&X&X&XB.B.C.B.M.#X$X#Xm.#X#X#Xm.#X#X#X#X#X#X#X#X#X#X#X#X#X#X#Xl.k.k.k.k.k.g.g.I I I I I I I I I I I I I I I g.g.T.T.T.Y.Y.Y.Y.R.R.R.R.'.'.].R.T.I I I I I I I I I I I I I I I T.U.T.T.I I I I T.P.'.'.!.'.!.!.!.!.!.!.!.!.!.!.!.!.!.!.!.!.!.!.!.!.!.!.!.!.'.'.'.'.'.'.'.'.'.'.W.P.T.T.G.G.T.G.I T.T.Y.P.P.E.P.P.!.!.!.!.P.!.!.!.!.!.!.!.!.!.!.!.!.!.!.!.!.^.^.^.~.~.~.~.~.~.~.~.~.~.~.~.~.(.~.~.(.~.].!.!.~.~.~.~.].].~.~.~.~.~.~.~.~.~.~.^.^.^.^.^.^.^.^.~.~.~.~.~.~.~.~.~.~.~.~.~.~./././././._._._.`._._.`.[.[.[.[.[.[.`.`.`.`.`.`.`.~.",
"o 1 2 6 4 4 6 6 6 6 6 2 6 6 6 6 6 6 3 1 o o o o = = = = ; ; ; ; ; ; ; ; ; ; ; ; ; ; ; ; ; ; ; ; ; ; ; ; ; ; ; ; ; ; ; ; ; ; ; ; ; ; ; ; ; ; ; ; ; ; ; ; ; ; - - - - - - - - - - - - - - - - - - - - - - - - - - z z z - - - - - - - - - - - - - z - z z z z z z z d z z z d g z z h h h g g g g g g g g g g g g g g g g g g g g j g j j g g g g d d d g j g g d f f f f f f f d f f d d g g g g d d d g g d d d d d g g j d d g j j j g j j j j j j j g j j j j k k k k k k k k k k k k k k Y ^ Y ^ ^ ( ( ( ` _ _ _ _ _ _ _ j.D.D.D.z.z.z.z.x.x.z.z.x.z.x.x.x.x.x.x.x.v.v.v.b.b.A.A.A.A.A.A.m.m.m.m.m.m.m.m.m.m.B.B.B.m.B.B.B.B.N.m.m.m.m.m.m.m.N.N.N.B.B.B.C.C.M.M.C.C.C.C.M.M.M.C.C.C.C.C.C.C.B.B.C.C.C.C.C.C.N.N.B.C.B.C.C.C.B.B.B.B.B.B.B.B.C.C.C.C.C.C.C.C.&X&X&XB.B.B.B.B.B.B.&X&X&X&XB.B.B.B.B.C.B.&XB.B.B.B.B.B.B.B.B.&Xm.m.M.M.B.#X#X#X#X#X#X#Xm.l.l.l.k.k.k.k.k.g.g.P I I I I I I I I I I I I I I g.g.g.T.T.T.T.Y.Y.Y.Q.Q.U.g.I I I I I I I I I I I I I I I I I I I I I I T.Y.].'.P.!.'.'.!.!.!.!.!.!.!.!.!.!.!.!.!.!.!.!.!.!.'.E.E.E.!.!.!.!.!.'.'.'.'.'.W.Y.T.T.T.G.G.T.G.G.T.Y.W.W.P.P.P.!.!.!.!.E.P.P.P.P.!.!.!.!.!.!.!.!.!.!.!.!.!.!.!.^.~.~.~.~.~.~.~.~.~.~.~.~.(.~.~.(.~.].!.!.~.~.~.~.].].~.].~.~.~.~.~.~.~.~.^.~.~.~.~.~.~.~.~.~.~.~.~.~.~.~.~.~.~.~.~.~.~././././._._._._.`.`._.[.[.[.{.{.[._.`.`.`.`.`.`.~.",
"o 1 2 6 4 6 6 6 6 6 6 2 6 6 6 6 6 6 5 1 o o o o = = + = + = ; ; ; ; ; ; ; ; ; ; ; ; ; ; ; ; ; ; ; ; ; ; ; ; ; ; ; ; ; ; ; ; ; - ; ; ; ; ; ; ; ; ; ; ; - - - - - - - - - - - - - - - - - - - - - - - - - - - z z - - - - - - - - - - - - - - - - z z z z z z z z z z z d z z z z g g g g g g g h g g g g g g g g g g g g g g g g j j j j j j j j k g d f f g j j g g g g g g g g g j j j j g g g d d d d d g j j g g j j j j j g j j j j j j j j j j j j j j k j k k k k k k k k k k Y Y Y Y ^ ^ Y ^ ^ ( ( ( ` ` _ _ _ _ _ _ _ h.D.D.D.z.z.z.z.z.x.x.x.x.x.x.x.x.x.x.b.b.b.A.b.A.A.A.A.V.V.V.V.m.N.N.N.N.N.N.m.m.m.m.m.B.m.m.N.N.N.m.m.m.m.m.m.m.m.N.N.N.B.B.B.B.M.C.C.C.M.M.M.M.C.C.C.N.B.C.C.C.C.C.C.C.C.C.C.C.N.C.C.C.C.C.C.C.C.C.C.C.B.B.C.C.C.C.C.C.C.C.C.C.C.C.C.C.C.C.&XC.B.&X&X&XC.C.C.B.C.C.C.&X&X&X#X&XB.B.B.B.B.&X&X&XB.B.B.M.B.m.m.m.#X#X#X#X#X#X#X#X#X#X#Xl.l.l.k.k.k.k.k.k.g.g.P P I I I I I I I I I I I g.g.g.T.T.T.Y.U.g.I I I I I I I I I I I I I I I I I I I I I I T.Y.'.!.!.!.'.'.!.P.P.!.!.!.!.!.!.!.!.!.!.!.'.'.'.'.'.W.W.P.P.P.P.E.P.W.'.'.W.W.Y.P.T.T.G.G.I T.T.T.T.Y.R.'.Y.P.'.E.!.'.'.'.!.!.!.!.!.!.!.!.!.!.!.!.!.!.E.E.!.!.!.!.!.^.~.~.~.~.~.~.~.~.~.~.~.~.~.(.~.^.!.!.].].].].~.~.~.].~.~.~.~.~.~.~.~.^.^.~.~.~.~.~.~.~.~.^.^.^.^.].].~.~.~.].~.~.~.~./././._._._.[.[.`.`.[.(.P.T.P.'.~.).`.`.`.`.`.^.",
"o 1 3 6 6 6 6 6 6 6 6 2 6 6 6 6 6 6 5 s o o o o + = + = + = ; ; ; ; ; ; ; ; ; ; ; ; ; ; ; ; ; ; ; ; ; ; ; ; ; ; ; ; ; ; ; ; - - ; - ; ; ; ; ; ; - - - - - - - - - - - - - - - - - - - - - - - - - - - - - - z z - - - - - - - - - - - z - - - - - - z z z z z z z z z z z z z g h g g g h h g h g g g g g g g g h h g g g g g g j j j j j j j j g j k Y j g g g g g g g g g g g d d j d g j j j j j j j j j j g j j j j j g g g j j j j j j j j j j j j j k k j k k k k k k k k k k Y Y Y Y Y Y Y ^ ^ ( ( ( ` ` ` _ _ _ _ _ _ h.D.D.D.z.z.z.z.z.x.x.x.x.x.x.x.x.x.x.b.b.A.A.A.A.A.A.A.N.N.V.N.N.N.N.N.N.N.N.N.N.B.B.B.B.B.B.N.N.N.N.N.N.N.m.N.m.N.N.N.B.B.B.B.B.C.C.C.C.C.B.C.C.C.C.C.C.C.C.C.C.C.C.C.C.M.C.C.C.C.C.C.C.C.C.C.C.C.C.C.B.B.B.C.C.C.C.C.C.C.C.C.C.C.C.C.C.C.C.C.C.C.C.C.C.C.C.C.C.C.C.&XC.B.M.&X#X&XB.B.C.B.B.B.B.B.B.B.B.B.B.M.M.m.m.m.#X#X#X#X#X#X#X#X#X#X#X#X#Xl.l.l.l.l.k.k.k.k.k.k.g.g.g.I I I I I I I I I I g.g.g.I I I I I I I I I I I I I I I I I I I I I I I T.P.'.'.W.'.'.W.P.P.P.W.W.'.'.'.'.'.!.!.'.'.'.'.'.'.W.W.W.P.P.P.E.W.W.Y.Y.Y.Y.Y.P.T.T.T.G.G.I T.T.T.T.Y.Y.Y.Y.Y.Y.P.'.'.'.'.'.'.'.'.'.'.'.'.!.!.!.!.!.!.P.P.!.!.!.!.!.!.~.].~.~.~.(.~.~.~.~.(.~.~.(.].^.^.^.].].].].~.~.~.].~.~.~.~.~.~.^.^.].^.^.^.].].].].^.^.!.!.^.!.^.^.~.~.].~.~.~.~.~.~.~.(._._.[.[.[.[.[.].P.T.T.T.T.P.^.)._.`.`.`.!.",
"o o 3 2 6 0 6 6 6 6 6 6 6 6 6 6 6 6 5 3 o o o o + = = + + = ; ; ; ; ; ; ; ; ; ; ; ; ; ; ; ; ; ; ; ; ; ; ; ; ; ; ; ; ; ; ; ; - - - - - - - - ; ; - - - - - - - - - - - - - - - - - - - - - - - - - - - - - - z - - - - - - - - - - - z z - - - - - - - - - - z - z z z z z z z h h h g g g g h h g g h h g g g g h h h g g g g g g g j j j g j j d g g d d g g j j g d d d d g j j j d d d d d j d d d g g j j j j j j j j g d d j j g g g g g g j j j j j j k k k j j k k k k k k k Y Y Y Y Y Y Y Y ^ ^ ( ( ` _ _ _ _ _ _ _ _ q.D.D.z.z.z.x.z.x.x.x.x.x.x.x.x.x.x.b.b.b.A.A.A.A.A.A.A.A.V.V.V.V.V.N.N.N.N.N.N.N.m.B.B.B.B.B.N.N.N.N.N.m.N.N.N.N.N.N.B.B.B.B.B.B.C.C.C.C.B.B.C.C.C.C.N.N.C.C.B.C.C.C.C.C.M.M.N.C.C.C.C.C.B.C.B.C.C.C.C.C.B.C.C.C.C.C.C.C.C.C.C.C.C.C.C.C.&X&XC.Z.C.C.C.C.C.C.C.C.C.C.C.C.B.B.B.B.B.B.B.B.B.B.B.B.B.B.B.B.B.B.B.B.B.m.m.M.B.&X&X&XM.M.M.#X&X&X#X#X#X#X#X#X#X#Xm.m.m.l.l.l.k.k.k.k.k.g.g.I I I I I I I I I I I I I I I I I I I I I I I I I I I I I I I T.T.Y.Y.Y.'.W.Y.P.P.W.'.W.W.'.'.'.'.!.!.'.'.'.'.W.W.W.W.P.P.P.W.P.P.P.P.Y.Y.Y.P.Y.T.T.T.T.G.I I T.T.T.T.T.T.T.T.P.Y.P.'.'.'.'.'.'.'.'.'.'.!.!.!.!.!.!.!.!.!.!.!.!.!.!.!.^.^.].].~.~.~.~.~.~.(.~.~.(.].^.^.^.].].].~.~.~.].].].].].].].^.~.~.^.^.^.^.^.^.!.!.^.!.!.!.!.!.^.^.!.^.].].].(.~.~.~.~.~.~.~.(.{.{.].!.T.T.T.T.T.T.T.P.~._.`.`.[.!.",
"o o 1 2 6 6 6 6 6 6 6 6 2 6 6 6 6 6 5 3 o o o o + + + = + = ; ; ; ; ; ; ; ; ; ; ; ; ; ; ; ; ; ; ; ; ; ; ; ; ; ; ; ; ; ; ; ; - - - - - - - - ; ; ; - - - - - - - - - - - - - - - - - - - a a a a - - - - - - - - - - - - - - - - - - - - - - - - - - - - - - - - z z z z z z z h h h h g g g h h g g h h g g g g g g g g g g g g d d g g g g g g j j d j j k j g j j j j j j j g d d d g g g j g j j j j j j j k j j j j j d g j j j d d d d d d j j j j j j j j k k k j j k k k k k Y Y Y Y Y Y Y Y ^ ^ ( ( ( ( ` _ _ _ _ _ q.q.D.D.z.z.z.x.z.x.x.x.x.x.x.x.x.x.x.b.b.A.A.A.A.A.A.A.A.A.V.V.V.V.V.V.N.N.N.V.V.N.N.N.B.B.B.B.N.N.N.N.N.m.m.m.N.N.N.N.B.B.B.B.B.B.B.B.B.B.M.M.M.B.C.C.N.M.M.B.C.C.C.C.C.C.C.M.C.C.C.C.C.C.C.B.C.C.C.C.C.C.B.B.B.C.C.C.C.C.C.C.C.C.C.C.C.&X&X&XC.C.C.C.&X&XZ.Z.Z.Z.C.Z.%X%XB.B.B.C.B.B.B.B.B.B.B.B.B.B.B.B.C.C.C.C.&XB.B.B.B.B.B.B.m.m.N.m.B.m.m.m.m.m.m.#X#X#X#X#Xm.#X#X#Xl.l.l.k.k.k.k.k.k.g.g.I I I I I I I I I I I I I I I I I I I I I I I I I I I I T.Y.Y.Y.Y.Y.Y.Y.W.'.'.Y.P.'.'.'.'.'.E.'.'.W.W.W.W.W.P.P.P.P.P.P.Y.Y.P.Y.P.T.T.T.T.T.T.T.G.P g.g.g.g.I g.T.g.T.T.P.Y.'.'.P.'.'.'.'.E.E.E.P.!.!.P.P.E.!.!.!.!.!.!.!.!.!.!.!.'.^.].~.].].].~.(.~.~.~.].^.^.^.].].].~.~.~.].].].].].].].].~.~.^.^.^.^.!.!.!.!.!.!.!.!.!.!.!.^.^.^.].].].~.~.~.~.~.~.~.(.(.{.{.P.T.T.T.T.I I T.T.P.^.[.`.`.[.].",
"o o 1 2 6 6 6 6 6 6 6 6 6 6 6 6 6 6 6 3 o o o o + = = = ; + = ; = + ; ; ; ; ; ; ; ; ; ; ; ; ; ; ; ; ; ; ; ; ; ; ; - - - - - - - - - - ; - ; ; ; - - - - - - - - - - - - - - - - - - - - - - - - - - - - - - - - - - - - - - - - - - - - - - - - - - - - - - - - z z z z z z z d z h h h h h h h g g g j j j j j g g g j j j g g g g g g g g g g g g g j g g g g g g g j j j j d g g j j j j g g j j j j g g g g g g g j j j g g g g j j j j g g g j j j j j j j j j j j j k k k k k k k Y Y Y Y Y Y Y ^ ( ( ( ` ` ` ` _ _ _ _ q.D.D.D.z.x.x.x.x.x.x.x.x.x.x.x.x.x.b.A.A.A.A.A.A.V.V.V.V.A.N.V.N.V.V.V.N.N.N.N.N.N.N.B.N.B.N.N.m.N.N.N.N.N.N.N.N.N.N.N.B.B.B.B.B.C.C.C.N.N.N.C.C.C.B.B.C.C.C.B.B.B.B.C.C.C.B.C.C.C.C.C.C.C.C.C.C.C.C.C.C.C.C.C.B.C.C.C.C.C.C.Z.Z.Z.Z.Z.Z.Z.Z.Z.Z.Z.Z.Z.Z.Z.Z.%X%XC.C.C.C.Z.Z.Z.&X&X&XC.C.C.C.C.C.C.C.C.C.C.C.C.C.B.B.B.B.B.B.B.B.B.B.B.B.B.B.B.m.M.M.M.M.#X#X#X#XM.M.m.m.#X#X#X#X#Xm.l.l.l.k.k.k.k.k.g.I I I I I I I I I I I I I I I I I I I I I I I I g.T.T.Y.Y.Y.Y.R.R.R.R.R.R.'.'.'.'.'.W.W.W.R.R.R.R.Y.Y.Y.Y.Y.Y.Y.Y.P.P.T.T.T.T.T.U.T.T.T.P P P T.T.g.g.g.g.g.g.T.T.Y.R.R.'.'.'.'.'.E.P.P.P.P.'.E.'.!.!.!.!.W.E.E.E.!.'.!.!.!.'.^.].~.~.(.~.(.(.(.].].~.~.!.].].].].~.~.].].].].].].~.~.~.^.].^.^.^.^.^.!.'.'.!.!.'.^.^.^.^.^.^.^.^.~.~.~.~.{.~.~.~.{.].'.P.T.T.G.G.I I g.g.T.T.!.{._.`.[.Y.",
"o o 1 2 6 6 6 6 6 6 6 2 6 6 6 6 6 6 6 3 o o o o + = = = ; + = ; = + ; ; ; ; ; ; ; ; ; ; ; ; ; ; ; ; ; ; ; ; ; ; ; ; - - - - - - - - - ; - - - - - - - - - - - - - - - - - - - - - - - - - z - - - - - - - - - - - - - - - - - - - - - - - - - - - - - - - - - - z z z z z z z z h h h h h h h h g g g j j j j j g g g j j j g g g g g g g g g g g g g g g g g g g g g g j j g g g j j j j j g g j j j j g g g j g g g j j j g g g g j j j j g g g j j j j j j j j j j j j j k k k k k k Y Y Y Y Y Y Y ^ ( ( ( ( ` ` ` ` ` _ _ q.h.D.D.z.z.x.x.x.x.x.x.x.x.x.x.x.x.b.b.b.b.A.A.A.V.V.V.A.A.A.V.V.V.V.V.N.N.N.V.N.N.N.N.N.B.B.N.m.N.N.N.N.N.N.N.N.N.B.B.C.C.C.C.C.M.C.B.C.N.N.M.C.C.B.C.C.C.C.B.C.C.C.C.C.C.C.C.C.C.C.C.C.C.C.C.C.C.C.C.C.C.C.C.C.C.C.C.C.C.C.Z.C.Z.Z.Z.Z.Z.Z.Z.Z.C.C.C.Z.Z.Z.%X%X%X%X%X%X%X%X%X&X%X%XZ.Z.Z.Z.C.C.C.C.C.C.C.C.C.C.B.B.B.B.B.B.B.B.B.B.B.B.B.B.B.B.B.B.B.B.B.&X&XB.B.B.#Xm.#X#X#X#X#X#X#X#X#Xm.m.m.l.k.k.k.k.g.g.g.I I I I I I I I I I I I I I I I I I I I I g.g.g.T.T.T.Y.Y.Q.R.R.R.R.'.'.'.'.'.'.'.'.R.R.R.Y.Y.Y.Y.Y.Y.Y.P.P.Y.T.T.T.T.T.T.T.g.P P P T.g.g.g.g.g.g.g.T.T.T.Y.Y.R.'.'.'.'.P.P.P.P.P.P.'.P.E.P.P.P.E.E.P.P.P.P.P.E.!.!.'.^.~.~.~.].].].].].].].].^.].].].].].].].].].].].].~.^.^.^.^.^.'.'.^.^.'.].].'.'.'.^.^.^.'.].].].].].^.^.^.].].].].].P.T.T.T.T.G.G.T.g.T.T.T.T.P.^.[._.[.Y.",
"o 1 1 2 6 6 6 6 6 6 6 2 2 2 6 6 6 6 6 2 o o o o + = = = = + = ; + ; ; ; ; ; ; ; ; ; ; ; ; ; ; ; ; ; ; ; ; ; ; ; ; ; ; ; ; ; ; - - - - - - - - - - - - - - - - - - - - - - - z - z z - - - - - - - - - - - - - - - - - - - - - - - - - - - - - - - - - - - - - z z z z z z d z z h h h h h h h h g g g j h j j j j g g g j j g g g g g g g g g g g g g g g g g g g g g g j g g g j j j g g j j g g g j j g g g g g g g g j j g g g g j j j j j g j j j j j j j j j j j j j j k k k k k k k k Y Y Y Y Y ^ ( ( ( ( ( ` ` ` ` _ _ _ h.D.D.z.z.x.x.x.x.x.x.x.x.x.x.x.b.b.b.b.b.A.A.V.V.V.A.A.A.A.V.V.V.V.V.V.N.N.N.N.N.N.N.N.B.B.N.N.N.N.N.N.N.N.N.N.B.C.C.C.C.C.C.C.C.C.C.C.C.C.M.C.C.C.C.C.C.C.C.C.C.C.C.C.C.C.C.C.C.C.C.C.C.C.C.C.C.C.C.C.C.C.C.C.C.C.C.C.C.C.C.C.Z.Z.Z.Z.Z.Z.Z.Z.C.C.C.Z.Z.Z.Z.%X%X%X%X%X%X%X%X%X%X%X%X%X&X&X%X%XZ.C.C.C.C.C.C.C.B.B.B.B.C.B.B.B.&X&XC.C.C.C.C.&X&X&X&XB.B.&XB.B.&X&XB.M.B.#X#X#X&XB.&X#X#X#X#X#X#X#X#Xm.l.l.k.k.k.k.k.k.g.g.I I I I I I I I I I I I I I I I I I I I I g.T.U.Y.Y.Q.Q.Q.R.Q.].'.'.R.R.].R.R.R.Y.Y.R.R.Y.Y.Y.Y.Y.Y.T.U.U.U.T.T.U.T.P P P g.P P I P g.g.I T.T.T.P.Y.Y.Y.Y.P.P.P.P.P.P.P.P.'.'.'.'.!.'.'.'.W.E.W.!.!.'.!.'.^.^.^.~.^.].].].].].].].].^.'.].].].].].].].~.].].].].'.'.].'.'.'.'.W.Y.Y.Y.Y.Y.Y.E.E.P.P.Y.P.P.P.P.P.P.P.P.Y.Y.P.T.T.T.I T.G.T.T.T.g.T.T.T.T.T.P.!.^.].T.",
"1 1 1 2 6 6 6 6 6 6 6 6 2 2 2 6 6 6 6 2 1 o o o + + = ; ; + = ; + ; ; ; ; ; ; ; ; ; ; ; ; ; ; ; ; ; ; ; ; ; ; ; ; ; ; ; ; ; ; - - - - - - - - - - - - - - - - - - - - - - - z z z z - - - - - - - - - - - - - - - - - - - - - - - - - - - - - - - - - - - - z z z z z z z z z z g h h h h h h h h h g j h j j j j g g g g g g g g g g j g g g g g g g g g g g g g g g g g j j g j j g g g g j j g g g j g g g g g g g g j j j j g g j j j j j j j j j j j j j j j j j j j j j k k k k k k k Y Y Y Y ^ ^ ( ( ( ( ( ` ` ` ( _ _ _ q.D.D.D.z.x.x.x.x.x.x.z.x.x.x.x.x.b.b.b.b.A.A.A.V.V.A.A.A.V.V.V.V.V.V.V.V.V.N.N.V.V.V.N.B.B.B.N.N.N.N.N.B.B.B.B.C.C.C.C.C.C.C.C.C.C.C.C.C.C.C.C.C.C.C.C.C.C.C.C.C.C.C.C.C.C.C.C.C.C.C.C.C.C.C.C.C.C.C.C.C.C.C.C.C.C.C.C.C.C.C.C.Z.Z.C.C.C.C.C.C.Z.Z.C.C.Z.Z.Z.Z.Z.Z.%X%X%X%X%X%X%X%X%X%X%X%X%X%XZ.Z.Z.Z.C.C.C.C.C.C.C.C.C.C.C.C.B.B.B.B.C.C.&X&X&X&X&XB.C.B.B.B.&XB.B.B.B.B.&XB.B.B.B.B.M.m.m.m.m.m.m.#X#Xm.#Xm.m.m.l.l.k.k.k.k.k.k.k.k.k.k.g.g.g.g.g.I I I I I I I I I I g.T.Y..X.X.X.XR.Q.Y.Y.Q.Y.Y.Q.Y.Y.Y.Y.Y.R.Y.Y.Y.Y.Y.U.U.T.T.T.T.U.U.T.P P P P P P P P g.P I I I T.T.T.Y.Y.P.Y.Y.Y.Y.Y.Y.Y.Y.Y.Y.Y.P.P.R.R.R.'.'.'.'.'.'.'.].].^.^.^.^.].].].^.^.^.!.^.'.^.^.].^.^.'.'.'.'.'.'.P.P.P.P.T.T.T.T.T.T.T.T.T.T.T.T.T.T.T.T.T.T.T.T.T.T.T.T.T.T.T.T.I g.g.g.G.I g.T.g.I g.g.T.T.T.T.T.P.Y.I ",
"1 1 1 2 6 6 6 6 6 6 6 2 2 6 6 6 6 6 6 2 1 o o o o + = ; ; ; = = + ; ; ; ; ; ; ; ; ; ; ; ; ; ; ; ; ; ; ; ; ; ; ; ; ; ; ; ; ; ; - - - - - - - - - - - - - - - - - - - - - - - - z z - - - - - - - - - - - - - - - - - - - - - - - - - - - - - - - - - - - - z z z z z z z z z z z h h h h h h h h h h h h g j j j j g g g g g g g g g j g g g g j g g g g g g g g g g g g g g j j g j g g g g g g g g g g g g g g g g g g g j j j j j j j j j j j j j j j j j j j j j j j j j j j k k k k k k k Y Y Y ^ ^ ( ( ( ( ` ` ` ` ( ` ` ` _ q.D.D.D.D.D.D.D.z.z.z.x.x.x.x.x.b.b.A.b.A.A.V.V.A.b.b.A.V.V.V.b.A.A.A.A.V.V.V.N.N.N.N.B.B.B.B.N.N.N.B.B.B.B.B.B.B.C.C.C.C.C.C.C.C.C.C.C.C.B.B.C.C.C.C.C.C.C.C.C.C.C.C.C.C.C.C.C.C.C.C.C.C.C.C.C.C.C.C.C.C.C.C.C.C.C.C.C.C.C.Z.C.C.Z.Z.C.C.C.C.Z.Z.Z.C.Z.Z.Z.Z.C.C.Z.%X%X%X%X%X%X%X%X%X%X%X%X%XZ.Z.Z.Z.Z.Z.Z.Z.C.C.C.C.C.C.C.C.C.C.C.C.C.C.C.C.&X&X&XB.B.B.B.B.&XC.C.C.C.C.C.C.&XC.&X&X&X&X#X#XM.M.M.M.m.m.M.m.M.M.M.m.m.m. Xl.l.l.l.l.l.k.l.l.k.k.k.k.k.g.g.g.g.g.g.g.g.g.U.Y..XY.Y.Y.Y.Y.Y.Y.Y.Y.Y.Y.T.Y.T.T.T.T.Y.Y.Y.T.U.T.U.U.U.U.g.g.g.g.g.g.g.P P P P P P P P P g.g.T.T.T.T.T.T.T.T.T.T.T.T.T.T.T.T.T.T.P.P.P.Y.Y.Y.Y.Y.Y.Y.W.W.'.'.'.'.'.'.'.'.'.'.'.^.].].'.'.'.'.P.P.P.P.T.T.T.T.T.I I I I I I I I I I I I I I I I I I I I I g.T.I I I I I g.T.T.g.g.T.T.g.g.g.g.g.g.g.g.T.T.T.T.T.I ",
"o o o 2 6 6 6 6 6 6 6 2 2 2 6 6 6 2 2 2 1 o o o o + = = ; ; = ; ; ; ; ; ; ; ; ; ; ; ; ; ; ; ; ; ; ; ; ; ; ; ; ; ; ; ; ; ; ; ; - - - - - - - - - - - - - - - - - - - - - - - z z z - - - - - - - - - - - - - - - - - - - - - - - - - - - - - - - - - - - - z z z z z z z z z z z h h h h g h h h h h h h h j j j j g g g g g g g j j j g g g g g g g g g g g g g g g g g g g g j g g j g g g g g g g g g g g j j j g g g g j j j j j j j j j j j g j j j j j j j j j j j j j j j k k k k k k k Y k k ^ ^ ( ( ( ( ( ( ` ` ( ( ` ( _ _ _ q.h.h.h.h.h.D.D.D.z.x.x.x.x.b.b.b.b.A.b.b.b.b.b.b.V.b.b.x.b.b.b.b.b.A.V.V.V.N.N.N.N.B.B.B.B.B.B.B.C.C.C.C.C.C.C.C.C.C.C.C.C.C.C.C.C.C.C.C.C.C.C.C.C.C.C.C.C.C.C.C.C.C.C.C.C.C.C.C.C.C.C.C.C.C.C.C.C.C.C.C.C.C.C.C.C.C.C.C.C.Z.Z.Z.C.C.C.C.Z.Z.Z.C.Z.Z.Z.Z.C.C.Z.Z.%X%X%X&XZ.Z.Z.Z.Z.Z.Z.Z.Z.Z.Z.Z.Z.Z.Z.Z.%X%X%X%X%XZ.C.C.C.C.C.C.C.C.C.C.C.C.C.C.C.C.C.C.&X&XC.C.C.C.C.C.C.&X&X&X&X&X&X#X&X#XM.M.M.M.M.M.M.M.M.M.M.M.#X#Xm.m.m.m.#X#X#X#Xl.l.l.l. Xl.l.l. X X X X X X X.X.X.X}.g.g.g.g.g.g.g.g.g.g.g.g.g.T.T.U.U.U.U.U.U.U.U.U.g.g.g.g.g.g.g.g.g.g.g.g.g.I P g.g.g.g.g.g.g.g.g.g.T.T.T.T.T.T.T.T.T.T.T.T.T.T.T.T.T.T.T.T.T.T.T.T.T.T.T.T.P.P.P.P.Y.P.'.'.P.P.P.P.P.T.T.T.T.T.T.g.g.I I I T.T.T.T.T.T.T.T.I I I I I I I I I I g.g.g.g.g.I T.g.g.T.T.T.T.T.g.g.g.g.g.g.U.g.g.g.g.U.T.T.T.P ",
"1 o o 2 6 6 6 6 6 6 6 2 6 6 6 6 2 2 6 5 3 o o o o + = = ; ; ; ; ; ; ; ; ; ; ; ; ; ; ; ; ; ; ; ; ; ; ; ; ; ; ; ; ; ; ; ; - - - - - - - - - - - - - - - - - - - - z z - - - - - - - - z - d - z - - - - - - - - - - - - - - - - - - - - - - - - - - - - - - z z z z z z z z z z z h h h h g g h h h h h h h j j j j g g g g g g g g g g g g g g g g g g g g g g g g g g g g g g g g g g g g g g g g g g g g g j j j j g g g g j j j j g g g g j j g j j j j j j j j j j j j j j j j k k k k k k k k k Y ^ ( ( ( ( ( ( ( ( ( ( ( ( ( _ _ _ _ _ _ _ _ _ _ h.D.D.x.x.x.b.b.b.b.A.A.V.A.b.b.b.b.x.x.x.x.x.x.x.x.b.A.V.V.V.N.N.N.N.B.B.C.C.C.C.C.C.C.C.C.C.C.C.C.C.C.C.C.C.C.C.C.C.C.C.C.C.C.C.C.C.C.C.B.B.C.C.C.C.C.C.C.C.C.C.C.C.C.C.C.C.C.C.C.C.C.C.C.C.C.C.C.C.C.C.C.C.Z.Z.C.C.C.C.C.C.C.Z.Z.Z.Z.Z.C.Z.Z.%X%X%X%X&XZ.Z.Z.Z.Z.Z.Z.Z.Z.Z.Z.Z.Z.%X%XZ.%X%X%X%X%X%X%XZ.C.C.C.C.C.C.C.C.B.B.C.C.Z.C.C.C.&XC.C.C.C.C.C.C.C.C.C.C.&X&X&X&X&XB.M.M.M.M.C.&XM.M.M.M.M.M.M.M.M.M.M.M.#X#X#X#XM.M.M.M.#X#X#X#X#X#X X X X X X X X X Xl.k.k.k.k.}.k.g.g.g.g.g.g.g.g.g.g.g.g.g.g.g.g.g.g.g.g.g.g.g.g.g.g.g.g.g.g.g.g.g.g.g.g.g.g.g.g.g.g.g.g.g.g.g.g.g.g.g.g.g.g.g.g.g.g.g.g.g.g.g.g.g.g.g.g.g.g.g.g.g.T.T.T.T.T.T.T.T.T.T.T.g.g.g.g.g.g.T.T.T.T.T.T.U.T.T.T.T.T.T.T.T.T.T.T.T.T.T.T.T.T.T.U.U.T.T.g.g.g.U.U.T.U.g.g.g.g.g.g.U.g.g.g.g.g.U.T.U.P ",
"1 o o 2 6 6 6 2 6 6 6 6 6 6 6 6 6 6 6 6 3 o o o o + = = ; ; ; ; ; ; ; ; ; ; ; ; ; ; ; ; ; ; ; ; ; ; ; ; ; ; ; ; ; ; - - - - - - - - - ; - - - - - - - - - - - - z z z - - - - - - d d - d d z - - - - - - - - - - - - - - - - - - - - - - - - - - - - - - z z z z z z z z z z h h h h j g g h h h h h h h j j j j g g g g g g g g g g g g g g g g g g g g g g g g g g g g g g g g g g g g g g g g g g g g g j j j j g g g g g j j g g g g g j j j j j j j j j j j j j j j j j j j j k k k k k k k k k ^ ^ ( ( ( ( ( ( ( ( ( ( ( ( _ _ ` ` ` ` ` ( ` ` _ h.D.x.x.x.x.b.b.b.A.A.V.A.b.b.b.A.x.x.x.D.D.D.z.x.x.b.V.V.V.N.N.N.N.N.B.C.C.C.C.C.C.C.C.C.C.C.C.C.C.C.C.C.C.C.C.C.C.C.C.C.C.C.C.C.C.C.C.B.B.C.C.C.C.C.C.C.C.C.C.C.C.C.C.C.C.C.C.C.C.C.C.C.C.C.C.C.C.C.C.C.C.Z.Z.Z.C.C.C.C.C.C.C.Z.Z.Z.Z.Z.Z.Z.%X%X%X%X&XZ.Z.Z.Z.Z.Z.Z.Z.%X%XZ.%X%X%X%X%X%X%X%X%X%X%X%X%XC.C.C.C.C.B.B.B.B.B.C.C.Z.Z.Z.C.C.C.C.C.C.C.C.C.&X&X&X&XB.C.B.B.B.B.B.B.C.&XC.C.M.M.M.M.M.M.M.M.M.C.C.C.&X&X&X&X&XB.M.m.m.m.m.m.m.m.m.#X#X#X#X#X#X#X#X X X X X X X X Xk.}.k.g.g.g.g.g.g.g.g.g.g.g.g.g.g.g.g.g.g.g.g.g.g.g.g.g.g.g.g.g.g.g.g.g.g.g.g.g.g.g.g.g.g.g.g.g.g.g.g.g.g.g.g.g.g.g.g.g.g.g.g.g.g.g.I I I g.g.g.g.g.g.g.g.g.g.g.g.g.U.U.U.T.T.T.U.U.U.U.U.T.T.T.T.T.T.T.T.T.T.T.T.U.U.U.U.U.U.T.U.U.U.U.U.U.U.g.U.U.g.g.g.g.U.g.g.g.g.g.g.g.g.g.g.U.g.T.I ",
"1 o o 3 2 6 6 6 6 6 6 6 6 2 2 2 6 2 2 6 3 o o o o o = = = ; = = ; ; ; ; ; ; ; ; ; ; ; ; ; ; ; ; ; ; ; ; ; ; ; ; ; ; ; ; ; ; - - - - - - - - - - - - - - - - - - - - - - - - - - z z z z z - - - - - - - - - - - - - - - - - - - - - - - - - - - - - - - - z z d d z z z g g h h h h h h h h h h h h h j h h j j j j j j j g g g g g g g g j j j j j g g g g g g g g g g g g g g j j j j g g g g g g g g g g g g g g g j j j g g j j j j j j j j g g g g j j j k j j j j j j j j j j j j j j k k k k k k ^ ( ( ( ( ( ( ( ( ( ( ( ( ( ` _ ( ( ( ` ( ( ` _ h.D.x.x.x.b.b.b.b.V.V.V.V.V.b.x.x.z.h.h.h.h.h.D.D.x.x.A.V.V.V.N.N.N.N.B.B.B.B.C.C.C.C.C.C.C.C.C.C.C.C.C.C.C.C.C.C.C.C.C.C.C.C.C.C.C.C.C.B.C.C.C.C.C.C.C.C.C.C.C.C.C.C.C.C.C.Z.Z.Z.C.C.C.C.C.C.C.C.C.C.Z.C.C.C.C.Z.Z.Z.C.C.Z.Z.C.Z.Z.%X%X%X%X%X%X%X%X%X%X%X%X%X%X%X%XZ.Z.Z.Z.%X%X%X%X%X%X%X%X%X%XZ.Z.C.C.B.N.N.N.N.N.N.N.N.N.B.C.C.C.Z.Z.%X%XC.C.C.C.&X%XC.C.C.C.C.C.C.C.B.B.&X&X&X&XB.B.C.C.C.&XC.M.M.M.M.M.M.M.M.C.C.C.M.M.m.m.M.M.M.M.M.&X&X&X#X#X#X#X#X#X#X#X#X#X#X#X#X#X X X X Xk.k.k.k.g.g.g.g.g.g.g.g.g.g.g.g.g.g.g.g.g.g.g.g.g.g.g.g.g.g.g.U.g.g.g.g.g.g.g.g.g.g.g.g.U.U.U.U.U.U.U.U.U.U.U.g.g.g.g.g.g.g.g.g.g.g.g.g.g.g.g.g.g.g.g.g.g.g.g.g.g.g.g.g.U.U.g.g.g.g.U.U.}.|.|.|.|.|..X.X.X.X|.|..X.X.X.X.X.X}.}.}.}.}.U.U.U.U.U.U.U.U.U.U.U.g.g.g.g.g.g.g.g.g.g.}.P ",
"1 o o 1 2 6 6 6 6 6 6 6 6 2 2 2 6 2 2 6 3 o o o o o = ; = ; = = ; ; ; ; ; ; ; ; ; ; ; ; ; ; ; ; ; ; ; ; ; ; ; ; ; ; ; ; ; ; - - - - - - - - - - - - - - - - - - - - - - z - - - - - z z - - - - - - - - - - - - - - - - - - - - - - - - - - - - - - - - - z z d z z z g h h h h h h h h h h h h h h g g h j j j j j j j j g g g g g g g g g j j j j g g g g g g g g g g g g g g g g g g g g g g g g g g g g g g g g g j j j j g j j j j j j j g g g g j j j j j j j j j j j j j j j j j j j k k k k k Y ^ ( ( ( ( ( ( ( ( ( ( ( ( ( ` _ ` _ ( _ ( ( ( ` _ D.z.x.x.x.b.b.b.b.A.V.b.x.x.x.x.D._ _ ` ` ` _ h.D.x.x.V.V.V.N.N.N.B.B.B.B.C.C.C.C.C.C.C.C.C.C.C.C.C.C.C.C.C.C.C.C.C.C.C.C.C.C.C.C.C.C.B.C.C.C.C.B.B.B.C.C.C.C.C.C.C.C.C.C.C.C.C.C.C.C.C.C.C.C.Z.Z.Z.Z.Z.Z.C.C.Z.Z.Z.C.Z.Z.Z.Z.Z.%X%X%X%X%X%X%X%X%X%X%XZ.Z.Z.%X%X%XZ.Z.Z.Z.Z.Z.Z.C.C.C.N.N.m.A.A.A.A.A.x.x.x.x.l.l.l.l.x.x.A.m.m.N.B.C.C.C.C.C.C.C.%X%X&X&X%X%XC.C.C.C.B.B.&X&X&X&XB.B.C.C.C.&XC.C.C.C.&X&X&XC.C.C.C.Z.C.M.M.M.M.M.M.M.&X&X&X&XM.m.m.l.m.l.l.l.k.k.k.k.k.k.k.k.k.k.k.k.k.k.k.k.k.k.g.g.g.g.g.g.g.g.g.g.g.g.k.g.g.g.g.g.g.g.g.g.g.U.U.g.g.g.}.}.U.U.U.}.U.U.U.U.U.U.U.U.g.g.g.g.g.g.g.g.g.g.g.g.g.g.g.g.g.g.g.g.g.g.g.g.g.g.g.g.g.g.g.g.g.g.g.}.U.U.}.}.}.}.|.|..X.X|.|..X.X.X.X|..X.X.X.X X.X.X X X X.X|.|.|.}.}.}.}.}.}.}.}.}.k.g.g.g.g.g.g.g.g.g.k.P ",
"1 o o 1 2 6 6 6 6 6 6 6 6 2 2 2 2 2 6 6 2 o o o o o = ; ; = = = ; ; ; ; ; ; ; ; ; ; ; ; ; ; ; ; ; ; ; ; ; ; ; ; ; ; ; ; ; ; - - - - - - - - - - - - - - - - - - - - - - d d - - - - - - - - - - - - - - - - - - - - - - - - - - - - - - - - - - - - - - z z z z z z g h h h h h h h h h h h h h h g g g h h j j h h h h h g g g g j g g g g g j j j g g j g g g g g g g j j g g g g g g g g g g g g g g g g g g g g g g g g j j g j g g j g g g g j j j j j j j j j j j j j j j j j j j j j k k k k k k ^ ^ ( ( ^ ^ ( ( ( ( ( ( ( ( ` ` ` ` _ _ ` ( ( ` _ D.z.x.x.x.b.b.b.b.b.A.b.b.b.x.h._ ` ( ^ ^ ^ ( ` _ D.D.x.x.b.V.V.V.B.N.B.B.Z.C.C.C.C.C.C.C.C.C.C.C.C.C.C.C.C.C.C.C.C.C.C.C.C.C.C.C.C.C.C.C.C.C.C.C.C.C.C.C.C.C.C.C.C.C.Z.C.C.C.C.C.Z.Z.C.C.C.C.Z.Z.Z.Z.Z.C.C.Z.Z.Z.Z.C.C.C.C.Z.Z.%XZ.Z.&XZ.Z.Z.Z.Z.Z.Z.Z.Z.Z.Z.Z.C.N.N.N.N.A.m.A.A.x.x.l.h.h.h.h.h.h.h.h.h.h.h.h.h.h.h.j.j.x.A.m.m.N.B.B.C.C.C.C.C.%X%X%X%X%X%X%X%XC.C.B.C.C.C.&X&XC.B.C.C.&X&X&X&X&X&X&X&XZ.Z.C.C.C.C.C.C.C.C.C.C.C.C.M.M.M.N.m.m.A.l.A.l.k.j.h.h.h.h.h.h.h.h.k.k.k.k.k.k.k.k.k.k.k.k.k.k.k.k.k.k.k.k.k.k.k.k.k.k.k.k.k.k.k.k.k.k.k.k.k.g.g.g.g.g.k.k.g.g.g.g.g.g.g.g.g.g.g.g.g.g.g.g.k.k.k.k.k.}.}.}. X X X X X X X X X X X X X X X Xk.}. X X X X X X X X X X X X X X X X X X X X X X X X X X X X X X X X X X X X X X X X X X Xk.k.k.k.k.k.k.}.k. Xg.",
"2 o o 1 2 6 6 6 6 6 6 6 6 2 2 2 2 2 6 6 2 1 o o o o = = ; ; ; ; ; ; ; ; ; ; ; ; ; ; ; ; ; ; ; ; ; ; ; ; ; ; - - ; ; ; ; ; ; - - - - - - - - - - - - - - - - - - - - - - d d - - - - - - - - - - - - - - - - - - - - - - - - - - - - - - - - - - - - - z z z z z z g h h h h h h h h h h h h h h g g g g h h j j h h h h h g g g g j g g g g g g g g g g j j g g g g g g g g g g g g g g g g g g g g g j j g g g j g g g g g j j j g g g j g g g j j j j j j j j j j j j j j j j j j j j j j k k k k k k k k ^ ^ ^ ^ ( ( ( ( ( ( ( ( ` ` ` ` _ _ _ _ ` _ _ D.z.x.x.x.b.b.b.b.b.b.b.b.x.D._ ^ ^ ^ ` ( ^ x x ^ ^ ` ` h.x.b.V.V.V.B.B.B.Z.C.C.C.C.C.C.C.C.C.C.C.C.C.C.C.C.C.C.C.C.C.C.C.C.C.C.C.C.C.C.C.C.C.C.C.C.C.C.C.C.C.C.C.C.C.C.C.C.C.C.C.C.C.C.C.C.C.Z.Z.Z.Z.C.C.C.Z.Z.Z.Z.Z.C.C.Z.Z.%X%XZ.Z.Z.C.C.C.C.C.C.N.N.N.m.A.A.A.A.x.l.h.h.h.h.h.h.h.h.h.h.h.h.h.h.h.h.h.j.x.x.A.A.A.A.A.m.m.N.N.N.N.B.C.C.C.C.C.%X%X%X%X%X%X%X%XC.C.C.C.C.&X%X&XC.C.&X&X&X&X&X&X&X&XC.C.C.C.C.B.B.B.B.B.B.B.B.B.B.B.m.m.m.m.m.m.A.A.A.A.A.A.A.A.A.A.x.x.x.l.l.l.l.l.l.l.l.l.l.l.l.l.l.l.l.l.m.#Xm.m.l. X#X#X#Xl.l.l.l.k.k.k.k.k.k.k.k.k.k.k.k.k.k.k.k.k.k.k.k.k.k.k.k.k.k.k.k.k.k.k.l.l.l.l. X X X X X X Xl. X#X X X X X X X X X#X X X X Xl.l.l.l.l.k.k.k.l.k.k.k.k.l.l.l.l.l.l.l.k.k.k.k.k.k.k.k.k.k.k.k.k.k.k.k.k.k.k.k.k.k.k.k.k.k.k.k.k.k.k.l.k.",
"2 o o 1 2 2 6 6 6 6 6 6 6 2 2 2 6 2 6 6 2 1 o o o o = = ; ; ; ; ; ; ; - ; ; ; ; ; ; ; ; ; ; ; - ; ; ; ; ; ; ; - ; ; ; ; ; ; ; - - - - - - - - - - - - - - - - - - - - z d z - - - - - - - - - - - - - - - - - - - - - - - - - - - - - - - - - - - - z z z z z z h h h h h h h h h h h h h h h h g g g h h h j j h h j j j g g g g g g g g g g g g g g g g g g g g g g g g g g g g g g g g g g g g j j j g g g g j g g g g g j j j g j j j j j j j j j j j j j j j j j j j j j j j j j j j j j j k k k Y k k k ^ ^ ^ ^ ( ( ( ( ( ( ( ( ` ( ( ( _ _ _ _ _ _ D.z.x.x.x.b.b.b.b.x.b.A.x.x.h.` ^ ^ ( _ ` ^ x x x x x x ^ h.x.V.V.V.B.B.B.Z.C.C.C.C.C.C.C.C.C.C.C.C.C.C.C.C.C.C.C.C.C.C.C.C.C.C.C.C.C.C.C.C.C.C.C.C.C.C.C.C.C.C.C.C.C.C.C.C.C.C.C.Z.C.Z.Z.Z.C.C.C.C.C.Z.C.Z.C.Z.Z.C.C.C.C.C.C.C.C.N.N.N.m.m.A.A.A.A.A.h.h.h.h.h.h.h.h.h.h.h.h.h.h.h.h.h.h.l.x.A.A.A.A.A.m.m.N.N.N.C.C.C.C.C.C.C.C.C.C.C.C.C.C.C.C.C.%X%X%X%X%X%X%XC.C.C.C.C.C.C.C.C.C.Z.C.C.C.C.C.C.C.C.C.C.C.C.N.N.N.N.N.m.m.m.N.N.N.A.m.m.m.m.N.N.N.N.N.N.B.C.N.N.N.B.B.B.B.N.M.M.M.m.N.m.m.m.m.m.m.m.m.m.m.m.m.M.M.m.m.#X#X#X#Xm.m.m.m.m.l.l.l.l.l.l.l.l.l.l.l.l.l.l.l.l.l.l.l.l.l.l.l.l.l.l.l. X#X#X#X#X#X#X#X#X#X#X#X#X#X#X#X#X#X#X#X#X#X#X#Xm.m.m.m.m.m.m.m.v.l.l.l.l.l.l.l.l.v.A.A.A.A.A.A.v.v.v.v.x.x.l.l.l.l.l.k.k.k.k.j.j.j.j.j.j.j.j.h.h.h.k.h.h.k.k.k.k.h.",
"2 o o 1 1 2 6 6 6 6 6 6 6 2 2 2 6 6 6 6 2 1 o o o o = ; ; ; ; ; ; ; ; - ; ; ; ; ; ; ; ; ; ; ; - ; ; ; ; ; ; ; - ; ; ; ; ; ; ; - - - - - - - - - - - - - - - - - - - - z - z - - z z - - - - - - - - - - - - - - - - - - - - - - - - - - - - - - - - z z z z z z h h h h h h h h h h h h j j j j g g g g h h j j h h j j j g g g g g g g g g j j g g g g j j g g g g g g g g g g g g g g g g g g g g g g g g g g g g g g g g j j j j j j j j j j j j j j j j j j j j j j j j j j j j j j j j j k k k k Y k k k ^ ^ ^ ^ ^ ( ( ( ( ( ( ( ( ( ( _ _ _ _ _ _ h.D.z.x.x.x.x.b.x.x.x.x.x.x.x.h.` ^ x ^ ^ ^ ( ` ` ` ^ x x ^ h.x.V.V.N.B.B.B.Z.C.C.C.C.C.C.C.C.C.C.C.C.C.C.C.C.C.C.C.C.C.C.C.C.C.C.C.C.C.C.C.C.C.C.C.C.C.Z.Z.Z.Z.Z.Z.Z.Z.Z.Z.Z.%X%XZ.Z.Z.Z.C.C.C.C.N.B.N.N.N.N.m.m.m.A.A.m.m.A.A.A.A.x.x.l.j.h.h.h.h.h.h.h.h.h.h.h.h.h.h.x.x.x.A.A.A.m.A.A.m.N.N.B.C.C.C.C.C.Z.Z.Z.Z.Z.Z.Z.Z.Z.Z.C.C.C.C.Z.C.C.C.C.C.C.C.C.%X%X%X%XC.&X&X%X%XC.C.C.C.C.C.Z.C.C.C.C.C.C.C.C.C.C.C.C.B.B.N.N.N.m.m.m.N.N.N.N.N.N.N.N.B.B.C.C.C.C.C.Z.C.C.C.C.C.C.C.C.C.C.C.C.C.N.N.N.m.m.N.N.N.N.N.m.M.M.M.M.M.M.M.M.M.m.m.m.M.m.m.M.#X#Xm.#X#X#X#X#X#X#Xm.#X#X#X#Xm.m.#X#X#Xm.#X#X#X#X#X#X#X#X#X#X#X#X$X$X$X#X$X#X&X$X#X$X#X#X#X#X#Xm.m.m.m.m.m.m.m.m.v.v.x.x.x.x.A.A.A.A.m.m.m.A.m.A.A.A.v.v.v.v.v.A.v.v.A.v.v.A.A.A.A.A.A.A.x.x.x.x.x.l.k.k.k.k.k.j.k.h.",
"6 1 o 1 1 2 6 6 6 6 6 6 6 2 2 2 6 6 6 6 2 3 o o O o = ; ; ; ; ; ; ; ; ; ; ; ; ; - ; ; ; ; ; - - ; ; ; ; ; ; ; ; ; ; ; ; - - - - - - - - - - - - - - - - - - - - - - - - - - - - - - - - - - - - - - - - - - - - - - - - - - - - - - - - - - - - - - z z z z z h h h h h h h h h h h h h j j j j j j j j j j h j h h h g g g g g g g g g g g g j g g g g g g g g g g g g j g g g g g g g g g g g g g g g g g g g g g g j j j j g j j j j j j j j j j j k j k j j j j j j j j j j j j j j j j j k k k k Y k k k ^ ^ ^ ^ ^ ( ( ( ( ( ( ( ( ` _ _ _ _ _ _ h.D.D.x.x.x.x.x.x.x.x.x.x.x.x.x.h.` x x x ` ` h.h.D.x.h.h.` h.z.b.V.N.N.Z.B.B.C.C.C.C.C.C.C.C.C.C.C.C.C.C.C.C.C.C.C.C.C.C.C.C.C.C.C.C.C.C.Z.Z.Z.Z.Z.Z.Z.Z.Z.Z.Z.Z.C.C.C.C.Z.Z.C.C.C.B.B.B.m.m.m.A.A.A.A.A.A.x.x.x.x.l.l.h.h.h.h.h.h.h.h.h.h.h.h.h.h.h.h.h.h.h.l.A.A.A.A.A.N.N.N.C.C.C.Z.Z.Z.Z.Z.Z.Z.Z.Z.Z.Z.Z.Z.Z.Z.Z.Z.Z.C.C.C.C.C.C.C.C.C.Z.Z.Z.C.C.C.C.C.%X%X%X%XC.&XC.&X%XC.Z.C.C.&XC.Z.Z.C.C.C.C.C.C.C.C.C.C.C.C.C.B.B.N.N.N.N.B.B.N.C.C.C.C.C.C.C.C.C.C.C.C.C.C.C.C.B.B.B.B.B.B.B.C.B.N.N.N.N.N.N.m.m.m.B.N.M.M.C.C.M.M.M.M.M.M.M.M.B.N.N.M.M.M.M.M.#X&X&X#X#X#X#X#XM.M.#XM.M.M.M.M.m.m.m.m.M.M.M.#X#X#X#X#X#X#X#X&Xm.m.m.m.m.m.m.m.m.m.m.m.m.m.m.m.m.A.m.m.A.A.A.v.A.A.A.A.A.m.m.m.m.m.m.m.m.m.A.A.A.A.v.v.A.A.A.A.A.A.A.A.m.m.m.m.m.m.m.m.m.m.m.m.A.m.A.x.x.l.v.j.",
"6 1 o 1 1 2 6 6 6 6 6 6 6 2 2 2 6 6 2 2 2 3 o o O o = ; ; ; ; ; ; ; ; - ; ; ; ; ; ; ; ; ; ; ; ; ; ; ; ; ; ; ; ; ; ; ; - - - - - - - - - - - - - - - - - - - - - - - - - - - - - - - - - - - - - - - - - - - - - - - - - - - - - - - - - - - - - - - z z z z h h h h h h h h h h h h h h j j j j j j j j j j h h h h h h g g g g g g g g g g g j g g g g g g g g g g g g j g g g g g g g g g g g g g g g g g g g g g g j j j g g g j j j j j j j j j j k j k j j j j j j j j j j j j j j j j j j j k k Y k k ^ ^ ^ ^ ^ ^ ( ( ( ( ( ( ( ( ` _ _ _ _ _ h.D.D.D.x.x.x.x.x.x.x.x.x.x.x.x.x.D._ ` ` ` h.h.x.x.b.A.A.A.x.x.b.V.V.N.N.B.B.B.C.C.C.C.C.C.C.C.C.C.C.C.C.C.C.Z.C.C.C.C.Z.Z.C.C.C.C.C.C.C.C.C.C.C.C.C.Z.Z.Z.C.C.C.C.C.C.C.C.C.B.N.m.A.A.A.A.x.x.x.j.h.h.h.h.h.h.h.h.h.h.h.h.h.h.h.h.h.h.h.j.x.x.x.A.A.A.m.m.N.N.C.C.C.Z.Z.Z.Z.Z.Z.Z.%X%XZ.Z.%X%XZ.%XZ.Z.Z.Z.Z.C.C.C.Z.Z.Z.Z.C.C.C.C.C.C.C.C.C.C.%X%X%X%XC.C.%X%X%X%X%X%XC.C.&X&X&XZ.C.C.&XC.Z.Z.C.C.C.C.C.C.C.C.C.C.C.C.C.C.C.C.C.C.C.C.C.C.C.C.C.Z.C.C.C.C.C.C.C.C.C.C.C.C.B.B.B.B.B.B.M.C.B.B.N.N.C.B.B.N.m.N.M.C.C.C.N.N.M.M.M.M.M.M.M.B.B.B.M.B.B.C.M.M.M.M.M.C.M.M.M.C.B.M.#X#X#XM.&X&XM.M.M.M.M.M.M.&X#X#X#X#XM.M.m.m.m.m.m.m.m.m.m.m.m.m.m.m.m.m.m.m.m.m.A.A.A.A.A.v.A.A.m.m.m.m.m.m.m.m.m.m.m.m.m.A.m.m.m.m.A.m.m.m.m.m.m.m.A.m.m.m.B.B.B.N.N.m.m.A.m.m.A.A.A.x.v.j.",
"2 1 o o 1 2 6 6 6 6 6 6 6 6 2 2 2 6 6 6 2 2 1 o o o o + = ; ; ; ; ; ; ; ; ; ; ; ; ; ; ; ; ; ; ; ; ; ; ; ; ; ; ; ; ; ; ; ; ; - - - - - - - - - - - - - - - - - - - - - - - - - - - - - - - - - - - - - - - - - - - - - - - - - - - - - - - - - - z z z d z z g g h h h h h h h h h h h j h h j j j g g g g j j j h h g g h h g g g g j g g g g g g g g g g g g g j j j g g g g g g g g g g g g g d d g g g g g g g g j j j g g g g j j j j j k k j j j j j j j j g g j j j j j j j j j j j j k k k k k k k k ^ ^ ^ ^ ^ ( ( ( ( ( ( ( ( ( ` _ _ _ h.h.D.D.D.D.x.x.x.x.x.x.z.z.z.x.x.x.x.x.x.x.x.x.b.b.V.V.V.V.V.V.V.V.V.Z.Z.B.B.C.B.B.C.C.C.C.C.C.C.C.C.C.C.C.Z.Z.Z.Z.C.C.Z.Z.Z.Z.Z.Z.Z.C.C.C.Z.Z.Z.Z.Z.Z.Z.Z.Z.B.B.N.N.N.N.A.A.A.x.x.x.x.h.h.h.h.h.h.h.h.h.h.h.h.h.h.h.h.j.j.x.x.x.x.x.A.A.m.m.m.N.N.C.C.C.C.C.C.Z.Z.Z.Z.Z.Z.C.C.Z.Z.Z.Z.Z.Z.Z.Z.Z.Z.Z.%XZ.Z.Z.Z.Z.Z.Z.Z.Z.Z.Z.Z.C.C.C.Z.C.Z.Z.Z.C.C.C.Z.Z.Z.%X%X%X%X%X%X%X%X%XC.%X%X%X%XZ.Z.C.C.C.C.C.Z.Z.C.C.C.C.C.C.C.C.C.C.C.C.C.C.C.C.C.C.C.Z.Z.Z.C.C.C.C.C.C.C.C.C.C.C.C.C.C.C.C.C.C.C.C.C.C.C.C.C.C.C.C.C.C.C.C.C.C.C.B.B.M.M.M.M.M.M.M.M.M.M.M.M.C.C.C.C.C.C.&X&XC.C.C.&XB.B.B.B.B.C.&X&XB.B.B.B.B.B.B.B.B.B.&X&X&X&XM.M.B.B.B.B.B.B.B.B.B.B.M.M.M.M.m.m.B.m.m.m.m.m.A.m.B.B.B.N.N.m.m.m.B.B.m.m.m.m.m.m.m.m.m.m.m.m.m.m.A.A.A.m.N.N.N.N.N.N.N.N.N.N.N.N.A.m.A.v.A.v.N.j.",
"2 1 o o 1 2 6 6 6 6 6 6 6 6 2 2 6 6 6 6 2 3 1 o o o o = = ; ; ; ; ; ; ; ; ; ; ; ; ; ; ; ; ; ; ; ; ; ; ; ; - ; ; ; ; ; ; ; - - - - - - - - - - - - - - - - - - - - - - - - - - - - - - - - - - - - - - - - - - - - - - - - - - - - - - - - - - - z z z z z z g g h h h h h h g h h h h j h j j j j j j j j j j j j h g g g h g g g g g g g h h g g g g g g g j j j j j g g g g g g g g g g g g g d g g g g g g g g g g g g g g g g j j j j k k k j j j j j j j j j j g g j j j j j j j j j j k k j k k k k k ^ ^ ^ ^ ^ ( ( ( ( ( ( ` _ _ _ _ _ q.h.D.D.z.z.x.z.z.z.z.z.D.D.D.z.z.x.x.x.b.b.V.V.V.V.V.V.V.V.V.V.V.V.V.V.Z.Z.B.B.C.C.C.C.C.C.C.C.C.C.C.C.C.Z.Z.Z.Z.Z.Z.Z.Z.Z.Z.Z.Z.C.C.C.C.Z.C.C.C.C.C.B.N.N.A.A.A.x.x.x.x.x.h.h.h.h.h.h.h.h.h.h.h.h.x.x.x.x.x.x.A.A.A.A.A.m.m.m.m.m.m.m.N.B.C.C.C.Z.Z.Z.Z.Z.Z.Z.Z.Z.Z.Z.Z.Z.C.C.C.C.C.Z.Z.C.Z.Z.Z.%X%X%X%XZ.Z.Z.Z.Z.Z.Z.C.C.C.C.C.C.C.C.C.C.C.Z.Z.C.C.C.C.Z.Z.Z.Z.C.%X%X%X%X%X%XC.Z.Z.%X%X%XZ.Z.Z.C.C.C.Z.Z.C.C.C.C.C.C.C.C.C.C.Z.C.C.C.C.C.C.C.C.Z.Z.C.C.C.C.C.C.C.C.C.C.C.C.C.C.C.C.C.C.C.C.C.C.C.C.C.C.C.C.C.C.C.C.C.C.C.C.B.B.C.C.C.C.M.M.M.B.C.C.M.C.C.C.C.C.C.C.&X&XC.C.C.&XC.C.C.C.C.C.&X&XB.B.B.B.&X&X&X&XB.B.&X&X&X&XB.B.B.B.B.B.B.B.B.B.B.B.M.B.M.M.m.m.B.m.A.m.m.m.m.B.B.B.N.m.m.m.m.m.B.B.N.m.m.m.m.m.m.N.N.N.N.m.N.N.A.m.m.m.N.N.V.N.N.N.N.N.N.N.N.N.m.m.m.v.m.v.V.j.",
"2 1 o o 1 2 6 6 6 6 6 6 6 6 2 2 6 6 6 6 2 3 1 o o o o = ; ; ; ; ; ; ; ; ; ; ; ; ; ; ; ; ; ; ; ; ; - - - - - ; - ; ; ; - - - - - - - - - - - - - - - - - - - - - - - - - - - - - - - - - - - - - - - - - - - - - - - - - - - - - - - - - - - - - z z d z z z g g h h h g h h h h h h h h h h j j j j h j j j h h g h g g z d d d d g g g g g h g g g g g g j g g j j j g g g h g g g d g g g g g g g g g g g g g g g g g g g g j g g g j j k k Y j j j j j j j j j j j g j j j j j j j j j k k k j k k Y k k ^ k ^ ^ ^ ( ( ( ( ( ` _ _ _ _ _ q.h.D.D.z.z.z.z.D.D.D.D.D.D.D.D.D.z.x.x.x.b.A.V.V.V.V.V.V.V.V.V.V.V.V.V.V.V.V.B.B.C.Z.Z.Z.Z.Z.Z.Z.Z.C.C.Z.Z.Z.Z.Z.Z.Z.Z.Z.Z.Z.Z.C.C.C.B.N.N.N.N.N.N.A.A.x.x.x.h.h.h.h.h.h.h.h.h.h.h.h.h.h.h.x.x.x.x.x.x.A.A.m.m.N.N.C.C.C.C.C.C.C.C.C.C.C.C.C.Z.Z.Z.Z.%XZ.Z.Z.Z.Z.C.Z.Z.Z.C.C.C.C.C.C.C.Z.Z.C.C.C.C.Z.Z.C.C.Z.Z.Z.Z.Z.Z.Z.Z.C.Z.Z.%XC.C.C.C.C.C.C.Z.C.C.C.C.C.C.Z.Z.C.C.%X%X%X%X%XC.Z.Z.%X%X%X%X%X%X%XC.C.C.C.C.C.C.C.C.C.C.Z.Z.Z.Z.C.C.C.Z.Z.C.Z.C.Z.Z.C.C.C.C.C.C.C.C.C.C.C.C.C.C.C.C.C.C.C.C.C.C.C.C.C.C.C.C.C.C.C.C.C.C.C.C.C.C.&X&XC.C.C.C.C.C.C.C.C.C.C.C.C.&XC.C.C.&XC.C.&X&X&X&XC.C.&X&X&X&X&XC.B.C.&X&X&X&XB.C.&X&XB.B.B.B.C.C.C.B.B.B.C.B.B.B.B.B.B.B.B.m.m.m.A.A.m.m.B.B.B.B.N.m.m.m.m.N.B.B.N.N.N.B.m.m.N.N.N.N.N.N.N.N.N.N.N.N.N.N.N.V.N.N.N.N.V.N.N.N.m.N.A.b.A.b.V.z.",
"2 1 o o 1 2 6 6 6 6 6 6 2 2 2 2 6 6 6 2 2 2 1 o o o o = = ; ; ; ; ; ; ; ; ; ; ; ; ; ; ; ; ; ; ; - - - - - - - - - - - - - - - - - - - - - - - - - - - - - - - - - - - - - - - - - - - - - - - - - - - - - - - - - - - - - - - - - - - - - - z z z z d z z g g g h h h h h h g g h h h h h h j j j j h h h h h g g z d , - - - - d d d g g g g g g g g g g j j j j j j g g g g g g g d d d d d d d g g g g g g g g g g g g j j j g j g j j j k k j j j j j j j j j j j g j j j j j j j j j j k k j k k Y k ^ ^ k ^ ^ ^ ^ ( ( ( ( ( ` _ _ _ _ h.h.D.D.D.D.D.D.D.h.h.h.h.h.h.D.x.x.x.x.x.b.A.A.V.V.V.V.V.V.V.V.V.x.x.x.x.b.V.V.B.B.Z.Z.Z.Z.Z.Z.Z.Z.Z.Z.Z.Z.Z.Z.Z.Z.Z.C.B.B.B.N.N.N.A.A.v.x.x.x.x.h.h.h.h.h.h.h.h.h.h.h.x.x.x.x.x.x.b.b.A.A.N.N.N.N.N.N.B.B.C.C.C.C.%X%XZ.Z.%X%X%X%XZ.C.C.C.C.C.C.C.Z.Z.Z.Z.C.C.C.C.Z.Z.Z.C.C.C.C.C.C.C.C.Z.C.C.C.C.Z.Z.C.C.C.C.Z.Z.B.B.B.B.B.B.C.C.%XZ.Z.C.C.C.C.C.C.C.C.C.C.C.C.Z.Z.Z.%X%X%X%X%XC.%X%X%X%X%X%X%X%X%X%XC.C.C.C.C.Z.C.C.C.C.Z.Z.Z.Z.C.C.C.C.C.C.C.C.Z.Z.C.C.C.C.C.C.C.C.C.C.C.C.C.C.C.C.C.C.C.C.C.C.C.C.C.C.C.C.C.C.C.C.C.C.C.C.C.C.C.C.C.C.C.C.C.C.C.C.C.C.C.&X&X&X&X&XC.C.C.&X&X&X&X&X&X&X&X&X&X&X&XC.C.C.C.&X&X&XC.C.&X&XC.C.C.C.C.C.C.C.B.B.C.B.B.B.B.B.B.B.B.B.m.m.m.m.m.B.B.B.B.B.B.B.m.m.m.B.N.N.N.N.N.N.N.N.N.N.N.N.N.N.N.N.N.N.N.N.N.N.N.V.N.N.N.N.N.V.N.N.N.N.A.A.V.b.V.z.",
"6 1 o o 1 2 6 6 6 6 6 6 6 6 6 6 6 6 6 2 2 2 3 o o o o + = ; ; ; ; ; ; ; ; ; ; ; ; ; ; - - - ; ; - - - - - - - - - - - - - - - - - - - - - - - - - - - - - - - - - - - - - - - - - - - - - - - - - - - - - - - - - - - - - - - - - - - - - z z z z z z z h h h h h h h h h h h g h h h j h h j j j h h h h h g d - ; ; ; < < < < ; ; d d d g g g j j j j j g g g g g g g g g g g g d d d d d d d d d g g g g g g g g g g j j j j j j j j j j j j j j j j k k j j j j j j j j j j j j j j k k k k k k k Y ^ ^ ^ ^ ^ ^ ^ ( ( ( ( ( ( ` _ _ _ _ q.h.D.D.D.D.D.h._ _ _ _ _ h.D.x.x.x.x.b.A.V.V.V.V.V.V.V.V.V.V.V.x.h.h.h.h.x.V.Z.Z.Z.B.Z.Z.Z.Z.Z.Z.Z.Z.Z.C.C.C.C.C.B.N.N.N.A.v.x.x.x.x.h.h.h.h.h.h.h.h.h.h.D.x.x.x.x.b.A.A.A.V.V.V.V.V.V.V.Z.Z.Z.Z.Z.Z.%XZ.%XZ.Z.Z.Z.%X%X%X%X%X%X%X%XZ.Z.Z.Z.Z.Z.Z.C.C.C.C.Z.Z.Z.Z.Z.C.C.C.C.C.C.C.Z.C.C.C.C.C.C.C.C.Z.Z.Z.%XZ.C.C.B.Z.Z.Z.Z.C.C.Z.Z.Z.Z.Z.Z.Z.%XC.C.Z.Z.Z.C.Z.Z.Z.Z.Z.Z.Z.%X%X%X%X%X%X%X%X%X%X%X%X%X%X%XZ.Z.Z.Z.Z.%XZ.Z.Z.Z.Z.Z.Z.Z.C.C.C.C.C.C.C.C.C.C.C.C.C.C.C.C.C.C.C.C.C.C.C.C.C.C.C.C.C.C.C.C.C.C.C.C.C.C.C.C.C.C.C.C.C.C.C.C.&X&X&X&X&X&X&X&X&X&X&X&X&X&X&X&XZ.Z.%XZ.&XC.&X&XC.C.%X%X%X%XC.C.&X&XC.&X&X&X&X&X&X&XC.C.C.&X&X&X&XC.C.C.C.C.C.C.B.B.B.C.B.B.m.m.m.A.m.m.B.B.B.B.B.B.B.B.B.B.N.N.N.B.B.B.N.N.N.N.N.N.N.N.N.N.N.N.N.V.N.N.N.N.N.N.N.N.N.N.N.V.V.V.V.V.V.A.A.b.V.z.",
"6 1 o o 1 2 6 6 6 6 6 6 6 6 6 6 6 6 6 2 2 2 1 o o o o o = ; ; ; ; ; ; - ; ; ; ; ; ; ; - - - ; ; - - - ; - - - - - - - - - - - - - - - - - - - - - - - - - - - - - - - - - - - - - - - - - - - - - - - - - - - - - - - - - - - - - - - - z z z z z z z g h h h h g g g g h h g h h h h g h h j j h h h h g g , , < < < % % % < < < < ; - d d g g g g g j j g g g g g g g g g g g d d d d d d d d d d g g g g g j g g g g j j j j j j j j j j j j j j j j k k j j g j j j j j j j j j j j k k k k k k k k ^ ^ ^ ^ ^ ^ ^ ^ ( ( ( ( ( _ _ _ _ _ q.h.h.D.D.D.h._ ` ^ ^ ^ ` _ h.x.x.b.A.A.V.V.V.V.V.V.V.V.V.V.V.b.z.h.` h.h.x.V.Z.Z.Z.Z.Z.Z.Z.Z.Z.C.B.Z.B.N.N.A.A.A.v.x.x.x.h.h.h.h.h.h.h.h.h.D.z.x.x.x.x.b.A.V.V.V.V.V.V.V.V.V.V.V.V.Z.Z.Z.%X%XZ.Z.%X%X%X%X%XZ.Z.Z.Z.%X%X%X%X%X%X%X%XZ.Z.Z.Z.Z.Z.Z.Z.Z.C.C.C.C.C.C.C.C.C.C.C.C.C.Z.Z.C.C.C.C.Z.Z.C.C.Z.Z.Z.Z.Z.B.B.B.Z.Z.Z.Z.B.B.C.C.Z.B.Z.Z.%X%XZ.C.Z.Z.C.C.Z.Z.Z.Z.C.Z.Z.Z.Z.Z.Z.Z.%X%X%X%X%X%X%XC.%X%XZ.Z.Z.Z.%X%XZ.Z.Z.Z.Z.Z.Z.Z.C.C.C.C.C.C.C.Z.C.C.C.C.C.C.C.C.C.C.C.C.C.C.C.C.C.C.C.C.C.C.C.C.C.C.C.C.C.C.C.C.C.C.C.C.C.C.C.Z.C.C.C.C.C.%X&XC.%XC.C.C.&X&X&X&XZ.Z.%XC.C.C.C.C.C.C.%X%X%XC.C.C.C.C.C.C.&X&XC.C.&X&X&XC.C.C.&X&X&X&XC.C.C.C.C.C.B.B.B.B.B.B.m.m.A.m.N.N.B.C.C.N.B.B.B.B.B.B.B.B.B.B.B.B.N.N.N.N.m.m.N.N.N.N.N.N.V.V.N.N.N.N.N.V.N.N.N.N.N.V.V.V.N.V.N.A.A.b.V.z.",
"6 1 o o o 2 6 6 6 6 6 6 6 2 6 6 6 6 6 2 2 5 3 o o o o o = = ; ; ; ; ; - ; ; - ; ; ; - - - - ; ; - - ; ; ; ; ; ; - - - - - - - - - - - - - - - - - - - - - - - - - - - - - - - - - - - - - - - - - - - - - - - - - - - - - - - z - - - - z z z z z z z g h h h h g g g g g h h h g h h g h h h h h h h h d , ; < % % % % % % % % % % < ; , d d g g g g g j j j g g g g g g d d d d d d - - - d d d d d d g g j j g g g g j j j j j j j j j j j j j j j j k k k j j j j j j j j j j j k k k k k k k k k k Y ^ ^ ^ ^ ^ ^ ^ ^ ( ( ( ( ( _ _ _ _ q.q._ h.D.h.q._ ( ^ x ^ ( _ D.x.x.b.V.V.V.V.V.V.V.V.V.V.V.V.V.b.x.h.h.h.z.x.V.N.N.N.V.V.V.B.N.m.A.A.A.b.x.x.x.h.h.h.h.h.h.h.h.h.h.h.h.x.x.x.x.x.V.V.N.V.V.B.V.V.V.V.V.V.V.Z.Z.Z.$X$XZ.%X%X%X%X%X%X%X%X%X%X%XC.C.Z.Z.Z.Z.%X%XZ.Z.Z.%XZ.Z.Z.Z.Z.C.C.C.C.C.C.C.C.C.C.C.C.C.C.Z.Z.Z.Z.Z.C.C.C.C.Z.Z.Z.C.B.B.B.B.V.V.V.V.V.V.V.V.V.V.V.V.V.V.Z.B.Z.Z.Z.Z.Z.C.C.C.C.C.Z.Z.C.C.Z.Z.Z.Z.Z.Z.%X%X%X%X%X%X%X%X%X%XZ.Z.Z.Z.Z.Z.Z.Z.Z.Z.Z.C.C.C.C.C.C.C.C.C.Z.Z.C.Z.Z.Z.C.C.C.C.C.C.C.C.Z.Z.C.C.C.C.C.C.C.C.C.C.C.C.C.C.C.C.C.C.C.C.C.C.C.C.Z.Z.C.C.C.C.C.C.C.C.%X&X&XC.&X&X&X&X&X&X&XZ.&X&XC.C.C.C.%X%X%X&XC.C.C.C.C.C.&XC.C.C.C.C.C.C.C.C.C.C.C.C.C.C.C.C.B.B.N.B.B.B.B.m.A.m.A.m.B.C.C.C.C.B.B.B.B.B.B.B.B.B.B.B.B.B.B.B.B.N.N.N.N.N.N.N.N.N.V.N.N.V.V.N.V.V.N.N.N.N.N.V.V.V.N.V.N.A.A.b.V.z.",
"6 1 o o o 1 2 6 6 6 6 6 6 2 6 6 6 6 6 2 2 5 3 o o o o o = = = ; ; ; ; ; - ; - - ; ; - - - - - - - - ; ; ; ; ; ; - - - - - - - - - - - - - - - - - - - - - - - - - - - - - - - - - - - - - - - - - - - - - - - - - - - - z z z z z - - - z z z z z z z h h h h h g g g g g h h h g g h g h h h j h h h z , ; < % % % % % % % % % % % % < ; - d g d d g g j j j j g g g g g g d d d d - - - - - - d d d d g g j j g g g g g j j j g j j j j j j j j j j j k k j j j j j j j j j j j j k k k k k k k k k k k ^ ^ ^ ^ ^ ^ ^ ^ ( ( ( ( ( ` _ _ _ _ _ h.D.D.h.q._ _ ( ^ ^ ` _ z.x.b.b.V.V.V.V.V.V.V.Z.V.V.V.V.V.V.x.x.D.z.x.x.b.b.b.A.A.b.b.v.x.x.x.x.h.h.h.h.h.h.h.h.h.h.h.x.x.x.x.b.x.A.V.N.V.V.V.V.B.B.Z.Z.V.V.V.V.Z.Z.Z.Z.Z.Z.$X$X%X%X%X%XZ.C.C.C.%X%X%XZ.C.C.C.Z.C.C.C.C.C.Z.Z.Z.Z.Z.Z.Z.Z.Z.Z.C.C.Z.C.C.C.C.C.C.C.C.Z.Z.Z.Z.Z.Z.C.C.C.C.Z.Z.Z.Z.%X%XZ.V.V.V.V.$X$X$X$X$X$X%X$X$XV.V.V.N.B.Z.B.%XC.C.C.C.C.C.Z.Z.Z.Z.Z.Z.Z.Z.Z.Z.B.%X%X%X%X%X%X%XB.C.C.Z.Z.C.Z.Z.Z.Z.Z.Z.Z.C.C.C.Z.Z.C.C.C.Z.Z.Z.C.C.Z.Z.Z.C.C.C.Z.Z.Z.Z.Z.Z.Z.Z.C.C.C.C.C.C.C.C.C.C.C.C.C.C.C.C.Z.Z.Z.C.C.Z.Z.Z.%X%X%X%X%X%X%X%X%X&X&X&X&X&X&X&X&X&X&X&X&XC.C.C.C.C.%X%X%XC.C.C.C.C.C.C.C.&XC.C.&X&XC.C.B.B.B.B.C.C.C.C.C.B.B.B.C.B.N.m.m.m.m.m.A.m.C.C.B.C.C.C.C.B.B.N.N.N.N.B.B.B.C.C.B.B.B.B.N.N.N.N.N.N.N.N.N.N.N.V.V.N.V.V.V.V.N.N.N.V.V.V.N.N.N.A.A.b.V.z.",
"6 1 o o 1 2 6 6 6 6 6 6 2 2 2 2 6 6 6 2 2 3 2 3 o o X + = + ; ; ; ; ; - - - - ; - - - - - - ; ; - - - - - - - - - - - - - - - - - - - - - - - - - - - - - - - - a a - - - - - - - - a a a a a a - - - - - - - - - - - - z z z z z z z z z d z z z z h h h h h j g g g g g g h h h j h g h h j h g d - ; ; < % % % % % % % % % % % % % % < ; d g g g g g g g g g g g g g d d d d d z - - - - - - - d d d g j h j j j j g j j j j g g j g j j j j j j j j j j j j j j j j j j j j j j j j k k k k k k k k k k k Y ^ ^ ^ ^ ^ ( ( ( ( ( ( _ _ _ _ _ q.q.q.q.h.h.q.q._ _ h.D.x.x.b.V.V.V.V.V.V.V.V.V.N.N.V.b.b.b.x.x.x.x.x.x.x.x.x.x.x.x.h.h.h.h.h.h.h.h.h.h.h.h.x.x.x.x.b.A.A.A.V.V.N.N.B.Z.Z.Z.Z.Z.Z.Z.V.V.V.V.Z.Z.Z.V.V.$X%XZ.Z.$XZ.Z.Z.Z.Z.%X%XZ.C.C.Z.Z.Z.Z.Z.C.%X%XZ.Z.Z.Z.Z.Z.Z.Z.Z.Z.Z.C.C.C.C.C.C.Z.Z.Z.Z.Z.C.C.C.C.Z.Z.Z.C.Z.Z.C.Z.Z.Z.Z.Z.Z.Z.V.3X3X3X3X2X2XsXsXsXsXpX3X3X3X3XV.V.V.Z.B.B.C.C.C.C.Z.%XZ.C.%X%X%XZ.Z.Z.Z.Z.C.C.%X%X%X%X%X%XZ.Z.Z.Z.Z.Z.Z.Z.C.C.Z.Z.Z.C.C.C.Z.Z.C.C.C.C.C.Z.C.C.C.C.C.C.Z.Z.Z.Z.Z.Z.Z.Z.Z.Z.C.C.C.C.C.C.C.C.C.C.C.C.C.C.C.C.C.C.C.C.C.Z.Z.Z.%X%X%X%XC.C.C.C.%X%X&X%XC.C.C.C.%X%X%X%XC.C.C.C.C.C.C.C.C.C.C.C.Z.C.C.C.C.C.C.C.C.C.C.C.C.C.C.C.C.C.C.C.C.B.N.N.B.B.N.m.m.m.A.A.A.m.N.C.C.C.C.B.C.C.C.B.B.B.B.B.C.B.B.B.B.B.B.N.B.B.N.N.N.B.N.B.N.N.N.N.N.N.N.N.N.N.V.N.N.N.V.V.N.N.N.V.A.b.V.x.",
"6 1 o o 1 2 6 6 6 6 2 2 2 2 2 2 6 6 6 2 2 3 2 3 o o X o + + ; ; ; ; ; ; ; ; - - - - - - - - ; ; - - - - - - - - - - - - - - - - - - - - - - - - z - - - - - - - a - - - - - - - - - a - a a - - - - - - - - - - - - - - - - - - z z z z z d z z z z h h h h h g g g j g g g h h h h h h h h h g d - ; ; < % % % % % % % % % % % % % % % < ; d d g g g g g g g g g g g g g d d d d d z - - - - - d d d d g g j g g g g g g g j j g g j j j j g g g j j j j j j j j j j j j j j j j j j j j k k k k k k k k k k Y ^ k ^ Y ^ ( ( ( ( ( ( ( _ _ _ _ q.q.q.h.D.D.D.D.D.D.z.x.x.x.V.V.V.V.V.V.A.A.A.A.A.b.x.x.x.x.x.x.x.x.x.z.h.h.h.h.h.h.h.h.h.h.z.z.x.x.x.x.x.b.b.A.V.V.V.V.V.V.V.V.V.Z.V.V.V.V.V.V.V.V.V.V.V.V.3XZ.Z.Z.$X$X$XZ.Z.Z.%X%X%XZ.Z.Z.Z.%XZ.Z.Z.Z.Z.Z.C.C.Z.Z.C.C.C.Z.Z.Z.Z.C.Z.Z.C.C.C.C.C.C.C.Z.Z.Z.Z.Z.C.C.C.C.Z.Z.Z.C.Z.C.C.C.Z.Z.%X%X%X$X%X3X2XpXsXsXhXhXhXhXzXzXhXhXsX2X3X3XZ.V.V.B.C.C.Z.C.C.Z.Z.C.Z.Z.Z.Z.Z.Z.Z.Z.Z.Z.%X%X%X%X%XZ.Z.Z.Z.Z.Z.Z.Z.Z.C.C.Z.Z.Z.Z.C.C.C.C.C.C.C.Z.Z.Z.C.C.C.C.C.C.Z.Z.Z.Z.Z.Z.Z.Z.Z.Z.C.C.C.C.C.C.C.C.C.C.C.C.C.C.Z.Z.C.C.C.C.C.Z.Z.Z.%X%XC.C.C.C.C.C.%X%X&X&XC.C.%X%X%X%X%XC.C.C.C.C.C.C.C.C.C.C.C.C.Z.C.C.C.C.C.C.C.C.C.C.C.C.C.C.B.C.C.C.C.C.C.B.N.B.B.B.N.N.m.A.A.A.A.N.B.N.m.N.C.N.N.B.B.B.B.B.C.B.B.B.B.C.C.B.B.B.B.N.N.N.N.N.N.N.N.N.N.N.N.N.N.N.N.V.N.N.V.V.V.N.N.N.V.A.b.V.z.",
"6 1 o o 1 2 6 6 6 6 6 6 2 2 2 6 6 6 2 2 2 3 3 2 o o O o = = ; ; ; ; ; ; ; ; ; - - - - - - - ; ; - - ; - - - - - - - - - - - - - - - - - - - - - - - - - - - - - a a - - - - - - - - - - - - a a z z - - - - - - - - z - - - - - z z z z z d z z g g h h h h h g g g g j g g g h h h h h h h g d ; ; < % % % % % % % % % % % % % % % % % < ; - d d g g g g g g g g g g g g d d d d d d d z - - - d d d g g g g g g g g g g g g g g j j j j j j j g g j j j j j j j j j j j j j j j j j j j j k k k k k k k k Y Y k k k k ^ ^ ( ( ^ ( ( ( _ _ _ _ _ _ q.h.D.D.D.D.z.x.x.x.x.x.b.A.b.b.b.b.b.x.x.x.x.x.x.j.z.z.z.D.h.h.h.h.h.h.h.h.D.z.x.x.x.b.b.b.V.V.V.V.V.V.$X%X3X3X%X3X3X3XV.V.V.V.V.V.V.V.V.V.V.V.V.V.3X3XV.V.V.V.V.Z.V.V.Z.Z.V.Z.Z.Z.Z.Z.Z.%XZ.Z.Z.Z.C.C.C.C.C.C.C.C.C.C.Z.Z.C.C.C.C.C.C.C.C.C.C.C.Z.Z.Z.Z.Z.Z.Z.C.Z.Z.Z.C.C.C.C.C.Z.Z.Z.%XZ.V.$X3X3XpXsXsXsXhXhXhXhXjXjXjXzXzXhXhX2X3X3XV.V.Z.Z.Z.Z.C.C.C.Z.Z.Z.Z.Z.Z.Z.Z.Z.Z.Z.Z.Z.%X%XZ.Z.%X%X%X%X%XZ.Z.Z.C.C.Z.Z.Z.Z.Z.C.Z.C.C.C.C.C.Z.Z.C.C.C.Z.C.Z.Z.Z.Z.Z.Z.Z.Z.Z.Z.Z.Z.Z.C.C.C.C.C.C.C.C.C.C.C.C.Z.Z.C.C.C.C.Z.Z.Z.Z.C.C.C.C.%X%X%X%X%XC.C.&XC.C.%X%X%X%X%XC.C.C.C.&XZ.Z.Z.%X%X%X%XC.Z.Z.C.C.C.C.C.C.C.C.C.C.B.B.C.C.C.C.C.C.C.C.C.B.C.B.B.B.B.m.A.A.x.A.A.N.C.C.C.C.Z.Z.Z.C.C.C.C.C.B.B.B.B.B.B.N.N.B.B.N.N.N.N.N.N.N.N.N.N.N.N.N.N.N.N.V.V.N.N.V.V.N.V.V.A.A.b.V.z.",
"6 1 o o o 2 6 6 6 6 6 6 2 2 6 6 6 6 2 2 2 3 3 3 o o O o + = ; ; ; ; ; ; ; ; ; - - - - - - - - - - - - - - - - - - - - - - - - - - - - - - - - - - - - - - - - - - - - - - - - - - - - - - - - a z - - - - - - - - - z z z - - - - z z z z z z z g h h h h h h g g g g g g g h h h g g h h g d - < < % % % % % % % % % * * % % % % % % % < ; - d d g g g g g g g g g g g g g d d d d d d d d d d d d g g g g d d d g g g g g g g j j j j j g g g g g j j j j j j j j j j j j j j j j j j j k k k k k k k k Y Y Y k k k k ^ ^ ^ ( ( ( ( ( ( _ _ _ _ _ _ q.h.D.D.D.D.z.x.x.x.x.x.x.x.x.x.x.x.x.x.h.D.h.h.h.h.D.z.z.h.h.z.x.x.x.x.x.b.b.V.V.V.V.V.V.V.V.$X%X%X3X%X3X3X3X3X3X3X3X3X3X3X3X3X3X3X3X3X3XpXpXpXpXpXpXpX3X3X3X3X3XV.V.V.V.V.V.Z.%X%XZ.Z.Z.%XZ.Z.C.C.C.Z.Z.C.C.C.C.C.C.Z.Z.C.C.C.C.C.C.C.C.C.C.Z.Z.Z.Z.Z.Z.Z.Z.Z.Z.C.C.C.C.Z.Z.Z.Z.Z.Z.V.V.V.b.3X3X3XpXaXsXsXsXsXfXfXdXjXjXjXzXzXhXsX3X3X$XZ.Z.Z.Z.Z.C.C.C.Z.Z.Z.Z.Z.Z.Z.Z.Z.Z.Z.Z.%X$X%X%X%X$X%X%X$XZ.%XZ.C.C.Z.Z.Z.Z.Z.Z.Z.C.C.C.C.Z.Z.Z.C.C.C.Z.Z.Z.Z.Z.Z.Z.Z.Z.Z.Z.Z.Z.Z.Z.C.C.C.C.C.C.C.C.C.C.C.C.C.Z.C.C.C.Z.Z.Z.Z.Z.C.C.C.C.C.%X%X%XC.C.C.C.C.C.%X%X%XC.C.C.&XC.C.&XZ.Z.Z.%X%X%X%X%XZ.Z.C.C.C.C.C.C.C.C.C.C.C.C.C.C.B.C.C.C.C.C.C.C.C.B.B.B.B.N.m.m.A.A.l.A.A.B.C.C.C.C.C.C.C.C.C.C.Z.Z.Z.Z.B.B.B.B.N.N.N.N.N.N.N.N.N.N.N.N.N.N.N.N.N.V.V.V.N.V.V.N.V.V.A.b.b.b.V.D.",
"6 1 o o 1 2 2 6 6 6 6 6 2 2 6 6 6 6 6 2 2 2 2 2 o o o o + = ; ; ; ; ; - - ; - ; - - - - - - - - - - - a a a - - - - - - - - - - - - - - - - - - - - - - - z - - a a a - - - - - a a a a a a - a a - a a - - - - - - - z a a a - z z z z z d z z g h h h h h h g g g g g g g h h h h h h z z - ; % % % % % % @ @ % % * * * * % % % % % % < < , d d d g g g g g g g g g g g g g g d d d d d d d d g g g g d d d d d d d g g g g g g g j j j g g g g j j j j j j j j j j j j j j j j j j j k k k k k Y Y Y Y ^ Y Y k k k k k ^ ^ ( ( ( ( ( ( _ _ _ _ _ _ h.q.h.D.D.D.D.D.z.z.z.x.x.x.z.h.h.h.D.j.j.D.D.z.x.x.x.x.x.x.b.b.V.V.V.V.V.N.V.V.V.V.V.V.V.%X%X$X$X$XV.3X%X3X3X3X3X3X3X3X3X3XpXsXsXhXhXhXhXzXzXzXzXzXzXzXzXzXhXhXsX3X3X3XV.Z.Z.V.Z.Z.Z.Z.B.%XZ.Z.Z.C.Z.Z.Z.Z.Z.Z.C.C.C.C.Z.C.C.C.C.C.C.C.C.C.C.Z.Z.Z.Z.Z.Z.C.C.C.C.Z.Z.C.C.Z.Z.Z.C.Z.Z.V.V.b.b.b.S.1X1XpXpXsXsXfXfXfXdXdXjXjXjXjXjXzXsX2X3X$XV.Z.Z.Z.Z.C.C.Z.Z.Z.Z.Z.Z.Z.Z.%XZ.Z.Z.%X$X%X%X$X$X$X$X%X%X%XZ.C.C.%XZ.Z.Z.Z.Z.Z.Z.Z.Z.Z.Z.Z.Z.Z.Z.Z.Z.Z.Z.Z.Z.Z.Z.Z.Z.Z.Z.Z.Z.Z.Z.Z.C.C.C.C.Z.C.C.C.C.C.C.C.C.Z.Z.Z.Z.Z.Z.Z.Z.C.C.C.Z.Z.Z.&XC.C.C.C.C.C.C.%X%X%X%X&XC.%X%X%X%X%X%X%X%XZ.Z.Z.Z.Z.C.C.C.C.C.C.C.C.C.C.C.C.C.C.C.C.C.C.C.C.C.C.C.B.B.B.B.B.B.N.N.A.A.x.h.h.x.A.N.N.N.C.C.C.C.C.C.C.B.B.B.B.B.N.B.N.N.N.N.N.N.N.N.N.N.N.N.N.N.N.N.N.N.N.N.V.V.N.A.A.A.A.b.b.b.V.h.",
"6 1 o o 1 2 6 6 6 6 6 6 2 2 2 2 6 6 6 2 2 2 2 2 1 o o o + = = ; ; ; ; - ; ; - ; ; ; ; ; ; - - - - - - - a a - a - - - - a a - a - a a a a a a - a a a a z z a a a a a - - - - a a a a a a a a a a a a a a a a a - - - - - a z z z z z z d d z z g h h h h h h g g g g g g g h h h h h z z - ; = % % % % % % % % * * * * * * % % % % % % < < ; d d g g g g g g g g g g g g g g g g g d d g d g g g g g g d d d d d d d d d d g g g g g g g g g g g g j j j j j j k k k k j j j j j j j j j k k k k Y Y Y Y ^ Y Y k k k k k ^ ^ ( ( ( ( ( ( ( _ _ _ _ _ _ q.h.h.h.D.D.D.D.D.D.D.D.h.h.h.h.h.z.x.x.x.x.x.b.b.V.V.V.V.V.V.V.V.V.V.V.Z.Z.Z.Z.$X$X$X%X%X%X3X3X3X3X3X3XV.3X3X3X3X3XpXpXsXsXjXjXjXjXjXjXfXjXjXjXjXlXVXVXCXCXVXVXzXhXsX3X3X3XV.V.V.Z.Z.Z.Z.%XZ.%XZ.Z.Z.Z.%XZ.Z.Z.C.C.C.C.Z.Z.C.C.C.C.C.Z.C.C.Z.Z.Z.C.C.C.C.C.C.C.Z.Z.C.C.C.C.C.Z.Z.Z.V.b.n.D.n.n.S.S.1XyXpXpXaXaXsXfXfXfXjXjXjXjXjXzXsX2X3XV.V.Z.Z.Z.C.Z.C.C.Z.Z.Z.%XZ.%X%XZ.%X%X$X$X%X%X$X%X%X$X%X%X%X%XC.C.%X%XZ.Z.Z.Z.Z.Z.Z.Z.Z.Z.Z.Z.Z.Z.Z.Z.Z.Z.Z.Z.Z.Z.Z.Z.Z.Z.Z.Z.Z.Z.Z.Z.Z.Z.Z.Z.C.C.C.C.C.C.C.C.Z.Z.Z.Z.Z.Z.Z.Z.C.C.C.C.C.Z.&X&XC.C.C.C.C.C.C.Z.%X&X&XC.%X%XZ.Z.C.%X%X%XZ.Z.Z.Z.Z.C.C.C.C.C.Z.C.C.C.C.C.C.C.C.C.C.C.C.C.C.C.C.C.B.B.C.B.B.B.N.N.N.m.A.A.x.l.l.h.A.A.A.N.B.C.Z.Z.C.C.B.B.B.N.N.N.B.B.N.N.N.N.N.N.N.N.N.N.N.N.N.N.N.N.N.N.N.N.A.A.A.A.A.b.b.b.V.h.",
"6 1 o o 1 2 2 6 6 6 6 6 2 2 2 6 6 6 6 2 2 2 2 3 1 o O o + = = = ; ; ; - ; ; ; ; ; ; ; ; ; - - - - - - - a a a a - - - - a a - - a a a a a a a a a a a a a a a a a a a a a a a a a a a a a a a a a a a a a a a a - - - - - z z z z z z z d z z z g h h h h h h g g g g g g g h h g h g z - ; % % % % % % % % % % * * * % % % % % % % % % % ; , d g g g g g g g g g g g g g g g h g g g g g g g g g g g d d d z d z d d d d d g g g g g g g g g g j j j j j j j j k k k k k j j j j j j j j k k k k k k k Y Y Y ^ k k j k k ^ ^ ( ( ( ( ( ( ( _ _ _ _ h.h.h.h.h.D.D.D.D.D.D.D.D.D.D.z.x.x.x.x.x.b.b.A.V.V.V.V.V.V.V.V.V.V.V.$X%X$X$X$X$X3X3X3X3X3X3X3X3X3X3X3XV.S.S.S.1X1X3XpXpXpXpXaXsXfXfXfXsXsXfXfXfXfXfXdXlXVXVXVXVXVXVXVXzXjXsXpX3X3X$XV.V.$XZ.Z.%X%XZ.Z.Z.Z.Z.C.C.C.Z.Z.C.C.Z.Z.C.C.C.C.Z.Z.Z.C.Z.Z.Z.C.C.C.C.C.C.C.Z.C.C.C.C.Z.Z.Z.Z.V.V.b.D.z.q.q.n.S.S.1XyXpXaXaXsXsXfXfXfXdXjXjXzXzXzXhX3X%XV.Z.Z.Z.Z.Z.C.C.C.Z.Z.Z.Z.%XZ.Z.Z.%X$X$X%X%X%X%X$X%X$X%XZ.%X&X&X%X%X%X%X%XZ.Z.Z.Z.Z.Z.Z.Z.Z.Z.Z.Z.Z.Z.Z.Z.Z.Z.Z.Z.Z.Z.Z.Z.Z.Z.Z.Z.Z.Z.Z.Z.Z.Z.C.C.C.C.C.Z.Z.Z.Z.Z.Z.Z.Z.Z.Z.C.%X&XC.C.C.C.C.C.C.C.C.C.C.C.C.%X%XC.C.C.C.Z.C.C.C.C.C.C.C.%X%XC.C.C.C.C.C.C.C.C.C.C.C.C.C.C.C.C.C.C.C.C.C.C.C.C.C.C.C.B.C.N.N.B.N.m.N.N.m.A.l.h.h.h.h.x.A.A.N.B.B.C.C.B.B.B.B.N.N.N.N.N.N.N.N.N.N.N.N.N.N.N.N.N.A.A.A.N.A.A.A.b.A.b.x.b.b.V.h.",
"2 1 o o 1 2 2 6 6 6 6 6 2 2 6 6 6 6 6 2 6 5 2 3 1 o O o + = ; = ; ; ; - ; ; ; ; ; ; ; ; ; - - - ; ; ; ; a a a - - - - - - - - - a a a a a a a a a a a a a a a a a a a a a a a a a a a a a a a a a a a a a a a a - - - - - a z z z z z z d d z z g h h h h h h g g g g g g g h h g g g d ; ; % % @ @ @ @ * % * * % * * % % % * * % % % % * ; - d g g g g g g g g g g g g g g g h j g g g g g g g g g g d d z - - ; - - d d d d g g g g g g g g g j j j k j j j j j k k k k j j j j j j j j k k k k k k k k Y Y Y j j j j k ^ ^ ( ( ( ( ( ( ( _ _ _ _ h.h.h.D.D.D.D.D.D.D.z.z.x.x.x.x.b.b.b.A.V.V.V.V.V.V.V.V.V.%X$X%XV.V.$X$X$X$X3X3X3X3X3X3X3X3X3X3XS.S.S.S.S.n.S.S.S.S.S.<XyXyXyXyXpXaXaXfXaXaXaXaXaXaXaXfXdXjXlXVXVXVXVXVXVXVXVXzXsX3X3X$XV.V.Z.Z.Z.%XC.Z.C.C.C.C.C.C.C.Z.Z.Z.Z.Z.Z.C.C.C.Z.Z.Z.Z.Z.Z.Z.C.C.C.C.C.C.C.Z.Z.C.C.C.Z.%XZ.Z.V.V.b.D.q.q.q.w.n.S.S.1XyXpXpXaXaXsXsXsXfXfXjXzXlXzXzXsX3X$XZ.Z.Z.Z.Z.C.C.C.Z.Z.Z.Z.%XZ.Z.Z.Z.%X$X$X$X%X%X$X$X$X%XZ.Z.&X&X%X%X%X%X%X%XZ.Z.Z.Z.Z.Z.Z.Z.Z.Z.Z.Z.Z.Z.Z.Z.Z.Z.Z.Z.Z.Z.Z.Z.Z.Z.Z.Z.Z.Z.Z.Z.Z.Z.Z.Z.Z.Z.Z.Z.Z.Z.Z.Z.Z.Z.Z.Z.&X%X&X&XC.C.Z.%XC.C.C.C.C.C.C.C.C.&XC.C.C.C.C.C.C.C.C.C.C.C.Z.C.C.C.C.C.C.C.C.C.C.C.C.C.B.C.C.C.C.C.C.C.C.C.C.C.C.C.C.C.B.N.N.N.N.N.N.N.N.N.C.C.C.m.x.h.h.h.h.h.x.x.A.A.A.N.N.N.N.N.N.N.N.N.N.N.N.N.N.N.N.N.N.N.N.A.A.A.A.A.A.A.b.b.b.x.x.x.V.h.",
"3 1 o o 1 2 2 2 2 2 2 2 2 2 6 6 6 6 6 6 2 3 3 3 3 o O O o = = ; ; ; ; ; ; ; - ; ; ; - - - - - - - - ; ; ; ; ; ; a a a a a a a a a a a a a a a a a 9 a a a a a a a a a a a a a a a a a a a a a a a a a a a a a a a a a - - - d z z z z z d d d g z g h h h h h h j j h j h h h h h h d - ; % % @ % % % * * * * * % % % % % % % = * % % % * ; > d g g g g d g g g g g g g g g g j j j g g g g g g j g g d d d - ; ; ; - - - z d d d g g g j j j j j j j j j k k k k k Y k k k j j j j j j k j j j j k j k k Y k k j j g j k k ^ ^ ^ ^ ^ ( ( ` _ _ _ h.D.D.D.D.D.D.z.z.z.z.x.x.x.b.b.b.V.V.V.V.V.V.N.V.V.V.V.V.V.Z.V.V.V.$X$X3X3X3X3X3XV.3XS.n.n.w.w.w.i.n.i.i.s.w.w.u.u.u.i.i.S.S.,X<XrXtXtXuXuXgXgXgXaXaXaXaXfXfXdXdXkXVXVXVXVXVXVXVXVXzXhX3X3XV.V.V.V.%X%XZ.Z.Z.Z.Z.C.C.C.C.C.Z.C.C.C.Z.Z.Z.Z.Z.Z.Z.Z.Z.Z.Z.Z.Z.Z.C.C.C.C.Z.Z.Z.%X%XZ.C.Z.V.b.n.q.q.9.q.w.w.i.S.<X1XpXpXpXpXsXsXsXsXfXfXdXjXzXzXhX2X$XV.%XZ.Z.%XZ.C.C.C.Z.Z.Z.%XZ.Z.Z.Z.%X$X$X%X$X$X$X%X%X%XZ.Z.Z.Z.%X%X%X%X%X%XZ.%XC.C.%X%XC.%X%XZ.Z.Z.Z.%X%X%X%X%X%X%X%XZ.Z.Z.Z.Z.Z.C.C.C.Z.%X%X%X%X%X%XC.Z.Z.%X%X%X%X%XC.C.C.C.C.C.&X&X&XC.C.C.C.C.C.C.C.C.C.B.&X%X&XC.C.C.&XC.%XZ.C.C.C.C.C.%X%X%XC.Z.Z.Z.C.C.C.C.C.C.C.C.C.C.C.B.B.C.C.C.C.C.C.C.C.B.B.B.B.B.B.B.B.N.N.N.N.C.Z.C.B.N.A.x.h.h.h.h.h.h.h.x.x.x.x.x.x.x.A.A.A.A.A.A.b.A.b.x.x.x.x.x.x.x.x.x.x.x.x.x.x.x.x.b.h.",
"3 1 o o 1 2 2 2 2 2 2 2 2 2 6 6 6 6 6 6 6 3 3 2 3 o O O o = = ; ; ; ; ; ; ; - ; ; ; - ; - - - - ; - - ; - ; a a a a a a a a a a a a a a a 9 9 a 9 9 9 9 9 9 9 9 9 9 9 9 a a a a 9 a a a a a a a a a a a a a a a a a a - - - d z z z z z d d d d z g g h h h h h j j j j h h h h h h d - ; % % @ % % % % % * * * % % % % % % % % % * % % * ; , d g h g g d g g g g g g g j g g g g g g g g g g j j g g d d d d - - ; - - z z d d g g h h j j j j j j j j k k k k k k Y k k k k j j j j j g g g g g j j j j j j j g d d g j j k k k ^ ^ ( ( _ _ D.D.D.z.z.z.z.z.z.z.z.z.x.x.x.x.x.b.A.V.V.V.V.V.V.V.V.V.V.V.V.V.V.V.V.V.$X$X3X3XV.b.n.n.q.9.8.Q k h k Q 8.2.2.9.2.2.2.2.2.r.d.d.u.u.s.s.i.a.a.,XrXrXrXiXiXiXtXyXuXaXfXfXdXkXVXVXVXVXVXVXVXzXzXsX3XV.V.%XZ.Z.%X%XZ.Z.Z.Z.C.C.C.Z.Z.C.C.C.Z.Z.Z.Z.Z.Z.Z.Z.Z.Z.Z.Z.Z.Z.Z.Z.Z.Z.Z.Z.Z.Z.%XZ.C.Z.V.b.z.q.q.q.q.w.w.w.n.S.<X1XpXpXpXpXaXaXaXsXsXsXsXjXzXhX3X$X%X%XZ.Z.%XZ.Z.C.C.Z.Z.Z.%XZ.Z.Z.Z.%X$X$X%X$X$X%X%X%X%XZ.Z.Z.Z.Z.%X%X%X%X%XZ.%XC.%X%X%XC.Z.C.Z.Z.C.C.C.%X%X%X%X%X%XZ.Z.Z.Z.Z.Z.Z.Z.Z.Z.Z.%X%X%X%XC.C.C.C.Z.%X%X%X%X%XC.C.C.C.C.C.C.C.&XC.C.C.C.&XC.C.C.&X%X&X%X%XZ.C.C.C.C.C.%XZ.C.%X%XC.C.C.C.C.C.Z.C.C.C.C.C.C.C.C.C.C.C.C.C.B.B.C.C.C.C.C.C.C.C.C.C.C.C.C.C.C.C.B.B.B.B.Z.Z.%XZ.Z.B.B.N.A.m.A.x.h.h.h.h.h.h.h.h.h.h.h.h.x.x.h.h.h.h.h.h.h.h.h.h.h.h.h.h.h.x.x.x.x.x.b.h.",
"3 1 o o 1 2 2 2 2 2 2 2 2 2 6 6 2 6 6 6 6 2 3 2 2 o o O o + = ; ; ; ; - ; ; - ; - - ; ; - - - - - - - a - a a a a a a a a a a a a a a t a t t t p p t t t t t t t t t t t t t t t t t t t 8 9 9 a a a a a a a a a a a a - - - z z z z z d d d d z g g g h g h h h h j j h h h h h g z ; ; % @ @ % % @ @ % * * * % % % % % % % % % % * % < ; d g g g g g g g g g g g g j j j g g g g g g g j j j j j g g g d d d - - d d d d d d g g h j j j j j j j j Y k k k k k k k k k k k k j j j g g g d d d d g j j j j g g d z z g j k ^ Y Y ^ ( ( _ q.D.D.D.h.D.D.D.z.z.z.z.x.x.x.x.x.x.x.b.A.V.V.V.V.V.V.V.V.V.V.V.V.V.V.V.$X$X3X3Xb.n.q.9.8.8.l l a a a 9 p l <.8.<.<.<.<.<.<.1.3.5.5.3.7.7.6.6.u.u.u.s.p.a.S.,X,X,XrXiXuXgXfXdXkXkXVXVXVXVXVXVXCXzXsX3X3XV.Z.%XB.Z.%XZ.Z.Z.Z.C.C.Z.Z.C.C.Z.Z.Z.Z.%X%XZ.Z.%X%X%X%X%XZ.%X%XZ.Z.Z.Z.Z.Z.Z.Z.Z.C.Z.V.b.z.q.9.9.9.9.9.9.q.w.S.<X<XyXpXpXpXpXpXpXpXpXpXpXpX2X3X$X$X%X%XZ.%XZ.Z.C.C.C.Z.Z.%XZ.Z.Z.Z.%XZ.%X%X%X%X%X%X%XZ.Z.Z.Z.Z.Z.%X%X%X%X%XZ.Z.%X%XC.%X%XZ.Z.%X%X%X%X%XZ.Z.%X%XZ.Z.Z.Z.Z.Z.C.C.Z.Z.Z.Z.%X%XC.C.C.C.C.C.Z.Z.&X&X&X%X%XC.C.Z.C.C.C.C.C.C.C.C.%X%X&XC.C.C.&X%XB.B.C.C.C.C.C.C.C.C.C.C.%X%XC.%XC.&XC.C.C.C.C.C.Z.C.C.C.C.C.C.C.C.C.B.C.C.C.C.C.C.C.C.C.C.C.C.C.C.C.C.C.C.C.C.C.B.B.C.C.B.B.B.B.C.B.B.N.N.N.A.A.x.x.x.x.x.x.x.x.x.x.x.x.x.x.x.x.x.x.x.x.x.x.b.b.b.N.V.A.b.b.b._ ",
"3 1 o o 1 2 2 2 2 2 2 2 2 2 6 6 2 6 6 6 6 6 3 3 2 o o O o + = ; ; ; ; - ; - - ; - - ; ; ; - - - - a a a a a a a a a 9 a a 9 p p p p p p p p p p p p t t t t t t t t t t t t t t t t t t t t t 9 a a a a a a a a a a a a - - - d z z z d z - - z d d z g g g h h h h j j h h h h g d - ; % % % @ @ @ @ @ @ @ # # * % % % * * * % % % % % < , d g g g g g g g g g g g g g g g g g j j g g g j j j j j j g g g d d d d d d d d d g h j j j j j j j j j j Y Y Y Y Y j k k k k k k k j j j j g g d f z d d g j j j j g z z g j ( ( ( ( ( ^ ( ( _ _ q._ _ ` ` _ q.D.D.z.z.x.x.x.x.x.x.x.x.b.b.V.V.V.V.V.V.V.N.N.N.V.V.V.$X3XV.b.n.q.9.8.Q l l l l l l p p p p :.>.:.:.>.<.>.>.<.<.3.<.<.<.3.3.5.5.7.7.6.u.s.p.a.a.a.a.,XrXtXgXfXdXdXkXkXlXlXVXVXVXVXVXzXpX3XV.%XZ.V.$XZ.Z.Z.Z.Z.Z.Z.Z.Z.Z.Z.Z.Z.Z.%X%X%X%X%X%X%X%X%X%X%X%XZ.Z.Z.Z.Z.Z.Z.Z.C.C.Z.B.V.x.z.z.z.q.q.q.q.q.w.n.S.1X3X3X3X3X3X3X3X3X3X3X3X3X3X3XV.$X%XZ.Z.%XZ.Z.Z.C.C.Z.Z.Z.Z.Z.Z.Z.Z.%X%X%X$X%X%X%XZ.Z.Z.Z.Z.Z.Z.Z.%X%X%X%X%XC.%XC.C.%X%XZ.%XZ.B.B.Z.Z.%X%XZ.Z.Z.Z.Z.C.C.C.C.C.Z.%X%X%X%X%X%X%X%X%X%X%X%X%X&X&X&X&X%X%XC.Z.C.C.&X&X&XC.C.C.C.C.C.&XC.C.C.C.B.B.B.&XZ.C.C.C.&XC.C.C.%XC.C.%XC.&X&XZ.C.C.C.C.C.C.C.C.C.C.C.C.C.C.B.C.C.C.C.C.C.C.C.C.C.C.C.C.C.C.C.C.C.C.C.C.Z.Z.C.B.B.B.B.B.B.B.B.B.C.B.N.N.N.N.N.N.N.N.N.N.N.N.N.N.N.N.N.N.V.N.N.N.N.N.V.V.N.N.V.A.b.b.x.^ ",
"3 1 o o 1 2 2 2 2 2 2 2 2 2 6 6 6 6 6 6 2 2 2 3 3 o o o X o = = ; ; ; - ; ; ; ; - - ; ; ; ; ; ; a a a a a a a a 9 9 p l l l l p p p p p p p p p p t t t t t t t t t t t t t t t t t t 7 t t t t t 9 9 a a a a a a a a a a a - - z z - - - - - - - - d d g g g g h h j h h h h h z d ; = % % @ @ @ @ @ @ @ @ @ @ @ @ % * * * * % * % % % % , d g g g g g g d d d d g g g g g j j j j j j g g g g g g g g g g g g g g g g g g g g g g j j j j j j j Y Y Y Y k k k k k k k k k k k j j j j g d d f d d d g g j j j d g g k ( 9.9.9.( ( ^ ^ ( ( _ _ ( ( ^ ^ ( _ h.D.z.z.z.z.x.x.x.x.x.x.x.b.b.V.V.V.V.V.V.V.N.V.V.$XV.3XV.n.n.9.Q Q W W l l :.>.>.>.>.:.i i :.>.>.>.>.>.>.>.>.3.>.>.<.<.3.3.3.3.3.3.3.7.6.u.p.p.a.a.a.rXrXtXgXfXdXdXkXkXkXVXVXVXVXVXVXzXsX3XV.$X$X$X%X%XZ.Z.Z.Z.%X%XZ.Z.Z.Z.Z.Z.%X%X%X%X%X%X%X%X%X%X%X%X%XZ.Z.Z.Z.Z.C.C.C.Z.Z.Z.V.V.b.b.b.b.b.b.b.n.n.n.b.S.V.3X3X3X3X3X3X3X3X3X3XV.3XV.V.V.Z.Z.Z.Z.Z.Z.Z.C.C.Z.Z.Z.Z.Z.C.Z.Z.Z.Z.Z.V.Z.Z.Z.Z.Z.Z.Z.Z.Z.Z.Z.Z.Z.Z.Z.%XC.Z.Z.C.%X%XB.Z.%X%X%X%XZ.Z.Z.Z.Z.Z.Z.Z.C.C.C.Z.Z.%X%X%X%X%XB.%X%X%X%X%X%X%X%XC.%X%XZ.Z.Z.Z.Z.C.&X&XC.C.C.C.C.C.C.B.C.%X%XB.B.m.m.A.m.m.m.B.C.B.%X%XC.%XC.C.%X%X%XC.C.C.C.C.C.C.C.C.C.C.C.C.C.C.C.C.C.B.C.C.C.C.C.C.C.C.C.C.C.C.C.C.C.C.C.C.C.Z.Z.Z.Z.Z.Z.Z.Z.C.C.B.B.C.B.N.N.N.N.N.N.N.N.N.N.N.N.N.N.N.N.N.N.N.N.N.N.V.V.V.V.N.V.A.x.x.z.D.x ",
"3 1 o o 1 2 2 2 2 2 2 2 2 2 2 6 6 6 6 2 2 2 6 6 3 1 o O o o = = ; ; ; - ; ; ; - - - ; ; ; ; ; a a a a a a a a 9 p p l p l p p p p p p p p p p p t y t t t y y y t y t t y y t t t q q q t t t t t t t t 9 t a a a 9 a a a a a a a - - ; ; ; ; ; ; ; - z d z g g h h h h h h h h h d ; % % @ @ X @ @ @ @ @ @ @ @ @ @ @ @ * * * * * = % % < , d g Y g d d d - , , , d d g g j j j j j j j j g g g g j g g g g g g g g g g g j g g g j j j j j j j j j j j k k j k k k k k j j j j g j j g g d d f z d d g g g j j Y ( ( _ q.z.q.9.( ( ^ ^ ( ( ( ( ( ( ^ ^ ( _ h.D.D.D.z.z.z.x.z.x.x.x.x.x.b.b.V.V.b.V.V.V.V.V.$X3X3Xb.n.9.8.W W l E W <.<.>.>.:.>.>.>.f.f.>.>.>.>.>.>.>.>.>.>.>.>.<.<.<.<.<.<.3.3.3.3.5.6.u.u.p.a.a.a.,XrXuXaXfXdXVXkXkXlXVXlXVXVXVXVXVXhX3XV.V.V.Z.Z.Z.Z.B.Z.Z.%XZ.Z.Z.Z.Z.Z.Z.Z.%X%X%X%X%X%X%X%X%X%X%X%X%X%X%X%XZ.Z.Z.Z.Z.Z.Z.Z.V.V.Z.Z.V.V.Z.V.V.V.V.V.V.3X3X3X3X3X3X3X3X3X3XV.3XV.V.V.%XZ.Z.Z.Z.Z.Z.C.C.C.Z.Z.Z.C.B.B.B.V.Z.Z.Z.Z.Z.Z.Z.Z.Z.Z.%X%XZ.Z.Z.Z.C.C.%XC.Z.%X%XZ.Z.V.V.V.V.N.%X%XZ.C.Z.Z.Z.Z.Z.Z.Z.Z.%X%X%X%X%X%X%XB.%X%X%X%X%X%X%X%X%X%X%XZ.Z.Z.Z.Z.Z.%X%X%XZ.C.C.C.C.C.B.%X%XB.A.x.h.h.h.h.h.h.h.x.m.B.%X%X%XC.C.%X%X%X%XC.C.C.&X&XC.C.C.C.C.C.C.C.C.C.C.C.B.B.C.C.C.C.C.B.C.C.C.C.B.C.C.C.C.C.C.C.B.B.Z.Z.Z.Z.B.B.C.C.C.Z.Z.Z.C.C.B.N.N.N.N.N.N.N.N.N.N.N.N.N.N.N.N.N.N.N.N.N.N.V.V.V.V.x.D._ ` f ",
"3 1 o o 1 2 2 2 2 2 2 2 2 2 2 6 6 6 6 2 2 6 6 6 3 o o o X o = = ; ; ; ; ; ; - - - - - - a a a a a a 9 9 a 9 p l l p p p p p p p y y p p u u p u u t t t y y y y t t t t y y y y t t t t t t t t t t t t t t t t t t 9 9 a a a a a - ; = = % % % % % ; ; - z z g h h h h h h h h z - ; = % @ X X @ @ @ @ @ @ @ @ @ @ @ @ @ % % * % % % % ; , d g g d - , ; ; ; ; ; , - d d g j j j j j j j g g g g j j j j g g g g g g g j j h g g j g j g g j j j j j j j j j j j j j j k j j j j j g g g g g g g g g j j k ( ( 9.9.q.q.q.q._ ( ( ( ( ( ( ( ( ( ( ( ( ( ` _ q.j.D.D.D.z.z.z.z.z.x.x.x.x.x.b.b.b.b.V.V.V.V.$X3Xb.n.q.9.8.W l :.:.:.>.>.>.>.>.>.>.>.:.f.f.:.>.>.>.>.>.>.>.>.>.>.>.>.>.<.>.<.<.<.>.3.3.3.5.7.6.u.u.s.p.p.a.rXtXgXfXdXdXkXkXkXkXVXVXVXVXVXVXjX3XV.V.V.Z.Z.Z.Z.B.Z.Z.C.C.Z.Z.Z.Z.Z.Z.Z.Z.Z.Z.Z.%X%X%X%X%X%X%X%X%X%X%X%XZ.Z.Z.Z.Z.Z.Z.Z.Z.Z.Z.$X%X$X$X%XZ.V.V.V.V.3X3X3X3X3X3X3X3X3XV.3X$XV.V.%XZ.Z.%XZ.Z.Z.Z.C.C.Z.Z.C.C.B.B.N.V.V.V.Z.Z.Z.Z.Z.Z.Z.%XZ.Z.Z.Z.Z.Z.Z.Z.Z.C.Z.%X%XB.Z.%X%XZ.V.A.V.N.Z.Z.Z.Z.Z.Z.Z.Z.Z.Z.%X%X%X%X%X%X%X%X%X%X%X%X%X%X%X%X%X%X%XZ.Z.Z.C.C.Z.Z.%X%XZ.C.C.C.C.C.C.B.B.x.j.h.^ ^ ^ ^ ^ ^ ^ ` x.B.%X%XZ.Z.Z.Z.%XC.C.Z.C.C.C.C.C.C.C.C.C.C.C.C.B.C.C.C.B.B.C.C.C.C.C.C.C.B.B.B.B.B.C.C.C.C.C.C.Z.Z.Z.Z.Z.Z.B.B.Z.Z.C.C.B.B.B.B.B.N.N.N.B.B.V.V.N.N.N.N.N.N.N.N.N.N.N.N.V.V.V.V.V.b.x.h.( x ^ f ",
"3 1 o o 1 2 2 2 2 2 2 2 2 2 2 6 6 6 6 6 2 6 6 6 3 o o o o o + = ; ; ; ; ; ; - - - - - a a a a a a 9 9 9 9 p l l p p p p p p p p i i u u u u u u u t t t y y y y t t t t t t t t t t t t t t t t t t t t t t t t t t t 9 a a a a , - ; < % % % % % % % < ; d z h h h h h h h h h z ; % % % @ X X @ @ @ @ @ @ @ @ @ @ @ @ @ * % * @ % = = ; , d d d , ; ; < < < < < < ; , d d g j j j j j j g g j j g j j j g g g g g g g j j j g g g g g g g g j g g j j j j j j j j j j j j j j j j g g g g g g k k k ^ ( ) 9.q.9.q.z.q._ ) ( ( ( ( ( ( ( ( ( ) ( ( ( ( _ _ _ h.D.D.D.D.z.z.z.z.z.x.x.x.x.x.x.b.b.b.b.V.V.V.b.n.9.Q k l :.>.:.<.:.>.>.>.>.>.>.>.>.>.>.:.>.>.>.>.>.>.>.>.,.,.,.<.>.>.>.>.>.>.>.>.3.>.>.<.3.5.7.7.6.u.u.s.a.rXtXuXaXfXdXdXkXkXkXkXVXVXVXVXVXzX2XV.V.V.Z.Z.Z.B.B.B.C.C.C.Z.Z.Z.Z.Z.Z.Z.Z.Z.Z.Z.Z.%X%X%X%X%X%X%X%X%X%XZ.Z.Z.Z.Z.Z.Z.%X%X%X%X%X%X$XZ.V.V.V.V.V.V.3X3XZ.3X3X3X3X3X3X3X$X$XV.V.%XZ.%X%X%XZ.Z.Z.C.C.C.Z.C.C.B.B.N.N.V.V.Z.Z.Z.Z.Z.Z.C.%XZ.Z.Z.C.Z.Z.Z.Z.Z.Z.C.Z.%XN.Z.2XxXvXZXxX2XV.N.Z.Z.Z.Z.Z.Z.Z.Z.Z.%X%X%X%X%X%X%X%X%X%X%X%X%X%X%X%X%X%X%XZ.Z.C.C.C.Z.Z.Z.Z.Z.C.C.C.B.C.B.B.v.h.` x x x ^ ^ ^ x ^ ^ h.m.%XC.C.Z.C.C.%XC.C.C.C.C.C.C.C.C.C.C.C.C.C.C.C.C.C.C.B.B.C.C.C.C.C.C.B.B.N.N.B.B.C.C.C.C.C.C.C.C.Z.Z.Z.Z.Z.B.Z.Z.C.Z.C.C.C.C.N.N.N.N.B.B.B.V.N.N.N.N.N.N.V.V.N.N.N.V.V.N.V.V.b.x.` ^ x k ^ d ",
"2 1 o o 1 2 2 2 2 2 2 2 2 6 6 2 2 6 2 6 6 6 6 2 2 1 o o o o + = ; ; ; ; ; ; ; a - a a a a a a a p p p p p p p p p p p i i i p u u u u u u t t t y y y t t t q q t t q q t t t t t t y y y t t t t t q q q q t t t t t t t 9 9 a : = = = = % % % % % % % = ; d g h h h h h h h h - ; = % @ X X X @ @ @ @ @ $ @ @ @ @ # @ @ @ @ @ % % % = ; , , , ; ; < < % % % % * * < < ; d d g g j j j j j j g g g g g g g j j j j j j g g j j g g g g g g g g g j j j j j j j j j j k k k k Y j j j g j k Y Y ( ( ) 9.q.q.q.q.) ) ( ( ( ( ( ( ( ( ( ( ( ( ( ( ( ( ( ( _ _ _ _ _ h.D.D.z.z.z.z.z.z.z.x.x.x.x.x.b.b.b.b.V.n.n.9.W W l f.>.:.<.<.>.>.>.>.>.>.>.>.>.>.>.>.>.>.>.>.>.>.>.>.>.>.>.<.<.<.<.3.3.<.<.<.<.<.<.<.<.<.3.5.7.7.r.u.p.a.rXiXuXgXfXdXdXkXkXkXkXVXVXVXVXVXlXpX3Xb.V.%XB.B.%XZ.%XZ.Z.C.C.C.Z.Z.Z.Z.Z.Z.C.C.Z.Z.Z.Z.%X%X%X%X%X%XZ.Z.Z.Z.Z.C.C.C.Z.Z.C.Z.Z.Z.Z.Z.Z.%X$X$X$X$X$X3XV.3X3X3X3X3X3X3X3X3XV.3XV.V.V.Z.%X%X%X%X%X%XZ.C.B.B.m.m.N.N.B.Z.C.C.C.Z.Z.Z.Z.Z.Z.Z.Z.Z.Z.Z.Z.Z.%X%XZ.C.Z.Z.V.xXAXAXHXHXAX6XN.Z.%XZ.Z.Z.Z.Z.Z.Z.%X%XZ.%X%X%X%X%X%X%X%X%X%X%X%X%X%X%X%XB.C.%X%X%X%X%XZ.Z.C.C.C.C.B.C.C.m.h.` ^ ^ ^ ` ` ` ` ^ ^ ` h.m.%XC.C.%X%XC.C.C.C.C.C.C.C.C.C.C.C.C.C.C.Z.C.C.C.C.C.C.C.C.C.C.C.C.N.N.N.N.N.B.B.C.C.Z.C.C.C.C.C.C.C.Z.C.C.C.B.B.C.Z.Z.Z.B.B.B.B.B.B.B.B.V.V.N.N.N.N.N.N.N.N.N.N.V.N.B.V.V.b.z._ ^ x k k k k ",
"2 1 o o 1 2 6 2 2 2 2 2 2 2 6 6 2 6 6 6 6 6 6 2 2 3 o o o o o = ; ; ; ; ; ; a a a a a a a a 9 h p p p p p p p p p p i i i i u u u u u u t t y y y y t t t t q q q t q q t t t t t t y y t t t q t t t t t t t t t t t t t t a a : = = = * * % % % % + % % ; - z h h h h h h h h - ; % % @ X X X @ @ @ @ @ @ @ @ @ @ @ @ @ @ @ @ % % = = = ; ; ; * * % % % % % % % * * < ; - d g g j j j j j g g g g g g g g g g j j g g g g j j g g g g g g g g g g g g j j j j j j j j j k k Y j j j j Y Y ( ( 9.9.9.q.9.) ( ( ^ Y Y ^ Y ( ( ( ( ( ( ( ( ( ( ( ( ( ( ) _ _ _ _ _ h.D.D.z.D.D.z.D.z.z.x.x.x.x.x.b.b.b.b.n.z.9.Q W W :.>.:.>.:.:.>.>.>.>.>.>.>.:.:.>.>.>.>.>.>.>.>.>.>.>.>.>.>.>.>.>.>.<.>.>.>.>.<.<.<.<.>.<.3.3.5.5.7.r.u.s.a.rXrXuXgXfXdXdXdXkXkXVXVXVXVXVXVXzXpX3Xb.V.N.B.%X%XZ.Z.Z.Z.C.Z.Z.Z.Z.Z.Z.Z.C.C.C.C.Z.Z.Z.Z.Z.Z.Z.Z.Z.Z.Z.Z.Z.Z.Z.Z.Z.Z.Z.Z.Z.Z.Z.Z.Z.%X$XV.V.$X$X3XV.V.V.V.3X3X3X3X3X3X3X3X3XV.V.Z.%X%X%X%XZ.Z.C.C.B.B.m.A.A.N.V.B.C.C.C.Z.Z.Z.Z.Z.C.C.Z.Z.Z.Z.Z.Z.%XC.C.Z.%XN.2XxXxXvXAXAXAXAX%XN.%XZ.Z.Z.%X%XZ.Z.%X%XZ.%X%X%X%X%X%X%X%X%X%X%X%X%X%X%X%X%X%X%X%X&X%X%XZ.Z.C.C.C.C.%X&XC.A.h.^ x ^ ^ ` ` ` ^ ^ ^ ` j.B.%XC.C.%XC.C.C.C.C.C.C.C.C.C.C.C.Z.Z.C.Z.%XC.C.C.C.C.C.C.C.C.C.C.N.N.N.N.N.N.N.B.C.C.C.C.C.C.C.C.C.C.C.C.C.C.B.B.B.B.B.B.B.B.B.B.N.B.B.B.B.V.N.N.N.N.N.N.N.N.V.N.B.N.V.V.b.z.` ^ x k k k k k ",
"2 1 o o 1 2 6 2 2 2 2 2 2 2 6 6 6 6 6 6 6 6 2 2 2 2 o o O O o = ; ; ; - ; a a a a a a 9 9 l l l l l l p p p p p i i u u u u u u u u u t y t t t q q q q t t t q q q q q t t t t t t t y t q t t t t t t t t t t t t t t t t 8 7 7 = = = * % % % % @ @ + % % ; - z h h h h h h z , ; % @ X X X X X X @ @ X X X X X @ @ @ @ @ @ # % % * = = = % % % % % % % % % * % % % % < ; d d g g j j j j j g g g g g h g g g g g g g g g g g g g g g g g g g g g g g j j g g j g j j j j Y k j j j Y Y Q ( ) ) ( ( ( ^ k k j k k k k Y Y ^ ^ ( ( ( ( ( ( ( ( ( ( ( ) _ _ _ _ _ _ h.D.D.D.D.D.D.z.z.z.x.x.x.x.n.n.n.n.q.9.Q l W E >.>.>.>.:.:.>.>.>.>.>.>.:.f.f.f.:.>.>.>.>.>.>.>.>.>.>.>.>.>.>.>.>.>.>.>.>.>.>.<.>.>.>.>.3.3.3.3.5.7.7.u.p.p.a.rXuXgXfXdXdXkXkXkXlXlXVXVXVXVXzXsX3XV.V.Z.Z.Z.C.Z.Z.Z.Z.Z.Z.Z.Z.Z.Z.C.C.C.C.C.C.C.C.Z.Z.Z.Z.Z.C.C.C.Z.Z.Z.Z.Z.%XZ.Z.Z.Z.Z.Z.Z.Z.Z.V.V.V.V.$X3XV.3XV.3X3X1X1X1X3X3X3X3X3X$XV.Z.%X%X%XZ.Z.C.C.C.B.m.A.A.A.N.N.B.C.C.C.C.Z.Z.Z.Z.C.C.Z.Z.Z.Z.Z.Z.%XC.C.%XZ.V.hXAXvXxXxXxXZXAX2XA.C.C.Z.%X%X%X%XZ.Z.Z.%X%X%X%X%X%X%X%X%X%X%X%X%X%XV.Z.%X%XZ.C.&XB.&X%X%XZ.C.C.C.C.C.C.B.A.h.^ x ^ ^ ^ x x x x ` h.m.&X%XC.C.%XC.Z.&X&XC.C.C.C.C.C.C.C.C.Z.C.%X%XC.C.C.C.C.C.C.C.C.C.C.N.N.N.N.N.N.N.N.N.C.C.C.C.C.C.C.C.B.B.B.C.C.N.N.N.B.B.B.B.B.N.N.N.N.B.B.B.V.N.N.N.N.N.V.N.N.N.V.V.N.V.V.D.` x x x ^ k k k g ",
"2 1 o o 1 2 2 2 6 2 2 2 2 2 6 6 6 6 6 6 6 6 2 2 2 2 1 o o O o = ; ; ; a a a a a a a 9 p l l l l l p p i p i i i p u u u u u u u y y t t q q q q q q q t t t t t t t w w w t t t t t q q q q q t y y t t t t t t q t t t t r 8 8 = = = = = = % % # @ @ @ + % ; ; z z h h h h h z ; < % X X X X X X @ X X X X X X X X @ @ @ @ @ # * % % % % % % % * * * * * * * = % % % % % ; - d g j j j j j j g j j j j h g g g g g d d g g g g g g g g j g j g g g g g g g g g j g g j g j j j g g j j Y Y Y Y k j g g g j k k k k k k Y Y Y Y ( ( ( ( ( ( ( ( ( ( ( ) ) _ ` ` _ _ q.D.D.D.D.D.D.z.z.z.x.x.D.D.D.n.n.q.9.8.W E :.:.>.>.>.>.:.:.>.>.>.>.>.:.f.@.@.f.:.:.:.>.>.>.>.>.>.>.>.>.>.>.>.>.>.>.>.>.>.>.>.>.>.>.>.>.>.>.<.3.3.3.5.7.d.u.p.a.rXuXaXfXdXdXkXjXkXlXVXVXVXVXPXjXpXV.V.Z.Z.B.Z.Z.Z.%X%X%XZ.Z.Z.Z.Z.Z.C.C.C.C.C.C.C.C.C.C.Z.Z.C.C.C.C.C.C.C.Z.Z.Z.Z.Z.Z.Z.Z.Z.%XZ.V.V.V.V.$X3X3X3X3X3X3X3X3X3X3X3X3X3X3X$XV.V.%XZ.Z.Z.C.C.C.C.B.B.m.A.A.N.N.B.C.C.C.C.C.Z.Z.Z.C.C.C.Z.Z.Z.Z.Z.%X%XZ.%XN.V.xXAXAXAXAXAXAXAX2XN.C.C.%X%X%X%XZ.Z.Z.%X%X%X%X%XB.B.Z.%X%XZ.%X%X$XB.B.B.N.B.C.C.&X%X&X&X%XZ.C.C.C.C.C.C.Z.m.x.h.h.h.h.h.h.h.h.h.x.B.&X%XC.C.%XZ.C.Z.C.C.C.C.C.C.C.C.C.C.C.Z.C.Z.Z.C.C.C.C.C.C.C.C.C.C.C.N.N.N.N.N.N.N.N.N.N.N.C.B.B.B.C.N.N.N.N.B.B.N.N.N.N.N.N.N.N.N.N.N.N.B.B.V.V.V.N.N.N.N.V.V.V.N.V.V.V.V.D.` x Y k x Y k k k j ",
"2 1 o o 1 2 2 2 6 2 2 2 2 2 6 6 6 6 6 6 6 6 6 2 2 2 1 o o O o s 7 7 a a a a a a 9 p p l p l l i i i i u i @.@.@.u u u u u y y y 0 0 0 0 0 0 q q w w w w y q q t w w w w w w w q q q q w w w w q t t t t t t t t t q q q q q 8 8 = = = = = # @ @ = = @ % @ + % = - - h h h h z a , < % X X @ X X X X X X X X X X X X X @ @ @ @ @ * % % % % * % % * * % % * * * * % % % % % < ; d d g j j j j j g j j j j j g g g d d g d g g d g g g g g g g g g g g g g g g g g j h g h h g h j h h h j j h g g g g g j k k k k k k k k k k Y Y Y ( ( ( ^ ^ ^ ( ( ( ( ( ( ( ` _ _ _ q.q.h.D.D.D.z.z.z.z.z.D.D.D.n.D.q.9.8.W :.<.:.>.:.>.>.>.:.:.>.>.>.>.:.f.@.@.@.f.f.:.:.>.>.>.>.>.>.>.>.>.>.>.>.>.>.<.>.>.>.>.>.>.>.>.>.>.>.>.>.>.>.>.3.5.7.7.r.s.a.rXuXaXfXfXdXdXkXkXkXVXVXVXlX1X9.q.b.V.Z.%XZ.Z.%X%X%X%XZ.Z.Z.Z.Z.Z.C.C.Z.Z.C.C.C.C.C.C.C.C.C.C.C.C.C.C.C.C.C.C.C.C.Z.Z.Z.Z.%XZ.V.V.V.V.V.3X3X3X3X1X3X3X1X1X3X3X3X3X3X3X$XV.B.B.B.Z.C.C.C.C.B.B.B.m.N.N.N.Z.C.C.C.C.Z.Z.Z.Z.C.C.C.Z.Z.Z.Z.%XZ.%XC.%XB.Z.2XxXZXxXxXxXxXhX%XZ.B.C.%X%X%X%XZ.Z.%X%X%X%X%X%X&XB.%X%X%XZ.Z.B.V.m.V.A.A.B.B.C.C.&XC.C.C.Z.C.C.C.C.C.C.C.B.m.v.A.A.m.V.B.B.%X%X%X%X%X%XC.C.Z.Z.C.Z.C.C.C.C.C.C.C.C.Z.C.Z.Z.C.C.Z.Z.C.C.C.C.C.C.C.C.N.N.N.N.N.N.N.N.N.m.N.N.N.B.N.N.N.N.N.N.B.N.N.N.N.N.N.N.N.N.N.N.N.N.N.N.V.N.N.N.V.N.N.N.V.V.V.V.N.V.V.b.h.^ x x k k j k k j Y j ",
"2 1 o o 1 2 2 2 2 2 2 2 2 2 6 6 6 6 2 6 6 6 2 2 2 3 1 o o O o s 7 7 a a a a 9 a p l p l i i i i i i i @.@.@.@.@.u u y t y q q 0 0 0 0 0 w w w w y y y u u y y y y y w w w w w q q q q w w w w w t t t t t t t t t q q q q q 8 8 = = = = = # @ @ @ @ @ % @ % % % < , z h h h z - ; % X X @ @ X X X X X X X X X X X X X @ @ @ @ @ % % * * * * % % % % % % * * * * * * % % % % ; d d g j j j j j j j j j j j g g g d d d d d g d g g g g g g g g g g g g g j g g g j h h g g h h h j j h h h h j j k k k k k k k k k k k k k k k Y Y Y ^ ^ Y Y ^ ( ( ( ( ( ( ( ` ` _ _ _ _ q.h.h.D.z.z.z.z.z.z.D.z.D.q.9.8.W :.:.<.:.:.:.>.>.>.>.>.>.>.>.:.f.@.@.@.f.f.f.:.>.>.>.>.>.>.>.>.>.>.>.>.>.>.<.<.>.>.>.>.>.>.>.>.>.>.>.>.>.>.>.>.>.3.3.3.5.7.u.a.rXuXaXfXdXdXdXkXkXVXVXlXS.z + k n.V.V.Z.Z.Z.Z.%XZ.%X%XZ.Z.Z.Z.Z.Z.Z.Z.Z.C.Z.C.C.C.C.C.C.C.C.C.C.C.C.C.C.C.C.C.C.Z.Z.Z.B.%X%XZ.Z.V.V.$X3X3X3X3X3X3X1X3X3X3X3X3X3X3X3X$X%XB.B.B.B.C.C.C.C.B.B.B.B.B.N.B.B.C.C.C.C.Z.Z.Z.Z.C.C.C.Z.Z.Z.%X%X%X%X&X%XZ.%XN.3X3X3X$X$XV.V.N.Z.B.C.%X%X%X%XZ.Z.%X%X%X%X%X%X%X%X%X%X%XB.B.B.m.x.z.j.x.A.B.Z.C.%XC.C.C.C.C.C.C.C.B.B.B.B.m.m.m.V.N.B.%X%X%X&XC.Z.C.Z.C.C.Z.C.C.C.C.C.C.C.C.C.C.C.C.C.Z.C.m.m.N.C.C.C.C.C.C.C.B.B.N.N.N.N.N.N.N.m.N.N.N.N.N.N.N.N.N.N.N.N.N.N.N.N.N.N.N.N.N.N.N.N.N.N.N.N.V.N.N.N.B.V.V.V.V.V.V.V.V.V.x._ x j j Y k k k Y j Y Y h ",
"3 1 o o 1 2 2 2 2 2 2 2 2 2 6 6 6 6 2 6 6 6 6 6 2 3 s 1 o o o o 7 7 a a a 9 a 9 p p i l i i i i i @.@.@.@.@.#.#.y y y q q q 0 0 0 w w w y w y y u u u u u u u u w w w w y y y y q q w w w w w w t t q q q w t t t t t t q r 7 7 = = = = * @ @ @ % @ @ % @ @ % % % ; > z h h z , ; = X X X @ @ X X X X X X X X X @ @ X @ @ @ @ # % * * * * * * * % % % % % * * * * * % % % % ; d d j Y j j Y Y Y j j j j g g d d d d d d d z z g g g g g g g g g g g g g j g g g h h h g g g h j j j h h j j j k k k j j j j k k Y k k k k k k k k Y k k k k Y ^ ^ ( ( ( ( ( ( ( _ _ _ _ _ _ _ q.D.D.z.z.z.z.z.z.q.9.8.W :.:.:.:.>.:.:.>.>.>.>.>.>.>.>.f.@.@.@.@.f.f.>.>.>.>.>.>.>.>.>.>.>.>.>.>.>.>.>.<.>.>.>.>.>.>.>.>.>.<.>.>.>.>.>.>.>.>.<.3.3.5.6.u.p.rXuXaXaXdXdXkXkXVXVXrXt . + s.pX3XV.b.V.V.V.Z.Z.C.Z.Z.Z.Z.Z.Z.C.C.C.C.Z.Z.C.C.C.C.Z.Z.C.C.C.C.C.C.C.C.C.C.C.Z.Z.Z.Z.Z.%X%XZ.Z.Z.Z.V.$X3X3X3X3X3X1X3X3X3X3X3X3X3X3X$XZ.&XB.B.%X%X%XC.C.%XB.B.B.B.B.B.B.C.C.C.Z.Z.Z.Z.Z.C.Z.C.Z.Z.Z.%X%X%X&X%X%X%X%XB.N.V.V.N.Z.Z.%X%X%X&X&XC.%X%X%X%XZ.%X%X%X%X%X%X%X%X%X%X%X%X%XB.V.A.j.h.h.v.B.%X%X%XC.C.C.C.C.C.C.C.C.C.C.B.A.x.x.A.m.N.B.B.C.C.C.C.C.Z.C.C.C.C.C.Z.C.Z.Z.Z.C.C.C.C.C.C.C.N.x.j.m.B.C.C.C.C.C.C.N.N.N.N.N.N.N.N.N.N.N.N.N.B.B.N.N.N.N.N.N.N.N.N.N.N.N.N.N.N.B.B.N.N.N.N.N.V.B.B.B.V.B.B.V.V.V.V.V.V.V.x.` x k j k j k k Y Y Y Y k h ",
"3 1 o o 1 2 2 2 2 2 2 2 2 6 6 2 6 6 2 6 6 6 6 6 2 2 1 1 o o o o 7 7 8 a 9 a 9 p p i l i i i i i u u u u u #.y y y t q 0 0 0 q q w w y u u u u u u u u #.y y u u y y y y y y y w w w y y y y w w t t t w w w t t t t t t q 7 7 7 = = = = = @ @ @ % @ @ @ @ @ % % % = - z z h z - < % X X X @ X X X X X X X X X X X X X @ @ @ @ # * * * * * * * * * * * = = = = % = * % % % % ; d d j j Y Y Y Y Y Y j j j g d d d d d d d z d d z g g g g g g g g g g g g j g g g g h h g g g j j j j j j j j j j j j k k k k k k k k k k k k k k k k k k k k Y ^ ^ ^ ( ( ( ( ( ( ( ) ) _ _ _ _ _ D.D.z.z.z.z.z.D.9.Q W l :.>.>.>.<.:.:.>.>.>.>.>.>.:.f.@.@.@.f.:.f.>.>.>.>.>.>.>.>.>.>.>.>.>.>.>.>.>.>.<.>.>.>.>.<.>.>.>.>.<.>.>.>.>.>.>.>.>.>.3.3.5.5.6.u.p.rXtXaXfXfXkXVXVXaXW . O 2.jXPXzX3Xn.V.V.V.V.B.B.C.Z.Z.Z.Z.C.C.C.C.C.Z.C.C.C.C.C.C.Z.C.C.C.C.C.C.C.C.C.C.C.Z.Z.Z.Z.%XZ.Z.Z.%X$XZ.$X$X3X3X3X3X3X3X3X3X3X1X3X3X3X3X$XV.&X&X&X%X%X%X&X&X%X%XB.B.B.B.B.%XZ.Z.Z.Z.Z.Z.Z.Z.C.Z.Z.%XZ.Z.%X%XB.B.%XC.C.C.%X%X%X%X%X%XB.%XB.C.&X&X&XB.%X%X%X%X%X%X%X%X%X%X%X%X%X%X%X%X%X%XB.B.b.x.x.A.B.C.C.C.C.C.C.C.C.C.C.C.C.C.B.A.h.h.h.x.A.N.B.B.C.C.C.&XB.%XZ.C.C.C.C.Z.Z.Z.Z.Z.Z.Z.Z.Z.Z.Z.Z.N.x.h.A.C.C.C.C.C.C.C.N.B.N.N.N.N.N.N.N.N.B.N.B.B.B.B.N.N.N.N.N.N.N.N.N.N.N.N.N.N.B.N.N.N.N.N.N.V.B.B.B.B.B.B.V.V.V.V.V.V.D.^ x j k j j k j j k k j Y Y k ",
"2 1 o o 1 2 2 6 2 2 2 2 2 2 2 2 6 2 2 2 2 2 2 2 2 2 3 1 o o o o 7 7 8 8 p p p p p p i i @.@.@.@.@.@.#.#.u y w w q 0 w w w w w w $.$.#.#.#.#.$.$.#.u u u u $.$.y y y y w w w w w w w w w w w q q w t t t q t t y q w q t t 7 8 7 = = = # # @ % @ @ @ @ @ @ @ @ @ % = ; a h h a ; * % X @ @ X X X @ X X X X $ $ @ X X X @ @ @ @ # % * * * * * * * * * * * * * * * * * % % % % ; - g j j k k Y Y Y j j j g d d d d - - z z d d d z d g g g g g g g j j g g g g j j g g h h g g g g j j j j j j j j j j j j k k k k k k k k k k k k Y Y Y k k k Y Y Y Y ( ( ( ( ( ) ( ( ` _ _ _ _ _ q.q.q.q.z.D.9.9.8.8.8.W :.>.>.>.>.>.>.>.>.>.>.>.>.@.@.@.@.@.@.>.>.>.>.>.*.*.>.>.>.>.>.>.>.>.>.>.>.>.>.>.>.>.,.>.<.<.<.>.>.>.>.<.>.>.>.>.<.>.>.>.3.3.5.7.7.d.p.rXtXgXfXdXVXdXu.o   p uXPXPXPXzX1Xb.V.V.V.V.V.Z.Z.C.Z.Z.Z.B.B.B.B.B.B.B.B.B.B.C.C.Z.Z.C.C.C.Z.Z.Z.Z.Z.Z.Z.Z.Z.Z.Z.Z.Z.Z.Z.Z.V.V.V.3X3X3X3X3X3X3X3X3X1X1X3XV.$XV.V.V.V.Z.Z.Z.&X%XZ.C.C.C.B.C.C.Z.Z.Z.C.C.C.C.C.C.C.%X%X&X%X%X%X%X%X%X%X%X%X&X&X%X%X&X%X%X%X%X%X%XZ.Z.Z.Z.C.C.C.C.&XZ.Z.Z.Z.Z.%X%X%X%X%X%X%X%X%X%X%XB.N.m.m.B.C.C.C.C.C.C.C.C.C.C.C.C.C.B.j.` K h.h.A.m.B.C.B.B.C.C.C.C.C.C.C.C.C.C.Z.Z.Z.Z.Z.Z.Z.Z.C.C.Z.C.m.m.m.N.B.B.C.C.C.B.B.N.N.N.N.N.N.N.N.N.B.B.B.N.N.N.N.N.N.N.N.N.N.N.B.B.N.N.N.B.N.N.N.N.N.B.B.N.N.N.B.N.N.B.N.N.V.V.b.h.j j j j j k k k Y Y Y Y Y Y k h ",
"2 1 o o 1 2 2 6 2 2 2 2 2 2 2 3 2 6 2 2 6 2 2 2 2 2 3 1 o o o o 5 7 t t p p p p i i l @.@.@.@.@.@.#.y u y w w w w w w w y y $.#.#.#.#.#.#.#.#.#.u u u y y y y y y w y w w w w w w w w w w w q q w t t t t t t t q w q q t 7 8 7 = = = # # # @ @ @ @ @ @ @ @ @ @ @ % = - z z a ; = @ X X X X X X @ X X X X X X @ X X X X @ @ @ # % * * * * * * * * * * * * * * * * * % % % % ; - g g j k j Y j Y j j g g d d d d z z z z d d d g g g g g g g g g j g g g g g g j g g h h g g g g j j j j j j j j j j j j k k k j k k k k k k k k Y Y Y k k k k k k Y ( ( ( ( ( ( ( ) _ ( ( _ _ _ _ _ _ q.q.9.9.8.W W W E :.:.>.>.>.>.>.>.>.>.:.:.f.@.@.@.@.@.f.>.>.>.>.>.*.>.>.>.>.>.>.>.>.>.>.>.>.>.>.>.>.>.,.>.<.>.>.>.>.>.>.>.>.>.>.<.>.>.>.>.3.>.3.5.5.7.u.p.rXuXfXdXaXs.7   o s.kXVXVXVXVXsXV.b.V.V.V.V.N.N.B.B.B.B.B.B.B.B.C.C.C.C.C.B.C.B.C.B.B.B.B.B.C.C.B.B.B.B.N.N.N.N.N.N.N.V.V.V.V.V.b.b.V.V.V.3X3X3X3X3XV.V.V.V.V.V.V.V.V.V.N.B.B.B.%X%X%X%X%XC.C.C.C.C.C.C.C.C.C.C.Z.Z.Z.%X%X%X%X%XC.&X%X%X%XC.&X%X%X%X%X%X%X&XB.B.C.C.C.C.C.C.C.C.&X%X%X%X%X%X%X%X%X%X%X%X%X%X%X%XC.B.B.B.B.%X%XZ.C.C.C.C.C.C.C.C.Z.%XB.j.` K h.x.m.N.B.C.C.B.C.C.C.C.C.C.C.C.C.C.Z.Z.Z.Z.Z.Z.Z.Z.Z.Z.Z.C.B.N.N.C.B.C.C.C.C.C.B.N.N.N.N.N.N.N.N.N.N.N.N.N.N.N.N.N.N.N.N.N.N.N.N.N.N.N.N.N.N.N.N.N.B.B.B.B.B.B.B.B.Z.N.V.Z.V.x.` j j j j j j j j j k Y Y k Y Y k h ",
"2 1 o o 1 2 2 6 2 2 2 2 2 2 2 2 6 6 6 6 6 6 6 2 2 2 2 2 o o o o 5 7 t t p p y i i i i :.@.@.u #.y y y w w w w w w y y $.$.#.#.#.#.#.#.#.#.#.#.#.u u y y y y y y y y y y w w w w w w w w w w q q w w t t t t t t q q q q q 7 8 7 = = = # # @ @ @ @ @ @ @ @ @ @ % @ % % ; 9 9 , = % X X X @ X X X @ @ X X X X X X X X X X @ @ @ # % * * * * * * * % % * * * * * * * * % % % % ; - g g j j j j j g j g g g g z d d d z d d d d g g g g g j j g g j g g g g g g g g g h h h g g g g j j j j j j j j j k j j k k k k k k k k k k k k k k k k k k k k k k ^ ( ( ( ( ( ( ( ( ( ( ( ) ( ) ) ) 9.9.9.8.W W W E :.:.:.>.>.>.>.>.>.>.>.f.@.@.@.@.@.@.f.>.>.>.>.>.>.*.*.>.>.>.>.>.>.>.>.>.>.>.>.>.>.>.>.>.>.>.>.>.>.>.>.>.>.>.>.<.<.>.<.<.<.3.>.<.3.3.5.6.u.a.rXuXiXu.7 . s d.gXVXVXVXVXVXVXsXb.b.V.A.N.V.V.m.N.N.N.N.N.N.N.N.N.N.N.N.N.m.m.m.A.A.A.A.A.A.A.b.b.x.x.x.x.x.x.x.x.x.x.x.x.x.x.x.x.b.b.b.b.b.b.b.b.b.b.b.x.b.b.V.V.N.N.N.V.B.B.N.B.B.B.Z.Z.B.C.C.C.C.C.C.C.C.C.Z.Z.Z.Z.C.C.C.C.B.%X%X%X%X%X%X%XC.C.C.C.&X%X%X%X%X%XZ.C.C.C.C.%X%X%X%X%X%X%X%X%X%X%X%X%X%X%X%X%X%X%XC.B.%X%X%X%XC.C.C.C.C.C.C.C.C.%XC.A.j.h.x.m.N.B.B.C.C.C.C.C.C.C.C.C.C.C.Z.C.Z.Z.Z.Z.Z.Z.Z.Z.Z.C.C.C.C.C.C.C.B.C.C.C.C.C.B.N.N.N.N.N.N.N.N.N.N.N.N.N.N.N.N.N.N.N.N.N.N.N.N.N.N.N.N.N.B.C.C.C.B.B.B.B.B.V.N.N.V.A.A.b.D.^ j g j j j j j k j j j k Y k W W W W ",
"2 1 o o 1 2 2 2 2 2 2 2 2 2 2 2 6 6 6 6 6 6 6 2 2 2 2 2 1 o o o s q t p p i i @.@.@.@.@.@.@.y y y w w w w w w w $.$.$.#.$.#.#.#.#.#.#.#.#.#.#.y u u y y y y w w y w w y w w w w w w w w q q q q q w q q t t t t q q q q q 7 7 7 = = = # # # @ @ @ @ @ @ @ @ @ % @ @ % = , , ; = % X X X X X X X $ $ X X X X X X X X X X @ @ @ # % * * * * * * * % % % % * * * * * * % % % % ; - g j j j j j g g g g h h g g d d d d d d d g g h g g g g g g g g g g g g g g g g j h h h h j j j j j j j j j j j j j j j k k k k j k k k k k k k k k k k k k k k k k Y ^ ^ ( ( ( ( ( ( ( ( ( ( ( ( ( ) 9.9.8.8.W E E :.:.:.>.>.>.>.>.>.>.:.:.@.@.@.@.@.@.f.>.*.>.>.>.*.*.*.*.>.>.>.>.>.>.>.>.>.>.>.>.>.>.>.>.>.>.>.>.>.>.>.>.>.>.>.>.<.<.>.>.<.<.3.<.3.3.3.5.7.r.s.a.p.7.t o 7 d.aXdXdXVXVXVXVXVXVX3Xn.x.V.b.b.A.A.A.A.N.A.N.A.N.N.N.N.N.m.A.A.A.A.A.A.A.x.x.x.x.x.x.x.x.x.x.x.x.x.x.x.x.x.x.x.x.x.z.z.z.z.z.z.z.j.j.j.j.h.h.z.z.z.z.x.x.x.x.x.x.v.v.A.m.m.N.m.m.m.m.m.m.N.N.B.B.B.B.C.C.C.C.C.Z.%X%X%X%X%X%X%X%X%X%X%X%X%X%X%X%X%X%X%XC.&XC.%X%X%X%X%X%X%X%X%X%X%X%X%X%X%X%X%X%X%X%XZ.C.B.%X%X%XC.C.C.C.C.C.C.C.C.C.C.C.C.C.C.C.C.C.C.C.C.%XC.C.C.C.C.C.C.C.C.C.C.C.C.C.C.C.C.C.C.C.B.C.C.C.C.B.B.C.C.B.C.N.N.N.N.N.N.N.N.N.N.N.N.N.N.N.N.N.N.N.N.N.N.N.N.N.B.N.B.N.N.N.N.N.N.N.Z.B.N.N.V.A.x.x.x.x.x._ x j j k j j j j j j k k k k k W W W W E ",
"2 1 o o 1 1 2 2 2 2 2 2 2 6 6 6 2 6 6 6 6 6 6 2 2 2 2 3 1 o o o s q u u @.@.@.@.@.@.@.@.@.#.y w w w w w w w y y #.#.#.#.#.#.#.#.#.#.#.#.#.#.#.#.#.u y y y y w w y y y w w w w w w w w w q q q q 0 q q w t t t t q q q q q 7 7 7 = = = # # @ @ @ @ @ @ @ @ @ @ @ @ @ @ = : : = * @ X X X X X @ $ $ X X X X X X X X X X X @ @ @ @ @ % * * * * * * % % * * * * * * * * % % % % ; , g j j j j j j g g g g g g g g g g d d d g g g j g g g g g g g g g g g j j g g g h h j j h h h h j j j j j j j h j j j j j j j j k k k k k k k k k k k k k k k k k k Y ^ ( ( ( ( ( ( ( ( ( ( ( ( ( ( ) 9.8.8.8.W :.:.:.:.>.>.>.>.>.:.:.@.@.@.@.@.@.@.@.f.>.>.>.*.*.*.*.*.>.>.>.>.>.>.>.>.>.*.*.*.>.>.>.>.>.>.>.>.>.>.>.>.>.>.>.>.>.>.>.<.>.>.>.>.>.>.<.<.<.3.5.7.7.r.3.0 o 7 1.rXfXdXdXdXlXVXVXVXPXjXS.z.x.x.b.x.v.b.A.A.A.A.V.N.N.N.N.N.m.m.m.m.m.m.m.N.N.N.N.N.m.m.N.N.N.N.N.N.N.N.N.N.N.N.m.N.N.N.N.N.b.b.x.x.x.x.x.x.x.x.h.h.h.x.x.x.h.h.h.h.x.x.j.j.j.h.h.h.h.h.h.h.h.h.h.h.j.j.x.x.A.A.m.m.N.N.N.B.N.B.Z.%X%X%X%X%X%X%X&XC.Z.Z.B.B.B.B.C.&XC.C.C.C.C.Z.Z.Z.%X%X%X%X%X%X%X%XC.C.C.B.B.B.%X%X%X%XZ.Z.C.&XC.C.%XC.C.C.C.C.C.B.C.C.C.C.C.%XC.C.Z.C.C.C.C.C.C.C.C.C.C.C.C.C.C.C.C.C.C.C.C.C.C.C.B.B.C.N.B.N.N.N.N.N.N.N.N.N.N.N.N.N.N.N.N.N.N.N.N.N.N.N.N.N.N.N.B.N.N.N.A.A.A.A.x.x.x.x.x.D.h.h.D.h._ x j j j j g j j j j k j j k k W l W W E N ",
"3 1 o o 1 1 2 2 2 2 2 2 2 2 6 3 6 2 6 6 6 6 6 2 6 2 2 3 1 o o o 1 q u @.@.@.@.@.@.@.@.u y y w w w w w w y y u u #.#.#.#.#.#.#.+.#.#.#.#.#.#.#.#.u y y y y y w w y y w w w w w w w w w w q q q q 0 0 q q q q t q q q q q q 0 7 7 = = # # # @ @ @ @ @ @ @ @ @ @ @ @ @ @ * * = = * @ @ @ X X X $ X X X X X X X X X X X X X X @ @ @ @ % * * * * * = % % * * * * % % * * % % % < ; d g j Y j j j j g g g g g g g g g g g g g g g j j g g g g g g g g g g g j j g g g h j j j h h h h h h h h h j j h j j h j j j j j j k k k k k k k k k k k k k k k k k k Y ( ( ( ( ( ( ( ( ( ( ( ( ( ( ) Q Q 8.<.:.>.:.>.>.>.>.>.>.:.@.@.@.@.@.@.@.@.f.>.>.*.*.*.*.*.*.*.*.*.*.>.>.>.>.>.>.*.*.*.*.>.>.>.>.>.>.>.>.>.>.>.>.>.>.>.>.>.>.>.>.>.<.>.>.>.>.>.>.>.<.>.>.>.@.t 5 5 y u.uXfXdXdXdXdXkXVXVXVXVXsXn.z.x.b.x.x.x.b.A.A.N.N.N.N.N.N.N.N.N.N.N.N.B.C.C.C.C.C.C.Z.Z.Z.Z.Z.Z.Z.Z.C.C.Z.Z.C.C.C.C.C.C.Z.Z.B.B.B.B.C.C.B.B.B.B.N.N.N.N.N.N.N.m.A.A.A.A.A.A.x.x.x.x.x.x.x.x.h.h.h.h.h.h.h.h.h.h.h.h.h.h.h.h.h.h.x.x.A.A.m.N.B.B.B.B.B.Z.Z.B.B.B.B.C.C.C.Z.Z.Z.%X%X%X%X%X%X%X%X%X%X%XC.C.B.B.B.B.%X%XC.C.C.C.C.C.&X&X%X%XZ.C.B.N.C.C.C.C.C.C.%X%XC.C.Z.Z.C.C.C.C.C.C.C.C.C.C.C.C.C.C.C.C.C.C.C.C.C.C.B.N.N.N.N.N.N.N.N.N.N.N.N.N.N.N.N.N.N.N.N.N.N.N.N.N.N.N.N.A.A.v.A.x.x.x.x.x.D.D.h.h.h.h.h.x.x.x.D.` x j j j j g j j j j j j j j k W E E E N N N ",
"3 1 o o 1 1 2 2 2 2 2 2 2 2 2 3 6 6 6 6 6 6 6 6 6 2 2 2 1 o o O o 0 u @.@.@.@.@.u u y y y w w w w w y y u u u u #.#.#.#.#.#.#.#.#.#.#.#.#.#.u u y y w y w w w w q w w w w w w w w w w w 0 0 0 0 0 0 q q q q q t q q q q q 0 7 7 = = # # # @ @ @ @ @ @ @ @ @ @ @ @ @ @ % * = * % X X @ X @ X X $ X X X X X X X X X X X X X @ @ @ @ % % % * * = = % % * * * % % % * * % % % % ; d g j Y j j j j g g g g g j j j j h g g j j j j j g g j g g g g g g g g g g g j g h h j j j j h h h h j j h h h h j j j h j j j j j j k k k k k k Y Y k k k k Y Y k k k Y ( ( ( ( ( ( ( ( ( ( ( ( ( ( Q Q W W :.:.>.>.>.>.:.:.f.f.@.@.@.@.@.@.@.@.@.>.>.*.*.*.>.*.*.*.*.>.>.>.*.*.>.*.>.>.*.*.*.*.>.>.>.>.>.>.>.>.>.>.>.>.>.>.>.>.>.>.>.>.>.>.>.>.>.>.>.>.>.>.>.f.@.q 5 5 y >.u.tXfXfXdXdXdXdXkXVXlXPXVXS.q.b.x.v.b.b.b.A.A.V.V.N.N.N.N.N.N.N.N.C.C.C.C.C.C.C.N.N.C.C.Z.C.C.C.C.C.C.C.C.C.C.C.C.C.C.C.Z.Z.Z.Z.Z.Z.Z.Z.Z.Z.Z.Z.Z.Z.C.C.Z.Z.Z.Z.Z.Z.Z.Z.C.C.C.C.C.Z.C.C.Z.B.B.N.N.N.m.A.A.x.j.h.h.h.h.h.h.h.h.h.h.h.h.h.h.x.x.x.A.A.A.A.m.N.B.B.B.B.B.B.B.C.C.Z.Z.Z.C.C.Z.Z.Z.%XC.C.C.C.C.B.B.B.B.%XC.C.Z.Z.Z.Z.&X&XC.Z.%X%X&XC.Z.Z.C.C.C.C.C.C.C.C.C.C.C.C.C.C.C.C.C.C.C.C.C.C.C.C.C.C.C.C.C.C.B.C.N.N.N.N.N.N.N.N.N.N.N.m.N.N.N.N.N.N.N.N.N.A.A.A.A.A.A.x.x.x.x.h.h.h.h.h.h.h.h.h.x.x.x.x.A.V.b.x.( x j j j g j j j j k k k k k k W W E N N N N N ",
"2 1 o o 1 1 2 2 2 2 2 2 2 2 2 3 6 6 6 6 6 6 6 6 6 2 2 2 1 o o O o 6 u @.@.@.@.u y t t t q q w y y y u #.#.u u y $.$.#.$.#.$.$.#.u u u #.u u u u w w w w w w w w q w w w w w q q w w w q 0 0 0 0 0 0 0 q q q q t q q q q 0 r 7 7 = = # # # # @ @ @ @ @ @ @ @ @ @ X X @ @ % % % % X X X X @ @ X X X X X X X $ $ $ $ X X X X @ @ @ @ % % % % % * * % % * * * * % % * * % % % % ; d g j j j j j j g g g g g j j j j g g h j j j g g j j j g g g g j g g g g g g j g h h j j j j h h h h j j j h h h j j h h j j j j j j k k k k k k Y Y Y k k k Y Y k k k Y ^ ( ( ( ^ ( ( ( ( ( ( ( ( ( Q Q W <.:.:.>.>.>.>.f.@.@.@.@.@.u u @.@.@.f.@.>.>.*.@.*.>.*.*.*.*.*.*.*.*.>.*.*.>.*.*.*.*.*.>.>.>.>.>.>.>.>.>.>.>.>.>.>.>.>.>.>.>.>.>.>.>.>.>.>.>.>.>.>.@.u y 0 0 t i 3.u.rXgXfXdXfXdXdXdXVXVXVXPX<X9.n.x.A.A.V.A.V.V.V.V.V.N.m.N.N.N.C.C.C.C.C.C.C.C.C.C.C.C.C.C.C.C.C.C.C.Z.Z.Z.Z.Z.Z.Z.Z.Z.Z.Z.Z.Z.Z.Z.Z.Z.Z.Z.Z.Z.Z.Z.Z.C.Z.C.Z.C.C.Z.Z.C.C.C.Z.Z.Z.Z.Z.Z.Z.%X%X%XZ.Z.Z.Z.Z.Z.C.C.B.N.N.N.N.N.N.A.A.v.v.x.x.h.h.h.h.h.h.h.h.x.x.x.x.x.A.A.A.A.N.N.B.C.C.C.C.C.C.C.C.C.B.C.C.C.B.B.B.B.B.C.C.Z.Z.Z.C.%X%X%XC.C.C.&X&XZ.C.C.C.C.C.C.C.C.C.C.C.C.C.C.C.C.C.C.C.C.C.C.C.C.C.C.C.C.C.C.C.C.B.N.N.N.N.N.m.m.m.N.N.m.N.N.N.N.N.A.N.N.A.A.x.x.x.x.D.h.h.h.h.h.h.h.x.x.x.x.A.A.V.A.V.V.V.V.V.z.` x j j j j j j j j j k j k k k k W W N N N N %.N ",
"3 1 o o 1 3 2 3 3 2 2 2 2 2 2 6 2 2 2 2 6 6 6 6 5 6 6 2 2 o o O o 7 t @.u y y y y y y t w y y u #.#.#.#.#.#.#.u u u #.#.u u y y y y y y y y w w w w w w w w w w w w w w w w w q w w w q w q 0 0 0 0 q q q q q q q q 0 0 0 0 7 7 = # # # # @ @ @ @ @ @ @ @ @ @ @ @ @ @ @ % % @ @ @ @ @ @ X X X X X $ X X X X $ @ X X X X @ @ @ @ @ @ @ % % % @ % % % % * * * % * * * % % % * ; d g g Y g g g g g g g g g g j j j j j j j j j j j g g g g g g g g g g g j j j g g h h h h h h h j j j j j j j j j h h h j j j j j j j k k k k k k k k k k k k k k k k k k Y ^ ( ( ^ ( ( ( ( ( ( ( Q Q W W :.:.:.:.:.f.@.u u u u y y y #.@.@.@.@.f.:.>.>.*.*.*.*.*.>.>.*.*.*.*.>.*.>.*.*.*.*.>.>.>.>.>.>.>.:.>.>.>.>.>.>.>.>.>.>.>.>.>.>.>.>.>.>.>.>.>.>.>.>.@.y q 0 t y @.>.5.u.a.uXgXfXdXfXdXdXdXVXPXdXw.9.n.z.x.b.b.V.V.V.V.V.B.N.B.B.B.B.B.C.C.C.C.C.C.C.C.C.C.N.N.C.C.C.C.C.C.C.C.C.C.C.C.C.C.C.C.C.C.C.C.C.C.Z.Z.Z.Z.Z.Z.Z.Z.Z.Z.Z.Z.Z.Z.Z.Z.Z.Z.Z.C.C.C.C.Z.Z.Z.Z.C.C.C.Z.Z.C.C.C.C.C.C.C.C.Z.Z.C.C.C.C.C.C.C.C.C.N.m.A.x.x.h.h.h.h.h.h.h.h.h.h.h.h.j.j.j.x.x.x.v.A.A.m.N.B.B.N.B.B.B.B.Z.Z.C.%X%X%X%XC.C.%X%X%XC.C.C.C.Z.C.C.C.C.C.C.C.B.C.C.C.C.Z.C.C.C.C.C.C.C.C.C.C.C.C.C.C.C.C.C.C.C.C.B.B.N.N.B.N.N.V.N.N.A.A.x.x.x.x.h.h.h.h.h.h.h.h.h.h.h.D.x.x.x.b.A.A.V.N.V.V.V.V.B.V.V.Z.V.x.( j j j j j j j j j j j j k k h l W E N N %.%.%.-.N ",
"2 1 o o 1 3 3 3 2 2 2 2 2 2 2 2 2 2 2 2 2 2 2 6 6 2 2 2 2 1 o O o 5 t u u t t y y y y y y y u #.#.#.#.#.#.#.y u u $.$.$.y y y y y w w w w w w w w w w w w w w w w w w w w w w w w w w q w w 0 0 0 0 0 q q q q q q q 0 0 0 0 7 7 = # # # @ @ @ @ @ @ @ @ @ @ @ @ @ @ @ @ @ @ @ @ @ @ @ @ X X X X X $ $ X X X $ @ X X X X @ @ @ @ @ @ @ % @ @ @ % @ % % % % % * * * * % % % < , d g Y j j g g g g g g g g g g g g j h j g g g g j j j g g g g g g g g g j g g g g h h g g h h h j j j j j j j j j h h h j j j j j j j k k k k k k k k k k k k k k k k k k k Y ^ ( ^ ^ ^ ^ ^ ( ( Q Q Q l l l l :.@.@.@.u u u u u u @.@.@.@.@.@.f.>.:.>.f.*.*.*.*.*.>.>.*.*.>.>.>.>.*.*.*.*.*.*.>.>.:.>.>.>.>.>.>.>.>.>.>.>.>.>.>.>.>.>.>.>.>.>.>.>.>.>.:.f.@.y t q q y @.>.3.7.d.p.rXuXfXfXfXdXkXkXVXkXS.k 1XzXn.z.b.V.b.V.V.V.N.N.N.N.B.B.B.B.B.C.C.C.C.C.C.C.C.C.N.N.N.C.C.C.C.C.C.C.C.C.C.C.C.C.C.C.C.C.C.C.C.C.Z.Z.Z.Z.Z.Z.Z.Z.Z.Z.Z.Z.Z.Z.Z.Z.Z.Z.Z.C.C.C.C.Z.Z.Z.C.C.Z.Z.Z.Z.C.C.C.C.C.C.C.Z.Z.Z.Z.Z.Z.Z.Z.Z.%X%X%X%X%X%XZ.Z.C.C.C.B.m.A.x.x.h.h.h.h.h.h.h.h.` ` h.h.h.h.h.h.h.h.h.h.h.h.h.h.j.x.A.m.m.B.B.C.B.B.B.B.B.C.C.C.N.B.B.B.B.B.B.B.C.C.C.C.B.B.B.B.C.C.C.C.C.C.C.C.C.C.C.C.N.N.m.A.A.A.A.x.x.x.x.x.h.h.h.h.h.h.h.h.h.h.h.D.x.x.A.A.b.b.A.A.A.N.N.N.N.N.N.N.V.V.V.Z.N.V.Z.V.x.^ x j j j j j j j j j j j j Y W W W E N N &.%.-.%.%.-.",
"2 1 o o 1 3 2 3 2 2 2 2 2 2 2 2 2 2 2 2 2 2 2 2 6 6 2 2 2 1 o o O s 0 y t y t t q q y y u #.#.#.#.#.#.#.#.y u u u u y y y y w w w w w w w w w w w w w w w w w w w w w w w w w w w w w w w w 0 0 0 0 q q q q q q q q q 0 0 7 7 7 = = # # @ # @ @ @ @ @ @ @ @ @ @ @ @ @ @ @ @ @ @ @ @ @ @ X X @ @ X $ X X X X $ @ X X X @ X @ @ @ @ @ @ @ @ @ @ @ @ @ @ % % % % % % % % % % < - d g Y Y Y g g g g g g g g g j j j g g h g g g g g j j g g g g g g g g g g g g g g g g g g h h h h h h j j j j h h j j h h j h j j j j j k k k k k k k k k k k k k k k k k k Y ^ ^ ^ ^ ^ ^ ^ Q Q Q Q W l l p i u p u u u u u @.@.@.@.@.@.@.>.>.>.>.:.f.f.*.*.*.*.*.*.>.>.>.>.*.>.>.>.>.>.*.*.*.*.*.:.:.>.>.>.>.>.>.>.>.>.>.>.>.>.>.>.>.>.>.>.>.>.>.>.f.@.u y q 0 t y @.:.>.5.7.r.u.p.iXuXgXfXfXdXkXkX<X8.i.VXPXhXn.x.V.A.N.V.V.V.B.N.B.B.B.B.B.B.C.C.C.C.C.C.C.C.C.N.N.C.C.C.C.C.C.C.C.C.C.C.C.C.C.C.C.C.C.C.C.C.C.Z.Z.Z.Z.Z.Z.Z.Z.Z.Z.Z.Z.Z.Z.C.C.Z.Z.Z.C.C.C.C.Z.Z.C.Z.Z.Z.Z.Z.Z.Z.Z.Z.Z.Z.Z.Z.Z.Z.Z.Z.Z.Z.Z.Z.Z.C.C.Z.Z.Z.Z.%X%XZ.%X%X%X%X%X%X%X%X%X%XC.B.m.A.m.x.x.x.j.h.h.h.h.h.h.h.h.h.` ` ` ` ` h.h.h.h.h.h.h.h.h.h.h.h.h.h.h.h.h.h.h.h.h.h.h.h.h.h.h.h.h.h.h.h.h.h.h.h.h.h.h.h.h.h.h.h.h.h.h.h.h.h.h.h.h.h.h.h.h.h.x.x.A.N.A.A.A.N.N.N.N.N.N.N.N.N.N.N.N.V.N.V.V.N.N.N.V.V.V.Z.V.x.^ j j j j j j j j j j k j j k Y W E E N N N %.%.-.-.-.N ",
"2 1 o o 1 2 2 3 2 2 2 2 2 2 2 2 2 2 2 2 2 2 2 2 6 6 2 2 2 1 o o O o 7 t y t q q w w y u #.#.#.#.#.#.#.#.#.y u u y y y w w w w w w w w w w w w w w w w w w w w w w w w w w w w w q q q q q q 0 0 0 0 q 0 q q q q q q q 0 0 0 7 7 7 = # @ @ # @ @ @ @ @ @ @ @ @ @ @ @ @ @ @ @ @ @ @ @ @ @ X @ @ @ X @ X X X X o @ @ @ @ @ X @ @ @ @ @ # @ @ @ @ @ X @ @ @ @ % * * % % % % % ; - d g j Y j g g g g g g j j j j j j g g g g g g g g j j g g g g g j g g g g g g g g g g g g h h h h h h h h j j j h j j j j h h h j j j j k k k k k k k k k k k k k k k k k k Y ^ ^ k Y Y Y Y Y Q Q Q l l l i i i i @.@.@.@.f.f.f.f.f.f.@.>.>.>.>.>.:.f.f.*.>.*.*.*.*.>.>.>.>.>.>.>.>.>.>.>.*.*.*.*.:.:.>.>.>.>.>.>.>.>.>.>.>.>.>.>.>.>.>.>.>.>.>.f.f.@.u y q 0 t y u f.>.<.5.7.7.u.s.eXrXuXaXfXdXdXrX2.u.VXPXPXPX3Xz.x.V.N.V.V.N.N.N.N.B.B.B.C.C.C.C.C.C.C.C.C.C.C.C.C.C.C.C.C.C.C.C.C.C.C.C.C.C.C.C.C.C.C.Z.C.C.C.Z.Z.Z.Z.Z.Z.Z.Z.Z.Z.Z.Z.C.Z.C.C.C.Z.Z.Z.C.C.Z.Z.Z.Z.Z.Z.Z.Z.Z.Z.Z.Z.Z.Z.Z.Z.Z.Z.Z.Z.Z.Z.Z.Z.Z.Z.C.C.C.C.C.C.C.C.C.C.C.C.C.Z.%X%X%X%X%X%X%X%X%X%X%X%X%X%XZ.Z.C.C.C.C.C.B.N.m.m.m.m.m.A.x.h.h.h.h.h.h.h.h.h.h.h.h.h.h.h.h.` ` ` ` ` ` ` ` ` ` ` ` ` h.h.h.h.h.h.h.h.h.h.h.h.x.x.x.x.x.x.x.A.b.A.A.N.N.N.N.A.A.A.N.N.N.N.N.N.N.N.N.N.N.A.A.A.A.N.N.N.V.V.V.N.V.N.V.Z.V.D.^ j j k g j j j j j j j j j k k h W E N &.&.%.%.-.-.-.-.e ",
"2 1 o 1 1 2 3 2 2 2 2 2 2 2 2 2 2 2 2 2 2 2 2 2 5 6 2 2 2 2 1 o o o 2 0 y w q q w y u #.#.#.@.@.+.#.#.#.u u y y y w w w w w w w w w w w w w w w w w q q w w w w w w w w w w w w q q q q q 0 0 0 0 0 q q q q q q q q 0 0 0 0 7 7 5 7 # # @ @ @ @ @ @ @ @ @ @ @ @ @ @ @ @ @ @ @ @ @ @ X @ X X @ @ X o o o X X X @ @ @ X X X @ @ @ @ @ # * % @ @ @ X X X @ % % * * % % % % % ; - g g g Y g g g g g h h g g g g g g g g g g g g g g j j g g g g g j g j j g g g g g g g h h h h j j h h j j j j h h j j j j j j h h h j j j k k k k k k k k k k k k k Y Y Y k Y ^ ^ k k ^ ^ ( Q Q Q Q W l :.f.f.>.>.>.:.:.:.>.>.>.>.>.>.>.>.>.>.f.f.:.>.>.>.>.>.*.*.*.*.>.>.*.*.>.>.>.>.*.*.*.*.*.*.:.:.>.>.>.>.>.>.>.>.>.>.>.>.>.>.>.>.>.>.>.:.f.@.u t t t q t y u @.>.>.<.5.7.7.r.u.p.a.iXuXaXfXtX2.u.fXVXVXVXVXVXb.z.V.N.A.V.N.N.B.B.B.B.B.C.C.C.C.C.C.C.C.C.C.N.N.N.N.C.C.C.C.C.C.B.C.C.C.C.C.C.C.C.C.C.Z.Z.Z.Z.Z.Z.Z.Z.Z.Z.Z.Z.Z.Z.C.C.C.C.C.C.C.Z.Z.Z.C.C.Z.Z.Z.Z.Z.Z.Z.Z.Z.Z.Z.Z.Z.Z.Z.Z.Z.Z.C.C.C.C.C.Z.Z.Z.Z.Z.Z.Z.Z.Z.Z.Z.Z.Z.C.C.B.C.C.C.C.C.C.C.C.Z.Z.Z.Z.Z.Z.Z.Z.%X%X%X%X%X%X%X%X%X%X%X%X%X%X%X%X%X%X%X%XZ.%X%XZ.Z.C.C.m.N.m.m.A.A.A.A.A.A.A.A.A.A.A.A.N.N.N.N.B.B.B.B.N.N.N.N.N.N.N.B.B.B.N.N.B.V.V.V.N.N.N.N.N.N.N.N.A.A.A.A.N.N.N.N.N.N.A.A.A.N.N.N.N.V.V.V.N.V.V.V.b._ x j j g g j j j k k k j j k k k k l W E N &.%.%.%.-.-.-.;.4 ",
"2 1 o 1 1 2 3 2 2 2 2 2 2 2 2 2 2 2 2 2 2 2 2 2 6 2 2 2 2 3 1 o o o 1 0 y y w y u u #.#.#.#.#.#.#.#.$.u u y y y w w w w w w w w q w w w q q q y w w w q w w w w w w w w w w w w q q q q q 0 0 0 0 0 q q q q q q q q 0 0 0 0 0 7 5 7 # # @ @ @ @ @ @ @ @ @ @ @ @ @ @ @ @ @ @ @ @ @ @ X X X X @ @ X @ X o X X X @ @ X X X X @ @ @ @ @ # @ % @ @ @ X X X @ @ % % * * % % % * ; - g g g Y g g g g g g g g g g g g g Y Y g g g g g g j j j j j g g g g g j g g g g g g j h h j h j j h h j j j j h h j j j j j j h h h h j j k k k k k k k k k k k k k Y Y Y k k k Y Y Y Y Y Q Q Q Q W W <.:.>.>.>.>.>.>.>.>.>.>.>.>.>.>.>.>.>.f.f.@.:.>.>.>.>.>.*.*.>.>.>.>.*.*.>.>.>.>.*.*.>.*.*.*.:.:.>.>.>.>.>.>.>.>.>.>.>.>.>.>.>.>.:.:.:.f.@.u y t 0 0 t y u @.f.>.>.3.5.5.7.7.d.s.p.rXuXuX,X2.6.uXlXkXVXVXVXPXsXn.x.A.V.V.V.N.B.B.B.B.B.B.B.B.C.C.C.C.C.N.N.N.N.N.N.C.N.N.C.C.C.C.B.C.C.C.C.C.C.C.C.C.Z.Z.C.C.Z.Z.Z.Z.Z.Z.Z.Z.C.C.C.C.C.C.C.C.C.Z.Z.Z.C.C.Z.Z.Z.Z.C.C.C.Z.Z.Z.C.C.Z.Z.C.C.C.Z.C.C.C.C.C.C.C.C.C.Z.Z.Z.Z.Z.C.C.C.C.C.Z.Z.Z.Z.Z.C.C.C.C.C.C.C.C.Z.Z.Z.Z.C.C.C.C.Z.C.C.C.C.C.C.C.Z.Z.Z.C.C.C.C.C.Z.Z.Z.Z.Z.Z.Z.Z.Z.%X%X%XZ.Z.%X%X%X%X%X%X%X%X%X%XZ.Z.Z.Z.Z.Z.Z.Z.%XZ.B.B.B.B.B.B.B.B.N.N.N.N.N.N.B.B.B.B.B.N.N.N.N.N.N.N.N.N.N.N.N.N.N.N.N.N.V.N.N.N.N.V.V.V.V.x.` x j j j j g j j j j j j k k k l l W E E N &.%.-.-.-.-.;.;.N 4 ",
"2 1 o o 3 2 2 2 2 2 2 2 2 2 2 2 2 2 2 2 2 2 2 2 5 2 2 2 2 2 1 o o o 1 6 y u u u #.#.#.#.#.#.#.#.#.$.u y y y y y w w w w w w w w w w w w w q w y w w q q w w w w w w w w w w w w q q q q q 0 0 0 0 q q q t t q q q q 0 0 0 0 0 7 5 7 # # @ @ @ @ @ @ @ @ @ @ @ @ @ @ @ @ @ @ @ @ @ @ X X X @ @ X X X X X X X @ @ @ @ X X X @ @ @ @ @ @ % @ @ @ X @ @ X X @ % % * * * % % * ; d g g Y Y g g g g g g g g g g g g g g g g g g g g g g g j j j j g g g g g g g g g g j h h h j j j j h h j j j h h h j h j h j j h j h h h j j k k k k k k k k k k k k k k k k k Y Y k k k Y Q Q Q Q W W <.:.>.>.>.>.>.>.:.:.f.f.>.>.f.@.>.>.>.f.f.f.:.>.>.*.*.*.*.*.*.*.>.*.*.>.>.>.>.>.*.*.>.>.>.*.:.:.:.>.>.>.>.>.>.>.>.>.>.>.>.>.>.:.f.f.@.@.u y t 0 0 t t u @.f.:.>.>.<.3.5.5.7.r.d.p.a.rXa.2.<.rXfXdXlXVXVXVXVXVXpXn.x.V.V.V.V.V.V.N.B.N.N.N.N.N.B.B.B.N.N.N.N.N.N.N.N.N.N.N.N.N.N.B.B.C.C.C.C.C.C.C.C.C.C.C.C.Z.Z.Z.Z.Z.C.C.C.C.C.C.C.C.C.C.C.C.Z.Z.Z.Z.C.C.C.C.C.C.C.C.C.C.C.C.Z.C.C.C.C.Z.Z.Z.C.C.C.C.C.C.C.C.Z.Z.Z.Z.Z.C.C.Z.Z.Z.Z.Z.C.C.C.C.C.C.C.C.C.Z.Z.Z.Z.Z.Z.Z.Z.Z.Z.C.C.C.Z.Z.%X%X%XZ.C.C.Z.Z.Z.Z.Z.C.C.C.C.C.C.C.C.N.C.C.C.C.C.C.C.Z.Z.Z.Z.Z.Z.Z.%XZ.Z.Z.Z.Z.Z.C.C.Z.Z.B.B.B.B.B.B.N.N.N.N.N.N.N.V.N.N.N.N.N.N.N.N.N.N.N.N.N.N.N.N.N.N.V.N.N.N.A.A.A.N.V.V.V.b.h._ j k k j j k k j h j k k k h h W E E E W N N %.%.-.-.-.;.N ;.4 4 ",
"2 o o 1 3 2 2 2 2 2 2 2 2 2 2 2 2 2 2 2 2 2 2 2 5 2 2 2 2 2 1 o o o 1 6 y u y @.#.#.#.#.#.#.#.#.#.u y w w w y y w w w w w w w w y w w w w w w w w w q q w w w w w w w w w w w w q q q q q 0 0 0 q q q q t t t q q q 0 0 0 0 0 7 7 7 # # # @ @ @ @ @ @ @ @ @ @ @ @ @ @ @ @ @ @ @ @ @ X X X X X X X @ @ @ X X @ @ X X X X X X @ @ @ @ @ @ @ @ X X X X X X @ @ = = = * % % < ; d g g g g g g g g d d d d , , , d d d d d g g g g g g g j j j j g g g g g g g g g g j h h h j j j j h h j j h h h h h h h h h h h h h h h j j k k k k k k k k k k k k k k k k k Y Y k k k k Y Q Q Q W W W :.>.>.>.>.>.>.f.@.@.f.>.>.f.>.>.>.>.>.f.f.:.>.>.*.*.*.*.*.*.*.>.*.*.*.>.>.>.>.*.*.>.>.>.>.:.:.>.>.>.>.:.>.>.>.>.>.>.>.>.>.:.f.@.@.@.u t q q q t y u @.f.>.>.>.>.>.<.3.3.5.4.r.p.p.i.3.p i.aXfXdXkXdXVXVXVXVXjXV.x.b.v.V.V.V.N.N.m.N.N.N.N.N.N.N.N.N.N.N.N.N.N.N.N.N.N.N.N.N.N.N.B.C.C.C.C.C.C.C.C.C.C.C.C.Z.Z.Z.Z.Z.C.C.C.C.C.C.C.C.C.C.C.C.C.Z.Z.Z.C.C.C.C.C.C.C.C.C.C.C.C.C.C.C.C.C.Z.Z.Z.Z.C.C.C.C.C.C.C.C.C.C.C.C.Z.Z.C.C.Z.Z.Z.Z.Z.Z.Z.Z.Z.C.C.C.Z.Z.Z.Z.Z.Z.C.C.C.C.Z.Z.Z.Z.Z.Z.Z.Z.Z.Z.Z.Z.Z.Z.C.C.C.C.C.C.C.C.C.C.C.C.C.C.C.C.C.C.Z.Z.Z.Z.Z.Z.Z.%XZ.Z.Z.C.C.C.Z.C.B.B.B.B.B.B.B.N.B.B.N.N.N.N.V.N.N.N.N.N.N.B.B.N.N.N.N.N.N.N.N.N.N.N.V.N.A.A.A.A.A.N.V.b.x.h.^ x k j j j j j j k h h k k k k h W E W N N N %.-.-.-.-.-.;.e 4 4 4 ",
"2 o o 1 3 2 3 3 2 2 2 2 2 2 2 2 2 2 2 2 2 2 2 2 2 2 2 2 6 2 1 o o o o 2 w #.#.#.@.@.#.#.#.#.#.#.u y w w w w w y w w w w y y y y y y y w y y w w w w w y y w w w w w w w w w w w w w w w q q 0 0 0 0 q q q q q q q q q 0 0 0 0 0 7 7 = # # # @ @ @ @ @ X @ @ @ @ @ @ @ @ @ @ @ @ @ @ @ @ @ o X X X X X X X X X X X X X X X X @ @ @ @ @ # # @ X X X X X X X @ @ % % % % * ; , d U j g g d d > , , ; ; ; < < < < < < < ; , , g g g g h h j j g j g g g g g j j j g j h h h j j j j h j j j h h h h j h h h j j h h h g j j j j j j k k k k k k k k k k k Y Y Y Y Y k k k k Q Q W W W :.:.:.:.:.:.:.&.@.:.>.@.@.f.f.@.@.@.@.f.f.f.f.>.>.>.*.*.*.*.*.*.*.*.>.>.>.>.>.*.*.*.>.*.*.*.*.*.*.*.*.>.>.>.>.>.>.>.>.>.>.>.:.f.@.@.#.y t q 0 q t y @.@.@.:.>.>.>.>.>.>.>.3.5.7.6.u.u.>.p 7.iXaXfXfXdXdXkXVXVXVXVXjXn.x.V.b.b.V.V.V.N.N.N.N.N.N.N.N.N.N.N.N.N.N.N.N.N.N.N.N.N.N.N.N.C.C.C.C.C.C.C.C.C.C.C.C.C.C.C.Z.Z.Z.Z.Z.Z.C.C.C.C.C.C.C.C.Z.Z.Z.C.C.C.Z.Z.C.C.C.C.C.C.Z.Z.Z.Z.C.C.C.C.Z.Z.Z.Z.Z.Z.C.C.C.C.C.C.C.C.C.C.C.C.Z.Z.Z.Z.Z.C.C.Z.C.Z.C.C.C.Z.Z.Z.Z.Z.Z.Z.Z.Z.Z.Z.Z.Z.C.C.C.C.C.C.&XZ.C.C.C.C.%X%XZ.Z.C.C.C.C.C.C.C.C.C.C.C.C.C.Z.Z.%XZ.Z.Z.Z.Z.Z.Z.Z.Z.Z.Z.Z.Z.Z.C.C.C.B.B.B.B.N.N.N.N.N.N.N.N.N.N.N.N.N.N.N.m.m.A.m.N.N.N.B.B.N.V.V.N.N.A.A.A.V.V.V.x.h.^ j j k k j j j k j j j k k j k k l E E N N &.&.%.-.-.-.-.;.;.4 4 4 4 4 ",
"2 o o 1 2 3 3 3 2 2 2 2 2 2 2 2 2 2 2 2 2 2 2 2 2 5 2 6 6 2 1 1 o o o 2 q $.#.#.#.#.#.#.#.#.u u y y w w w w w w w w w w y y y y y y y y y y y y w w y y w w q q w w w w w w w w w w w w w q 0 0 0 q q q q q q q q q q 0 0 0 0 0 7 7 = # # @ @ @ @ @ @ X X @ @ @ @ @ @ @ @ @ @ @ @ @ @ X @ o X X X X X X X X X X $ X X X X X @ @ X @ @ @ @ X X X X X X X X @ @ @ * % % = ; , d d d d - ; ; ; < % * % % % % % % % % % < ; ; - d d g g g j g g g j g g g g j j j g j h h h j j j j h j j j h h h h j h j h j j h h h h j j j j j j k k k k k k k k k k k k Y Y Y Y k k k k Q Q W W W :.:.:.:.f.f.f.&.@.f.@.@.@.f.@.@.@.@.@.f.f.@.f.>.>.>.*.*.*.*.*.*.*.*.*.>.>.*.>.*.*.*.>.*.*.*.*.*.*.*.*.>.>.>.>.:.:.>.>.:.:.@.@.@.u y t t q 0 0 y y @.@.@.&.:.>.>.>.>.>.>.>.<.3.7.6.7.>.y 3.p.tXuXaXaXfXfXdXkXVXVXVXVXsXb.x.V.b.b.A.V.N.N.N.N.m.N.N.N.N.N.N.N.N.N.N.N.N.N.N.N.N.N.N.N.C.C.N.C.C.C.C.C.C.C.C.C.C.C.Z.Z.Z.Z.Z.Z.Z.Z.Z.Z.Z.Z.Z.Z.Z.Z.Z.C.C.C.C.Z.Z.C.C.C.C.C.C.Z.Z.Z.Z.C.C.C.C.C.C.C.C.Z.Z.C.Z.Z.Z.C.C.C.C.C.C.C.C.Z.Z.C.C.C.C.C.Z.C.Z.Z.C.C.Z.Z.Z.Z.Z.Z.Z.Z.Z.Z.Z.C.C.C.C.C.C.C.C.Z.C.C.C.C.C.Z.Z.C.C.C.C.C.C.C.C.C.C.C.C.C.C.C.C.%XZ.Z.Z.C.C.Z.Z.Z.B.C.B.B.B.B.B.B.B.B.B.B.B.B.N.N.N.N.N.N.N.N.N.N.N.N.N.N.m.m.m.m.m.N.N.N.N.N.N.V.N.N.A.N.V.V.V.b.D.^ x j k j j j j j j k j k k k k j k k l E E N N &.&.%.-.-.-.-.;.4 4 4 4 4 4 ",
"2 1 o 1 2 3 3 2 2 2 2 2 2 2 2 2 2 2 2 2 2 2 2 2 5 5 6 6 6 2 2 1 o o o 1 0 u #.#.#.#.#.y u u u u w w w w y w w w w w w w w y y y y y w y y y y y y w w w w q q q w w w w w w w w w w w w w w w 0 q q q q q q q 0 q q 0 0 0 0 0 6 7 7 = # # # # @ @ @ @ @ X @ @ @ X @ @ @ @ @ @ @ @ @ @ X @ @ X X X @ X X X X $ $ $ X X X X @ @ @ X X X X X X X X X X X X X @ @ @ @ % = = < , , , - ; ; < % % % % % % % % % % % % % % < % % < ; d g g j j j j j g g g g g j j j g j j h h h h j j h h j j h j h h j j h h j j h h h h j j j j j j k k k k k k k k k k k k k k k k k k k k Q Q W W W E l :.@.@.f.f.@.@.:.@.f.@.@.@.@.@.@.@.@.@.@.@.>.>.>.*.@.*.*.*.*.*.*.*.*.*.*.*.*.*.>.>.*.*.*.*.*.*.*.*.>.:.:.>.:.:.:.:.@.@.@.u t y t q 0 0 q t @.@.@.:.:.:.:.>.f.>.>.>.>.>.,.<.3.5.:.t i u.rXiXuXuXuXaXfXfXdXVXVXVXVXCX3Xb.x.b.b.b.A.N.N.N.N.N.N.N.N.N.N.m.N.N.N.N.N.N.N.N.N.N.N.N.N.N.N.N.N.N.N.N.B.B.C.C.C.C.Z.C.Z.Z.Z.Z.Z.Z.Z.Z.Z.Z.Z.Z.Z.Z.C.C.C.C.C.C.Z.Z.Z.C.C.C.C.Z.Z.Z.C.C.C.C.C.C.C.C.C.C.C.C.C.C.Z.Z.C.C.C.Z.Z.Z.C.C.C.C.C.C.C.C.C.Z.C.C.C.C.C.C.Z.Z.C.C.C.C.C.C.C.C.C.C.C.C.Z.Z.Z.Z.C.C.C.C.C.C.C.C.C.C.C.C.C.C.N.N.C.C.C.C.C.C.C.C.C.C.C.C.C.Z.C.C.B.B.B.B.B.B.B.N.B.B.B.B.B.B.N.N.N.N.N.N.N.N.N.N.N.N.N.N.N.N.m.m.m.A.A.N.N.N.N.N.V.N.A.N.V.V.b.z.( x j f j j j j j j j k j k k k k k k k W E E N N &.=.%.-.-.-.-.;.4 4 4 4 4 4 4 ",
"2 1 o 1 2 3 3 3 2 2 2 2 2 2 2 2 2 2 2 2 2 2 2 2 2 6 6 6 6 2 2 1 o o o 1 6 y y y #.u u y y y u y w w w w y w w w w w w w w w y y y y w w y w w y y y w w w w q q w w w w w w w w w w w w w w q 0 q q q q q q 0 0 q q 0 0 0 0 0 0 7 7 = # # # # @ @ @ @ @ X X @ @ X X @ @ @ @ @ @ @ X X X @ @ X X @ X X X X X $ $ X X X X @ @ @ @ X X X X X X X X X X X @ X @ @ % % % = = < ; ; ; ; ; % % % % % % % % * % % = * * = % % % % < ; - d d g h g g g j h h h h j j j h j j h h h h j j h h j j j j h h j j h h j h h h h j j j j j j j k k k k k k k k k k k k k Y k k Y Q k k k k W W :.l :.@.@.@.f.f.:.f.:.f.f.f.@.@.@.@.f.@.@.@.@.f.@.@.@.*.@.@.@.@.*.@.@.*.*.*.*.*.*.*.>.>.>.>.*.*.*.*.*.*.>.:.>.:.:.:.&.@.@.y t y t q q 0 q t t u @.@.f.>.>.f.f.f.f.>.>.>.>.>.>.>.>.:.y t 3.p.rXrXtXuXuXuXaXaXfXdXlXVXVXVXzXV.z.b.b.b.b.A.N.N.N.V.N.N.N.N.m.m.m.m.m.N.N.m.N.N.N.N.N.N.N.N.N.N.N.N.N.N.N.N.N.N.C.C.Z.C.C.C.Z.Z.Z.Z.Z.Z.Z.Z.Z.Z.Z.Z.C.C.C.C.C.C.Z.Z.Z.C.C.C.C.C.Z.C.C.C.C.C.C.C.C.C.Z.C.C.C.C.C.C.C.C.C.C.Z.Z.C.C.C.Z.Z.Z.C.C.C.C.Z.C.C.C.C.C.C.C.C.C.C.C.C.C.C.C.C.C.C.C.C.C.Z.Z.Z.C.C.C.C.C.C.C.C.C.C.C.C.N.N.N.N.B.B.B.B.N.B.C.C.C.C.C.C.B.B.B.B.B.B.B.N.N.N.N.N.B.B.N.B.B.N.N.N.N.N.N.N.N.N.N.N.N.N.N.N.N.N.N.N.N.A.A.N.N.N.A.A.A.V.V.V.b.z.` x j j j j j j j k k k k k k k k k k h k h E N N N &.=.=.=.-.-.-.-.4 4 4 4 4 4 4 4 ",
"2 o o 1 2 3 3 2 2 2 2 2 2 2 2 2 2 2 2 2 2 2 2 2 2 6 6 6 6 2 2 1 o o o 1 6 w y y y u y y y y y y y y y y y w w w w w w w w w w y w w w w w y y y y y y w w w w w q q q q w w w w w q q q q q q q q q q q q q q q q q 0 0 0 0 0 0 7 7 5 7 # # # @ @ @ @ @ @ @ @ @ X @ @ @ @ @ @ @ @ X X X @ @ X X @ X X X X X $ $ X X X $ @ X X X @ @ o X o X X X X X X @ @ @ % @ % % * * = * * * % % % % % % % % % % % % % % = = = = % * % < ; ; - d g g h g h h h h g g j j h h j j j j h h j j h h h h j j j h h j h h j j j h h j j j j j j j k k k k k k k k k k k k k k Y Y Q k k k k k l W l :.:.:.@.@.f.f.@.&.:.f.f.@.@.@.@.@.@.@.@.@.@.@.@.@.@.@.@.@.@.@.@.@.*.*.*.*.*.*.*.*.*.*.*.*.*.*.*.*.@.*.f.:.@.@.@.@.@.u t y t q q q q q y y @.@.@.@.>.>.>.>.@.@.f.>.>.>.>.>.>.>.f.u t :.7.s.a.rXrXiXiXiXuXuXaXfXkXlXVXVXPXsXn.x.x.b.A.A.N.N.N.N.N.N.N.N.N.m.m.m.m.m.N.m.N.N.N.N.N.N.N.N.N.N.N.N.N.N.N.N.N.N.B.B.C.C.C.C.C.C.Z.Z.Z.Z.Z.Z.Z.Z.Z.Z.C.C.C.C.Z.Z.Z.Z.Z.C.C.C.C.C.C.C.C.C.C.C.C.C.C.Z.Z.C.C.C.C.C.C.C.C.C.C.Z.Z.Z.Z.Z.Z.Z.Z.Z.Z.C.C.Z.C.C.C.C.C.C.C.C.C.C.C.C.C.C.C.C.C.C.C.C.C.C.C.C.C.C.C.C.C.C.C.C.N.N.N.N.N.N.N.N.N.N.N.N.N.B.N.B.B.B.B.B.B.B.N.N.N.N.N.N.N.N.N.N.N.N.B.N.N.N.N.N.N.N.N.N.N.N.N.N.N.N.N.N.N.N.N.N.N.N.N.N.A.A.A.A.A.V.b.z.` x j f j j j j j j j j k k k k k k k k k k W W W N N %.-.=.=.-.-.-.-.N 4 4 4 4 4 4 4 4 ",
"2 o o 1 2 2 2 2 2 2 2 2 2 2 2 2 2 2 2 2 2 2 2 2 2 6 6 6 6 2 2 1 1 o o o 5 q u u y y y y w w y y w w w y y y w w w w w w w w w w w w w w w y y y y y y w w w w w q q q q w w w w q q q q q q q q q q q q q q q q q q q 0 0 0 0 0 6 7 7 7 # # # X @ o @ @ X @ @ @ X @ @ @ @ @ @ @ X X X X @ @ X X X X X X X X $ $ X X $ $ X X X X @ @ @ o X X X X X X X @ @ @ % % @ % * * % % % % % % % % % % % % * = * * % % * * % % % % * = < % ; , d g g g g h h h g g j j h h j j h j h h j j h h h h j j j j j j h h j j k h j j j j j j j j k k k k k k k k k k k k k k k Y k k k k h l l l :.:.:.:.@.f.f.f.@.@.@.@.@.@.@.@.@.@.@.@.@.@.@.@.@.@.@.@.@.@.@.@.@.@.@.*.*.*.@.@.*.*.*.@.*.@.*.*.@.@.@.@.@.@.@.@.u y t y t q q q q q t t u @.@.f.@.@.@.@.>.>.@.@.>.>.>.>.>.:.&.@.u u f.3.6.u.p.a.eXrXrXiXtXuXaXfXdXdXVXVXVXCX3XD.x.x.x.b.A.A.A.A.N.N.N.N.N.m.m.m.m.m.m.N.N.N.N.N.m.m.N.N.N.N.N.m.N.N.N.N.N.N.N.N.C.N.N.C.C.C.C.C.C.C.C.C.C.C.C.Z.Z.C.C.C.C.C.C.C.Z.C.C.C.C.C.C.C.C.Z.Z.Z.C.Z.Z.Z.C.C.C.C.C.Z.Z.Z.Z.Z.Z.Z.Z.Z.C.C.Z.Z.Z.C.C.C.C.Z.C.C.C.C.C.C.C.C.Z.Z.C.C.C.C.C.C.C.C.C.C.C.C.C.C.C.C.C.C.C.C.C.B.N.N.N.N.N.N.N.N.N.N.N.N.N.N.N.N.B.B.B.B.B.N.N.N.N.N.N.N.N.V.V.N.N.N.N.B.N.N.N.N.N.N.N.N.N.N.N.N.N.N.N.N.N.N.N.N.N.N.N.A.A.A.A.V.V.x._ ^ j j j j j j j j j k k k k k k k k k k k h h W E N &.%.%.-.-.-.-.-.-.;.4 4 4 4 4 4 4 4 4 ",
"2 1 o 1 3 2 2 2 2 2 2 2 2 2 2 2 2 2 6 2 2 2 2 2 5 6 6 6 6 2 6 3 1 o o o s 0 y y w w w w w w y y w w w y w w w w w w w w w q w w w w w w w w y y y y y w w w y y w w y w y y y y w w q q q q q q q q q q q q q q q q q q q 0 0 0 0 6 7 5 7 # # X X o X X X X @ @ X X X X @ @ @ @ @ X X X @ @ X X @ @ @ @ X X X X X X $ $ @ @ X X @ @ @ X X X X X X X X @ @ @ @ % @ = * * * % % % % % % % = * * * = = = * % % = = * = % % * * * % < ; , g g g g h h g g g h h h h h h h h j j j j j j j j j j h h j h h h j k k h j j j j h h j j j k k k k k k k k k k k k k k k k k k h h h l l l :.:.:.@.@.f.@.@.@.@.@.@.@.@.@.@.@.@.@.@.@.@.@.@.@.@.@.@.@.@.@.@.@.@.*.*.@.@.@.@.@.@.@.@.@.@.@.@.@.@.@.@.u u t y y q q q q q q y y y @.@.@.f.f.f.f.@.@.f.f.>.>.>.>.>.>.:.@.@.@.u @.>.5.7.r.u.u.p.a.rXrXtXuXuXaXfXdXjXVXVXPXzXn.z.x.x.b.x.b.A.A.A.N.N.N.N.N.N.N.m.N.N.N.N.N.m.m.m.m.N.N.N.m.m.m.m.m.m.m.N.N.N.N.N.N.N.N.N.N.C.C.C.C.C.C.C.C.C.C.Z.C.C.C.C.C.C.C.Z.Z.C.C.C.C.C.C.C.C.Z.Z.C.Z.Z.Z.C.C.C.C.C.Z.Z.Z.Z.Z.Z.Z.C.C.C.C.C.C.C.C.C.C.C.C.C.C.C.C.Z.Z.C.Z.Z.Z.C.C.C.C.C.C.C.C.C.C.C.C.C.C.C.C.C.B.B.B.B.B.N.N.N.N.N.N.N.N.N.N.N.N.N.N.N.N.N.N.B.B.N.N.N.N.N.N.N.N.N.N.N.N.N.N.B.B.N.N.N.N.N.N.N.N.N.N.N.N.N.N.N.N.N.N.N.N.N.V.N.A.A.A.b.x.D.( k j j j j j g j k k k k k k k k k k k k k h h W E E &.%.-.-.-.-.-.-.-.-.4 4 4 4 4 4 4 4 4 4 ",
"2 1 o 1 3 2 2 2 2 2 2 2 2 2 2 6 2 2 6 2 2 2 2 2 5 6 6 6 6 6 6 2 1 o O o 1 6 w w w w w w w w w w q q w w w w w w w w w w w q w w w w w w w y y y y y y w w w y y w w y y y y y y w w w q q q q q q q q q q q q q q q q q q q q 0 0 6 7 7 7 # # o X o X X X X @ @ X X X X X X X X @ X X X @ @ X X @ @ @ @ X X X X X X $ $ @ X X X @ X X X X X X X X X X @ @ @ @ @ # @ % * = = = = % % = * % * * = = = = * % = = = = = % % % % % % * ; , d g g g h g h g g h j h h h h h h j j j j j j j j j j j h j h h h j j k j j j j j h h j j j k k k k k k k k k k k k k k k k k k h h l l l :.:.:.f.@.@.@.@.@.@.@.@.@.@.@.@.@.@.@.@.@.@.@.@.@.@.@.@.@.@.@.@.@.@.@.*.*.*.@.@.@.@.@.@.@.@.@.@.@.@.#.#.#.u t t t q q q q t t y #.#.@.@.f.f.f.f.>.>.>.f.f.>.>.f.>.>.>.f.@.@.@.u >.>.>.3.3.5.7.d.u.p.a.rXiXtXuXgXaXfXdXlXVXVXPXpXz.z.x.x.x.x.v.A.A.A.N.N.N.N.N.N.m.N.N.N.N.m.m.m.m.m.N.N.N.m.m.m.m.m.m.m.m.m.N.N.N.N.N.N.N.N.N.N.C.C.C.C.C.C.C.C.C.C.C.C.C.C.C.C.Z.Z.C.C.C.C.C.C.Z.C.Z.C.Z.Z.Z.Z.Z.Z.Z.Z.C.C.C.C.Z.Z.Z.Z.C.C.C.C.C.C.C.C.C.C.C.C.C.C.C.Z.Z.Z.Z.Z.C.C.C.C.C.C.C.C.C.C.C.C.C.C.C.C.C.C.B.B.B.N.N.N.N.N.N.N.N.N.N.N.N.N.N.N.N.N.N.N.N.N.B.B.N.N.N.N.N.N.N.V.V.V.V.N.B.B.B.B.N.N.N.N.N.N.N.N.N.N.N.N.N.N.N.N.N.N.m.m.N.V.V.b.b.b.x.h.x j j j k j j j j j j j k k k k k k k k k k k h W W E :.&.%.-.-.-.-.-.-.-.;.4 4 4 4 4 4 4 4 4 4 ",
"1 o 1 1 2 2 2 2 2 2 2 2 2 2 2 2 2 2 2 2 6 6 6 6 6 6 6 6 6 2 2 2 s 1 o o o 5 0 w w w w w q t t t w w w w w w q w w w w q q w q w q q q w q y y y w y w w w w w w w w w w w w w w q w w q q q q q q q q q q q q q q 0 0 0 0 0 0 0 0 0 7 7 7 = # o o o X X X X X X X X X X o @ @ @ @ @ @ X X X X X X X X @ @ @ X X X X @ @ @ @ X X X @ @ X X X X X X X X @ @ @ @ % @ % * * * * * % * * * * * * * * = * % % * * * * * * % % % = = = % < ; - z h h h g g h h h h j j h h j j g h g h j j j j j j h h k h h h j j j j j j j j j j j j k k k k k k k k k k k k k k k k k k k l l l l l i :.:.f.f.f.@.@.@.@.@.@.f.@.@.@.@.@.@.@.@.@.@.@.@.@.@.@.@.@.@.@.@.@.@.@.@.@.@.@.@.@.@.@.@.#.@.#.#.#.y u y t t t q q t t y t y u @.@.@.*.*.*.@.@.@.@.@.>.>.>.:.>.@.f.f.@.@.@.@.@.:.>.>.>.,.<.3.7.u.s.a.,XrXtXuXuXaXaXfXdXVXVXVXVXn.z.z.x.x.x.x.b.b.A.N.N.N.N.N.N.N.N.N.N.N.m.m.m.m.m.m.m.m.m.m.m.m.m.m.m.m.m.m.m.N.N.N.N.N.N.N.N.N.N.N.N.C.C.C.C.C.C.C.Z.Z.Z.Z.Z.Z.Z.C.C.Z.C.Z.Z.C.C.C.C.Z.Z.Z.Z.Z.Z.Z.Z.Z.Z.Z.Z.C.C.C.C.Z.Z.Z.Z.Z.Z.C.C.Z.Z.C.C.Z.Z.Z.Z.Z.Z.Z.Z.C.C.C.C.Z.C.C.C.C.C.C.C.C.C.C.C.C.C.C.B.N.N.N.N.N.N.N.N.N.m.N.N.N.N.N.N.N.N.N.N.B.m.m.B.N.A.A.A.A.N.B.B.V.V.N.N.N.N.N.N.N.N.N.N.N.N.N.N.N.N.N.N.N.N.N.N.N.N.N.N.A.V.A.b.b.D.^ x k k k j j j j j k k j k k k k k Y k k k k h h l E N N %.-.-.-.-.-.-.-.-.;.4 4 4 4 4 4 4 4 4 4 4 ",
"3 o 1 3 2 2 6 6 2 2 2 2 2 6 6 6 6 6 6 6 6 6 6 6 6 6 6 6 6 2 2 2 2 1 o o o 2 0 w w w w w w q t t w w w w w w w w w w w w w w w w y y y y y w q w y y y y y w y y q q q q q q q q q q q q q q q q w w y y y y y y q q q q q q q q 0 0 0 7 7 7 # o o o X X X X X X X X X X o X X o X X X X X X X X X X X @ @ X X X X X X X X X X X X X X X X X X X X X X X X @ @ % @ @ % % * * % % % % * * * * = = * = = = = = = = = = % % = = = = % < ; - d g h h g g h h h h h j j j j j g g g g g j j h j j h h h h h h h h g g j j j j j j k k k k k k k k k k k k k k k k k k k h h h l l p p p u i @.@.@.@.@.@.@.@.@.@.@.@.@.@.@.@.@.@.@.@.@.@.@.@.@.@.@.@.@.@.@.@.@.@.@.@.@.@.@.#.#.#.u y y y u y w t q q t t t y t y u @.@.@.@.@.*.*.*.*.@.@.@.>.>.:.:.:.:.@.@.@.@.@.@.@.f.>.>.>.>.>.<.3.5.6.u.i.a.rXtXuXuXuXaXfXdXkXVXVXVXpXq.z.x.x.x.b.b.b.A.A.N.N.N.N.N.N.N.A.m.m.N.m.m.m.m.m.m.m.m.A.A.N.m.N.m.m.m.N.N.N.N.N.N.N.N.N.N.N.N.N.N.C.C.N.C.N.C.C.C.C.Z.Z.Z.C.C.C.C.Z.Z.Z.Z.C.C.C.Z.Z.Z.C.Z.Z.Z.Z.Z.Z.Z.Z.Z.C.C.C.Z.Z.Z.Z.Z.C.C.C.C.Z.Z.C.C.C.C.C.C.C.C.C.C.C.C.C.C.C.C.C.C.C.C.C.C.C.C.C.C.C.C.C.B.B.B.B.B.N.N.N.N.N.N.N.N.m.m.N.m.N.N.N.N.m.m.N.N.B.%X2X2X%XB.N.A.N.V.N.N.N.N.N.N.N.N.N.N.N.N.N.N.N.N.N.N.A.A.N.N.N.N.N.N.A.V.A.x.h.x j x k k k k k k j j k k k k k k k k Y Y k k k W l l E N N %.-.-.-.-.-.-.-.-.;.4 4 4 4 4 4 4 4 4 4 4 ",
"1 o o 3 2 2 2 6 3 3 3 2 2 2 2 5 2 2 2 2 2 2 2 2 6 6 6 6 6 6 2 2 2 1 o O o 1 6 q 0 0 q w q q q q q q q q w q q q q q q q q q q q w w q q q q q q q q q q q q q q w w w w w w w w w q q q q q q q q q q q q q q q q q 0 0 0 0 0 0 q 0 0 7 7 7 # # @ X X X X X X X X X @ X X X X X X @ @ @ @ X @ @ X X @ @ @ @ X X X X @ @ X X X X X X X X X X X X X X X X X @ % % @ @ % * % * % % @ @ % % % % * % % % % % % % % % % % % % % % = % % % < ; - d g g g g g g g g g g h g g g g g g g g g g h h h h h j j j j k k j j j j j j j j j j j j j k k j j j k k k k k k k k k k k l l l p p p i i @.@.@.f.@.:.@.@.@.@.@.@.@.@.@.@.@.@.@.@.@.@.@.@.@.@.@.@.@.@.@.@.#.#.#.#.#.#.#.#.y u u u u w w q 0 0 q q q t y t y u @.@.@.@.@.@.@.@.@.@.@.@.@.f.f.@.@.@.@.@.@.@.@.@.@.@.f.>.:.>.>.:.>.<.3.7.d.s.a.rXtXuXuXuXuXaXfXdXkXVXVXCXb.q.x.D.x.x.x.b.A.A.N.N.N.N.N.N.N.N.N.N.N.N.N.N.N.N.N.N.N.N.m.m.m.A.A.A.A.A.A.m.m.m.m.m.N.N.N.N.N.N.N.N.N.N.N.N.N.C.C.C.Z.Z.C.C.C.C.B.C.C.C.Z.C.C.C.C.C.Z.Z.Z.Z.Z.C.C.Z.Z.Z.C.C.C.C.C.Z.Z.Z.Z.C.C.C.C.Z.Z.Z.Z.Z.Z.Z.Z.Z.Z.Z.Z.Z.C.C.C.C.C.C.C.C.C.C.C.C.C.C.C.C.B.B.B.B.B.B.B.N.N.N.N.N.N.N.N.m.m.m.A.m.m.m.m.m.N.N.C.6XxXNXAXxX6X%XN.N.V.N.N.N.N.N.N.N.N.N.N.N.N.N.N.N.N.N.N.A.A.A.N.N.N.N.N.V.V.x.` ^ x k Y k k j j j j j j j k k k k j j j h h h k h h l l N N N %.-.-.-.-.-.-.-.;.4 4 4 4 4 4 4 4 4 4 4 4 ",
"1 o o 2 2 2 2 2 2 2 2 2 2 6 6 6 6 6 6 6 6 6 6 6 6 6 6 6 6 6 2 2 6 2 1 o o 1 6 0 q w w w w w w t w w w w w w w w y y y w w w w w w w w w q w w y w w w w w w w w w w w w w w w w w w w w q q q q w w w y y w w w q q q q 0 0 0 0 0 0 0 0 7 7 # # @ X X X X X X X X X X X X X o o o o X X X o X X X X X X X X X X X X o X X X X o X X X X X X X X X X X X X @ % % @ @ % * % * * * * = = = = = * % % % % % % % % % % % % = % % = % % < < ; - z h g g g h h h h g g j j j j h h h h j g h j h j j j h j h g g g j j k k j j k k k k j k k k k k k k g j h k k k h h h h h l l l p p p p u u @.@.@.@.@.@.@.@.@.@.@.@.@.@.@.@.@.@.@.@.@.@.@.@.@.@.@.@.@.@.@.@.@.#.u y y y y y y y y y y y t q q t y y y u u @.@.@.&.:.*.*.*.*.*.*.*.*.>.>.>.:.:.&.@.@.@.@.@.@.@.@.:.>.>.>.>.>.>.>.<.3.7.6.u.s.a.rXtXtXuXuXaXaXfXdXkXkXVXjXq.D.z.x.x.x.x.b.b.A.A.A.A.N.N.A.A.A.A.A.A.A.A.A.A.A.A.A.A.A.A.A.A.A.A.A.A.A.A.A.A.A.A.A.m.m.m.m.m.m.N.N.N.N.N.B.B.B.C.C.C.B.C.C.C.C.C.C.C.C.C.Z.Z.Z.Z.Z.Z.Z.Z.C.C.Z.Z.Z.Z.Z.C.C.C.C.C.C.C.C.C.C.C.C.C.Z.Z.C.C.C.C.C.Z.Z.C.C.C.C.C.N.C.C.C.C.B.C.C.C.C.C.C.C.B.B.B.B.B.B.B.B.N.N.N.N.m.m.m.m.N.N.N.N.m.m.m.m.N.m.N.2XxXNXNXNXHXxX2XB.V.V.N.B.N.N.N.N.N.N.N.N.N.N.N.A.A.A.A.A.A.A.A.A.A.A.N.N.V.x.` x x ^ ^ k Y Y k k k k k k k k k k k k k k Y Y k W Y W W l N N %.-.-.-.-.-.-.-.-.;.4 4 4 4 4 4 4 4 4 4 4 4 ",
"o o o 3 3 3 2 2 2 2 2 2 2 2 2 5 2 2 2 6 6 6 6 6 6 6 6 6 6 2 2 2 2 2 1 o O o 2 0 0 0 0 0 0 0 0 q q q q q q q q q q q q 0 0 q q q q q q q q q q q q q q q q q q q q q q q q q q q t t q q q q t t q q w w w w q q q q q 0 0 0 0 0 0 6 0 7 7 7 # # X X X X X X X X X X X X X X X X X X X X X X X X X X X X X X X X X X X X X X X X X X X X X X X X X X X X X X @ @ @ # @ % % * * * * * = * * % % % % % % % % % % % % % % % % % % % % % % ; ; d z z g g g g g g g g g g g h h g g g h h h h h h h h k k k j j j j j h h h h h h h h j j j j j j j j k k k k k k k k h k k k l l l p p p u u i i u @.@.@.@.@.@.@.@.@.@.@.@.@.@.@.@.@.@.@.u u u u y y y y y y t y y t y y y y t t t t q q w t y t y y u u @.@.@.@.@.@.@.@.@.@.@.@.@.@.@.@.@.@.@.@.@.@.@.@.@.@.@.@.f.:.>.>.>.>.>.>.>.<.5.7.6.u.i.rXiXtXuXuXgXaXfXdXdXjXlXVX3Xq.z.h.x.x.x.x.b.A.A.A.A.N.N.N.A.A.N.N.N.N.A.N.N.N.N.N.N.N.A.A.A.A.A.N.N.N.A.A.m.m.m.m.m.m.m.N.m.N.N.N.N.B.N.N.B.C.C.C.C.C.C.C.C.C.C.C.C.C.C.C.C.C.C.C.C.C.Z.C.Z.Z.Z.Z.Z.Z.C.C.C.C.C.C.C.C.Z.Z.Z.Z.Z.Z.Z.Z.C.C.Z.Z.Z.Z.Z.C.C.C.C.C.C.C.C.C.N.N.C.C.C.C.C.C.C.C.C.B.B.B.B.B.N.N.N.N.N.N.N.N.A.A.m.m.m.m.m.A.m.A.B.6XNXNXNXNXNXhX%XB.N.N.N.V.B.N.N.N.N.N.N.N.N.N.N.N.N.A.A.A.A.A.A.A.A.A.A.A.b.` x x Y k k ^ k k k k k j k k k k k k k k k k k k k h l W E N N %.-.-.-.-.-.-.-.-.;.;.4 4 4 4 4 4 4 4 4 4 4 4 ",
"o o o 3 2 2 2 2 2 2 2 2 2 2 6 6 2 2 2 2 2 2 2 2 6 6 6 6 6 6 2 2 1 2 1 o o o s 6 0 q q q 0 q q q q q q q q q q q q q q q q q q q q q q q q q q q 0 0 q q q q q q q q q q q q q q t t t t t t t t q q q q q q q q q 0 0 0 0 0 0 0 0 0 0 0 7 7 # # # X X X X X X X X X X X X X X X X X X X X X X X o X X X X X X X X X X X X X X X X X X X X X X X o X o @ # @ = = = = * * * * * * * * = = * * * * * * * * * * * * = = * % % % % = % % % = ; d h g h h h h h h h h h h h h h h h h h h h h h h h h k k h j j h h h h h h h k k h k j h k j h k k k h h h h h h h h h h h h h l p p p p t y y u u u u u @.@.@.@.@.@.@.@.u u u u u u @.@.u u u y t y y t y y t t t t t t t t t t t t t y y t u @.@.@.@.@.@.@.@.@.@.@.@.@.@.@.@.@.@.@.f.f.f.f.:.@.@.@.@.@.@.@.f.:.:.:.>.>.>.>.>.>.>.<.1.5.7.d.s.a.rXiXiXtXuXgXaXfXfXdXdXlXjXn.D.h.z.z.x.x.x.x.b.x.x.b.A.b.b.A.A.A.A.A.A.A.A.A.A.A.A.A.A.A.A.A.A.A.A.A.A.A.A.A.A.A.A.A.m.m.m.m.m.N.N.N.m.N.B.B.B.C.C.C.N.N.B.C.C.C.C.C.B.B.C.B.C.C.C.C.C.C.C.C.Z.Z.C.C.C.C.C.C.C.C.C.C.C.C.C.C.C.C.C.C.C.C.C.C.Z.C.C.C.N.B.C.C.C.C.N.N.N.N.N.N.B.B.N.B.B.B.B.N.N.m.m.m.N.N.N.N.m.m.m.m.N.N.N.N.N.m.N.m.m.B.%X6XxXxXxXxXhX2XZ.N.N.N.V.V.V.V.N.N.N.A.A.A.A.A.A.A.A.A.b.x.A.A.A.A.A.A.A.b.x.` x ^ ^ k k k k k k k k k k k k k k k k k k k Y W k W W E N u %.%.-.-.-.-.-.-.-.-.;.4 4 4 4 4 4 4 4 4 4 4 4 4 ",
"o o 1 2 2 2 2 2 6 6 2 6 6 6 6 7 6 6 6 6 6 6 6 6 2 2 2 2 2 2 2 2 2 2 2 1 o o s 6 q q y y w y y y t t t t y t t t t t t t t t t t t t t t y t t t q q q q t t t t q q q q q q q q t t t t q q q q w w y y y w w w q q q q q q q q 0 0 0 0 7 7 = # # # o X X X X X X X X X X X X X X X X X X X X X X X X X X X X X X X X X X X X X X X X X X X X X o o o # # # @ = = = = * * * * = * * * * * * * * = = = = = = = = = = = = = = % = % = = = , h g h h h h h h h h h j j j j j j j j j j j k k k k k Q k k k k k k k k k k k k k k k k k k k k k k k Y Y k k Q Q Q k W W W l l l l l i i i i u u u u @.@.@.@.@.@.@.@.@.@.@.@.@.@.@.@.t y y t y y y y y t t q q q t t t t t y y t y y @.@.@.f.:.:.:.:.:.:.:.:.:.:.:.:.:.&.:.:.:.:.:.>.>.>.>.>.:.:.f.f.f.f.f.>.>.>.>.>.<.>.>.>.>.>.<.<.5.7.6.d.s.a.rXiXuXuXgXaXaXfXdXkXVXVXCXzX3Xb.x.b.b.b.V.V.V.V.V.V.N.N.A.A.N.V.V.V.V.N.V.V.V.V.V.V.N.N.N.N.N.N.N.N.N.B.B.C.C.C.C.C.Z.Z.C.C.C.C.C.Z.Z.Z.Z.%X%X%X%X%X%X%X%X%X%X%X%X%X%X%X%X%X%X%X%X%X%X%X%X%X%X%X%X%X%X%X%X%X%X%X%X%X%X%X%X%X%X%X%X%X%X%X%X%X%X%X%XZ.%X%X%X%X%X%X%X%X%X%X%X%X%X%X%X%X%X%X%X%X%X%X%X%X%X%X%X%X%X%XC.Z.C.C.B.B.B.B.B.B.Z.%X2X6XhXxXhXhX2X3XZ.Z.Z.Z.Z.Z.Z.Z.Z.Z.B.V.V.V.V.V.V.V.V.N.N.V.V.V.V.B.V.V.V.b.h.( ^ ( ( ( ( k k k k k k k k k Y Y Y Y Q Q Q Q Q Q Q W W E &.&.%.%.-.-.-.-.-.-.-.-.;.4 4 4 4 4 4 4 4 4 4 4 4 4 ",
"O O O o 1 1 1 1 1 1 1 1 1 1 1 1 2 2 2 2 2 2 2 2 2 2 2 2 2 2 1 1 1 1 1 o O o o 1 s 2 6 7 7 7 7 5 7 7 7 7 7 7 7 7 7 5 5 5 5 5 5 7 7 7 7 5 0 0 0 0 0 0 0 0 0 0 0 0 q q q q q q q q q q 0 0 0 0 0 0 6 6 0 0 0 0 6 6 6 6 6 7 7 7 7 7 6 7 7 7 7 = # # o X X X X X X X O O O O O O O O O O O O O O X X X X X X O O O X X X O O O O X X O X X X X X X X X X X X X X X @ X X X @ @ @ % % @ @ @ @ @ X X X X X X X X X X X X X X X X X X X X + @ @ % - d d z z z z z z z z f f z z z z d d d d z z z z z z z z z z z z z z z z z z z z z z z z z z z z z z z z z a z a z z a a 9 a a a a a 7 8 7 7 7 5 7 7 s 1 1 o o o o 1 o o 1 1 1 s s s s s s s s s s 5 5 s 5 5 5 5 0 0 t y y y u u @.@.@.@.@.@.@.@.u u y t y t y y y y y y y y y u u u u u y t t t y y y y u u @.@.@.@.@.@.@.@.@.@.@.:.@.:.:.:.1.r.s.a.a.rXrXiXyXyXpXaXfXfXjXzXsXn.z.z.h.h.h.h.h.h.z.z.x.x.x.x.x.x.x.x.x.x.x.x.x.x.x.x.x.x.x.x.x.x.x.x.x.x.x.x.x.x.x.x.x.x.x.x.h.h.h.h.x.x.x.x.x.x.x.x.x.h.h.h.h.h.h.h.h.x.x.x.x.x.x.x.x.x.x.x.l.x.x.x.A.A.A.A.A.A.A.A.A.A.A.A.m.m.m.A.A.A.A.A.A.A.A.A.A.A.A.A.A.A.A.A.A.A.A.A.A.A.A.A.A.A.A.A.A.A.A.A.A.A.A.A.A.x.x.x.A.A.x.A.A.A.A.N.N.x.h.h.` ^ ^ ^ ` h.h.D.x.x.x.x.x.x.x.x.x.x.x.x.x.x.x.x.x.x.x.x.x.x.x.x.D.h.` ^ x j j k j j j k j j j j g g g g j j j h h h h k k k W W E N u e -.-.-.-.-.-.-.-.;.;.4 4 4 4 4 4 4 4 4 4 4 4 4 1 "
};
