/* XPM */
static char *_e5f22494715c9f582c232427c9a284f[] = {
/* columns rows colors chars-per-pixel */
"549 309 255 2 ",
"   c #0B0403",
".  c #180704",
"X  c #1B130A",
"o  c #160C13",
"O  c #1A1616",
"+  c #260803",
"@  c #370903",
"#  c #271509",
"$  c #381808",
"%  c #261B17",
"&  c #361A15",
"*  c #2A231B",
"=  c #382C17",
"-  c #362819",
";  c #261C23",
":  c #2C2522",
">  c #2B2A27",
",  c #352B26",
"<  c #383328",
"1  c #3B342E",
"2  c #372E38",
"3  c #363634",
"4  c #3E3532",
"5  c #3E333B",
"6  c #3C3B3B",
"7  c #45190A",
"8  c #4B1611",
"9  c #701517",
"0  c #472817",
"q  c #502D16",
"w  c #562818",
"e  c #67331A",
"r  c #651E22",
"t  c #472B29",
"y  c #53292C",
"u  c #46362B",
"i  c #573828",
"p  c #4F2E31",
"a  c #542C31",
"s  c #5A2D36",
"d  c #413634",
"f  c #4B3433",
"g  c #433935",
"h  c #43353B",
"j  c #453D3B",
"k  c #4A3839",
"l  c #4B3B3D",
"z  c #533334",
"x  c #573738",
"c  c #533C3C",
"v  c #673927",
"b  c #6E352E",
"n  c #3F403C",
"m  c #55442D",
"M  c #4C4333",
"N  c #46413E",
"B  c #49413E",
"V  c #54443D",
"C  c #56483A",
"Z  c #67432C",
"A  c #714F26",
"S  c #694836",
"D  c #704C32",
"F  c #764A36",
"G  c #79553B",
"H  c #7B553B",
"J  c #3C2F40",
"K  c #3F3641",
"L  c #443C42",
"P  c #4B3C42",
"I  c #453A48",
"U  c #543D41",
"Y  c #593C43",
"T  c #4C3F50",
"R  c #6F3D41",
"E  c #464142",
"W  c #4A4343",
"Q  c #4A4946",
"!  c #46434C",
"~  c #4C444A",
"^  c #4C4B4C",
"/  c #534444",
"(  c #5A4346",
")  c #554B43",
"_  c #594E44",
"`  c #52464A",
"'  c #544B4C",
"]  c #5A4D4C",
"[  c #5B5145",
"{  c #54514A",
"}  c #5D534B",
"|  c #494552",
" . c #4C4B53",
".. c #544D52",
"X. c #534B57",
"o. c #594E52",
"O. c #4D5259",
"+. c #555354",
"@. c #5A5254",
"#. c #55545B",
"$. c #5B555A",
"%. c #575858",
"&. c #5B5A5C",
"*. c #654C47",
"=. c #61554D",
"-. c #675849",
";. c #795A47",
":. c #655A52",
">. c #6A5D55",
",. c #675858",
"<. c #625A5D",
"1. c #765751",
"2. c #5F605D",
"3. c #76644D",
"4. c #6B625A",
"5. c #776658",
"6. c #4F5561",
"7. c #5D5C63",
"8. c #585A65",
"9. c #625D63",
"0. c #6A5D63",
"q. c #615E6A",
"w. c #675D70",
"e. c #5B6269",
"r. c #5C636B",
"t. c #5F6670",
"y. c #636265",
"u. c #64636C",
"i. c #6A666A",
"p. c #766A66",
"a. c #69736A",
"s. c #7D7168",
"d. c #666572",
"f. c #696673",
"g. c #646B73",
"h. c #6B6A75",
"j. c #66697A",
"k. c #6C6D7A",
"l. c #746D74",
"z. c #716E7A",
"x. c #687178",
"c. c #6D727C",
"v. c #73737D",
"b. c #79757A",
"n. c #911A24",
"m. c #9C222B",
"M. c #8F2B30",
"N. c #894E36",
"B. c #83583C",
"V. c #946839",
"C. c #9E3645",
"Z. c #835C43",
"A. c #885B46",
"S. c #8F5650",
"D. c #AB5258",
"F. c #89624A",
"G. c #94664B",
"H. c #886756",
"J. c #976A56",
"K. c #897459",
"L. c #9A725B",
"P. c #A56C56",
"I. c #AF7355",
"U. c #A7755C",
"Y. c #866C64",
"T. c #867669",
"R. c #997766",
"E. c #97746D",
"W. c #877A75",
"Q. c #A67966",
"!. c #AC7B63",
"~. c #B37C64",
"^. c #B67C68",
"/. c #AD7470",
"(. c #C56E6C",
"). c #7F857D",
"_. c #A0843A",
"`. c #AE915D",
"'. c #908472",
"]. c #968578",
"[. c #AB836B",
"{. c #B4846B",
"}. c #B88569",
"|. c #BA846C",
" X c #AA8676",
".X c #B78876",
"XX c #BC8B73",
"oX c #B19477",
"OX c #C68B6E",
"+X c #C48C77",
"@X c #C6937B",
"#X c #D2AD74",
"$X c #DEAF72",
"%X c #EED176",
"&X c #E9D678",
"*X c #6D6C82",
"=X c #6D7382",
"-X c #6E7884",
";X c #737583",
":X c #797683",
">X c #757985",
",X c #7B7A84",
"<X c #747788",
"1X c #757B8B",
"2X c #7B7D8B",
"3X c #797E91",
"4X c #827E89",
"5X c #89788E",
"6X c #A47D92",
"7X c #CD7680",
"8X c #7A8189",
"9X c #7C828D",
"0X c #7C8392",
"qX c #7F8894",
"wX c #82828D",
"eX c #898488",
"rX c #978986",
"tX c #828592",
"yX c #838B95",
"uX c #8A8A95",
"iX c #878999",
"pX c #858C99",
"aX c #948E92",
"sX c #889299",
"dX c #8B949C",
"fX c #94949B",
"gX c #AE948C",
"hX c #BA9587",
"jX c #B7A695",
"kX c #8E98A1",
"lX c #939BA3",
"zX c #989BA5",
"xX c #A899A7",
"cX c #97A0A9",
"vX c #9AA3AC",
"bX c #9EA8B1",
"nX c #A9A9AD",
"mX c #B8B1B9",
"MX c #C99885",
"NX c #CC998D",
"BX c #C8A698",
"VX c #D2AD93",
"CX c #E7B090",
"ZX c #CCB1A9",
"AX c #D8B5A8",
"SX c #EBB6AB",
"DX c #D5C892",
"FX c #F1D28F",
"GX c #F9E594",
"HX c #D8C9AF",
"JX c #EFD0B0",
"KX c #F7E8B0",
"LX c #D9C7C4",
"PX c #F6D5C9",
"IX c #F9EBCA",
/* pixels */
"E E E E N N N E E E E E E E E E E E E E W W W W W W E E W W W W W W W W E E E E ~ .... .X. . . . . . . . . . . . . . . . . . . .| | | | !  . . . . . . . . . . .X.O.O.O.O.O.O.6.6.6.6.6.#.6.6.8.8.8.8.8.8.8.8.e.8.e.e.e.e.e.e.8.8.8.8.8.e.e.e.e.e.e.e.r.r.r.r.r.r.t.t.d.d.d.d.d.d.d.g.g.h.h.h.h.k.k.k.k.k.k.k.k.k.k.k.k.k.k.h.k.h.h.k.k.h.h.h.h.h.h.h.f.f.f.f.u.u.u.u.9.9.7.7.7.7.8.8.&.%.#.%.#.#.+.+.+.+.+.+.+.+.+.+. . . .{ { { +.{ { ^ ^ ^ ^ ^ ^ ^ Q Q ! ! ! ! ! ! E E E E E E n 6 6 6 3 3 3 3 3 3 3 3 3 3 3 3 3 3 3 3 3 3 3 3 3 3 3 3 3 3 3 3 3 3 3 3 3 3 3 3 6 6 3 3 3 3 3 3 3 3 3 3 3 3 3 3 4 5 5 5 5 5 5 5 5 5 5 5 5 5 4 5 h h h h h h h h h 5 5 h h 5 5 5 5 5 5 5 4 d g g d d g g d d f f f f f f f f f f f u p p p p p p p p p p y y y y y t t t t t t t t t y y y y y y y y y y y y y y y y y y y y y y y y y y y y y y y y y y y y a a a a a a a a a a a a s s s a s s s s s s s s s x s s x x Y Y Y Y Y Y Y Y Y Y Y Y Y Y Y Y ( ( ( ' ' ( ( ' ( ' ' ' ' ] ] ] ] ] ] ] ] ] ] ] ] ] ] ....@.@.@.@.@.@.@.@.@.@.+.+.+.+.+.+.+.+.+.+.+.+.+.%.W O 4 g d d d d d d d 4 d d d 4 4 4 4 4 4 4 4 4 4 4 4 4 4 4 4 4 4 4 4 4 4 4 4 4 4 4 4 ",
"E E E E N N E E E E E E E E E E E E E E W W W W W W E E W W W W W W W W E E E E ~ .... .X. . . . . . . . . . . . . . . . . . . .| | | | !  . . . . . . . . . . .X.X.O.O.O.O.O.6.6.6.6.6.#.6.6.8.8.8.8.8.8.8.8.e.8.e.e.e.e.e.8.8.8.8.8.8.e.e.e.e.e.e.e.r.r.r.r.r.r.t.t.d.d.d.d.d.d.d.g.g.h.h.h.k.k.k.k.k.k.k.k.k.k.k.k.k.k.k.h.h.h.h.k.k.k.h.h.h.h.h.h.h.f.f.f.u.u.u.q.9.9.7.7.7.7.8.8.&.%.#.%.#.#.+.+.+.+.+.+.+.+.+.+. . . .{  .{ { { { ^ ^ ^ ^ ^ ^ ^ Q Q ! ! ! ! ! ! E E E E E E n 6 6 6 6 3 3 3 3 3 3 3 3 3 3 3 > 3 3 3 3 3 3 3 3 3 3 3 3 3 3 3 3 3 3 3 3 3 3 3 6 6 6 6 6 j j 6 6 6 5 3 3 3 3 5 4 5 5 4 5 4 5 4 4 4 4 4 4 5 5 h h h h h h h h h h 5 5 h h 5 5 5 5 5 5 d d d g d d d g g d d f f f f f f f f f u p u u p p p p p p p p t t y t y y t y t t t t t t t y y y y y y y y y y y y y y y y y y y y y y y y y y y t t y y y y y y y a a a a a a a a a a a a s a s s s s s s s s s s s s s s x x Y Y Y Y Y Y Y Y Y Y Y Y Y Y Y Y ( ( ( ' ' ( ' ' ( ' ' ' ' ] ] ] ] ] ] ] ] ] ] ] ] ] ] ....@.@.@.@.@.@.@.@.@.@.+.+.+.+.+.+.+.+.+.+.+.+.+.%.W O 4 g d d d d d d 4 4 d d d 4 4 4 4 4 4 4 4 4 4 4 4 4 4 4 4 4 4 4 4 4 4 4 4 4 4 4 4 ",
"E E E E E E L L N E E E E E E E E E E E E E E E W E E E W W W W W W W W E E E E ~ .... .X. . . . . . .| | | | |  . . . .| | | | | | | | ! ! ^  . . . . . . . . . .O.O.O.O.O.O.O.#.6.6.6.#.6.6.8.8.8.8.8.8.8.8.e.8.e.8.8.e.e.e.8.e.e.e.e.e.e.e.e.e.e.e.r.r.r.r.r.r.t.t.d.d.d.d.g.d.g.g.g.h.h.k.k.k.k.k.k.k.k.k.k.k.k.k.k.k.k.k.h.h.h.k.k.k.k.k.k.h.h.h.h.f.f.d.u.u.u.u.q.9.7.7.7.7.7.8.&.%.%.#.#.#.#.+.+.+.+.+.+.+.+.+. . . . . . .+.+.+.^ ^ ^ ^ ^ ^ ^ ^ Q Q Q ! ! ! ! ! E E E E E n 6 6 6 6 6 6 3 3 3 3 3 3 3 3 3 3 3 3 3 3 3 > 3 3 3 3 3 3 6 3 > 3 3 3 3 3 3 3 3 3 3 3 3 6 6 6 3 3 3 3 3 3 3 6 6 5 5 5 4 5 5 5 5 5 5 5 4 5 5 5 h h h h 5 h 5 5 h 5 5 5 h h 5 5 5 5 4 4 d 4 d d d d d d d d d f f f f f f f f f u p p p p p p p t t t t p y t t y y y y t y t t t t t t y y y y y y y y y y y y y y y y y y y y y y y y y y y y y y y y y y y a a a a a a a a a a a a a a s s s s s s s s s s s s s s x s x Y Y Y Y Y Y Y Y Y Y Y Y Y Y Y ( ( ( ' ( ( ' ' ' ' ' ' ' ] ] ] ] ] ] ] ' ] ] ] ] ] ] ....o.o.o.o.@.@.@.@.@.@.+.+.+.+.+.+.+.+.+.+.+.+.+.%.W O 4 g d d d d d d d d d d d 4 4 4 4 4 4 4 4 4 4 4 4 4 4 4 4 4 4 4 4 4 4 4 4 4 4 4 4 ",
"E E E E E L E E N N E E E E E E E E E E E E E E W W E E E W W W W W W E E E E E Q .... .X.X. . . . . . .| |  .|  . . . .| | | | | | | | ! ^ ^  . . . . . . . . . .O.O.O.O.O.O.O.#.6.6.6.#.6.6.6.8.8.8.8.8.8.e.e.8.8.8.8.e.e.e.e.e.e.e.e.e.e.e.e.e.e.r.r.r.t.r.r.r.d.d.d.g.d.d.d.g.g.g.h.k.k.k.k.k.k.k.k.k.k.k.k.k.k.k.k.c.k.k.h.h.h.h.h.k.k.k.k.h.h.h.h.f.f.f.u.u.u.u.u.u.7.7.7.7.7.7.8.%.%.%.#.#.#.#.#.#.#.#.+.+.+.+.+. . . .+.+.+.+. .^ ^ ^ ^  .^ ^ ^ ^ Q Q Q Q ! ! ! E E E E E n 6 6 6 6 6 6 6 6 6 6 3 3 3 3 3 3 3 3 3 3 > 3 3 3 3 3 3 3 3 3 3 6 3 6 6 3 6 6 6 3 3 3 3 3 3 3 3 3 3 6 6 3 6 j j j 5 h h 4 4 4 5 5 5 5 h h h h h h h h 5 5 5 5 h 5 5 5 h h 5 5 5 5 4 4 d d d d d d d d d d d f f f f f f f f f u f p p p p p p p p p p p t t t y y y y y y t t t t t y y y y y y y y y y y y y y y y y y y y y y y y y y y t t y y y y y y y y a a a a a a a a a a a a s s s s s s s s s s s x s s s s s x x Y Y Y Y Y Y Y Y Y Y Y Y Y Y Y ( ( ' ( ( ' ' ' ' ' ' ' ] ] ] ] ] ] ] ] ] ] ] ] ] ......@.o.o.o.o.@.@.@.@.@.+.+.+.+.+.+.+.+.+.+.+.+.+.%.W O 4 g d d d d d 4 d d d d d d 4 4 4 4 4 4 4 4 4 4 4 4 4 4 4 4 4 4 4 4 4 4 4 4 4 4 4 ",
"E E E E E E N N E E E E E E E E E E E E W W W W E E W W E E E E E E E E W W E E Q .... .X. .| |  .| | | | | | | | | | | | | | | | | | ! |  . . . . . . . . . . .O.O.O.O.O.O.O.O.6.6.6.6.#.6.6.6.8.8.8.8.8.8.e.8.e.e.e.e.e.e.e.e.e.e.e.e.e.e.e.e.e.r.e.r.t.t.u.g.d.d.d.d.g.g.g.g.g.g.g.h.k.k.k.k.k.k.k.k.k.k.k.=Xc.=X=Xk.c.k.k.h.k.h.h.h.h.h.k.k.k.k.k.h.f.f.f.u.u.u.u.u.u.9.e.7.7.7.7.8.&.%.%.#.#.#.#.#.#.#.#.#.#.+.+.+.+. .+.+.+.+.+.+.+. .{ { +. .^ ^ ^ Q Q Q Q ! ! E E E E E E n 6 6 6 6 6 6 6 6 6 6 3 3 3 3 3 6 6 3 3 3 3 3 3 3 3 3 6 6 6 3 3 j 6 6 L 3 6 E E 6 j E E 6 3 6 j j j L 6 6 6 6 6 6 5 5 4 5 5 5 5 h h h h h h h 5 5 h h h h 5 5 h h h h h h 5 5 5 5 5 4 4 4 4 4 d d d d d d d d d d f f f f f f f p p p p p p p p p p p p t t t t y y y y y y y y y y y y y y a y y y y y y y y y y y y y y y y y y y y y y y y y y y y y y y a a a a a a a a a a a a a s s s s s s s s s s x x s s s s s s x x Y Y Y Y Y Y Y Y Y Y Y Y Y ( ( ( ( ( ' ' ( ( ( ' ' ' ] ] ] ] ] ] ] ] ] ] ] ] ....o.o.@.o.o.o.@.@.@.@.@.@.+.+.+.+.+.+.+.+.+.+.+.+.+.%.W O 4 g d d d d d 4 4 d d d d d 4 4 4 4 4 4 4 4 4 4 4 4 4 4 4 4 4 4 4 4 4 4 4 4 4 4 4 ",
"N E E E E E N N E E E E E E E E E E E E W W W W E E E W E E E E E E E E W W E E ~ .... . . .| | | | | | | | | | | | | | | | | | | | | ! |  . . . . . . . . . . .O.O.O.O.O.O.O.O.6.6.6.6.6.6.6.6.8.8.8.8.8.e.e.e.e.e.e.e.e.e.e.e.e.e.e.e.e.e.e.e.r.e.r.r.t.g.g.g.d.d.d.g.g.g.g.g.g.h.h.k.h.k.k.k.k.k.k.k.k.k.=X=X=X=X=X=Xc.c.c.c.c.x.x.x.h.k.h.k.k.k.k.h.f.f.d.u.u.u.u.u.u.e.e.e.7.7.7.7.8.%.%.%.%.#.#.#.#.#.#.#.#.#.+.+.+.+.+.+.+.+.+.+.+.+.+.{ +.+. .^ ^ ^ Q Q Q ! ! ! ! E E E E n K 6 6 6 6 6 6 6 6 6 3 3 3 3 6 6 6 6 6 6 6 6 6 6 6 6 ! ^ ^ Q Q ^ ^ ..+.^ ^ +.^ Q ^ +.+.^ ~ ! ^ ' ....^ ~ ! Q j 6 5 5 h 5 4 4 h j h h h h h h h h 5 5 h 5 5 h h h h h h h 5 5 5 5 5 4 4 4 4 4 d d d d d d d d d d d f f f f f f f p p u p p p p p p p p t t t t y y y y y y y y y y y y y y y y y y y y y y y y y y y y y y y y y y y y t t y y y y y y y y y a a a a a y a a a a a a s s s s s s s s s s x x s s s s s s x Y x Y Y Y Y Y Y Y Y Y Y Y Y ( ( ( ( ' ' ' ( ' ( ' ' ' ] ] ] ] ] ] ] ] ] ] ] ] ....o.@.@.o.o.o.@.@.@.@.@.@.+.+.+.+.+.+.+.+.+.+.+.+.+.%.W O 4 g d d d d d 4 4 d d d d d 4 4 4 4 4 4 4 4 4 4 4 4 4 4 4 4 4 4 4 4 4 4 4 4 4 4 4 ",
"N N E E L L N N E E E E E E E E E E E E W W W W E E W W W W W W W W W W W W E E ~ .... . . .| | | | | | | | | | | | | | | | | | ! ! ! ! |  . . . . . . . . . . .O.X.O.O.O.O.O.O.6.6.6.6.6.6.6.6.8.8.8.8.e.e.e.e.e.e.e.e.e.e.e.e.e.e.e.e.e.e.e.r.r.r.r.r.t.t.g.g.d.d.g.g.g.g.g.g.h.h.k.h.h.k.k.k.k.k.k.k.k.=X=X=X=X=X=X=X=X=Xc.c.c.c.c.x.x.h.h.k.k.k.k.k.f.d.d.u.u.u.u.u.u.e.e.e.e.7.7.7.7.8.%.%.#.#.%.#.%.%.#.#.#.#.#.+.+.+.+.+.+.+.+.+.+.+.+.+.+.+. .^ ^ Q Q Q Q ! ! ! ! E E E E n K 6 6 6 6 6 6 6 6 6 6 6 6 3 3 3 6 6 n ! ! Q E +.+.^ Q +.%.%.&.y.y.y.7.%.+.&.+.^ +.&.y.&.+. .+.%.&.&.%.+.+.+.' Q L j 5 5 6 5 5 j j j h h h h h h 5 5 h h h h h h h h 5 5 j 5 5 5 5 4 4 4 4 4 4 d d d d d d d d f d d f f f f f f u u u u p p p p p p p p p p p p y y y y y y y y y y y y y y y y y y y y y y y y y y y y y y y y y y y y y y y y y y y y y y y a a a a a a a a a a a s s s s s s s s s x x x s s s s x x x Y x x Y Y Y Y Y Y Y Y Y Y ( ( ( ( ( ( ' ' ' ' ( ' ' ' ] ] ] ] ] ] ] ] ] ..] ] ....o.o.@.@.@.@.@.@.@.@.@.@.+.+.+.+.+.+.+.+.+.+.+.+.+.%.W O 3 d d d d d d d 4 4 d d d d 4 4 4 4 4 4 4 4 4 4 4 4 4 4 4 4 4 4 4 4 4 4 4 4 4 4 4 ",
"N N E E L E N N E E E E E E E E E E E E W W W W E E W W W W W W W W W W W W E E W  ... . . .| | | | | | | | | | | | | | | | | | ! ! ! ! |  . . . . . . . . . . .O.X.O.O.O.O.O.O.6.6.6.6.6.6.8.8.8.8.8.8.e.e.e.e.e.e.e.e.e.e.e.e.e.e.e.e.r.r.r.r.r.t.r.t.t.g.g.g.g.g.g.g.g.g.g.g.h.k.h.h.h.k.k.k.z.z.k.k.=X=X;X;X;X;X;X;X=X=Xc.c.c.c.c.c.x.x.h.k.k.g.k.k.d.d.d.u.u.u.u.u.u.u.e.e.e.e.e.7.7.7.8.%.%.#.%.%.%.%.%.%.#.#.#.#.+.+.+.+.+.+.+.+.+.+.+.+.+.+.^ ^ ^ ^ Q Q Q Q Q ! ! E E E E n K 6 6 6 6 6 6 6 6 6 6 6 6 6 3 3 3 6 ! ^ +.+.%.i.h.y.%.&.&.%.y.y.y.%.^ Q ! +.+.^ +.+.%.+.Q ! Q ^ +.^ Q ! Q +.<.&.+.Q j j 6 j j j j j j j h h h h 5 4 h h h h 5 h 4 h 5 5 j 5 5 5 5 4 4 4 4 4 d d d d d d d d d d d d d f f f f u u u u u p p u p p p p p p p p p t t t y y y y y y y y y y y y y y y y y y y y y y y y y y y y y y y y y y y y y y y y y y y y y a a a a a a a a a a a a s s s s s s s x x x s s s x x x x Y x Y Y Y Y Y Y Y U Y Y Y ( ( ( ( ( ( ( ' ' ( ' ' ' ' ] ] ] ] ] ] ........] ......o.o.@.@.@.@.@.@.@.@.@.@.+.+.+.+.+.+.+.+.+.+.+.+.+.%.W O 3 d d d d d d d d d d d d d d 4 4 4 4 4 4 4 4 4 4 4 4 4 4 4 4 4 4 4 4 4 4 4 4 4 4 ",
"L E E E N N E E E E E E E E E E E E E E E E W W W W W E E E E E W W W W E E E E W  ... . . .| | | ! ! ! ! ! ! ! ! ! ! ! ! ! ! ! | ! ! ! ! |  . . . . . . . . . .O.O.O.O.O.O.O.6.6.6.6.6.6.6.8.8.8.8.8.e.8.8.8.e.e.e.e.e.e.e.e.r.e.e.r.r.r.r.r.t.t.t.t.t.t.t.g.g.g.g.g.g.g.g.h.h.h.h.h.k.k.k.k.z.z.z.z.k.v.c.=X;X;X;X;X;X=X=X=Xc.c.c.c.x.x.x.x.x.k.g.g.g.d.d.d.u.u.u.u.u.u.e.e.e.e.e.e.7.7.7.7.%.%.%.%.%.%.%.%.%.%.#.#.#.#.+.+.+.+.+.+.+.+.+.+.+.+.+.^ ^ ^ Q Q Q Q ! Q Q ! ! ! E E E E n n 6 6 6 6 6 3 6 6 3 6 6 n E ^ +.+.&.&.&.y.y.y.y.&.y.e.%.%.&.%.^ ! E 6 ! Q ^  .{ { ^ ! ! ! ! E E E n E Q <.$.&.<.+.Q Q Q Q L j L j j j L j j h 5 h h h h h 4 4 5 5 5 5 j 5 5 5 4 4 4 d d d d d d d d d d d d d f f f f f f f f u f u p p u u p p t z p p p p y y y y y y a a y y y y a a y a a a a y y y y y y y y y y y y y y y y y y y y y y y y y y y y y a a a a a a a a a a a a a s s s s s s s s x s x x x x x x x x Y Y Y Y Y Y U U Y Y Y ( ( ( ( ( ( ' ' ' ' ' ' ' ' ] ] ] ] ] ] ] ] ] ] o.o.@.@.@.@.@.@.@.@.@.@.@.@.@.@.+.+.+.+.+.+.+.+.+.+.+.+.+.%.W O 4 g d d d d d d d d d d d d d 4 4 4 4 4 4 4 4 4 4 4 4 4 4 4 4 4 4 4 4 4 4 4 4 4 4 ",
"L E E E j j E E E E E E E E E E E E E E E E E W W W W W E E E E W W W W E E E E W  ... . . .| | | ! ! ! ! ! ! ! ! ! ! ! ! ! ! ! | ! ! ! ! |  . . . . . . . . . .O.O.O.O.O.O.O.6.6.6.6.6.6.6.8.8.8.e.e.e.8.e.8.e.e.e.e.e.e.e.r.r.r.r.r.r.r.t.t.t.t.t.g.g.t.g.g.g.g.g.g.g.g.g.h.h.h.h.h.k.k.k.z.z.z.v.v.v.;X;X;X;X;X<X<X<X;X=X=Xc.c.c.c.x.x.x.x.k.g.g.g.d.d.d.d.u.u.u.u.u.u.u.e.e.e.e.e.e.7.7.7.8.%.%.%.%.%.%.%.&.%.%.#.#.#.#.+.+.+.+.+.+.+.+.+.+.+.+.^ ^ ^ Q Q Q Q ! Q Q ! ! ! E E E E E N 6 6 6 6 6 6 6 6 6 ! Q %.&.y.y.2.y.%.+.%.{ ^ +.+.%.+.^ +.+.^ ! ! ! 6 6 ! ^ ^ ^ ^ { ^ Q E 6 6 n E ! ! ! +...+.$.&.%.+.%.%.....] Q j j L j j j j h h h h h 5 4 5 5 h j j h 5 5 4 4 4 d d d d d d d d d d d d f d d d f f f f u u f f u u u u p p p p p p p p y y y y y y a a a a y y y a y y a a a y y y y y y y y y y y y y y y y y y y y y y y y y y y y y a a a a a a a a a a a a a s s s s s s s s x x x x x x x x x Y Y Y Y Y Y Y Y U Y Y Y ( ( ( ( ( ( ' ' ' ' ' ' ' ] ] ] o.........o.o.o.@.@.@.@.@.@.@.@.@.@.@.@.@.@.@.@.+.+.+.+.+.+.+.+.+.+.+.+.+.%.W O 4 g d d d d d d d d d d d d d d 4 4 4 4 4 4 4 4 4 4 4 4 4 4 4 4 4 4 4 4 4 4 4 4 4 ",
"E E E E E E E E E N E E E E E E E E E E E E W W W W W W W W W W W W W W E E E E W  ... . . .| | | ! ! ! ! ! ! ! ! ! ! ! ! ! ! ! ! ! ! ! ! |  . . .|  . . . . . .O.O.O.O.O.O.O.6.6.6.6.6.6.8.8.8.8.8.e.e.8.e.e.e.e.e.e.e.e.e.r.r.r.r.r.t.t.t.t.t.g.g.g.g.g.g.g.g.g.g.g.g.g.h.h.h.h.h.h.k.k.z.z.v.v.v.v.;X;X;X;X<X;X<X<X<X<X=X=Xc.=Xc.c.c.x.x.x.k.g.g.d.d.d.d.d.d.u.u.u.u.u.u.u.e.u.e.e.7.7.7.7.7.8.7.8.8.&.&.&.&.&.&.%.#.#.#.#.#.+.+.+.+.+.+.+.+.+.+.{ ^ ^ ^ ^ Q Q ! ! ! Q ! ! ! ! ! ! E E E E E n 6 3 6 6 Q %.y.h.i.+.&.y.%.+.%.%.+.+.+.+.^ Q Q +.^ ^ E N ! n 6 ! ! ! ! Q Q Q E n 3 3 3 6 6 6 6 ^ ^ ^ +.&.&.%.&.&.&.<.<.+.Q j j L L L j j h h h h h h h h h h j 5 5 5 5 j j g d d d d d d d d d d d d f d f u u f f u u f f f f u u u p p z z z z z p p z y p p p a a a y y y a a a a y y y y y y y y y y y y y y y y y y y y y y y y y y y a a y a a a a a a a a a a a a a a a s s s s s x s x s x x x x x x Y Y Y Y Y Y Y Y Y U Y Y Y ( ( ( ( ( ' ' ' ' ' ' ' ] ] ] o.........o.o.o.@.@.@.@.@.@.@.@.@.@.@.@.@.@.@.@.@.%.+.+.+.+.+.+.+.+.+.+.+.+.%.W O 4 g d d 4 d d d d 4 4 d d d d d 4 4 4 4 4 4 4 4 4 4 4 4 4 4 4 4 4 4 4 4 4 4 4 4 4 ",
"N E E E E E E E E N E E E E E E E E E E E E W W W W W W W W W W W W W E E E E E W ^  . . . .| | ! ! ! ! ! ! ! ! ! ! ! ! ! ! ! ! ! ! ! ! ! |  . .^ |  . . . . . .O.O.O.O.O.O.6.6.6.6.6.6.6.8.8.8.e.e.e.e.e.e.e.e.e.e.e.e.e.r.r.r.r.t.t.t.t.t.t.t.g.g.g.g.g.g.g.g.g.g.g.g.g.h.h.h.h.h.k.k.k.z.v.v.v.;X;X;X;X;X;X<X<X<X<X<X;X=X;Xc.c.c.c.c.x.x.h.k.g.g.d.d.d.d.d.u.u.u.u.u.u.u.u.u.u.u.e.e.7.7.7.8.8.8.7.7.&.&.&.&.8.8.&.%.#.#.#.#.+.+.+.+.+.+.+.+.+.+.+.^ ^ ^ ^ Q Q ! ! ! ! ! ! ! E E E E E n 6 6 n ! +.+.+.&.y.&.&.+.^ +.%.Q ^ +.^ +.+.+.^ ! E E E 6 ! 6 3 6 ! E E E 6 6 n n 6 6 6 3 3 3 6 6 6 3 3 6 6 E ^ ' ^ +.+.%.&.<.9.<.%...' ~ L j j j j j j j h h j j 5 5 5 h h h j j g g d d d d d d d d d u u u u u u u f f u u f f f f u f p p p z z z z z z z z z z a a a a a y y y y y y y a y y y y y y y y y y y y y y y y y y y y y y y y y y a a a a a a a a a a a y y y a a a a a s s s s s s s s x x x x x x Y x Y Y Y Y Y Y Y U Y Y Y ( ( ( ( ( ' ' ' ' ' ' ' ] ] o.o.....o.o.o.@.@.@.@.@.@.@.@.@.@.@.@.=.=.@.@.@.@.@.%.+.+.+.+.+.+.+.+.+.+.+.+.%.W O 4 d d d 4 4 d d d d 4 d d d d d d 4 4 4 4 4 4 4 4 4 4 4 4 4 4 4 4 4 4 4 4 4 4 4 4 ",
"N N E E E E E E E E E E E E E E E E E E W W W W W W W W W W W W E E E E W W E E W ^  . . . .| | ! ! ! ! ! ! ! ! ! ! ! ! ! ! ! ! ! | | ! | |  . . . . . . . . .O.O.O.O.O.O.O.6.6.6.6.6.6.6.8.8.8.8.8.e.e.e.e.e.e.e.e.e.e.r.r.r.r.t.t.t.t.t.t.t.g.g.g.g.g.g.g.g.g.g.g.g.g.h.h.h.h.h.h.k.c.k.z.z.v.;X;Xv.;X;X;X;X<X<X<X<X<X<X;X;Xc.=X=Xc.c.x.x.x.h.k.k.g.d.d.d.d.u.u.u.u.u.u.u.u.u.u.u.u.u.7.7.7.7.8.8.&.&.8.8.8.&.8.8.&.&.%.#.#.#.#.+.+.+.+.+.+.+.+.+.+.+. .^ ^ Q Q Q Q Q Q ! Q ! ! ! E E ! ! ! ! ^ %.i.i.2.y.y.+.+.+.&.+.^ +.^ ! E +.+.^ Q ! n 6 3 > 3 3 > 6 ! 6 6 6 6 6 6 6 3 3 3 6 3 3 3 6 6 6 3 3 6 E j E ! ! Q ^ ^ +.%.y.i.9.+...Q E E E E L j j j j j j 5 5 h j j j j h h g g d d d d d d d d u u u u d d d f f u f u f f f f f f f f z z z z p z z z z z p a a a a y y y y y a a y a y y y y y y a a a a a a y y y y y y y y y y y y y a a a a a a a a a a a y y y a a a a a a s s s s s x s s x x x Y x Y x Y Y Y Y Y Y U Y Y Y Y ( ( ( ( ( ' ' ' ' ' ' ] ] o.o.o.o.o.o.o.o.@.@.@.@.@.@.@.@.@.@.@.@.@.@.@.@.@.@.@.%.+.+.+.+.+.+.+.+.+.+.+.+.%.W O 4 d d d d d d d d d d d d d d d d 4 4 4 4 4 4 4 4 4 4 4 4 4 4 4 4 4 4 4 4 4 4 4 4 ",
"j j E E E E E E E E E E E E E E E E E E W W W W W W W W W W E W E E E E W W E W W ^  . . . .| | ! ! ! ! ! ! ! ! ! ! ! ! ! ! ! ! ! | | ! ! |  .^  . . . . . . . .O.O.O.O.O.O.6.6.6.6.6.6.8.8.8.8.8.8.e.e.e.e.e.e.e.e.e.r.r.r.r.t.t.t.t.g.t.t.g.g.g.g.g.g.g.g.g.g.g.g.g.g.h.h.h.h.h.k.k.c.k.z.z.v.;X;X;X;X;X;X<X<X<X<X<X<X<X;X;X=X=Xc.c.c.x.x.x.h.k.k.g.d.d.d.d.u.u.u.u.u.u.u.u.u.u.u.u.u.u.9.9.7.8.7.7.7.7.7.7.7.7.7.&.&.%.%.#.#.#.#.+.+.+.+.+.+.+.+.+.+.+.^ ^ ^ Q Q Q Q Q Q Q Q Q Q ! ! Q ^ +.&.&.&.y.&.+.+.&.+.+.+.%.Q ! &.E 6 ! +.+.Q ! E E E 6 3 3 3 > 3 6 > 3 3 3 6 6 6 3 3 3 3 > > 3 6 6 6 6 6 Q ! 6 L E 6 6 6 j E Q +.$.+.Q +.$.$.+.Q E j j L L P j j j j j j j j j j j g g g g g d d d d d d d d d d d d f f f f f f f f f f f f f i z z p z z z z z p p a a a a a a y a a a a a a a a y y a a a a a a a a a a a a a a a a a a a a a a a a a a a a a a a a a a a a a a a a a s s s s s s s s x x x Y x Y x Y Y Y Y Y Y U U Y Y Y ( ( ( ( ' ' ' ' ' ' ] ] ] o.o.....o.o.o.@.@.@.@.@.@.@.@.@.@.@.@.@.@.@.@.@.@.@.@.%.+.+.+.+.+.+.+.+.+.+.+.+.%.W O 4 d d d d d d d d d d d d d d d d d 4 4 4 4 4 4 4 4 4 4 4 4 4 4 4 4 4 4 4 4 4 4 4 ",
"j E E E E j E E E E E E E E E E E E E E E E E E W W W W E E E E W W W W W W W W W ^  . . .| | | | ! ! ! ! ! ! ! ! ! ! ! ! ! ! ! | | | ! ! | | | ^ |  . . . . . .O.O.O.O.O.O.6.6.6.6.6.6.8.8.8.8.8.8.8.8.e.e.e.e.e.e.e.r.r.r.t.t.t.t.g.g.t.g.g.g.g.g.g.g.g.g.g.g.g.g.g.j.h.h.h.h.h.k.k.c.k.z.z.v.v.;X;X;X;X;X;X<X<X<X<X<X<X;X;X;X=X=Xc.c.c.x.x.x.x.k.k.k.g.d.d.d.u.u.u.u.u.u.u.u.u.u.u.u.u.u.y.7.7.7.7.7.7.7.7.7.7.8.8.&.&.%.%.#.%.%.#.+.+.+.+.+.+.+.+.+.+.{ ^ ^ Q ^ ^ ^ ^ ^ Q Q Q Q Q Q ^ +.%.%.%.+.+.+.Q ^ +.^ Q E Q Q Q ^ 6 6 n ! Q E 6 3 6 6 3 3 3 3 3 > 3 > 3 6 3 3 6 6 3 3 3 > > > 3 3 6 3 3 3 3 3 6 6 L 6 3 3 6 6 6 L E Q Q ' +.%.$.+.^ ~ Q Q W E L L L j j j j j j j j j j g g g g g d d d d d d d d d d f f f f f f f f f f f f f f f f f p z z z p p p p a p p p p a a a a a a a a a y a a a a a a a a a a a a a a a a a a a a a a a a a a a a a a a a a a a a a a a a a a a s s s s s s x x x x x Y Y x Y Y Y Y Y Y U U U U Y ( ( ( ( ] ( ' ' ' ' ] ] ] o.o.o.....o.@.@.@.@.@.@.@.@.@.@.@.@.@.@.@.@.@.@.@.@.@.%.+.+.+.+.+.+.+.+.+.+.+.+.%.W O 3 d d d d d 4 4 d d d d 4 4 d d d d 4 4 4 4 4 4 4 4 4 4 4 4 4 4 4 4 4 4 4 4 4 4 4 ",
"E E E E j j E E E E E E E E E E E E E E E E E E E W W W E E E E W W W W W W E E ! ^  . . .| | | | ! ! ! ! ! ! ! ! ! ! ! ! ! ! ! ! ! ! ! ! | | | | |  . . . . . .O.O.O.O.O.O.6.6.6.6.6.6.8.8.8.8.8.8.8.8.e.e.e.e.e.e.r.r.r.t.t.t.t.g.g.g.t.g.g.g.g.g.g.g.g.g.g.g.g.g.g.j.j.h.h.h.h.k.c.c.k.z.v.v.;X;X;X;X;X;X<X<X<X<X>X<X<X<X;X;X=X=Xc.c.c.c.x.x.x.k.k.k.g.d.d.d.d.d.u.u.u.u.u.u.u.u.u.u.u.u.u.y.7.7.7.7.7.7.7.7.8.8.8.8.&.%.%.%.&.%.%.%.#.+.+.+.+.+.+.+.+.{ ^ ^ ^ ^ ^ ^ ^ ^ ^ ^ ^ ^ +.%.+.+.^ Q Q Q ^ ^ ! Q ^ Q ^ E N ^ ^ ^ ^ n 3 3 6 3 > 3 6 3 > 3 3 3 3 > 3 3 6 ! 6 3 > > > > > > > > < 3 3 3 > < > > 3 6 3 3 3 3 3 6 6 6 E ' +.' Q ~ ^ +.%.%.+.' ~ E E E E E j j j 6 j j j j j g g g g d d d d d d d d f f f f f f f f f f f f f f f f z z z f p z z z z z z a a a a a a a a a a a a a a a a a a a a a a a a a a a a a a a a a a a a a a a a a a a a a a a a a a a a a a a a a a s s s s s x x x x x x x Y Y x x Y Y U Y U U U U U U ( ( ( ( ( ( ' ] ' ] ] ] ] o.o.o...@.o.@.@.@.@.%.@.$.$.@.@.@.@.@.@.@.@.@.@.@.@.%.%.+.+.+.+.+.+.+.+.+.+.+.+.%.E O 4 g d d d d 4 4 d d d d 4 d d d d d 4 4 4 4 4 4 4 4 4 4 4 4 4 4 4 4 4 4 4 4 4 4 4 ",
"N N E E E E N N E E E E E E E E E E E E W W W W W W E E W W W W W W W W W W W Q ! ^  . . .| | | | ! ! ! ! ! ! ! ! ! ! ! ! ! ! ! ! ! ! ! ! ! | | ^ | ^  . . . . . .O.O.O.O.O.O.6.6.6.6.6.8.8.8.8.8.8.8.8.e.e.e.e.e.e.r.r.t.t.t.t.g.t.t.t.g.g.g.g.g.g.g.g.g.g.g.g.g.j.j.h.h.h.h.h.c.k.k.c.v.v.v.;Xv.v.;X;X;X<X<X<X<X>X>X>X<X<X<X;X;X;X=Xc.c.c.c.x.x.h.k.g.g.d.d.d.d.d.d.u.u.u.u.u.u.u.u.u.u.u.u.u.9.7.7.7.7.7.8.8.8.8.8.8.8.%.%.%.&.&.#.#.#.#.+.+.+.+.+.+.+.+.{ ^ ^ ^ { ^ Q ^ +.+.%.y.i.&.%.+.{ ^ ^ +.+.^ { { E Q E E N 6 n Q n 6 6 6 6 3 > > > > > > > > > 3 3 3 3 < > > > > > > > > > > > < < > > > > > 3 3 > > 3 3 6 L 6 6 6 E E L 6 6 E Q +.&.#. .~ ! E L E E L j j j j j j j j j g g d d d g d d d d d f f f f f f f f f f f f f f f z z z z z f z z z z z z z a a a a a a a a a a a a a a a a a a a a a a a a a a a a a a a a a a a a a a a a a a a a a a a a y y y a a a a a a s s s s s s s x x x x x x x x x x Y Y U U Y U U Y Y ( ( ( ( ( ( ' ' ' ] ] o.o.o.o.o.@.@.@.@.@.@.%.%.$.$.@.$.%.@.@.@.@.@.@.@.@.@.@.%.+.+.+.+.%.%.%.%.+.+.+.+.+.+.E O 4 g d d d d d d d d d d d d d d d d d 4 4 4 4 4 4 4 4 4 4 4 4 4 4 4 4 4 4 4 4 4 4 ",
"N N E E E E N N E E E E E E E E E E E E W W W W W W E E W W W W B B W W W W W ! ! ^  . . .| | | | ! ! ! ! ! ! ! ! ! ! ! ! ! ! ! ! ! ! ! ! ! | | ^ | | ^  . . . . .O.O.O.O.O.O.6.6.6.6.6.8.8.8.8.8.8.8.8.e.e.e.e.e.r.r.r.t.t.t.t.g.g.t.t.g.g.g.g.g.g.g.g.g.g.g.g.g.j.j.h.h.h.h.x.c.c.c.c.v.v.;X;Xv.;X;X;X<X<X<X<X>X>X>X>X<X<X<X<X>X;X;X=Xc.c.c.c.c.x.h.g.g.g.g.d.d.d.d.d.d.d.d.d.d.d.u.u.u.u.u.u.u.7.7.7.7.7.7.7.7.7.8.8.8.8.8.8.&.&.&.&.$.%.#.+.+.+.+.+.+.+.+.{ ^ ! Q Q Q ^ +.+.&.y.y.&.+.%.+.^ { ^ ^ E Q Q E Q n 3 3 3 3 3 3 3 3 3 3 3 3 3 > > > > : > > > > > > : : * * > > > > : > > < 3 > : : : : : > > > > > > 3 3 3 3 3 3 6 6 6 6 6 K E ~ Q ~ ! ~ ^ ^ ~ ~ E E E E L L j j j j g g g g d d d d d d f f f f f f f f f f f f f f f f z z z z z z z z z z z z z z z z z z z a a a z z s s a a a a a a a a a a a a a a a a a a a a a a a a a a a a a a a a a a a y y y a a a a a s s s s s s x s s x x x x x x x x x c Y U U U U U Y Y ( ( ( ( ( ( ' ' ' ] o.] o.o.o.@.@.@.@.@.@.@.%.%.$.$.$.$.@.@.@.@.@.@.@.@.@.@.%.%.+.+.+.+.%.%.%.%.+.+.+.+.+.%.E O 4 g d d d d d d d d d d d d 4 d d d d d 4 4 4 4 4 4 4 4 4 4 4 4 4 4 4 4 4 4 4 4 4 ",
"N N E E E E N N E E E E E E E E E E E E E E E E W E E E W W W W B B W W W W W ! ! ^  . . .| | | ! ! ! ! ! ! ! ! ! ! ! ! ! ! ! ! ! ! ! ! ! ! | | ! ! | ^ ^  . . . . .O.O.O.O.O.O.6.6.6.6.8.8.8.8.8.8.8.8.e.e.e.e.e.r.r.t.t.t.t.g.g.g.t.t.g.g.g.g.g.g.g.g.g.g.g.g.g.j.h.h.x.h.x.x.c.c.c.v.v.;X;X;X;X;X;X;X<X<X<X>X1X1X>X>X>X>X<X<X>X>X;X-X=Xc.c.c.c.x.x.x.g.g.g.g.d.d.d.d.d.d.d.d.d.d.d.u.u.u.u.u.u.u.7.u.e.e.7.7.7.7.7.7.7.8.7.7.7.7.8.8.&.$.#.+.+.%.+.+.+.+.{ { ^ ! ! Q ^ { +.+.%.&.&.%.+.+.+.^ Q E ! N n N N E 6 3 > 3 3 > > > > > > < 3 3 3 > > > > > > > > > : > * * * * > > > : : > < < > * * O * : > > > > > > > > 3 3 3 3 3 3 3 6 6 3 3 3 L ! ! ^ +.#...~ ! Q E E E L L j j j g g g g j d d d d d d f f f d d f f f f k k f f f k z x x z z z z z z z z z z z z z z z z z z z z s z z z a a a a a a a a a a a a a a a a a a a a a a a a a a a a a a a a a a a p p a a a a z z s s s s s z s x x x x x x x c c x c x c c c U Y Y Y ( ( ( ( ( ( ' ' ' ] o.o.o.o.@.@.@.@.@.@.@.%.$.$.$.&.&.$.$.@.$.$.<.<.@.@.<.$.$.%.%.+.%.%.%.%.%.%.%.%.%.%.+.%.E O 4 g d d d d d d d d d d d d 4 4 d d d d 4 4 4 4 4 4 4 4 4 4 4 4 4 4 4 4 4 4 4 4 4 ",
"N N L L L E N N E E E E E E E E E E E E E E E E W W E E E W W W B B B W W W W ! ! ^ ^  . .| | ! ! ! ! | ! ! ! ! ! ! ! ! ! ! ! ! ! ! ! ! ! ! ! ! ! ! ! | |  . . . . .O.O.O.O.O.O.O.#.6.6.8.8.8.8.8.8.8.8.e.e.e.e.e.r.r.t.t.t.t.t.t.t.t.t.g.g.g.g.g.g.g.g.g.g.g.g.j.h.h.h.x.x.x.c.c.c.c.v.v.;X;X;X;X;X;X;X<X<X<X>X1X1X>X>X>X>X>X>X>X>X;X-X=Xc.c.c.c.c.x.x.g.g.g.g.g.g.d.d.d.d.d.d.d.d.d.d.u.u.u.u.u.u.u.u.u.e.7.7.7.7.7.7.7.7.7.7.7.7.7.8.&.$.#.#.+.+.+.+.+.{ { { { ^ ^ +.%.%.+.{ { %.&.&.+.{ ^ Q 6 6 N E n 6 3 3 3 3 3 3 3 3 > : > : * > > > > > > > > , 3 3 3 1 > > > : * * * : : O O : > > * * * * : > > > > : > > > > < 3 3 < > > 3 6 6 6 3 3 L E E !  .#.+.Q E E E E E L j 6 6 6 6 j j j j d g d d d d d d d d f f f k k k k k k k x c c c x z z z z z z z x x x x z z z z z s s s z z z z z z z a a a a a a a a a a a a a a a a a a a a a a a a a a a a a a a a p p a a a a z z s s s s s x x x s x x x c x c c c c c c c c U U U Y / ( ( ( ( ( ' ' ' ] o.o.o.@.@.@.@.@.@.@.@.$.$.$.$.&.&.&.&.$.$.$.<.<.<.@.<.$.$.$.%.+.%.%.%.%.%.%.%.%.%.%.%.%.E O 4 g d d d d d d d d d d d d d d d d d 4 d 4 4 4 4 4 4 4 4 4 4 4 4 4 4 4 4 4 4 4 4 ",
"E L E E E L L E E E E E E E E E E E E E W W W W E E E E E E E B W W W W W W W ! ~ ! ^  . .| | ! ! ! ! | ! ! ! ! ! ! ! ! ! ! ! ! ! ! ! ! ! ! ! ! ! ! ! Q | |  . . . .O.O.O.O.O.O.6.6.6.6.6.8.8.8.8.8.8.e.e.e.e.e.e.r.r.t.t.t.t.t.t.g.t.g.g.g.g.g.g.g.g.g.g.x.g.g.g.h.h.h.k.k.c.c.c.c.c.v.;X;X;X;X;X;X;X<X<X>X>X>X1X1X1X1X1X>X>X>X>X>X;X-X=X-Xc.c.c.c.x.x.x.x.g.g.g.g.g.g.g.g.g.g.d.d.d.g.d.u.u.u.u.u.u.u.u.u.7.7.7.7.7.7.7.7.7.7.7.7.7.8.&.&.%.%.%.+.+.+.+.+.+.+.+.+.+.%.4.2.%.+.+.&.y.2.+.^ E E 3 3 6 E n 6 3 > 3 6 6 > > > * * * : * * * : : * * : > > 3 N E N > > > > * * * * * O O * > : * : : : : : > > > > > > > > > < 3 3 > > > 3 3 6 6 6 6 j 6 6 !  . .^ ! ~ Q Q W L j j 6 6 j j j j j h g g d d d d d d f d f f k k k k k k k k c c c x x z z z z z z z z z z x z z z z x x x x z z z z a a a a a a a a a a a a a a a a a a a a a a a a a a a a a a a a p a a a a a a a z z s s s s s x x x x x x x c x c c c c c c c c U U U / / / ( ( ( ( ' ' ' ] ] o.o.@.@.@.@.+.@.@.$.$.$.$.&.&.<.<.,.,.<.<.<.<.<.@.<.<.$.$.%.%.%.%.%.%.%.%.%.%.%.%.%.%.E O 4 g d d d d d d d d d d d d d d d d 4 4 d 4 4 4 4 4 4 4 4 4 4 4 4 4 4 4 4 4 4 4 4 ",
"E L E E E E L L E E E E E E E E E E E E W W W W E E E W E E W B W W W W W W W ! ~ !  .| | | | ! ! ! ! ! ! ! ! ! ! ! ! ! ! ! ! ! ! ! E ! ! ! ! ! ! ! ! ! | ^ ^  . . . .O.O.O.O.O.#.#.#.6.#.8.8.8.8.8.8.e.e.e.e.e.r.r.t.t.t.t.t.t.g.g.t.g.g.g.g.g.g.g.g.g.g.x.g.g.h.h.h.h.c.c.c.c.c.c.v.v.;X;X;X;X;X;X;X<X<X<X>X<X1X1X1X1X1X>X>X>X>X>X;X-X-X-Xc.c.c.c.x.x.x.x.x.g.g.g.g.g.g.g.g.g.d.g.g.g.g.u.u.u.u.u.u.u.u.u.9.7.7.7.7.7.7.7.7.7.7.7.7.7.&.&.%.%.%.%.+.+.+.+.+.+.+.+.+.&.4.4.2.2.&.2.4.%.^ Q E 6 3 6 3 6 E n 3 3 3 6 3 > O O O * > > > : * * : : : : : > 3 j N N , , > > : * % * * O O * : * : , > > > > > > > > > > > > > > > > > > > > < 3 6 3 3 3 3 3 6 E Q Q ^ ^ ^ ^ Q Q L j 6 6 6 j j j j h g g d d d d d d d f k k k k k k k k c x c c c c c x x x z z x x z z z z z z z z x x x x z z z z a a a a a a a a a a a a a a a a a a a a a t t a a a a a a a a a p a a a a a a a z z a a s s z x z s x x x x c c c c U U c c U U U U U / / / ( ( ( ] ] ' ' ] ] o.@.@.@.@.@.@.@.@.$.$.$.$.$.&.<.<.,.,.$.$.<.<.<.@.<.<.$.$.%.%.%.%.%.%.%.%.%.%.%.%.%.%.E O 4 g d d d d d d d d d d d d 4 4 d d d d d d 4 4 4 4 4 4 4 4 4 4 4 4 4 4 4 4 4 4 4 ",
"E E E E E E E E N N E E E E E E E E E E W W W W E E W W W W W W W W B W W W W ! ~ ! ! | | | | ! ! ! ! ! ! ! ! ! ! ! ! ! ! ! ! ! ! E E E ! ! ! ! ! ! ! ! Q ^ ^ ^  . .O.O.O.O.O.O.#.#.#.#.#.&.8.8.8.8.8.e.e.e.e.e.r.r.t.t.t.t.g.g.g.g.g.g.g.g.g.g.g.g.g.g.x.x.x.x.h.x.h.h.c.c.c.c.c.v.v.v.;X;X;X;X;X;X;X<X<X>X>X,X<X1X1X1X1X1X>X>X>X;X;X-X-X-Xc.c.c.c.c.x.x.x.x.g.g.g.g.g.g.g.g.g.g.g.d.g.g.g.u.u.u.u.u.u.u.u.e.u.u.e.7.7.7.7.7.7.7.7.7.7.&.&.&.%.%.+.+.+.+.{ +.+.+.+.%.&.&.&.%.%.+.+.{ Q E E n 3 3 n > 3 N 3 < < , > : > * * : : > > > > > > > > > > > > < 4 4 4 < < , > : * * * % O % * : % * : > , , > > > > > > > , > > > > > > > > > > 3 3 3 3 3 3 6 6 L E ! ^ ` ....` ~ E j j j j j j j j j j g g g j j j k k k k k k k k k k l k k c c c c c c x x x x x x x z x x x z z z z z z z z z z z a a a a a a a a a a a a a a a a a a a a a a a a a a a a a a a a p a a a a a a a z a z z s z z x z z x x x c c c c c U U c U U U U U / / / / / ( ( ] ' ' ' ] o.o.@.@.@.@.@.@.@.$.$.$.$.$.$.&.<.<.&.,.$.,.,.<.<.<.<.$.$.$.%.%.%.%.%.%.%.%.%.%.%.%.%.%.E O 3 d d d d d d d d d d d d d d 4 d d d d d d 4 4 4 4 4 4 4 4 4 4 4 4 4 4 4 4 4 4 4 ",
"E E E E E E E E N N E E E E E E E E E E W W W W W W W W W W W W W W B W W W W ! ~ !  .| | | | ! ! ! ! ! ! ! ! ! ! ! ! ! ! ! ! ! ! E E E ! ! ! ! ! ! ! ! Q Q ^ ^ ^  . .O.O.O.O.O.#.#.#.#.%.&.8.8.8.8.e.e.e.e.e.e.r.r.t.t.t.t.g.g.g.g.g.g.g.g.g.g.g.g.g.g.x.x.x.x.x.x.x.c.c.c.c.c.v.v.v.v.;X;X;X;X;X;X<X<X<X>X<X<X<X<X<X1X<X1X>X>X>X;X;X-X-X-Xc.c.c.c.c.x.x.x.x.x.x.g.g.g.g.g.g.g.g.g.g.g.g.g.u.u.u.u.u.u.u.u.u.e.u.7.7.7.7.7.7.7.7.7.7.7.7.&.&.&.%.%.+.+.+.+.+.%.%.%.%.%.+.{ ^ Q E N 6 6 6 6 6 3 3 6 : : 3 < * * * O * * > > : : : : : > , , , , , , > > > , , , , , , > : * * % % O % : > % % * : > > : : % : : : > , 3 3 , > > > > > > > < 3 < > 3 3 6 j 6 6 6 Q ^ ^  .^ W j 6 j j j j j j j h j j j j j j j l l l k k l l l l l l c c c c c c c c c c x x z x x z x x x x x x z z z z z z z z z z z z z z z a a a a a a a a a a a a a a p p p p p a a a a a a a a a a a a a a z z z z z z z s z z x x x x c c c c c U c U U U U U / / / / / / ( ' ' ' ' ] o.o.@.@.@.@.@.@.%.$.$.$.$.&.&.<.<.<.&.,.,.<.,.<.<.<.<.<.$.$.&.%.%.%.%.%.%.%.%.%.%.%.%.%.E O 3 d d d d d d d d d d d d d d 4 d d d d d d 4 4 4 4 4 4 4 4 4 4 4 4 4 4 4 4 4 4 4 ",
"N N E E E N N N E E E E E E E E E E E E E E E E W W E E E E E W B B B W W W W ! ~ ^  . .| | | ! ! ! ! ! ! ! ! ! ! ! ! L ! L ! ! ! ! ! E E ! ! ! ! ! ~ Q Q Q ^ ^ ^  . .O.O.O.O.O.#.#.%.%.%.8.8.8.8.e.e.e.e.e.e.e.r.r.t.t.t.t.g.g.t.g.g.g.g.g.g.g.g.g.g.g.x.x.x.x.x.x.c.c.c.c.c.c.v.v.v.;X;X;X;X;X;X:X<X<X<X>X1X<X<X1X1X<X<X1X>X>X>X;X-X-X-X-X-Xc.c.c.c.c.x.x.x.x.x.x.g.g.g.g.g.g.g.g.g.g.g.g.u.u.u.u.u.u.u.u.e.u.7.7.7.7.7.7.7.7.7.9.9.7.7.7.&.&.&.%.%.+.%.%.&.&.&.%.+.{ ^ Q E 6 3 3 3 3 6 6 3 > > > > : > > * O O % * * * : : : * * * : , < < , , : : * * : * % * : > > % % % % % % * , , : : : : : : : : * % * * : > 3 3 < > : : : : > > > < < < < 3 6 6 3 3 3 6 6 6 L ! ~ E E j j j j j j j h j j j j j j j l l l l l l l l l l l l c c c c c c c c x x c x z x x z z z z z z z x x x z z z z z z z a a a a a a a a a a a a a a a a a a a p p p p a a a a a a a a a a a a a a a a a z z z z z z z x x x x c c c c U U U U U U U U / / / ( ( / ( ( ' ] ' ] ] o.@.@.@.@.@.%.%.@.$.$.$.$.&.&.9.9.&.<.,.<.,.<.<.<.<.,.&.&.%.%.%.%.%.%.%.%.%.%.%.%.%.%.E O 4 g d d d d d d d d d d d d d d d d d d d d 4 4 4 4 4 4 4 4 4 4 4 4 4 4 4 4 4 4 4 ",
"N N E E E E j N E E E E E E E E E E E E E E E W W W E W E E W W B B W W W W W ! ~ !  .| | | | ! ! ! ! ! ! ! L L ! ! ! ! L L ! ! ! E E E E E Q Q ! ! Q Q Q Q ^ ^ ^  . .O.O.O.O.#.#.#.%.%.&.8.8.8.8.e.e.e.e.e.e.e.r.r.t.t.t.t.g.g.t.g.g.g.g.g.g.g.g.g.g.g.x.x.x.x.x.c.x.c.c.c.c.c.v.v.v.;X;X;X;X;X:X:X:X<X>X>X1X<X<X1X1X<X<X1X>X>X>X;X;X-X-Xc.=Xc.c.c.c.c.x.x.x.x.x.x.g.g.g.g.g.g.g.g.g.g.g.g.g.u.u.u.u.u.u.u.u.e.e.7.7.7.7.7.u.e.9.9.y.7.7.&.&.%.%.%.%.%.%.&.4.y.&.+.^ Q E ! N 6 6 6 6 3 3 3 3 3 > 3 > > < < > : : : : : * * * * : : : * : , , , , * % % % % % % O % : , * % % % % % % > > : * : : : > : : : : : : > > , , , > : : * : > > > > < 3 3 3 3 3 3 3 3 3 3 3 5 L ~ Q ~ E L j j E E j j j j j j j j j l l l l l l l P P P l c c c c c c c c c c c c c c x x x x x x z z x x z z z z z z z z z z z a a a a p a a a a z z a p a a p p p p p p p p a a a a a p a a a z a z a a a z z z z z z z x x x x x c c c U U U U U U U U / / / ( / / ( ( ' ' ' ] ] o.o.@.@.@.%.%.@.$.$.$.$.$.&.&.9.9.&.<.<.<.<.<.<.<.<.,.,.&.%.%.%.%.%.%.%.%.%.%.%.%.+.%.E O 4 g d d d d d d d d d d d d d 4 d d d d d d d d 4 4 4 4 4 4 4 4 4 4 4 4 4 4 4 4 4 ",
"L E E E E E j j N E E E E E E E E E E E E E W W W W W W W W W W B B W W W W W ! ~ ! ! | | | ! ! ! ! ! ! ! ! L ! ! ! ! ! ! ! ! E L E E E E E Q ! Q Q Q Q Q Q Q ^ ^  . .O.O.O.#.#.#.#.%.%.&.&.8.8.e.e.e.e.e.e.e.e.r.r.r.t.t.t.g.g.g.g.g.g.g.g.g.g.g.g.g.x.g.x.x.x.x.c.x.c.c.c.c.c.v.v.v.;X;X;X;X;X:X:X:X<X,X>X1X<X<X1X1X<X<X1X>X>X>X;X;X;X=X-Xc.c.-Xv.c.c.x.x.x.x.x.x.x.g.g.g.g.g.g.g.g.g.g.g.g.g.u.u.u.u.u.u.u.e.e.7.7.7.9.7.7.u.9.y.7.7.&.#.%.%.%.%.%.%.%.&.4.y.2.%.+.Q ! E 6 6 6 6 3 3 3 3 3 6 > > > , > : > > : : : : : : : : : : * % % : : , , , : * * : : : % % : , : % % % O O % : : % % : : : : * * * * : : : > > > > > > : : : > > > > > , < 3 3 3 3 3 3 3 3 3 3 5 L W ~ W E j j E W W L j L L L L P P P P P P P P P P P P P U c l c c c c c c c c c c c c x c c x x x x x x x x x z z z x z z z z z z z z z z z z z z z z z a a a p p p p p p p f p a a a p p p z z z z z z a z z z z z z z x x x x x c c c c c U U U U U U / / / ( / / / ( ' ] ' ] ] o.@.@.@.@.%.%.$.$.$.$.$.$.&.&.<.<.<.<.<.<.<.<.<.<.<.,.,.&.%.%.%.%.%.%.%.%.%.%.%.%.%.%.E O 4 g d d d d d d d d d d d d 4 4 d d d d d d d d 4 4 4 4 4 4 4 4 4 4 4 4 4 4 4 4 4 ",
"L L E E E E E E N N E E E E E E E E E E W W W W W W W W W W W W B W W W W W W ! ~ ! ! | | | ! ! ! ! ! ! ! ! L L ! ! ! ! L E E E L E E E E W Q Q Q Q Q Q Q Q ^ ^ ^  . .+.O.+.#.#.#.%.%.%.&.7.7.7.8.e.e.e.e.e.e.e.r.r.r.t.t.t.g.g.g.g.g.g.g.g.g.g.g.g.x.x.g.x.x.x.x.c.c.c.c.c.c.c.v.v.v.;X;X;X;X;X:X:X:X<X,X>X,X<X<X1X1X<X<X1X1X>X>X>X>X;X;X=X=Xc.-Xc.c.c.c.c.x.x.x.x.x.g.g.g.g.g.g.g.g.g.g.g.g.g.u.u.u.u.u.u.u.u.e.e.7.7.9.q.7.7.y.y.7.8.#.#.+.+.%.%.&.&.&.&.4.y.4.4.%.{ Q E 3 < 3 3 > > > > 3 3 > : > > O O * : > : , , , , , , : : * % % * : > 1 4 3 1 1 1 4 d : : : , : % % % O O % : : * : : : * * % * * * * : : : : > : : : : : : > > : * : > > > > > > > 3 3 3 3 3 5 5 L W Q Q W E E E E E L L L L L L P P P P P P P P P P P P U U l c c c c c c c c c c c c c c c x x x x x c c x x z z z z z z z z z z z z z z a z z z z f z p p p p p p p p p p f p p a a a a a z z z z z z a z z z z z z z x x x x x x c c c c c U U U U U / / / ( / / / ' ' ' ' ] ] o.@.@.@.@.%.$.$.$.$.$.$.&.&.&.<.&.<.<.<.<.<.<.<.<.<.,.,.&.%.%.%.%.%.%.%.%.%.%.%.%.%.%.E O 4 g d d d d d d d d d d d d 4 d d d d 4 d d d d 4 4 4 4 4 4 4 4 4 4 4 4 4 4 4 4 4 ",
"E E E E E E E E E E E E E E E E E E E E W W W W W W W W W W W B W W W W W E Q ! ~ ! ! | ! ! ! ! ! ! ! ! L L K K K ! ! ! ! ! ! E L L E E E Q Q ~ Q Q Q Q Q Q ^ ^ ^  .+.+.+.+.#.#.#.%.%.&.7.7.7.7.e.e.e.e.e.e.e.e.r.r.r.t.t.t.t.t.g.g.g.g.g.g.g.g.g.g.g.g.g.x.k.x.x.x.x.c.c.c.c.c.v.v.v.;X;X;X;X;X:X:X:X<X<X>X<X<X<X1X1X<X<X<X1X1X>X>X>X;X;X;X=X=X=X=Xc.c.c.c.c.x.x.x.g.g.g.g.g.g.g.g.g.d.d.d.g.d.d.u.u.u.u.u.u.u.u.u.u.e.u.u.u.u.u.y.9.7.&.%.%.&.&.y.y.y.y.4.4.4.&.%.+.^ Q N 3 > > > > > > > > > : O O : O O : > , : > : : , , , , , , , , , , , < 3 3 1 4 4 d 4 , > : > : % % % O O % * : * : : : : : : : : : : : : : > > : * * % * * : > > : : : : : : % O : > > : 2 5 5 3 6 L ~ ~ ~ Q W E E L E E P P L L L P P P P P P P P P P P U U U U c c c c c c c c c c c c c c c c x x c c x c x z z z x z z z z z z z z z z z z z z z z z f p p p p p f p p p f f a a a a a a a a a a z z z z z z z z z z x x x x x x c c c c c U U U U U / / / ( / / / ' ] ] ' ] ] o.@.@.@.@.#.$.$.$.$.$.&.&.9.<.<.<.<.<.<.<.<.<.<.<.<.<.,.&.&.&.%.%.%.%.%.%.%.%.%.%.%.%.E O 4 g d d d d d d d d d d d d d d d d d 4 d d d d 4 4 4 4 4 4 4 4 4 4 4 4 4 4 4 4 4 ",
"E E E E E E E E E E E E E E E E E E E E W W W W W W W W W W E E W W W W E W Q Q ~ ! ! ! ! ! ! ! ! ! ! ! K K K K K K n E L ! L E E E E E E Q Q ~ Q Q Q Q Q Q ^ ^ ^  .+.+.+.+.#.#.#.%.&.&.7.7.7.e.e.e.e.e.e.e.e.e.r.r.r.r.t.t.t.t.g.g.g.g.g.g.g.g.g.g.g.g.g.x.k.x.x.x.x.c.c.c.c.c.v.v.;X;X;X;X;X;X<X<X<X>X<X>X<X<X<X1X2X<X<X<X1X1X>X>X>X>X<X<X<X=X-X-Xc.-Xc.c.c.x.x.x.x.g.x.g.g.g.g.g.g.g.d.d.d.d.d.u.u.u.u.u.u.u.u.u.u.u.u.u.u.u.u.u.y.7.7.&.&.y.y.i.i.y.y.4.&.&.+.^ N 6 j 6 3 > > > , 3 < > : : : O O : > , < , , : : * * : : : , 3 4 4 4 4 4 3 , , : , 1 1 , , , : * % % % % % % O % % % % % * : : : : : > : : : * : : : * * O O O * : > > > > : > > : O O * > > > 2 2 3 2 3 6 E ~ ~ ~ W E E E E E W L P L L L P P P P P P P P P P U U U U U U U U U c c c c c c c c c c c c c c c c c c c x z x x x z z z z z z z z z z z z z z z p p p p p p p p p p f z z z z z a a a z z z z z z z z z z z z z x x x x x x c c c c c U U U c c / / / / ( / / ' ] ] ' ] ] o.@.@.@.#.#.@.$.$.$.$.&.&.9.<.<.9.<.<.<.<.<.<.<.<.<.<.<.&.&.&.&.%.%.%.%.%.%.%.%.%.%.%.E O 4 d d d d d d d d d d d d d d d d d d 4 d d d d 4 4 4 4 4 4 4 4 4 4 4 4 4 4 4 4 4 ",
"j j E E E E E E E E E E E E E E E E E E W W E E W W W W E E E E W W W W W E Q Q ! ^ ! ! ! ! ! ! ! ! ! n K K K K K K K L K E ! E E E E E E Q Q ~ Q Q Q Q ~ Q ^ ^ ^  .+.+.#.#.#.#.#.%.8.7.7.7.7.7.e.e.e.e.e.e.r.r.r.r.r.r.r.g.g.g.g.g.g.g.g.g.g.g.g.g.g.g.x.x.k.x.x.x.c.c.c.c.c.c.c.v.;X;X;X;X;X;X;X;X<X<X<X>X<X<X<X2X<X1X<X<X1X1X>X>X<X>X>X<X<X;X-X-X-X-Xc.c.c.c.x.x.x.g.x.x.g.g.g.g.g.g.d.d.d.d.d.u.u.u.u.u.u.u.u.u.u.u.y.y.u.y.y.u.y.9.7.&.e.y.i.i.i.y.2.%.+.{ ^ N 3 3 3 3 3 < < > < < < > : : : > > : 3 4 < , , , : : : * * * , 1 4 d j j j 4 1 , : : > , : * * : * % % * % % % % % % % % % % * : * : : : > : : : * * * * * * O * > > > > > : : > > > : : : > > > 3 3 2 > 3 3 6 L Q Q ~ W E E E W W W P L j j P P P P P P / / P P / U U U U U U U U U c V V V c c c c c c c c c c c c c c c z x x z z z z f f z z z z z f z z z z f p p p p p p p p p a a z z z z z z z z z z z z z z z z z z z z x x x x x x c c c c c c c c c c / / / / / / / ` ' ] ' ] ] o.@.@.@.#.#.$.$.$.$.$.$.&.9.9.<.9.<.<.<.<.<.<.<.<.<.<.<.&.&.&.&.%.%.%.%.%.%.%.+.+.+.+.E O 3 d d d d d d d d d d d d d d d d d d d d d d d 4 4 4 4 4 4 4 4 4 4 4 4 4 4 4 4 4 ",
"N j E E E E j j E E E E E E E E E E E E E E E E E E W W W E E E W W W W E E ! ! ! ~ ^ ^ ! ! ! ! ! ! ! n K K K K K K K L K L L L L E E E E Q Q ~ Q Q Q Q ~ ~ ^ ^ ^  .+.+.#.#.#.#.#.%.8.8.7.7.7.7.8.e.e.e.r.r.r.r.r.r.t.t.t.g.g.g.g.g.g.g.g.g.g.g.g.g.g.x.x.x.x.x.x.x.c.c.c.c.c.c.c.v.v.v.v.;X;X;X;X;X<X<X<X>X1X1X<X<X1X1X1X<X1X1X1X1X>X>X>X<X<X<X>X-X-X=Xc.c.c.c.x.x.x.x.x.g.g.g.k.g.g.g.d.d.d.d.d.u.u.u.u.u.u.u.u.u.u.u.u.u.u.u.u.y.y.9.&.&.&.y.i.i.y.2.%.{ Q Q Q n 3 3 3 > > 3 , > > > > > > : : 1 < , 1 , > , > , , , > : : * : , , 4 j j g 4 1 < , > : : : % % : : % % % % % % % O % % % * : : : : > , > , , > : * * * * * * O * > > : : * % % : > 3 3 > > > > 3 3 6 6 3 3 > 3 6 E Q Q Q Q Q Q W W E P L L j P P P P W W W / P P / / U / / / / / U U U U / V c c c c c c c c c c c c c c c c c x x z f f f f z z z f z f z z z z f f f f p p p p p p a a a z z z z z z z z z z z z z z z z z z z z x x x x c c c c c c c c c c c / / / / / / / ' ' ' ' ] o.o.@.@.@.#.@.$.$.$.$.$.$.&.<.9.<.9.<.<.<.<.<.<.<.<.<.<.&.&.&.&.%.%.%.%.%.%.%.%.+.+.+.+.E O 4 d d d d d d d d d d d d d d d d d d d d d d d 4 4 4 4 4 4 4 4 4 4 4 4 4 4 4 4 4 ",
"N E E E E E N N N N E E E E E E E E E E W W W W E E E E W W W W W W W W E E ! ! ! ~ ! ! ! ! ! ! ! L L L L L K K K n n E E E L L L L L E E W Q Q Q Q ! Q ~ Q Q ^ ^ ..+.#.#.#.#.$.$.&.8.8.8.7.7.7.8.8.e.e.r.r.r.r.r.r.t.t.t.g.g.g.g.g.g.g.g.g.g.g.g.g.x.x.x.x.x.x.x.c.c.c.c.c.c.c.c.c.v.v.v.;X;X;X;X;X;X>X>X>X1X1X<X1X1X1X1X1X1X1X1X1X<X>X>X>X>X>X>X-X-X=Xc.c.c.c.c.x.x.g.g.g.k.k.k.g.h.h.g.g.d.d.f.d.d.f.d.d.d.i.u.u.u.u.u.u.u.u.u.y.y.7.&.&.4.4.&.+.+.+.{ ^ Q Q N 1 > > > : * * > > > > 3 3 3 3 , , , : : > : * : , , , , > : : , , , , , < < < < , , > : * % % % > : % % % % O % % % % % : : : , , , , , , , , , * * * * , , * * : , > : : : % % : > 3 3 3 3 > > > 3 3 3 3 3 3 3 3 K ! ! ! ! ! Q ! W W E E L P W W W W W W W P / P / / / / / / / U c U U U U c c c c c c c c c c c c c c c c c c c c z z z z f z z z z z z z z z z f f f p p p p p p p f z z z z z z z z z z z z a a a z z z z z z x x x x c c c c c c c c c c V V V / / / / / / ' ' ' ] ] ..o.@.@.@.@.@.@.@.$.$.$.$.$.$.$.<.<.<.<.<.<.<.<.<.<.<.<.<.&.&.%.&.&.&.%.%.%.%.%.+.+.+.+.E O 4 g d d d d d d d d 4 4 d d 4 4 4 4 4 4 4 4 4 4 4 4 4 4 4 4 4 4 4 4 4 4 4 4 4 4 4 ",
"E E E E E E N N N N E E E E E E E E E E W W W W E E E E W W W W W W E W E E ! ! ! ! ! ! ! ! ! ! ! L L L L L K K K n n E E E L L L L L E E Q Q Q ! ! ! Q ~ Q Q ^ ^ ..+.#.#.#.#.$.$.&.&.8.8.8.8.7.7.8.8.e.r.r.r.r.r.r.t.d.d.g.g.g.g.g.g.g.g.g.j.j.h.h.x.x.x.x.x.x.x.c.c.c.c.c.c.c.c.c.v.v.v.v.;X;X;X;X;X<X>X>X>X1X1X1X1X1X1X1X1X1X1X1X<X<X<X>X>X>X-X>X-X=X-Xc.c.c.x.x.x.x.k.k.k.k.g.k.h.h.h.h.h.h.f.f.f.f.f.f.f.i.f.u.u.u.u.u.u.u.u.y.y.9.&.<.y.y.%.^ { { { Q Q Q N 3 > : : : : : > , , , 3 N 6 3 > > : : * : : * : : : : : : : : : : : : > , , , , , , > : * % O % > * % * % % % % % % % % * : * * : : > , : * , > : : : * > , , > , , 1 , 3 , > : > > 3 3 3 > > > > > > > 3 3 3 3 3 3 6 K L ! ! ! Q Q Q W W W W W W W W W W W W W / / / / / / / U / / / / U U U / V V c c c c c c c c c c c c c c c c c x x x z f z z z f x x z z z z f f p p z f p p p z f z z z z z z z z z z z z z a z z z z x x x x x x c c c c c c c c c c V V V / / / / / ' ' ' ' ] ] ..o.o.@.@.@.@.@.@.@.$.$.$.$.$.$.,.<.<.<.<.<.<.<.<.<.<.<.<.&.&.%.&.&.&.%.%.%.%.%.+.+.+.+.E O 4 g d d d d d d d d 4 d d d 4 4 4 4 4 4 4 4 4 4 4 4 4 4 4 4 4 4 4 4 4 4 4 4 4 4 4 ",
"E E E E L L E E N E E E E E E E E E E E W W W W W W E W E E E E E E E E E E ! ! ! ! ! ! ! ! ! ! L L L K L K K K L n n E E L L E L L L E E E Q Q ! ! ! Q ~ ~ Q ^  ...+.#.#.#.#.#.$.$.$.8.8.8.8.8.7.8.8.8.r.r.r.r.r.r.d.d.d.d.g.g.g.g.g.g.g.g.j.j.h.h.h.h.h.h.x.x.c.x.c.c.c.c.c.c.c.c.v.v.v.v.v.;X;X;X;X>X>X>X>X1X1X1X1X1X1X1X1X1X1X<X<X<X<X>X>X>X-X-X-X-X-Xv.c.c.c.x.x.x.x.x.h.h.k.h.h.h.h.h.h.h.f.f.f.f.f.f.f.d.i.u.u.i.i.i.i.y.y.y.y.y.&.&.4.<.+.Q ^ ^ Q N N N N 3 > : * * : : > < 3 < 4 N j , * % % % % % % % * % % % % : : : : : > , , , , , , , < , , > : % > , * * : % % % % % % % % % % % % * : : , * % : > , , , > , , < , , , > : > > ; % : > > > 3 3 3 > > > > > 3 3 3 > 3 3 3 6 K ! ! ~ Q Q Q Q W W W W W ~ ~ W W / / / / / / / / / U / / / / / / U U / / / V c c V c c c / U / c c c c c c c x c x c c c k k k x x x x x z z f f f f f f z z z z f z z z z z z z z z z z z i z z z z z x x x x c c c c c c c c c c c V V V V / / / ` ' ' ' ] ] ] ..o.o.o.@.@.@.@.@.@.$.$.$.$.$.$.<.<.,.,.<.<.<.<.<.&.<.<.<.&.&.&.%.&.&.%.%.%.+.%.+.+.+.+.E O 4 g d d d d d d d d d d d d 4 4 4 4 4 4 4 4 4 4 4 4 4 4 4 4 4 4 4 4 4 4 4 4 4 4 4 ",
"L E E E L L E E E E E E E E E E E E E E W W W W W W W W E E E E E E E E E E ! ! ! ! ! ! ! ! ! ! L L L K L K K K n n E E L L L E L L L E E W Q Q ! ! ! ~ ~ ~ Q ^ ^ ..+.#.#.#.#.#.#.#.$.8.8.8.8.8.8.8.8.8.r.r.r.r.u.u.d.d.d.d.g.g.g.g.g.g.g.g.h.h.h.h.h.h.h.h.h.h.c.c.c.c.c.c.c.c.c.c.v.v.v.v.v.;X;X;X;X;X>X>X>X1X1X1X1X1X1X1X1X1X1X<X<X<X<X<X>X>X>X-X-X-X-Xv.c.c.c.x.x.x.x.x.h.h.h.k.k.k.k.h.h.h.h.h.f.f.f.f.f.f.i.i.i.i.i.y.y.y.y.y.y.y.&.%.%.&.+.^ Q N n 3 3 1 3 < , > > : : : > > 3 , , 3 3 : % % % * : % % % : : % % * > , , , < 4 4 d 4 4 < , , < , , > : % > > * % : % % % % % % % % % % % % : : , , , : > , , , , , , 1 1 1 , , : * : : : : > > : : : > 3 > > > > > 3 3 3 3 3 3 3 3 6 ! ! Q Q Q Q ~ Q W W ~ ~ ~ ~ ~ W ` ` / ` / ' / / / / / / / / / / / U / U U U U U / / / U / / / c c c c c c c c c c c c k k k k c x x x x x f f f f f f f f z z z z z z z z z z z z z z z z z z z z z z z x x x c c c c c c V V V V V V V V V / / ) ` ` ' ' ] ] ] ..o.o.o.@.@.@.@.@.@.$.$.$.$.$.$.<.<.<.,.,.&.<.<.&.<.<.<.&.&.%.%.&.%.&.%.%.%.+.+.+.+.+.+.E O 4 g d d d d d d d d d d d d 4 4 4 4 4 4 4 4 4 4 4 4 4 4 4 4 4 4 4 4 4 4 4 4 4 4 4 ",
"L j E E E E E E E E E E E E E E E E E E W W E E W W E E W W W E E E E E E ! ! ! ! ! ! ! ! ! ! ! L L L K K K K K K L L L L L L L L L E E E W Q Q Q ! ! ! Q ~ Q ^ ^ ..+.+.#.#.#.#.#.#.#.8.8.8.8.8.8.8.8.8.r.r.r.r.r.t.d.d.d.g.d.d.g.g.g.g.g.g.h.h.h.h.h.h.h.h.h.h.h.h.h.c.c.c.c.c.c.c.c.v.v.v.v.;X;X;X;X;X>X>X>X1X1X1X1X1X1X1X1X1X1X1X<X<X<X<X>X>X>X-X-X-X-Xv.c.c.c.c.x.c.x.c.c.h.h.h.h.k.k.k.k.h.h.h.h.f.h.h.f.f.f.i.i.i.i.i.i.y.y.y.y.4.&.%.%.%.%.{ Q 6 3 3 1 3 , , , < > : : * : : < , : : , : * % : , , > : : , , > : > , , , < 4 g j j j d d , , , > : : % % : > * % * % % % % % % % % % % % : , , 1 d 1 , , , , - : , 1 d d , , , , : : : : : > > > : : > > > > 3 > > 3 3 3 3 3 3 3 3 3 n ! ! ~ ~ ~ ~ ~ ~ ~ ~ ~ ~ ~ ~ ~ ~ ` ` / / ` / ' / / / / / / / / / U U U U U U c U U U U U c c c c c c c c c c c c c c c c c k l k k k k k z z z f f f f z z z z f z z z z z z z x z z z z z z z z z x x x x x c c c c / V V V V V V V V V V / ) ) ` ` ' ' ] ] ] ....o.o.@.@.@.@.@.@.@.$.$.$.$.<.<.<.<.<.<.,.,.&.&.&.&.&.&.&.&.%.%.%.&.%.%.%.%.%.+.+.+.+.E O 4 g d d d d d d d d d d d d 4 4 4 4 4 4 4 4 4 4 4 4 4 4 4 4 4 4 4 4 4 4 4 4 4 4 4 ",
"N N E E L L E E E E E E E E E E E E E E W W E E W W E E W W W W E E E E E ! ! ! ! ! ! ! ! ! ! ! L L L K K K K K K L L L L L L L L L E E E W Q ! Q ! ! ! Q ~ Q ^ ^ ..+.+.+.#.#.#.#.#.#.#.8.8.8.8.8.8.8.8.8.e.r.r.r.r.d.d.d.g.g.d.d.g.g.g.g.g.h.h.h.h.h.h.h.h.c.c.h.h.x.c.c.c.c.c.c.c.v.v.v.v.v.;X;X;X;X;X>X>X>X1X1X1X1X1X1X1X1X1X1X1X<X<X<X<X<X>X>X>X-X-X=X-Xc.c.c.c.c.c.c.c.c.h.h.k.k.k.k.k.k.h.h.h.h.h.h.h.f.f.f.i.i.i.i.i.i.i.i.i.y.4.4.%.{ { { ' N 4 1 3 4 3 < < , > : : : : : : < 1 : * , , : % % : , > : : : > > , < 4 4 4 4 4 4 4 4 4 1 < , > , : % : > : : : % % % % * % % * % % % * * : > , 1 d j g 1 , , - % * , 1 d 1 > * : : : > , , > , 3 3 : : : > > 3 3 3 3 3 3 3 3 3 3 > 3 3 6 E ! Q ~ Q Q ~ ~ ~ ~ ~ ~ ~ ~ ` ` ` ` ` ' ' ' ' / / / / / / / / / / / / / U U U U U U U U c c c c c c c c c c c c k k c c c l l k k k k k f x z z f f f z z z z f f z z z z z z z z z z z z z z x x x x x c c c c c / V V V V V V V V V V / ) ) ) ` ` ' ' ] ] ] ] ..o.o.o.@.@.@.@.@.@.@.$.$.$.$.$.<.$.<.<.<.&.&.&.&.&.&.&.&.%.%.%.%.%.%.%.%.%.$.+.+.+.+.E O 4 g d d d d d d d d d d d d 4 4 4 4 4 4 4 4 4 4 4 4 4 4 4 4 4 4 4 4 4 4 4 4 4 4 4 ",
"N E E E E N N N E E E E E E E E E E E E W W E E W W E E W W W W W W E E W ! ! ! ! ! ! ! E ! ! ! ! ! E E K K K K K L L L L L L L L L E E E W W Q Q ! ! ! Q ~ Q Q ^ ..+.+.+.#.#.#.#.#.#.#.#.8.8.8.8.7.7.7.7.7.e.e.r.u.u.u.u.u.d.d.d.g.g.g.h.h.h.h.h.h.h.h.h.c.c.c.h.h.h.h.c.c.c.c.c.c.c.c.v.v.v.;X;X;X;X;X;X>X>X1X1X1X1X1X1X1X1X1X1X1X1X<X<X1X<X>X>X>X>X;X>X-X-Xv.c.c.c.c.c.c.c.c.c.k.k.k.k.k.k.h.h.h.h.h.h.h.f.f.f.i.i.i.i.i.i.i.i.i.i.4.&.+.Q E E Q N 6 4 3 3 > , , > : * * : > > > < 3 : * : , : % % % : : % % % % % : < g j W j d 4 < , > > : : : > : % > , , > : : % % : > % : : : : : : > > : , 1 d d 1 , : : * % * , 1 1 , : * * * * > , 1 , , 3 3 > : : > > > : : > > > > > > : : > > 3 6 ! ~ Q Q Q Q Q Q ~ ` ` ` ` ` ` ` ` ' ' ' ' ' ' ' ' / / / / / U U / / / U U U U U U c c c c c c c c c c c c c k k c c c c c c k k k k k x x x f f f f f z z z z z z z z z z x x z z z z z z x x x x x x c c c c c V V V / V V V V V V V V ) ) ) ` ` ` ' ] ] ] ] } @.o.@.@.@.@.@.@.@.@.@.@.@.$.$.$.<.$.<.$.$.&.&.&.&.&.&.%.%.%.%.%.%.%.%.%.%.%.+.+.+.%.E O 3 d d d d d 4 4 d d d d d d 4 4 4 4 4 4 4 4 4 4 4 4 4 4 4 4 4 4 4 4 4 4 4 4 4 4 4 ",
"E E E E N N N N E E E E E E E E E E E E W W E E W W E E W W W W W W E W W W W ~ Q ! ! ! E ! ! ! ! E E E L K K K L L L L L L L L L L E E E W Q Q Q ! ! ! Q ~ Q Q ^ ..+.+.+.+.#.#.#.#.#.#.#.$.#.8.8.7.7.7.7.7.e.e.e.r.u.u.u.u.d.d.d.d.g.g.h.h.h.h.h.h.h.h.k.k.k.c.h.h.h.h.c.c.c.c.c.c.c.c.c.v.v.;X;X;X;X;X;X>X>X1X1X1X1X1X1X3X3X3X1X1X1X<X<X1X<X<X>X>X>X>X>X-X=X-Xv.c.c.c.c.c.c.c.c.c.c.k.k.k.k.k.h.h.h.h.h.h.h.f.f.i.i.i.i.i.y.i.y.i.i.&.%.^ 6 3 6 N N 6 4 < > * > : : * % % * > > 1 < < : % % : , * % % * % % O O % % : , 4 j B / W d < > : * : * : : % % : < < , : : % % : > * : : : : : > , , : , d 1 < , , , 1 : * , , , < < , , : * * > , 3 3 , 3 3 3 > > > > > > > > > > > > > : : : > 3 3 6 ! Q Q Q Q ` ` ` ` ` ` ` ` ` ` ' ' ' ' ' ' ' ' ' / / / / / / / / / U U U U c c c c U c c c c c c c c c c c c k c c c c c c c c c c c c c x f f z z z z x z k f z z z z z z z z z z z z x x x x x x c c c c c c V V V V V V V V V V V V C ) ) ` ` ` ] ] ] ] ] } @.@.@.@.@.@.@.@.@.@.@.@.@.@.@.@.@.@.$.$.$.$.$.%.&.%.%.%.%.%.%.%.%.%.%.%.%.%.%.+.+.+.E O 3 d d d d d d 4 4 d d d d d d 4 4 4 4 4 4 4 4 4 4 4 4 4 4 4 4 4 4 4 4 4 4 4 4 4 4 ",
"E E E E E E E E E E E E E E E E E E E E W W W W W W W W E E E W W W W W W W W W W E E E E ! ! ! L L K K K K L j j j j j L L L L L L E E ! Q Q Q Q ! ! Q Q Q Q ^ ^ { +.+.+.+.+.+.+.#.#.#.#.#.#.&.8.7.7.7.7.7.e.e.u.e.u.u.u.u.d.d.d.d.g.g.g.g.h.h.h.h.h.h.h.k.k.c.h.x.h.k.c.c.c.c.c.c.c.c.c.c.v.v.;X;X;X;X;X>X>X>X1X1X1X1X1X1X1X3X1X1X1X<X1X<X1X1X1X1X>X>X;X-X-X-X=Xc.c.c.c.c.c.c.c.c.c.k.k.k.k.k.h.h.h.h.h.h.h.h.h.f.i.i.i.i.y.&.&.y.<.+.^ E 3 3 6 6 6 6 1 , : * * * * * * : : > 3 1 , , : % % * , : % % % % % % % : > , , , < 4 W B 4 , , > : , , > > * * : > > > * : % % : : % % % % % * * : : * , d < , , < g l u , , , : , , , , , , , , , 1 < > > < 3 > : * > > > > , < > > : : : : > > > 3 6 6 n ! Q ^ ' ' ` ` ` ` ` ` ` ` ' ' ' ' ` ' ' ' / / / / / / / U / / U U c U U U c c c c c c c c c c c c c l l c c k c c c c c c c c c c c c f f f f f k x x x x z z z z z x x z x x x x x x c c x c c c c V c c V V V V V V V V V V V C ) ) ` ` ` ] ] ] ] ] ] ] @.@.@.@.@.@.@.@.@.@.@.@.@.@.@.@.@.@.@.$.$.$.$.$.$.$.$.$.%.%.%.%.%.%.%.%.%.+.+.+.+.%.W O 4 g d d d d d d d d 4 d d d d 4 4 4 4 4 4 4 4 4 4 4 4 4 4 4 4 4 4 4 4 4 4 4 4 4 4 ",
"E E E E E E E E E E E E E E E E E E E E W W W W W W W W E E E W W W W W W W W W W W W E E E E ! L L L K L 6 6 6 j j j j L L L L L L E E ! Q Q Q Q ! ! Q Q Q Q Q ^ ^ +.+.+.+.+.+.+.+.#.#.#.&.%.&.7.7.7.7.7.7.e.y.u.u.u.u.u.u.d.d.d.d.f.h.g.g.h.h.h.h.h.h.k.h.k.k.h.h.h.k.h.c.c.c.c.c.c.c.c.c.v.v.;X;X;X;X;X>X<X>X1X1X1X1X1X1X1X1X1X1X1X1X1X1X1X1X1X1X>X>X>X;X>X-X;X=Xc.c.c.c.c.c.c.c.c.c.k.k.z.z.h.h.z.l.h.h.h.h.h.h.i.i.i.i.y.&.%.&.+.Q E E 6 N E N 6 6 1 , > , , : * , < , > , , : > : : % % % : : : > : % % * > , 4 4 4 1 4 d g 4 , : : : , < , , , : % : : : * % % : > , : % % % % % % % % % % * , , , , < g l u , * * % : , , , < < < 1 , < < , > > > > : : : > : > , < > > > > * : > : > 3 3 6 n ! ^  .' ..' ` ' ' ' ' ' ' ' ' ' ' ' ' ' ' / ' / / / / / / / / / U U U U Y Y U c c U c c c c c c c l c c k c c c l c l c c c l c c c c k k c k k k k k k c z z z c c x x x x x x x x c c c c c c c c V c V V V V V V V V C V V V C ) ) ` _ _ ] ] ] ] ] ] ] ] @.o.@.@.@.@.@.@.@.@.@.@.@.@.@.@.@.@.@.@.%.%.%.%.+.%.%.%.%.%.%.%.%.%.%.%.%.+.+.+.%.W O 4 g d d d d d d d d 4 4 d d d d 4 4 4 4 4 4 4 4 4 4 4 4 4 4 4 4 4 4 4 4 4 4 4 4 4 ",
"E E L E E N E E E N E E E E E E E E E E W W W W E E W W E W W W W W W W W Q Q W W W W W E E ! L L L L L j j j j j j j j j j L L L L E E E Q Q Q Q ! ! ! Q Q Q Q ^ ^ +.+.+.+.+.+.+.+.+.#.%.%.&.&.&.&.7.7.7.7.e.e.u.u.u.u.u.u.d.d.d.d.d.h.g.h.h.h.h.h.h.h.k.k.h.k.k.c.x.x.h.c.c.c.c.c.c.c.c.c.v.v.v.v.;X;X;X>X<X1X1X1X1X1X1X1X2X2X3X1X1X1X1X1X1X1X1X1X1X1X>X>X>X-X;X;X;Xv.c.v.v.v.v.v.v.v.v.v.z.z.z.z.k.l.h.h.l.l.z.l.h.i.y.y.y.&.+.+.Q 6 6 6 6 E Q N N N 6 < > , > : , 4 4 , * > : * * * % % % % : > , 1 , , , , , , 4 d j j j B 4 4 < > % % : , , , , > > , > : : * : : : , , , , > % % % , > % % * , , < , , d d t , , - * , < , 1 1 1 1 1 , < 3 < < > > > > > > * * : : : * : > > : : > > > 3 3 3 6 ! ^ +.' ' ........] ] ] ] ' ' ' ' ' ' ' ' ' ' ' / / / / / / / / U / ( U Y Y U Y U Y Y c U c V c c c c c c c c l c c c c l l c c l c c c c c c k k c k c c c x c c c c c c x x x x x x c c c c c c c c V V V V V V V C C V V V V C C ) ` _ _ _ ] ] ] ] o.o.] @.o.@.o.@.@.@.@.@.@.@.@.@.@.@.@.@.@.@.@.@.@.+.+.+.%.+.+.%.%.%.%.%.%.%.%.%.%.%.%.%.W O 4 g d d d d d d d d d d d d d d 4 4 4 4 4 4 4 4 4 4 4 4 4 4 4 4 4 4 4 4 4 4 4 4 4 ",
"E E L j j N E E E N E E E E E E E E E E W W W W E E W W W W W W W W W W W W W W W W W W E E L L L L j L j j j j j j j j j j j L L L E E E E Q ! Q ! ! ! E Q Q Q ^ ^ { { +.+.+.+.+.+.+.+.%.%.%.&.&.&.7.7.7.7.e.e.u.u.u.u.u.u.u.d.d.d.d.f.h.h.h.h.h.h.k.k.k.k.k.k.k.c.x.x.c.c.c.c.c.c.c.c.c.c.c.v.v.v.;X;X;X>X<X1X1X1X1X1X1X1X1X3X3X1X1X1X1X1X1X1X1X1X1X1X>X>X>X>X;X;X;X;Xv.v.v.v.v.v.v.v.v.v.v.z.v.v.z.z.z.z.l.z.z.l.h.h.i.e.&.%.' ^ E 3 3 3 3 N Q N N N 6 < > > * > 1 g < * * * % % * * % % % * : : , , , , , , , , , d B W B j < 3 d 1 % % * : > 1 , , , 1 , > > > : % * > , < 1 4 > % : < < > , , , < d d d u u t t t < , t t , 1 u 1 1 , > > < 4 < , > : > > > : * : : : * * : > : * > > , 3 3 < 3 E ^ +...' ..............] ' ' ' ' ' ' ' ' ' ' ' ' ' / / / / / / U / / ( ( / Y Y Y Y Y U U V V c c c c c c c c c c U c c c c l c c c c l k c c c k k k k c k c c c c c c c x c x c c c k c c c c c c V V V V V V V V V C C C V V V C ) ) ` ` _ _ ] ] ] { o.] ] ] ] ] ] o.@.@.@.@.@.@.@.@.@.@.@.@.@.@.@.+.+.+.+.+.+.+.+.+.%.%.%.%.%.%.%.%.%.%.%.W O 4 g d d d d d d d d d d d d d d 4 4 4 4 4 4 4 4 4 4 4 4 4 4 4 4 4 4 4 4 4 4 4 4 4 ",
"E j j N N N j E E E E E E E E E E E E E E E E E E E E W W W W W W W W W W W W W W W W W E E L j L L j j j j j j j j j j j j j j L L L E E E E E E ! E E ! Q Q Q Q ^ ^ { { +.+.+.+.+.+.+.%.%.%.%.&.&.7.7.7.e.e.e.e.u.u.u.u.u.u.u.d.d.d.d.h.h.h.h.h.h.k.k.k.k.k.k.k.k.h.x.c.c.c.c.c.c.c.c.c.c.c.v.c.;X;X;X;X>X<X1X1X1X1X1X1X1X3X3X3X1X1X1X1X1X1X1X1X1X1X1X1X>X>X>X>X;X;X;X;Xv.v.v.v.v.v.v.v.v.v.v.v.z.v.v.z.z.z.z.z.h.h.l.i.%.+.+.Q Q ! 6 6 3 3 n Q N n 4 3 , > > * < g 4 , : * * % : : : * : : : % % : > > : : : : > , d j W j d , > , , * : , > , < , > : > > > , , > > > , , < 1 d < > > , < < , , < < < t t t t , t u t , t u < < u 1 , , * * > , < , > : * * : : : : , , : * : , , , < 4 4 < 3 , < 3 E ^ +.+.+.+.......o.o...] ] ] ' ' ' ' ' ' ' ' ' ' ' / / / / / / / ( ( / / U Y Y Y Y U U V V V V c c c c c c c c U U U U c c c l c c l c c c c c c k k c c c c c c c c c c c c c c c c c c c c c V V V V V V V V C C C C C V V V C C ) ) ` _ _ _ ] ] ] } } } ] ] } @.@.@.@.@.@.@.@.@.@.@.@.@.@.@.@.@.+.+.+.+.+.+.+.+.+.%.%.%.%.%.%.%.%.%.%.%.E O 4 g d d d d d d d d d d d d d d d 4 4 4 4 4 4 4 4 4 4 4 4 4 4 4 4 4 4 4 4 4 4 4 4 ",
"N N E E N N E L E E E E E E E E E E E E E E E E E E W W W W W W W W W W W W W W W W W W E E L L L j j j j j j j j j j j j j j j L L L E E E E E E E E E E E Q Q Q ^ ^ { { { +.+.+.+.+.+.%.%.%.%.&.&.7.7.7.7.e.e.y.y.y.u.u.u.u.u.u.d.d.d.h.h.h.h.h.k.k.k.k.k.k.k.k.k.h.x.c.c.c.c.c.c.c.c.c.c.c.=Xc.;X;X;X;X>X>X1X1X<X1X1X1X3X3X3X3X3X1X1X1X1X1X1X1X1X1X1X1X<X1X>X>X>X;X;X;X;Xv.v.v.v.v.v.v.v.v.v.v.v.v.v.v.v.z.l.z.h.h.i.<.{ Q ^ ! Q Q ! E n 3 6 N 6 1 < > , , , * > < , : : * % * > , : : > , , : > < < , > : : : , < 4 j W B g , : % % % > , > , , , : % % : > , > , < 4 d 4 < , , < , : : , d d d d d t , - - , - , u t t u u < , < < < , * % * > , , , > * * * * : , , , , 1 , < 4 4 4 4 4 < < < > > 6 ! ^ +.+.+.+...o.o.o.o.] ] ] ' ' ' ' ' ' ( ' ' ' ' / / / / / / / / / ( / / ( ( ( ( ( ( / / / V V V c c / U U U U U U U U U U c c l l l c c c c c c c c c c c c c c c c c c c c c c c c c c c V V V V V V V V V C V V V C C V V C C ) ) ) _ _ _ ] ] ] } } ] ] } } } } @.@.@.@.@.@.@.@.@.@.@.@.@.@.+.+.+.+.+.+.+.+.+.+.+.%.%.%.%.%.%.%.%.%.%.E O 4 g d d d d d d d d d d d d d d d d 4 4 4 4 4 4 4 4 4 4 4 4 4 4 4 4 4 4 4 4 4 4 4 ",
"E E E E N N E E E E E E E E E E E E E E E W W W W W W W E W E W W W W W W W W W W W W W L L L L L j j j j j j j j j j j j j j j L L L E E E E E E E E E E E E Q Q ^ ^ { { { { +.+.+.+.+.+.$.%.%.&.&.&.7.7.7.9.9.y.y.u.u.u.u.u.u.u.d.f.f.f.h.h.h.h.k.k.k.k.k.k.k.k.k.h.k.c.c.c.c.c.c.c.c.c.c.v.v.c.;X;X;X;X>X>X1X1X<X1X1X1X3X3X3X3X3X3X1X1X1X1X1X1X1X1X1X1X<X>X>X>X>X>X>X;X;X;Xv.v.v.v.v.v.v.v.v.z.z.v.v.z.z.z.z.l.l.i.&.+.Q Q Q E Q ^ ^ Q E 6 6 3 3 , > > > < , * : > * * * * % : , , , , , 1 1 < 4 4 1 < > : : > , 1 < g B B j d , % % % : : : : : > , , > > , > : , < 4 d 4 < , , , , : : , d k d f f u t , - - - t u t t f f t - - , < , , - > , , : : > : * * * , < , : < j 4 4 4 4 1 < < , < 3 < > > 3 E ^ +.+.@.@.o.o.o.o.o.o.o.....' ' ' ' ( ] ' ' ' ( ( ' ( / / ( ( / / / ( ( ( ( ( ( / / / / / / V / / / U U U U U U U U U U U U U U l l c c c l c c c c c c c c c c c c c c c c c c c c c c c V V V V V V V V V V V C C C C V C ) ) ) ) _ _ _ _ ] ] ] } } ] ] } ] } } } } @.@.@.@.@.@.@.@.@.@.@.+.+.+.+.+.+.+.+.+.+.+.+.%.%.%.%.%.%.%.%.%.E O 3 d d d d d 4 4 d d d d 4 d d d d d 4 4 4 4 4 4 4 4 4 4 4 4 4 4 4 4 4 4 4 4 4 4 4 ",
"E E E E E E E E E E E E E E E E E E E E W W W W W W W W E E E W W W W W W W W W W W W W P L L L L j j j j j j j j j j j j j j j j L L E E E E E E E E E E E E Q Q Q ^ ^ ^ { { { +.+.+.+.+.$.%.%.&.&.&.7.7.7.9.9.y.y.u.u.u.u.u.u.u.d.f.f.f.f.h.h.h.h.k.k.k.k.k.k.k.k.k.k.k.c.c.c.c.c.c.c.c.c.v.v.;X;X;X;X;X>X>X1X1X1X1X1X1X3X3X3X3X3X3X1X1X1X1X1X1X1X1X1X1X<X>X>X>X>X>X>X;X;X;X;X;Xv.v.v.v.v.v.v.v.v.v.v.v.v.l.l.l.l.i...E ! Q ! E Q ' ^ ^ W N 3 3 , , , , , , : * > > * * % * : > , , , , , , , , , , : * * * : , , , , 1 j j g d 4 , * : : * : * % > 1 4 4 < , , : : : , , , , : * , , , , < u f u t t t f f u t t t u u t f u t t t t u t 1 1 1 u , * * * * * * , 1 1 1 < 4 j W g g j 4 < 4 4 1 4 3 < > , 6 Q +.+.@.@.o.o.@.@.o.o.o.o.....' ' ' ' ( ' ] ' ( ( ' ' ( ( ( ( ( ( ( / / ( ( ( ( / / / / / / / / / / / / / / U U / / U U U U U U U c c c c c c c c c c c c c c c c c c c c c c c c c c c c V V V V V V V V V V V V V C C V V C ) ) ) ) _ _ _ _ ] [ [ ] ] ] ] } } } } } @.@.@.@.@.@.@.@.@.@.@.+.+.+.+.+.+.+.+.+.+.+.+.%.%.%.%.%.%.%.%.%.E O 3 d d d d d 4 d d d d 4 4 d d d d d 4 4 4 4 4 4 4 4 4 4 4 4 4 4 4 4 4 4 4 4 4 4 4 ",
"E E E E E E E E E E E E E E E E E E E E W W W W E E E W W W E W W W W W W W W W W W W W P P P L j j j j j j j j j j j j j j j j j j L E E E E E E E E E E E E Q Q Q ^ ^ ^ { { { +.+.+.+.+.#.%.%.&.&.&.7.7.7.7.9.y.y.u.u.u.u.u.u.u.d.d.f.f.h.h.h.h.h.k.k.k.k.k.k.k.c.c.c.c.c.k.c.c.c.c.c.c.c.c.v.;X;X;X;X;X>X>X1X1X1X1X1X1X1X3X3X2X3X3X1X1X1X1X1X1X1X1X1X1X1X1X1X>X>X>X>X>X;X;X;X;X;Xv.v.v.v.v.v.v.v.v.l.v.v.l.l.h.$.` ` Q ' ] ` Q Q ' Q N W ~ j 1 1 , , , , , , * * > , , > : > : : : * * * : : , , , , , , , 1 1 1 < , , , 1 , , , , 4 4 , > : : : > , , 1 4 1 < , , , , , , * * * * * - , t f t t t t u x x x x i t z z t u t t i z u u t u u u 1 , - * * % * > < 4 1 > > , 1 d 4 1 g j j 4 N 4 : 3 3 3 3 3 j ..+.@.@.@.@.@.@.@.o.o.o.o.o.o.o...' ' ' ' ( ( ] ( ( ( ( ( ( ( / / / ( ( / / / / / / / / / / / / / / / / / / U U U U U U U U U U U U c c c c c c c c U U U U c c c c c c c c c l c c c V V V / / V V V C V V V V V C C C V C ) ) ) ) _ _ _ _ _ ] ] ] ] [ [ [ } } } } @.@.@.@.@.@.@.@.@.@.@.+...+.+.+.+.+.+.+.+.+.+.%.%.%.%.%.%.%.%.%.W O 4 g d d d d d d d d d d d d d d d d d 4 4 4 4 4 4 4 4 4 4 4 4 4 4 4 4 4 4 4 4 4 4 ",
"E E E E E E E E E E E E E E E E E E E E W W W W E E E E W W W W W W W W W W W W W W W W P P P L j j j j j j j j j j j j j j j j j j E E E E E E E E E E E E E Q Q Q ^ ^ ^ ^ { { +.+.+.+.+.#.%.%.&.&.7.7.7.7.7.y.y.y.u.u.u.u.u.u.u.f.f.f.f.h.h.h.h.k.k.k.k.k.z.k.k.c.c.c.c.c.k.c.c.c.c.c.c.c.c.v.;X;X;X;X>X>X>X1X1X1X1X1X1X3X3X3X2X1X1X1X1X1X1X1X1X1X1X1X1X1X1X1X>X>X>X>X;X;X;X;X;X;Xv.v.v.v.v.v.l.v.v.l.l.v.l.l.9...~ ` %.<.,.o.] ] ' ~ j j j 4 1 , * * * * * * % * : , < , , : : , , - * * * , , , d k d 1 < 1 u g u 1 1 d 1 1 1 , , , , : : * * * : , , , , 1 1 1 1 d u t , & # % % % & - , t u x x C V V x x x i z x x z p t t x x f u u u u u < < , * * * * , , 1 < < < 1 d j 4 < g B j j Q j 3 3 3 , 3 3 j Q +.@.@.@.@.@.@.@.@.@.o.o.o.o.o.....' ' ' ' ] ] ] ( ( ( ( ( / ' / / / / / / / / / / / / / / / / / / / / / / / / / / / U U U U U U U c c c c U U U U U U U U c c c c c c c c l l c c c c V V / / V V V V V V V V V C C V V C ) ) ) ) ) _ _ _ _ ] ] ] ] ] ] [ ] } } } o.@.@.@.@.@.@.@.@.@.@.+...+.+.+.+.+.+.+.+.+.+.%.%.%.%.%.%.%.+.%.W O 4 g d d d d d d d d d d d d d d d d d d 4 4 4 4 4 4 4 4 4 4 4 4 4 4 4 4 4 4 4 4 4 ",
"E j N E N N L L N E E E E E E E E E E E W W W W W E W W W W W W W W W W W W W W W W W W P P P L j j j j j j j j j j j j j j j j j L E E E E E E E E E E E E Q Q Q Q ^ ^ ^ { { { +.+.+.+.+.#.%.%.&.&.7.7.7.7.y.y.y.u.u.u.u.u.u.u.f.f.f.f.h.h.h.h.k.k.k.k.z.z.k.k.k.c.c.c.c.c.c.c.c.c.c.c.c.c.c.v.;X;X;X;X>X>X<X1X1X1X1X1X1X1X3X3X3X3X3X3X3X1X1X1X1X1X1X1X1X1X1X1X1X>X>X>X;X;X;X;X;Xv.v.v.v.v.v.v.l.l.v.l.l.l.b.u...W W ] y.l.i.,.@.@.] ~ j j B j d 1 , , < < , - * - , < 1 , - % % * , , , - , , , u c V k t , , , < , < t u k l c f < < , , - * * * , , , , , , d f d u u u t - - - - - & & 0 t x *.;.*.*.S x i x x v S S x x i i z z z u u z u , < t < , - - - , < 1 4 d g j j g d 1 1 j j 4 j j E 3 > , 3 6 6 L +.%.@.@.@.@.@.@.@.@.o.o.o.o.o.o.o.' ' ' ' ' ' ' ' ' ' ' ' ' ' ( ( / / / / / / / / / / / / / / / / / / / / / / / / / / / / U U U U U U / c U U U U U U U U c c c c c c c c c c c c c V V V V / C C C C V V V V V V V V V C ) ) ) ) ) _ _ _ _ _ _ ] ] ] ] [ } } ] ] o.o.@.@.@.@.@.@.@.@.@.+.+.+.+.+.+.+.+.+.+.%.%.%.%.%.%.%.%.%.%.%.W O 4 g d d d d d d d d d d d d 4 4 d d d 4 4 4 4 4 4 4 4 4 4 4 4 4 4 4 4 4 4 4 4 4 4 ",
"L j N E N N N N N N E E E E E E E E E E W W W W W W W W W W W W W W W W W W W W W W W P P P P L L j j j j j j j j j j j j j j j L L E E E E E E E E E E E Q Q Q Q ^ ^ ^ ^ { { { +.+.+.+.+.+.%.%.&.7.7.7.7.7.y.y.u.u.u.u.u.u.d.u.f.f.f.f.h.h.h.h.k.k.k.k.z.z.z.k.k.c.c.c.c.c.c.c.c.c.c.c.c.c.c.v.;X;X;X;X>X>X<X1X1X1X1X1X1X1X3X3X3X3X3X3X3X1X1X1X3X3X3X1X1X1X1X1X1X1X>X>X;X;X;X;Xv.v.v.v.v.v.v.v.l.v.b.b.v.b.l.$.! W ` @.l.W.b.p.<.@.] / / / / V 1 , , , B V k u u u d t t < - & - , t t t t u u f c V C V x u t t t t t t u c _ *.V k f u , - - & , t t , , , , f f u u f f x x x x x i p p i i 1.1.1.;.;.*.S S *.S F F S S S S m m m m z u u t - , u , , < , , , 1 d j j g j B < g 4 < 4 j 4 , j W 3 > , 3 j 3 5 ..%.%.@.@.@.@.@.@.@.o.@.o.o.o.o.o.o.o.] ' ' ' ' ' ' ' ' ' ' ' / / / / / / / / / / / / / / / / / / / / / / / / ` ` / / / / / U U U U U / U / U U U Y Y U U c c c c c c c c c c c V V V V V / / C C V C V V V V C V V V C C ) ) ) ) ) _ ) _ _ _ _ ] ] ] ] [ } } ] ] o.o.o.o.@.@.@.@.o.o.@.+.+.+.+.+.+.+.+.+.+.%.%.%.%.%.%.%.%.%.%.%.W O 4 g d d g g d d d d d d d d d 4 d d d 4 4 4 4 4 4 4 4 4 4 4 4 4 4 4 4 4 4 4 4 4 4 ",
"E E N N E E E E E E E E E E E E E E E E E E E E W W W W W W W W W W W W W W W W W W W P P P P P P P j j L j j j j j j j j j j j L E E E E E E E E E E E Q Q Q Q Q ^ ^ ^ { { { +.+.+.+.+.+.%.%.&.&.7.7.7.7.y.y.u.u.u.u.u.u.u.u.d.f.f.f.f.h.h.h.h.h.k.k.k.z.z.k.k.c.c.c.c.c.c.c.c.c.c.c.c.c.c.c.v.;X;X;X;X>X>X<X1X1X1X1X1X2X2X3X3X3X3X3X3X3X3X3X1X3X3X3X1X2X1X1X1X1X1X>X>X>X;X>X>X:Xv.v.v.v.v.b.v.v.b.b.b.b.b.i...W ~ ] y.W.eX4XW.i.,.' / / V k d d d , d ( *./ l V c f u t t t u u u u u t t , , u x C V *.C x u p z x x u t t f 1.*.*.V x u , - & - , , t , t t t u f z x V *.*.S *.S *.*.*.*.;.H.H.H.F.S.S.S.S.H.F.A.A.;.F S S S G *.S z t t t - 0 u t u u u , , < d j d < 1 j , d g 1 4 j 4 , 4 j 1 > 3 3 3 2 3 ` %.%.@.@.@.@.@.@.@.@.@.@.o.o.o.o.o.o.o.o.' ' ' ' ' ' ' ' ' ' / / / / / / ' ' / / / / / / / / / / / ` ` ` ` ` ` ` ` / / / / / / U U U U U U U U U U U U U U U c c c c c c c c c c c V / V V C ( V V V C V V V V V V V C C ) ) ) ) ) _ ) _ _ _ _ _ ] ] ] ] ] ] ] ] @.@.@.@.@.@.@.@.@.o.@.+.+.+.+.+.+.+.+.+.+.%.%.%.%.%.%.%.%.%.%.%.W O 4 g d d d d d d d d d d d d 4 d d d d 4 d 4 4 4 4 4 4 4 4 4 4 4 4 4 4 4 4 4 4 4 4 ",
"E E N N E E E E E E E E E E E E E E E E E E E E W W W W W W W W W W W W W W W W W W W P P P P P P P P P L L j j j j j j j j j j E E E E E E W E E E E Q Q Q Q Q ^ ^ ^ { { { { { +.+.+.+.+.%.%.&.7.7.7.y.9.y.u.u.u.u.u.u.u.u.u.d.f.f.f.f.f.h.h.h.k.k.k.z.z.z.k.k.c.c.c.c.c.c.c.c.c.c.c.c.c.c.c.v.v.;X;X;X>X>X<X1X1X1X1X1X2X1X3X3X3X3X3X3X3X3X3X3X3X3X3X3X3X1X1X1X1X<X1X>X>X>X;X:X:X:Xv.v.v.v.b.b.v.b.b.b.b.l.i...W W @.b.aXxXgXaXW.l.,.=.=._ k f ] ( k c ] *./ k f u t , - t u x t t i x z z t t t x x x S S x i x *.1.1.*.i i x 1.1.1.1.*.V i t - - - - 0 t t t t t x S *.*.1.;.1.1.1.1.1.;.A.S.R.R.L.J.J.L.L.R.R.R.R.L.H.A.;.;.;.;.1.;.m i i i t t u t t u u 1 , , u j 1 : , 1 , 4 g d d j j 1 3 4 3 1 3 3 3 2 4 ~ %.%.%.@.@.@.@.@.@.@.@.@.o.o.o.o.o.o.o.o.' ' ' ' ' ' ' ' ' ' ' ' / / / / / / / / / / / / / / / / ` ` ` ` ` ` ` ` ` ` / / / / / / U U U U U U U U U U U U c U c c c c l l l c c c c V / / V V V V V V C C C C V V V V C ) ) ) ) ) ) _ ) _ _ _ _ _ ] ] ] ] ] ] ] ] @.@.@.@.@.@.@.@.@.@.@.+.+.+.+.+.+.+.+.+.+.%.+.%.%.%.%.%.%.%.%.%.W O 4 g d d d d d d d d d d d d 4 4 d d d d d d 4 4 4 4 4 4 4 4 4 4 4 4 4 4 4 4 4 4 4 ",
"E E N N E L E E E E E E E E E E E E E E W W W W E E E E W W W W W W W W W W W W W W W W P P P P P P P P L L L j j j j j j j N N E E E E E E W E W E W W Q Q Q Q ^ ^ { { { { { +.+.+.+.+.%.%.&.&.7.7.7.y.9.u.u.u.u.u.u.u.u.u.u.f.f.f.f.f.h.h.h.h.k.k.k.k.z.z.z.c.c.c.c.c.c.c.c.c.c.c.c.c.c.c.c.v.c.v.;X;X>X>X1X1X1X1X1X1X1X1X3X3X3X3X3X3X3X3X3X3X3X3X3X3X3X1X1X1X<X<X<X,X>X,X>X>X:X:X:Xb.b.b.b.b.l.b.b.b.l.i.<...~ ` p.aXnXnXnXnXxXaXrXrXrXW.Y.Y.W.W.T.T.W.T.p.5.>.*.V x i x *.-.x S *.1.1.1.;.*.*.*.S S *.1.1.;.1.Y.E.E.Y.Y.Y.E.R.Y.Y.R.Y.H.1.;.S x i i m S S S S S *.1.H.H.H.F.L.L.L.J.H.H.H.H.R.Q.R.L.R.Q.R.Q.Q.Q.Q.Q.Q.Q.R.H.H.H.H.;.;.S S S x i u - - , < < < < u k d , , 1 , 4 j d 1 j B 4 1 3 4 3 1 4 3 3 5 W @.%.%.%.%.@.@.@.@.@.@.@.@.@.o.o.o.o.o.o.] ] ' ' ' ' ' ' ` ' ' ' ' / / / / / / / / / / / ' / / ` ` ` ` ` ` ` ` ` ` ` ` / / / / / / / / / U U / / U U U U c c l c l l c l l c c c c V / / / V / / V V C C V C V V V V C ) ) ) ) ) ) _ ) _ _ _ _ _ ] ] ] ] ] ] ] } } @.@.@.@.@.@.@.@.@.@.+.+.+.+.+.+.+.+.+.+.+.%.%.%.%.%.%.%.%.%.&.Q O 3 d d d d d d d d d d d d d d 4 d d d d d d 4 4 4 4 4 4 4 4 4 4 4 4 4 4 4 4 4 4 4 ",
"L L N N E L L L E E E E E E E E E E E E W W W W E E E E E W W W W W W W W W W W W W W W W P P P P P P P P P P P P P W W B N N N E E E E E W W Q W E W Q Q Q Q Q ^ ^ ^ { { { +.+.+.+.+.+.%.%.&.&.7.7.7.u.q.u.u.u.u.u.u.u.u.u.d.f.f.f.f.h.h.h.h.h.k.k.k.k.z.k.v.c.c.c.c.c.c.k.c.c.c.c.c.c.c.c.c.c.c.v.;X;X>X>X1X1X1X1X1X1X1X2X3X3X3X3X3X3X3X3X3X3X3X3X3X3X3X3X3X2X2X1X<X>X,X,X>X:X:X:X:Xb.b.b.b.b.b.W.b.l.l.9.' ~ ] i.rXnXZXLXLXZXZXZXZXZXZXZXZXZXZXZXZXZXZXBXgXgXgX].E.Y.Y.R.E.E.R.R.R././. XE.E.R.L.Y.L.R./././. XgXhXgX X X X.X X X X X X XE.E.E.Y.H.H.H.L.L.H.L.H.H.L.Q. XQ.R.Q.Q.Q.Q.Q.R.R.Q.Q.!.Q.L.Q.!.Q.Q.Q.!.[.Q.Q.[.Q.R.L.J.J.H.H.H.3.1.;.S u t - t t , u u g V B u 1 d , 4 j 1 , g B 3 < 3 j 3 1 j j 6 5 E +.%.%.%.%.$.@.@.@.@.@.@.@.@.@.@.@.o.o.o.] ] ' ' ' ' ' ' ' ` ' ' ' ' ` / / ) ` ` / / ` ` ` / ` ` ` ` ` ` ` ` ` ` ` ` ` ` / / / / / / / / U U / / / U U U c c c l l l l l l B l B V V V / / / / / V V C C V V V V V V C ) C ) ) ) ) ) ) _ _ _ _ _ ] ] ] ] ] ] ] ] @.@.@.@.@.@.@.@.@.@.@.+.+.+.+.+.+.+.+.+.+.%.%.%.%.%.%.%.%.%.%.&.Q O 4 d d d d d d d d d d d d d d d d d d d d d 4 4 4 4 4 4 4 4 4 4 4 4 4 4 4 4 4 4 4 ",
"E E E E E E E E E E E E E E E E E E E E W W W W W W W W E E E W W W W W W W W W W W W W P P P P P P P P P P P P P P P W W W W E E E E E E W W Q W Q Q Q Q Q Q Q ^ ^ ^ { +.+.+.+.+.+.+.#.$.&.&.8.7.7.7.7.u.u.u.u.u.u.u.u.u.u.d.d.d.d.f.f.h.h.h.h.k.k.k.k.k.k.k.c.c.c.c.c.c.c.c.c.c.c.c.c.c.c.c.c.c.;X;X;X>X>X>X1X<X1X1X1X1X1X3X3X3X3X3X3X3X3X3X3X3X3X3X3X3X3X3X3X2X2X1X<X,X,X,X:X:X:X:X:Xb.b.b.b.b.4Xb.l.i.@.L ~ p.rXnXZXLXLXLXLXLXLXLXLXLXLXLXLXZXZXZXZXZXBXBXBXjXjXjXjXhXhXhXhXhXhXhXhXhX.X.X X X.X.X.X.X.X.XhXhXhXhXhXhXhXhXhXhXhXhXhXhXhXhXhXhXhX.X X X X X X X X X X[.[.[. X[.[.[.!.!.!.!.Q.Q.Q.Q.L.Q.!.!.!.!.{.{.!.!.!.Q.R.R.Q.R.R.R.R.K.H.3.-.z t t u u u u g B ) ) B u , , 1 g 1 , 1 4 4 1 3 g 3 1 1 3 j 6 E ' +.%.%.%.%.&.$.@.$.%.%.%.@.@.@.@.@.o.o.o.....] ] ] ' ' ` ` ' ' ' ' ` / / / ` ` ` ` ` ` ` ' ` ` ` ` ` ` ` ` ` ` ` ` ` ` ` / / / / / / / / U / / / U U c c c l l l l l l l l l B B V V V / V / V V V V V V V V V V V ) ) ) ) ) ) ) ) ) ) ` ` ` _ _ ] ] ] ] ] ] ] } @.o.@.@.@.@.@.@.@.@.@.+.+.+.+.+.+.+.%.%.%.%.%.%.%.%.%.%.%.%.&.W O 4 g d d d d g d d d d d d d d 4 d d d d d d 4 4 4 4 4 4 4 4 4 4 4 4 4 4 4 4 4 4 4 ",
"E E E E E E E E E E E E E E E E E E E E W W W W W W E W E E E E W W W W W W W W W W W W W P W W W P P P P P P P P W W W W W W W W W E E W W W W W Q Q Q Q Q Q ^ ^ ^ ^ { +.+.+.+.+.+.#.#.$.&.8.8.7.7.7.e.u.u.u.u.u.u.u.u.u.d.d.d.d.d.f.h.h.h.h.h.k.k.k.k.k.k.k.k.c.c.c.c.c.c.c.c.c.c.c.c.c.c.c.c.c.;X;X;X;X>X>X1X1X1X1X1X1X1X3X3X3X3X3X3X3X3X3X3X3X3X3X3X3X3X3X3X2X2X2X<X,X,X,X:X:X:X:X:Xb.b.b.b.b.W.l.i.$.~ P ,.rXnXZXHXLXLXLXLXLXLXLXLXLXLXLXLXZXZXZXAXZXBXBXBXjXBXBXBXBXNXNXNXBXNXNXhXMXhXhX.X.X.X.X.X.X.XhXhXhXhXhXhXhXhX.X.XhXhXhXhXhXhXhXhX.X.X.X.X X.X X X X X[.[.[.[.^.^.!.!.!.!.!.Q.Q.!.!.!.U.L.U.!.!.!.!.!.{.!.!.[.[.[. X X XQ.E.R.R.K.H.-.x u u u u t f ) _ B B _ ) u , 4 B d , 1 1 g d 4 4 4 4 3 3 3 6 E E ^ +.%.%.%.&.&.&.$.$.%.%.%.@.@.@.@.@.@.......] ] ] ] ' ' ' ' ' ' ' ' ' ' ` ' ' ' ' ` ` ` ` ` ` ` ' ` ` ` ` ` ` ` ` ` ` ` ` / / / / / / / U / / / / U / c l l l l l l l l B B B B B V V V / V V V V / / V V V V V V ) ) ) ) ) ) ) ) ) ) _ ` _ _ _ ] ] ] ] ] ] ] @.@.@.o.@.@.@.@.@.@.@.@.+.+.+.+.+.+.+.%.%.%.%.%.%.%.%.%.%.%.&.&.Q O 4 g g d d d d d d d g d d d d 4 d d d d d d d 4 4 4 4 4 4 4 4 4 4 4 4 4 4 4 4 4 4 ",
"N N N N j j N E E E E E E E E E E E E E E E E E E E E E W E W W W W W W W W W W W W W W W P P P P P P W W W W W W W W W W W W W E E E E W E W W Q Q Q Q Q Q Q ^ ^ ^ { { +.+.+.+.+.+.#.$.&.8.8.7.7.7.u.u.u.u.u.u.u.u.u.d.d.d.d.d.d.d.h.h.g.h.h.h.h.k.k.k.k.k.k.k.k.c.c.c.c.k.k.c.c.c.c.c.c.c.c.c.c.c.;X;X;X>X>X1X1X1X1X1X1X3X3X3X3X3X3X3X3X3X3X3X3X3X3X3X3X3X3X3X2X2X2X<X<X,X,X,X:X:X:X:Xb.b.b.b.l.b.l.<.` ~ ,.eXnXZXnXZXLXLXLXLXLXLXLXLXAXAXAXAXZXZXZXZXZXBXBXBXhXNXNXNXNXNXNXNXNXNXMXMXMX.X.X.X.X.X.X.X.X.X.X.X.X.XhXhXhXhX.X.XhXhX.X.XXXXXXXXX.X.X.XXX.X.X.X.X.X{.{.{.{.{.{.[.[.!.!.!.!.!.!.U.!.!.U.U.U.!.!.!.Q.!.!.[.!.[.[. X X X X X X XE.R.K.H.;.C i x z f c ) V g k _ } V j j ) B j j 4 g j 4 3 4 j j 4 , 6 j 6 Q $.%.%.&.&.&.&.$.$.%.%.%.%.@.+.@.+.@.+.+.] ] ] ] ] ] ' ' ' ' ' ' ' ' ` ` ' ' ' ` ` ` ` ` ` ` ` ` ` ` ` ' ` ` ` ` ` ` ` ` / / / / / / / / U U / / / / / B B B l B l l l l l B B B B V V / / / V V / / V V V V V V C ) ) ) ) ) ) ) ) ) ` ` _ _ _ ] ] ] ] ] ] ] o.@.@.@.@.@.@.@.@.@.@.@.+.+.+.+.+.+.+.%.%.%.%.%.%.%.%.%.%.%.&.<.~ O 4 g d d d d d d d d d d d d 4 4 d d d d d d d 4 4 4 4 4 4 4 4 4 4 4 4 4 4 4 4 4 4 ",
"E N N N j N N E E E E E E E E E E E E E E E E E E E E E W W W W W W W W W W W W W W W ~ W P P P W W W W W W W W W W W W W W W W W W E E E Q W W Q Q Q Q Q Q ^ ^ ^ { { +.+.+.+.+.+.#.$.&.8.7.7.7.7.u.u.u.u.u.u.u.u.u.d.d.d.d.d.d.d.d.f.f.h.h.h.h.h.h.k.k.k.k.k.k.k.c.c.c.c.c.k.c.k.c.c.c.c.c.c.c.c.c.;X;X;X>X<X1X1X1X1X1X1X2X3X3X3X3X3X3X3X3X3X3X3X3X3X3X3X3X3X3X2X2X2X1X<X<X,X:X:X:X:X:Xb.b.b.b.b.b.i.o.` ,.eXnXZXnXnXZXLXLXLXLXLXLXLXHXAXAXAXZXZXZXZXZXBXBXjXBXhXNXNXMXNXMXNXNXMXMXMXMX+XXX.X.X.X.X.XXXXXXXXX.XXX.X+XMXMXMXMXMX+X@X+X+X.XXXXXXX+X+XXXXXXXXXXXXX|..X.X{.{.{.{.{.{.{.~.!.!.!.U.U.!.!.!.!.U.!.~.~.!.!.!.!.!.!.[.[.[.[..XoXoXoX X X X].R.3.*.S S C V c u g k B V ) B j / / / ' j j j d 1 4 B ~ N 3 j j 6 Q &.&.+.%.&.%.$.$.$.$.$.%.+.%.+.+.+.@.+.+.] ] ] ] ] ] ] ' ' ' ' ' ' ' ' ' ' ' ' ` ` ` ` ` ` ` ` ` ` ` ` ` ` ` ` ' ` ` ` ` / / / / / / / / / / / / / / W V B B B B j j j j j j j B B B V V / V / V / / V V V / V V C V ) ) ) ) ) ) ) ) ` ` ) _ _ _ ] ] ] ] ] ] o.o.o.@.@.@.@.@.@.@.@.@.+.+.+.+.+.+.+.%.%.%.%.%.%.%.%.%.%.%.&.<.~ O 4 g d d d d d d d d d d d d 4 d d d d 4 d d d 4 4 4 4 4 4 4 4 4 4 4 4 4 4 4 4 4 4 ",
"L L N N N N E E E E E E E E E E E E E E W W W W W W W E E E W W W W W W W W W W W W ~ ~ ~ ~ ~ ~ W W ~ W W W W W W W W W W W Q Q Q Q Q Q Q Q W W W Q Q Q Q ^ ^ ^ ^ { { +.+.+.+.+.#.&.&.8.7.7.7.7.7.7.7.q.q.u.u.d.d.d.d.d.d.d.d.d.d.d.d.f.g.h.h.h.h.h.k.k.k.k.k.k.k.c.c.c.c.c.c.c.k.k.c.c.c.c.c.c.c.c.;X;X;X>X<X1X1X1X1X1X1X2X3X3X3X3X3X3X3X3X3X3X0X3X0X3X3X3X3X3X2X2X2X2X1X,X,X:X,X:X:Xb.b.b.b.b.b.W.i.@.<.4XnXZXnXnXZXHXLXLXLXLXLXLXLXHXAXZXZXZXZXZXZXBXBXhXhXhXhXhXhXNXNXNXMXMXMXMXMXMX.XXX.X.X.XXXXX+X+X+X@XMX@X@X@X@X@X@X@X@X+X+X+X+X+X+X+X+X+X+X+X+XXXXXXX|.|.}.{.{.{.{.}.{.{.{.~.~.~.U.U.U.U.U.~.{.~.!.~.~.!.!.{.{.!.[.{.{.{.{..X.XoX.XoXoX X X XE.H.1.-.C V V l k k k B B B g B B / ' B B B j g 4 j ~ W j E N 6 ! &.<.$.%.%.&.%.%.%.$.+.%.%.%.%.+.+.+.@.@.+.+.+.] ..] ] ] ' ' ' ' ' ' ' ' ' ' ' ` ` ` ` ' ' ' ' ` ` ..` ` ' ` ` ` ' ` ` ` ` / / / / / / / / / / / W W / W B B B B j B B B j j B B B B B V / / V V V V V V / / / / V V ) ) ) ) ) ) ) ) ) ) ) _ _ _ ] ] ] ] ] o.@.@.@.@.@.@.@.@.@.@.@.@.+.+.+.+.+.+.%.%.%.%.%.%.%.%.%.%.%.%.&.&.Q O 4 g d d g g d d d d d d d d d d d d d 4 d d d 4 4 4 4 4 4 4 4 4 4 4 4 4 4 4 4 4 4 ",
"E L E E L N E E E E E E E E E E E E E E W W W W W W W W E E W W W W W W W W W W W W ~ ~ ` ` ~ ` ~ ~ ~ ~ ~ W W W W W Q Q W W Q Q Q Q Q Q Q Q Q Q Q Q Q Q Q ^ ^ ^ ^ { +.+.+.+.+.#.#.&.&.7.7.7.7.7.7.7.7.q.q.d.d.d.d.d.d.d.d.d.d.d.d.d.d.d.g.h.h.h.h.h.h.h.k.k.k.c.c.c.c.c.c.c.c.c.k.k.c.c.c.c.c.c.c.v.;X;X;X<X<X1X1X1X1X1X1X2X2X3X3X3X3X3X3X3X0X3X0X3X0X3X0X3X3X3X2X2X2X2X1X1X,X,X,X:X:X:Xb.b.b.b.b.W.i.<.W.xXZXZXnXZXLXLXLXLXLXLXLXLXLXAXAXZXZXZXZXZXBXBXBXhXhXhXhXhXhXhXhXMXMXMXMXMXMX.XXXXX.X.X.XXX+X@X@X@XMXMXMX@X@X@X@X@X+X+X+X+X+X+X+X+X+X+X@X@X+X+XXXXX.X.X|.}.}.}.|.}.}.}.}.}.{.~.~.~.~.~.~.~.~.[.!.U.U.U.!.~.{.{.{.{.{..X{.{..X.X XoXoXoX X X X X[.E.H.*.V V / / / ) _ _ _ B B B W / W / W ) W j j W W j W E 6 E $.&.$.%.%.%.%.%.+.#.#.+.%.+.%.+.+.+.+.@.+.+.+.] ....] ] ] ' ' ' ' ' ' ] ] ] ' ' ' ` ' ' ' ' ' ` ' ..` ` ' ` ` ` ` ` ` ` ` ` / ` / / / / / / / / / / / W / B B B B B B B B j j B B B B B B / V V / V V V V / / / V V C ) ) ) ) ) ) ) ) ) ) ` _ ` ] ] ] ] ] o.@.@.@.@.@.@.@.@.@.@.@.@.+.+.+.+.+.+.$.%.%.%.%.%.%.%.%.%.%.%.&.&.Q O 4 g d d d d d d d d d d d d d d d d d d d d d d 4 4 4 4 4 4 4 4 4 4 4 4 4 4 4 4 4 ",
"E E E E L E E E E E E E E E E E E E E E W W W W W W W W E E W W W W W W W W W W W W ~ ~ ` ` ~ ` ~ ~ ` ~ ~ W W W Q ~ ~ Q W W Q Q Q Q ~ Q Q Q Q Q Q Q Q Q ^ ^ ^ ^ ' ..+.+.+.+.#.#.$.&.8.7.7.7.q.q.r.r.q.q.u.u.d.d.d.d.d.d.d.d.d.d.d.d.d.d.h.h.h.h.h.h.h.h.k.h.x.x.c.c.k.k.c.c.c.c.k.k.c.c.c.c.c.c.c.c.;X;X;X<X<X>X1X1X1X1X1X2X3X3X3X3X3X3X3X3X0X3X0X3X0X3X0X3X3X3X2X2X2X2X1X<X,X,X,X:X:X:X:X,Xb.b.b.b.<.0.rXnXZXnXnXZXLXLXLXLXLXLXLXLXLXAXAXZXZXZXZXBXBXBXhXhXhXhXhXhXhXhXhXhXMXMX.X.XXX.XXX.X.X.X.XXX+X@X@X@XMXMXMXMXMXMX@X@X@X+X+X+X+X+X+X+X+X+X@X+X+X+XXX.X.X}.|.}.}.}.|.|.}.}.}.{.{.~.~.[.~.~.~.~.~.U.U.U.!.!.!.!.~.!.{.{.{.{.{.{..X.X.X.XoXoXoX XhXhX X XR.5.*._ =.-.=.=.-.>.:._ / ) ` ` W / W ) ) B j W ~ N Q Q j E +.%.%.&.&.&.%.%.$.$.$.+.%.%.+.+.@.+.+.+.+.+.+.+.....] ] ] ] ] ' ] ] ' ] ] ] ] ' ' ' ` ' ' ' ' ' ' ..` ` ` ' ' ' ' ` ` ` ` ` ` ` ` / / / / / / / / / W W W W W B B B B B j j j B B B B B B V V V V V V V V V / / V V V C ) ) ) ) ) ) ) ) ` ` ` ` ] ] ] ] ] o.@.@.@.@.@.@.@.@.@.@.@.@.+.+.+.+.%.%.$.%.%.%.%.%.%.%.%.%.%.%.&.&.Q O 4 j d d d d d d d d d d d d d d d d d d d d d d 4 4 4 4 4 4 4 4 4 4 4 4 4 4 4 4 4 ",
"E E E E E E E E E E E E E E E E E E E E W W W W W W W W E E W W W W W W W W W W W W ` ~ ` ` ` ` ` ~ ~ ~ ~ ~ ~ W Q Q Q Q Q ~ ~ ~ ~ ~ ~ ~ Q Q Q Q Q Q Q Q ^ ^ ^ ^ ^ ..+.+.+.#.#.$.&.&.7.7.7.q.q.u.u.u.q.q.d.d.d.d.d.d.d.d.d.d.d.d.d.d.d.d.g.g.h.h.h.h.h.h.h.h.h.h.c.k.k.h.x.x.x.x.h.x.x.x.c.c.c.c.c.c.;X;X;X<X>X<X1X1X1X1X1X2X3X3X3X3X3X3X0X3X0X3X3X3X0X0X0X3X3X3X2X2X2X2X1X1X1X,X,X:X:X:X,X,Xb.b.l.l.$.0.aXnXnXZXZXZXZXLXLXLXLXLXLXLXLXAXAXZXZXZXZXBXBXBXNXhXhXhXhXhXhXhXhXhX.X.XXX.X.X|.|..X{.{..XXX+X@X@X@XMXMXMXMXMXMXMX@X@X@X+X+X+X+X+X+X+X+X+X+X+XOXOX.X.X.X|.|.|.|.|.{.{.}.}.}.}.{.[.~.~.~.~.~.~.~.~.~.{.{.!.!.!.~.{.{.{..X.X.X.XXXXX.XoXoXoX X X X[.[.E.T.1.4.4.>.-.=.-.-.>.] ) _ } ] / W j W ) W W ` ` W Q Q E j ' %.&.&.&.&.&.%.%.$.$.$.%.%.+.+.+.+.+.+.+.+.+.+.+...] ] ] ] ] ] ] ] ] ] ] ] ] ] ' ' ' ' ' ' ' ' ' ' ' ' ' ` ' ' ' ` ` ` ` ` ` ` ` ` / / / / / / / W W W W W W B B B j B B B B B B B B B B B B B B V V V V V / V / V / V V / ) / ) ) ) ) ` ` ` ' ] ] ] ] ] o.@.@.@.@.@.@.@.@.@.@.@.@.@.+.+.+.%.%.%.%.%.%.%.%.%.%.%.%.%.%.&.&.Q O 4 j d d d d d d d d d d d d d d d d d d d d d d 4 4 4 4 4 4 4 4 4 4 4 4 4 4 4 4 4 ",
"N N E E E E N N E E E E E E E E E E E E E E W W E E W W W W E E W W W W W W W W W ~ ~ ~ ~ ` ` ` ` ` ` ~ ~ ~ ~ ~ ~ ~ ~ ~ Q Q ~ Q ~ ~ Q Q Q Q Q Q Q Q Q ^ ^ Q ^ ^ ^ +.+.+.#.#.$.&.7.7.7.7.7.7.7.e.e.r.q.q.d.d.d.d.d.d.d.d.d.d.d.d.f.f.f.f.g.g.h.g.g.h.h.h.h.h.x.x.x.x.x.x.x.x.c.c.x.x.x.x.c.x.c.c.c.c.=X;X;X>X>X>X<X1X1X1X1X1X3X3X3X3X3X3X3X3X0X3X0X0X0X3X0X3X3X3X3X3X2X2X1X1X<X,X,X,X,X,X:X,X:Xb.4Xl.i.W.xXnXnXZXnXnXZXLXLXLXLXLXZXLXAXZXZXZXBXBXBXBXBXBXNXhXhXhXhX.X.X.XXXXXXXXXXX.X|..X|.{.{.{.{.}.XX@X@X@XMXMXMXMXNXNXMX@X@X+X+XXXXXXXXXXXXX+XXXOXXXOX.X|..X.XOX.X.X|.|.|.|.{.{.{.{.}.}.{.~.~.~.~.~.~.~.~.~.~.~.~.!.~.{.{.{.{..X.X.X.X.X.X.XoXoX X X XoX X XY.3.5.>.1.-.=.=.-.} V / } } _ / B / ] ] ) B W Q W Q ^ W ! ' %.&.&.&.&.%.%.%.%.$.$.$.+.%.+.%.+.%.@.+.+.+.+.+.+.] ] ] ] ] ] ] ] ] ] ] ] ] ] ] ' ' ' ' ' ' ' ' ' ' ` ' ' ' ` ` ' ` ` ` ` ` ` ` ` ` ` ` / / / / / / W / W W W B B j B B B B B B B B B B B B B B B B V V V V C V V ) Q ) ) ) ) ) ) ) ` ` ` ] ' ] ] ] ] ] } @.@.@.@.@.@.@.@.@.@.@.@.@.%.%.+.%.%.%.%.%.%.%.%.%.%.%.%.&.&.&.<.Q O 4 j d d d d d d d d g d d d d d 4 4 4 d d d 4 4 4 4 4 4 4 4 4 4 4 4 4 4 4 4 4 4 4 ",
"N N E E E E N N E E E E E E E E E E E E E E E W E E E W W W E E W W W W W W W W W ~ ~ ~ ~ ` ` ` ` ` ` ~ ~ ~ ~ ~ ~ ! ! ~ ^ ^ ^ ^ Q Q Q Q Q Q Q Q Q Q ^ ^ ^ ^ ^ ....+.+.#.#.$.&.7.7.7.7.7.7.7.e.e.u.u.u.d.d.d.d.d.d.d.d.d.d.d.f.f.f.f.f.f.g.g.g.g.h.k.h.h.h.h.x.x.x.x.x.x.c.c.c.c.x.x.x.x.c.c.c.c.c.c.=X=X;X>X>X>X<X<X1X1X1X1X3X3X0X0X0X0X0X3X0X0X0X0X0X0X0X3X3X3X3X2X2X2X2X1X1X<X,X,X,X,X,X,X:X:X4Xl.l.rXnXnXnXnXnXZXAXLXLXLXLXLXAXAXZXZXZXZXBXhXhXhXNXBXNXhXhXhX.XXXXX.XXXXX|.|.|.|.{.{.~.~.~.~.~.{.XX+X@X@XMXMXMXMXMXMXMX@X@X+XXXXXXXXXXXXXXXXXXXXX.X.X.X.X.X.X.X.X.X.X|.|.|.|.|.{.|.|.{.^.^.~.~.~.~.~.~.~.~.~.~.~.!.!.!.{.{.{.{..X.X.X.X.X.X.X.X.X X X X X XY.;.1.1.-.*.*.*.-._ M V =.=.) V B } ] ] / g j W W W Q W j Q +.&.&.&.&.&.&.&.%.&.$.%.+.%.%.+.%.+.+.+.+.@.@.+.+.] ] ] ] ] ] ] ] ..] ..] ] ] ] ] ' ' ' ' ' ' ' ' ' ` ' ' ' ' ' ' ' ' ` ` ` ` ` ` ` ` ` ` / / ` / ` W W W W W W B B B B B B B B B B B B B B W W B B B V V V C C C W W W W ) ) ) ) ) ) ) ` ' ] ] ] ] ] ] } @.@.@.@.@.@.@.@.@.@.@.@.%.%.%.%.%.%.$.%.%.%.%.&.&.&.%.%.&.&.&.<.Q O 4 j d d d d g d d d d d d d d d 4 d 4 d d d d d 4 4 4 4 4 4 4 4 4 4 4 4 4 4 4 4 4 ",
"N N E E E E N N E E E E E E E E E E E E E E W W E E W W W W E E W W W W W W W W W ~ ` ~ ` ` ` ` ` ` ~ ~ ~ ~ ~ ~ ~ Q ^ ^ ^ ^ ^ ^ ^ Q ^ ^ ^ ^ ^ ^ ^ ^ ^ ^  . .....+.+.#.#.#.&.8.7.7.7.7.7.u.u.u.u.u.u.d.d.d.d.d.d.f.d.d.d.f.f.d.f.f.f.f.g.g.g.k.k.h.h.h.h.h.c.x.x.x.x.c.c.c.c.c.c.c.x.x.x.c.c.c.c.c.c.=X=X=X<X>X>X<X<X1X1X1X1X3X3X0X0X0X0X0X3X0X3X0X0X0X0X0X0X3X3X9X2X9X2X2X2X1X1X2X,X,X,X,X,X:X:Xb.l.W.xXnXnXnXnXnXnXAXLXLXAXAXAXAXZXZXBXBXBXhXhXhXhXhXhXhXhXgX.X.XXXXX.X|.{.{.{.{.{.~.~.~.~.~.~.~.{.}.XX+X@X@X@XMXMXMXMXMX@X@X+XXXXX.XXXXXXXXXXX.X.X.X.X.X|.|..X.XOX.X|.|.|.|.|.|.|.|.{.{.^.~.~.~.~.~.~.~.~.~.!.!.!.!.!.!.[.{.{.{.{..X{..X.X.X.X.X.X X X X X XR.1.1.-.-.-.-.*.*.*.C _ *._ V ) } ` B / B j B ~ W W Q Q j E %.&.&.&.&.&.&.&.&.%.%.%.%.%.%.%.+.%.%.+.+.@.@.+.o.o.] ] ] ] ] @.o.o.] ....] ] ] ] ' ' ' ' ' ' ' ' ` ' ' ' ' ' ' ' ` ` ` ` ` ` ` ~ ` ` ` ` ` / / ` / W W W W W W W j j B B B B B B B B B B B B B B B B B W B V C C ) C W W W / / / ) ) ) ` ' ' ] ] ] ] ] ] @.@.@.@.@.@.@.@.@.@.%.%.%.%.%.%.$.$.%.%.%.%.&.&.&.&.&.&.&.&.&.4.Q O 4 g d d d d d d d d d d d d d d d d d d d d d d 4 4 4 4 4 4 4 4 4 4 4 4 4 4 4 4 4 ",
"N N L L L E N N E E E E E E E E E E E E E E W W E E W W W W E E W W W W W W W W W ~ ` ` ~ ` ` ` ` ` ` ` ~ ~ ~ ! Q ^ ^ ^ ^  .^ ^ ^ ^ ^ ^ ^ ^ ^ ^  . . .......+.+.+.#.#.#.&.8.8.7.9.9.u.u.u.u.u.u.u.d.d.f.f.f.d.f.f.f.d.f.f.f.f.f.h.f.f.g.h.k.k.h.h.h.h.h.x.x.c.x.x.c.c.c.c.c.c.c.c.x.c.c.c.c.c.c.c.c.=X=X=X<X>X>X<X<X<X1X1X3X3X0X0X0X0X0X0X3X0X3X0X0X0X0X0X3X3X3X0X9X9X2X2X2X1X1X2X<X<X<X<X,X,X:X:Xb.eXxXjXjXnXnXnXnXZXLXAXZXZXZXZXZXZXBXjXgXhXhXhXhXhXhXhXhX.X X.X{..X{.{.{.^.^.~.~.~.!.!.!.!.!.~.~.{.|.XX+X@X@X@XMXMXMX@X@X+X+XXXXXXX.XXX.X|.|.|.|..X.X|.|.|.|.|.|.|.|.|.|.|.{.^.^.^.^.^.~.~.~.~.~.~.~.~.!.!.!.!.!.!.!.!.[.[.{.{.{.{.{..X{..X X.X.X X X X X XR.1.1.-.*.-.-.*.*.*._ *.-._ C =.:.` B B B W ] ] Q W ' Q j E &.<.&.&.&.&.&.&.&.&.&.%.%.%.%.$.%.%.%.+.%.%.@.+.+.o.o.o.] ] ] @.@.o.......] ] ] ] ] ] ' ' ' ] ] ' ' ` ' ' ' ' ' ' ' ' ` ` ` ` ` ` ` ` ` ` ` ` ` ` ~ W W W W W W W W j B B B B B B B N M B B B B V B B B W B B C C ) ) W W ) ) W / ) ) ) ` ` ' ' ] ] ] ] ] ] @.@.@.@.@.@.@.@.@.%.%.%.%.%.%.%.%.%.%.%.%.&.&.&.&.&.&.&.&.4.4.Q O 4 g d d d d d d d d d d d d d d d d d d d d d d 4 4 4 4 4 4 4 4 4 4 4 4 4 4 4 4 4 ",
"E L E E E L L E E E E E E E E E E E E E W W W W W W W W W W W E W W W W W W W W W ~ ` ` Q ` ` ` ` ` ~ ^ ~ ~ ~ ^ Q ^ ^ ^ ^ ^ ^ ^ ^ ^ ^ ^ ^ ^  .^ ^  ...+.+.+.+.+.#.#.$.&.8.7.7.7.y.u.u.u.u.u.u.u.d.d.d.f.f.f.f.f.f.f.f.f.f.f.h.h.h.k.h.h.h.h.h.h.h.h.h.h.x.x.x.x.c.c.c.c.x.c.c.c.c.c.c.c.c.c.c.c.c.c.c.=X=X<X<X<X<X<X<X1X1X3X3X0X0X3X0X3X0X3X0X2X0X0X0X0X0X0X0X0X9X9X9X2X2X2X2X2X2X2X1X1X<X<X,X,X,Xb.eXxXxXjXjXnXnXZXZXAXZXZXZXZXZXZXBXBXjXgXgXgXgXgXgXhXhX.X X X{..X}.{.^.~.~.~.~.~.!.Q.U.U.Q.!.!.~.{.|.XX+X+X+X@X@X@X@X@X@X+X+XXXXXXX.X.X|.|.|.}.}.|.|.|.|.|.|.|.|..X|.|.^.^.^.^.^.^.~.~.~.!.!.~.~.~.~.U.!.!.U.!.U.U.!.!.!.!.[.{.{.{.{.{.{. X X.X X X.X X X XR.3.;.;.-.1.-.-.-.*.*.-.-.*._ =.C _ B B B _ } ] W W Q Q j E &.y.y.&.&.&.&.&.&.&.&.%.%.%.%.$.$.$.%.%.%.+.+.@.+.+.+.o.@.@.o.o.o.] ] o.] ] ] ] ] ] ] ] ' ' ' ` ` ` ` ' ' ' ' ' ' ' ' ` ` ` ` ` ` ` ` ` ` ` / / / ` W W W W W W W W j B B N N B B N N M B B B B B B V B V V V V Q ) ) C ) / / W ) ) ) ) ) ` ` ] ' ' ] ] ] ] @.@.@.@.@.@.@.@.@.%.@.%.%.%.%.%.%.&.&.&.&.&.&.&.&.&.&.&.&.4.4.Q O 4 j d d d g g d g d d d d d d d d d d d d d d d 4 4 4 4 4 4 4 4 4 4 4 4 4 4 4 4 4 ",
"E L E E E E L L E E E E E E E E E E E E W W W W W W W W W W W W W W W W W W W E W ~ ` ` Q ` ` ` ` ` ^ ^ ^ ^ ^ ^ ^ ^ ^ ^  . . .^ ^  .^ ^ ^ .. .....+.+.+.+.#.#.#.#.$.&.7.7.7.7.y.u.u.u.u.u.u.u.u.d.f.f.f.f.f.f.f.h.f.h.h.h.h.h.h.k.k.h.h.h.h.h.h.h.h.h.h.x.x.x.c.c.c.c.c.x.c.c.c.c.c.c.c.c.c.c.c.c.c.c.=X=X<X<X<X<X<X<X1X1X3X3X0X0X0X0X0X0X0X0X0X0X0X0X0X0X0X0X0X0X0X9X2X2X2X2X2X2X2X2X2X<X<X,X,Xv.b.rXxXxXjXjXjXZXZXZXZXZXZXZXjXjXBXBXBXjXhXgXgX X X XhX.X/./.^.~.~.~.{.~.!.!.!.!.!.Q.U.U.U.U.Q.!.~.{.|.XXXX+X+X@X@X@X@X+X+XXXXXXX.X|.|.|.}.}.}.|.|.|.|.|.|.|.|.|.|..X|.|.^.^.^.~.~.~.~.~.~.!.!.~.~.~.~.U.U.!.U.U.U.U.U.!.!.!.[.{.{.{.{. X X X X X X X X X X XR.H.;.1.1.;.-.;.1.*.*.-.*.*.-.=.V _ B B B _ [ ] ) W W Q N E %.<.y.<.9.7.7.&.&.&.&.%.%.%.%.%.%.$.$.%.%.+.+.@.+.+.+.@.@.o.o.o.o.o.o.o.o.o.] ..] ] ] ] ] ] ' ` ` ` ` ......' ' ' ' ' ' ` ` ` ` ` ` ` ` ` ` / / / ~ W W W W W W P W j B j j N B N N B M B B B B B B V B V C C V V B Q V V B W W ) ) ) ) ) ) ` ' ` ] ] ] ] ] ] @.@.@.@.@.@.@.@.%.%.%.%.%.%.&.&.&.&.&.&.&.&.&.&.&.&.2.y.y.y.Q O 4 g d d d d d d d d d d d d d d d d d d d d d d 4 4 4 4 4 4 4 4 4 4 4 4 4 4 4 4 4 ",
"E E E E E E E E N N E E E E E E E E E E E E E E W W W W W W W W W W W W W W W W W ~ ` ` ` ` ` ` ` ` ^ ^ ^ ^ ^ ^ ^ ^ ^  . . . . . .^  . . .......+.+.+.#.#.#.#.$.&.&.7.7.7.9.y.u.u.u.u.u.u.u.u.d.d.f.f.f.f.f.f.h.h.h.h.h.h.h.h.h.k.k.k.h.k.h.h.h.h.h.h.h.x.x.x.c.x.c.x.x.x.x.c.c.c.c.c.c.c.c.c.c.c.c.c.=X;X;X<X<X<X<X<X1X1X3X3X0X0X0X0X0X0X0X0X0X0X0X0X0X0X0X0X0X0X0X0X0X2X9X2X2X2X2X2X2X2X<X,X,Xz.b.rXxXxXjXjXjXZXZXBXBXZXZXZXjXjXBXBXjXhXgX X/././. X/./././.!.!.!.!.!.!.!.Q.Q.!.Q.Q.U.P.P.U.U.!.~.{.|.XXXX+X+X+X+X+X+XXXXXXX.X|.|.|.|.}.}.}.|.|.|.|.|.|.|.|.|.|.OX|.|.|.^.^.^.~.~.~.~.~.~.~.!.~.~.~.U.U.U.!.!.U.U.U.U.U.!.!.!.{.{.{.{.{.[.[. X X X X X X X XR.H.;.3.1.;.*.-.;.-.*.*.*._ *.-.=.[ V C _ [ ] [ @.] W Q Q Q +.&.9.9.9.9.9.9.&.&.&.%.%.%.%.%.%.%.$.%.%.+.+.@.+.+.@.@.@.@.@.o.@.@.@.o.o.o.o.] ] ] ] ] ] ] ] ] ] ] ] ' ' ......' ' ' ' ..` ` ` ` ` ` ` ` ` / / ` ` ` ~ W W W W P W j B j j N N B N N B B B B B B B B B V C C B W W W V V B W W ) W ) ) ) ) ) ` ' ` ` ' ] ] ] ] @.@.@.@.@.@.@.@.@.@.%.%.%.&.&.&.7.&.&.7.7.7.7.&.y.y.y.y.y.Q O 4 d d h d d d d d d d d d d d d d d 4 d d d d d 4 4 4 4 4 4 4 4 4 4 4 4 4 4 4 4 4 ",
"E E E E E E E E N N E E E E E E E E E E E E E E E W W W W W W W W W W W W W W W W ~ ` ` Q ' ' ` ' ` ^ ^ ^ ^ ^ ^ ^  . . . . . . . . .....+.+.+.+.+.+.#.#.$.$.$.8.8.7.7.7.9.u.u.u.u.u.u.u.u.u.u.d.d.f.f.h.h.k.h.h.k.k.h.h.h.h.k.k.k.k.k.k.k.h.h.h.h.h.h.h.x.x.x.c.x.x.x.x.x.x.c.c.c.c.c.c.c.c.c.c.c.c.c.=X;X;X<X>X<X<X<X1X1X3X3X0X0X0X0X0X0X0X0X0X0X0X0X0X0X0X0X0X0X0X0X0X9X9X9X9X0X2X2X2X2X2X,X,Xl.l.eXgXgXjXjXjXBXBXjXBXjXZXZXjXBXBXjXgXgX X/././././././.^.^.!.!.!.!.!.!.U.!.!.!.!.U.U.U.U.U.U.!.~.{.}.XXXXXXXXXXXXOXOXXX.X|.}.|.|.|.|.|.}.}.}.|.|.|.|.|.|.|.|.|.|.|.|.|.^.^.^.^.~.~.~.~.~.!.!.~.~.~.U.U.U.!.!.U.U.U.U.U.!.!.!.[.{.{.{.{. X X[. X X X X X X XE.K.;.1.;.-.S S -.-.-.*.C C C -.:._ C _ =.} _ [ :.o.W Q ' Q +.$.<.9.9.9.9.9.&.&.&.%.%.%.%.%.%.%.$.%.%.+.+.@.+.+.@.@.@.@.@.@.@.@.@.@.@.] o.o.] ] ] ] ] ] ] ] ] ] ] ] ..........' ' ' ' ' ` ` ` ` ` ` ` ` ` / ` ` ` ~ ~ W W W W W j B B j N N B B B B B B B B B B B B B B B B W W W V B B W W W W W ) / ) ) ) ` ` ` ' ' ] ] ] o.o.@.@.@.@.@.@.@.@.$.%.%.&.&.&.7.&.&.7.7.7.7.y.4.y.y.y.y.` O 4 d d h d d d d d d d d d d d d d d d d d d d d 4 4 4 4 4 4 4 4 4 4 4 4 4 4 4 4 4 ",
"N N E E E N N N E E E E E E E E E E E E W W W W W W W W W W E E W W W W W W W E Q Q ' ^ ^ ' ' ' ' ' ^ ^ ^ ^ ^ ^  . . . . .O.....+.+.+.......#.#.#.#.$.$.$.&.8.7.7.7.7.9.u.u.u.u.u.u.u.u.u.d.d.d.g.g.h.h.h.h.h.k.k.k.k.h.h.h.k.k.k.k.k.k.k.k.h.h.c.c.h.h.x.x.c.c.x.x.x.x.x.c.c.c.c.c.c.c.c.c.c.c.c.c.=X;X=X<X<X>X<X<X<X1X1X3X3X0X0X0X0X0X0X0X0X0X0X0X0X0X0X0X0X0X0X0X0X0X0X0X0X0X0X0X9X2X2X2X1X,Xd.l.eXrXrXgXgXgXBXBXjXBXZXZXZXBXjXjXgXgXgXgXgX/.Q.Q.Q.!.^.[.^.!.Q.U.U.U.U.U.U.!.!.!.U.U.U.U.U.U.!.{.}.}.XXXXXXXXXXXXXXXX.X.X}.|.|.|.|.|.|.|.|.}.}.}.}.|.|.|.|.|.|.|.|.|.^.^.^.^.^.^.^.~.~.~.!.!.~.~.U.U.U.U.!.!.U.U.U.U.U.!.!.!.[.[.{.{.{.[.[.[.[. X XQ.Q.Q.R.R.K.;.;.-.-.;.1.;.-.;.-.*.*.C C C C V _ [ [ _ ` ] _ W Q Q Q ..%.&.<.9.9.7.7.7.&.&.%.%.%.%.%.%.%.$.%.%.@.@.+.+.+.@.@.@.@.@.@.@.@.@.@.@.] ] ] ] ] ..] ] ] ] ] ] ] ] ' ' ......' ' ' ' ' ' ` ` ` ` ` ` ` ` ` ` ` ` ~ ` ~ W W W W W B B B B N N B B B B B B B B B B B B V V V B B B B B B B W W / / ) ) ) ) ) ) ) ` ` ` ` ' ] ] ] @.@.@.@.@.@.@.@.$.&.&.&.&.&.&.&.&.7.&.&.&.&.7.y.y.y.y.y.' % 4 g g g d d d d d d d d d d d d d 4 d d d d d d 4 4 4 4 4 4 4 4 4 4 4 4 4 4 4 4 4 ",
"N N E E E E j N E E E E E E E E E E E E W W W W W W W W W W E E W W W W W W W W Q Q ' ^ ^ ' ' ' ' '  . . . .^ ^  . . .O.O.+.+.+.+.+.#.#.#.#.#.#.#.#.$.$.8.8.7.7.7.7.q.u.u.u.u.u.d.d.d.d.d.d.d.d.g.g.h.h.h.h.h.k.h.h.h.k.h.k.k.k.k.k.k.k.k.k.k.k.c.c.c.c.x.x.c.c.x.x.x.x.c.c.c.c.c.c.c.c.c.c.c.c.c.c.=X;X;X<X>X>X<X<X<X1X1X3X3X0X0X0X0X0X0X0X0X0X0X0X0X0XqXqXqXqX0X0X0X0X0X0X0X0X0X0X0X0X2X2X2X,Xd.b.rXrXrXgXgXgXBXZXZXZXZXZXBXjXjXjXgXgXgXhXhX.XQ.!.!.!.!.!.!.!.U.U.U.U.U.U.!.!.!.!.!.!.U.U.U.!.~.{.{.|.XXXXXX.X.X|..X.X.X|.}.}.|.|.|.|.}.}.|.}.}.}.|.|.|.|.|.|.|.|.|.|.|.^.^.^.^.^.^.^.~.~.~.~.~.~.U.U.U.U.!.!.U.U.U.U.U.!.!.!.!.[.[.{.{.[.[.[.Q.Q.Q.R.R.R.R.R.H.;.;.;.;.3.5.1.1.5.5.-.-.1.*.C C _ _ _ _ _ ) ) ) ) ~ Q Q ' +.&.<.<.9.&.7.&.&.&.%.%.%.%.%.%.$.$.%.%.+.@.+.+.+.@.@.@.@.@.@.@.@.@.@.} } } ] ] ] ..] ] ] ] ] ] ] ] ] ' ........' ' ' ' ' ' ` ` ` ` ` ` ` ` ` ` ` ` ` ~ W W W W W B j B B j N B B B B B B B B B B M B B B B B B B B B B B W W W / / ) ) ) ) ) ) ` ` ` ` ' ] ] ] ] @.@.@.@.@.@.$.$.&.&.&.&.&.&.7.&.&.7.7.7.7.e.y.y.y.y.y.' % 4 g g g d g d d d d d d d d d d d 4 d d d d d d 4 4 4 4 4 4 4 4 4 4 4 4 4 4 4 4 4 ",
"L E E E E E j j N E E E E E E E E E E E W W W W E E E E W E E E W W W W W W E ! Q Q ^ ^ ^ ..+...' .. . . .+.+.+.+.+.+.+.+.+.+.+.#.#.#.#.#.#.#.$.$.8.8.8.8.7.7.7.7.q.q.u.u.u.u.d.d.d.d.f.f.f.f.h.h.f.h.h.f.k.k.h.h.h.h.k.h.h.h.k.k.k.c.c.k.k.k.k.c.c.c.c.c.c.c.c.c.c.c.c.c.c.c.c.c.c.c.c.c.c.c.c.c.c.=X;X;X<X>X>X<X<X<X1X1X3X3X0X0X0X0X0X0X0X0X0X0X0X0X0X0X0XqXqX0X0XqXqX0X0X0X0X0X0X0X0X9X2X2X2Xv.4XrXrXrXgXgXgXjXBXBXZXZXZXZXjXBXBXjXgXhXhXhX.X[.!.Q.!.!.!.!.!.U.U.U.U.U.U.!.!.!.!.!.!.!.!.!.!.~.{.}..XXXXXXX|.}.}.|.|.|.}.}.}.|.|.|.}.}.}.|.|.|.|.|.|.|.|.|.|.|.|.|.|.|.^.^.^.^.^.^.^.^.~.~.~.~.~.~.!.U.U.U.!.U.U.U.U.U.!.!.!.!.!.[.[.[.[.[.[.Q.Q.Q.R.R.R.R.L.Z.;.;.;.1.3.3.;.;.5.5.1.1.1.*.*.*.*._ C ) _ _ ) _ } ' Q Q ` +.&.<.<.<.&.&.&.&.%.%.%.%.%.%.%.$.%.+.+.+.+.+.+.+.+.@.@.@.@.@.@.o.o.@.} } } } o.] ] ] ] ] ] ] ] ] ] ] ' ' ' ' ' ' ' ' ' ' ' ` ` ` ` ` ` ` ` ` ` ` ` ` ~ ~ W W W W B B B B B M M B B B B B B M B B B B B B B B B B B B B B B B B / / / / ) / / / ` ` ` ` ' ] ] ] o.o.@.@.@.@.@.$.$.&.&.&.&.&.&.7.7.7.7.7.y.7.y.y.y.y.y.y.Q O 4 g g g d g d d d d d d d d d d d d d d 4 d d d d 4 4 4 4 4 4 4 4 4 4 4 4 4 4 4 4 ",
"L L E E E E E E N N E E E E E E E E E E W W W W E E E E W W E E W W W W W W E ! Q ^ { ^ ^  .^  . . . .+.+.+.+.+.+.+.+.+.+.+.#.#.#.#.#.$.$.$.$.8.8.8.8.7.7.7.7.7.q.q.u.u.u.d.d.d.d.d.f.h.h.h.f.d.f.d.h.f.g.g.h.h.h.h.h.k.h.k.z.k.k.k.c.c.v.c.k.k.c.c.c.c.c.c.c.c.c.c.c.c.c.c.c.c.c.c.c.c.c.c.c.c.=X=X=X;X;X>X>X>X<X<X<X1X3X3X3X0X0X0X0X0X0X0X0XqX0X0X0XqXqXqXqXqXqXqXqXqX0X0X0XqX0X0X0X0X9X2X2X2X:X4XrXrXrXrXrXgXgXjXBXZXZXZXZXjXBXBXhXgX X.X.X[.!.Q.Q.!.!.Q.U.U.U.U.U.U.U.!.!.!.!.!.!.U.!.!.!.!.{.{.}.XXXXXXXX|.|.}.{.}.}.}.}.}.|.|.|.}.}.|.|.|.|.|.|.|.|.|.|.|.|.|.|.|.|.|.^.^.^.^.^.^.^.~.~.~.~.~.~.~.U.U.U.U.U.U.U.U.U.U.!.!.!.!.!.!.[.!.Q.Q.Q.Q.Q.Q.R.R.R.R.H.H.;.;.1.H.H.3.3.5.3.3.5.-._ *.=.*._ _ ) [ } _ ] } } ' ' ' %.<.<.<.<.&.&.&.&.%.%.%.%.%.%.%.$.%.+.+.+.+.+.+.+.+.@.@.@.@.@.o.o.o.@.} } } ] ] ] ] ] ] ] ] ] ] ] ] ' ' ] ' ' ' ' ' ' ' ' ' ` ` ` ` ` ` ` ` ` ` ` ` ` ~ ~ W W W W B B B B j j M M M B B B B B B B B B B B B B B B B B B B W B B W / / / ) / / ) ` ` ` ` ' ] ] ] ] @.@.@.@.@.@.$.&.&.&.&.&.&.&.7.7.7.y.y.y.7.y.y.y.y.y.y.^ O 4 g g g d d d d d d g d d d d d d d d d 4 d d d d 4 4 4 4 4 4 4 4 4 4 4 4 4 4 4 4 ",
"E E E E E E E E E E E E E E E E E E E E E E E E W W W E E E W W W W W W W W W ! Q ^ ^  .^ { +.{  . .+.+.+.+.+.+.+.+.#.#.#.#.#.#.$.$.$.8.8.8.8.7.7.7.7.7.7.7.q.q.q.u.u.u.u.u.d.d.d.f.h.h.h.f.f.f.f.d.g.k.k.h.k.h.h.h.h.v.v.v.k.z.v.v.v.v.v.c.v.k.k.c.c.c.c.c.c.c.c.c.c.c.c.c.c.c.c.c.c.c.c.c.c.c.c.=X=X;X;X>X>X>X<X<X1X1X3X3X0X0X0X0X0X0X0X0X0X0X0XqXqXqXqXqXqXqXqXqXqXqXqXqXqXqXtXqX0X0X0X2X2X2Xb.W.eXrXrX].].gXjXBXZXZXZXZXZXjXjXjXgX X X X X X[.Q.Q.!.U.U.U.U.U.U.U.U.U.!.!.~.!.U.U.U.U.U.U.!.{.}.|.XXXXXXXX|.}.}.}.}.}.}.{.{.|.|.|.|.|.|.|.|.|.|.|.|.|.|.|.|.|.|.|.|.|.^.^.^.^.^.^.^.^.~.~.~.~.~.~.~.U.U.U.U.U.U.U.U.U.U.Q.!.!.!.!.!.!.Q.Q.Q.Q.Q.R.R.R.R.L.L.H.;.;.;.;.H.Y.Y.Y.Y.H.5.5.-.*.-.-.*.=.-.=.=.:.} [ } @.} o.o.&.y.y.y.9.<.9.&.&.&.%.%.%.%.%.%.$.%.+.+.+.@.@.@.+.@.@.@.@.@.@.@.o.o.@.@.} @.] ] ] ] ] ] ] ] ] ] ] ] ] ] ] ] ' ..' ' ' ' ' ` ` ` ` ` ` ` ` ` ` ` ` ~ ~ ~ W W W W W B j B B k k j j j k B B B B B B B B B B B B B B B B B B B B B W W ~ ~ / / / ) ) ` ` ` ] ] ] ] ] @.@.@.@.@.@.$.$.&.&.&.&.&.7.9.7.7.y.y.y.y.y.y.y.y.y.y.Q O 4 j j j d d d d d d d d d d d d d d d d 4 d d d d 4 4 4 4 4 4 4 4 4 4 4 4 4 4 4 4 ",
"E E E E E E E E E E E E E E E E E E E E E E E E W W W W E E E W W W W W W W W ! ~ ^ +.^ ^ { +.{  .+.+.+.+.+.+.+.+.#.#.#.#.$.$.$.$.$.8.8.8.7.7.7.7.7.7.7.q.q.q.u.u.u.u.u.d.d.d.d.h.h.h.h.g.d.f.f.d.d.d.g.g.k.g.g.h.h.h.c.c.v.k.v.v.v.v.v.v.v.v.k.k.c.c.c.c.c.c.c.c.c.c.c.c.c.c.c.c.c.c.c.c.c.c.c.c.=X;X;X;X>X>X<X<X1X1X1X3X3X0X0X0X0X0X0X0X0X0X0XqXqXqXqXqXqXqXqXtXtXtXtXqXtXtXtXtXqXtX0X0X9X2X4Xb.W.W.rXrXE.].gXjXZXZXZXjXBXjXhXgXgXoX X X[.Q.Q.[.Q.Q.U.U.U.U.U.U.U.U.U.U.!.~.~.!.!.U.U.U.!.!.~.{.}.|.XXXXXX|.|.}.}.}.}.}.}.}.}.|.|.|.|.|..X}.|.|.|.|.|.|.|.|.|.|.|.|.|.|.|.^.^.^.^.^.^.^.^.^.~.~.~.~.U.U.U.U.U.U.U.U.U.U.U.Q.Q.Q.Q.Q.Q.Q.Q.Q.R.R.R.R.R.R.L.L.L.H.;.;.H.;.H.Y.Y.K.H.H.5.1.-.*.1.*.*.*.:.-.=.-.=.[ } :.@.} o.&.<.y.y.y.9.9.&.&.&.&.&.&.%.%.%.$.%.+.+.+.@.@.@.@.@.@.@.@.@.@.@.o.o.@.} } } ] ] ] ] ] ] ] ] ] ] ] ] ] ] ] ] ] ' ' ' ' ' ' ` ` ` ` ` ` ` ` / ` ` ~ ~ W W W W W W B B B j j k j j j j k j B B B B B B B B B B B B B B B B B B B B W W ~ ~ / / ) ` ` ` ` ' ] ] ] ] o.o.@.@.@.@.@.$.$.&.&.&.&.9.9.y.y.y.y.y.y.y.y.y.y.y.y.i.^ O 4 j j j d d d d d d d d d d d d d d d d d d d d 4 4 4 4 4 4 4 4 4 4 4 4 4 4 4 4 4 ",
"j j E E E E E E E E E E E E E E E E E E W W W W W W W W E E W W W W W W W W W E ~ ^  .{ {  . .{  .+.+.+.+.+.+.+.#.#.#.#.$.&.8.8.8.8.8.8.7.7.7.7.7.9.q.q.u.u.u.u.u.u.u.d.d.d.d.g.h.h.h.h.g.d.h.g.g.d.g.g.k.k.g.h.h.h.h.v.v.v.v.v.v.v.v.v.v.v.v.c.c.c.c.c.c.c.c.c.c.c.c.c.c.c.c.c.c.c.c.c.c.c.c.c.c.=X;X;X;X>X>X<X<X1X1X1X2X3X0X0X0X0X0X0X0X0X0XqXqXqXqXqXqXqXqXqXqXqXtXtXtXqXtXtXtXtXtXtXwXwX4X4Xb.W.4X5XrXrXrXgXBXZXZXBXjXgXgXgX X X XQ.R.R.R.Q.Q.U.U.U.U.U.U.U.U.U.U.U.U.!.!.~.!.!.!.!.~.~.~.~.{.}.}.XXXXXX|.|.}.}.}.|.|.|.|.|.|.}.|.|.XX.X|.|.|.|.|.|.^.^.^.|.|.|.|.^.|.^.^.^.^.^.^.^.^.^.^.~.~.~.~.U.U.U.U.U.U.U.U.U.U.U.U.Q.Q.Q.Q.Q.Q.Q.R.R.R.R.R.R.R.R.R.R.J.H.H.H.;.H.H.H.H.1.;.;.1.1.-.*.*.*.*.-.-.=.=.[ [ =.:.} { { ,.<.y.y.y.y.9.&.&.&.&.&.&.&.&.%.$.%.+.%.+.@.@.@.@.@.@.@.@.@.@.@.@.o.@.} @.@.] ] ] ] ] ] ] ] ] ] ] ] ] ] ] ] ' ' ' ' ' ' ` ` ` ` ` ` ` ` / / / ~ ~ W W W W W W W B B B B k j j j j j k k j j B B B B B B B B B B B B B B B B B W W / ~ ~ ) ) ) ` ` ` ' ] ] ] ] o.o.@.@.@.@.@.@.$.$.&.&.&.9.9.9.y.9.9.y.y.y.y.y.y.y.y.y.i.Q O 3 g g g g d d d d d d d d d d d 4 4 d d d d d d 4 4 4 4 4 4 4 4 4 4 4 4 4 4 4 4 4 ",
"N j E E E E j j E E E E E E E E E E E E W W W W W W W W E E W W W W W W W W W W Q ^  .{ { +. . . .+.+.+.+.+.+.#.#.#.#.$.&.&.8.8.8.8.7.7.7.7.7.7.q.q.u.u.u.u.u.u.u.d.d.d.d.h.g.h.g.h.g.g.g.g.g.g.g.d.k.g.k.h.k.x.h.h.v.v.v.v.v.v.v.v.v.v.v.v.c.c.c.c.c.c.c.c.c.c.c.c.c.c.c.c.c.c.c.c.c.c.c.c.c.c.;X;X;X;X>X>X>X1X1X1X1X1X2X3X0X0X0X0X0X0X0X0X0XqXqXqXqXqXqXqXqXtXtXtXtXtXtXqXtXtXtXtXtXtXtXwXwX4Xl.W.5X5XrXrXgXgXjXZXZXZXjXgXgXgX X X[.R.R.L.J.L.L.J.L.U.U.U.U.U.U.U.U.U.U.U.~.~.~.!.!.~.{.}.}.}.}.}.}.|.XXXXXX|.|.}.}.}.|.|.|.|.}.}.|.XXXXXX.X|.|.|.|.^.^.^.^.^.^.^.^.^.^.^.^.^.~.~.^.^.~.~.~.~.~.~.U.U.U.U.U.U.U.U.U.U.U.U.U.U.Q.U.Q.Q.Q.Q.R.L.R.R.R.R.Q.Q.Q.Q.J.H.H.H.H.H.H.H.H.H.5.1.1.3.-.1.1.3.-.-.>.-.[ [ } :.:.} _ { ,.<.i.y.y.y.9.9.&.&.&.&.&.&.&.%.$.%.+.%.+.@.@.@.@.@.@.@.o.o.@.@.@.o.o.} @.@.} } ] ] ] ] ] ] ] ] ] ] ] ] ' ] ' ' ' ' ' ' ` ` ` ` ` ` ` / / ~ ~ ~ ~ W W W W W W P B j j j k j j j j j j j k j j j j B B B B B B B B B B B B B B W / / ~ ~ / ) ) ` ` ` ' ] ] ] o.o.@.@.@.@.@.@.@.$.&.&.&.&.9.9.7.y.9.9.y.y.y.y.y.y.y.y.y.i.Q O 3 g d d d d d d d d d d d d d d 4 4 4 d d d d d 4 4 4 4 4 4 4 4 4 4 4 4 4 4 4 4 4 ",
"N E E E E E N N N N E E E E E E E E E E W W W W E E E E W W W W W W W W W W W W Q ^ +.+.+.+.+.+.+.+.+.+.+.#.#.#.#.$.&.8.8.8.8.8.7.7.7.7.7.7.q.q.u.u.u.u.u.u.u.d.d.d.f.f.h.f.f.g.g.g.g.f.g.g.g.g.g.g.g.g.k.k.k.h.x.x.x.z.v.v.v.v.v.v.v.v.v.v.v.c.c.k.c.k.k.c.c.c.c.c.c.c.c.c.c.c.c.c.c.c.c.c.v.c.v.;X;X;X>X>X>X1X1X1X1X2X2X3X3X0X0X0X0X0X0XqXqXqX0XqXtXtXtXtXtXtXtXtXtXtXtXtXtXtXtXtXtXtXtXtXtX4Xi.W.W.W.].rXgXgXjXBXZXZXBXBXBXjXhXoX X XQ.R.L.L.L.J.L.U.Q.Q.U.!.U.U.U.U.U.U.!.~.~.!.!.[.{.}.}.}.}.|.|.|.|.|.XXXX|.}.{.{.}.}.}.}.}.}.}.|.|.|.|.}.|.|.|.^.^.^.^.^.^.~.~.~.~.~.~.~.~.~.~.~.~.~.!.U.U.U.I.I.U.U.U.U.U.U.U.U.U.U.U.U.U.U.L.L.U.Q.Q.Q.L.L.R.R.Q.Q.Q.R.L.J.J.H.H.H.H.H.H.1.3.;.;.;.;.-.-.-.-.-.1.-.C C [ :.4.=.[ [ :.i.i.i.y.y.9.&.&.&.&.&.&.&.&.&.$.%.+.+.+.+.@.+.+.@.@.@.@.@.@.@.@.@.] ] ] ] ] } ] ] ] ] ] ] ] ] ] ] ] ] ' ' ' ' ' ' ' ` ` ` ` ` ` ` ` / ~ ~ ~ W W W W W W W P P j j j j j j j j j j j j k j j j j j B j j B B B B B B B B B B W W / / / ) ) ) ` ` ` ' ] ] o.o.@.@.@.@.@.@.@.$.$.&.&.&.&.7.7.7.9.9.9.y.y.y.y.y.y.y.y.y.y.' O 4 g g d d d d d g g d d d d d d d d d d d d d d d 4 4 4 4 4 4 4 4 4 4 4 4 4 4 4 4 ",
"E E E E E E N N N N E E E E E E E E E E W W W W E E E E W W W W W W W W W W W W W { +.+.+.+.+.+.+.+.#.#.#.#.$.$.&.8.8.8.7.7.7.7.7.7.7.7.7.q.q.u.u.u.u.d.d.d.d.f.h.h.h.h.h.h.h.h.g.g.g.g.g.f.g.g.k.g.k.k.h.k.h.x.x.x.x.v.v.v.v.v.v.v.v.v.v.v.v.v.c.k.k.k.c.c.c.c.c.c.c.c.c.c.c.c.c.c.c.v.c.v.v.v.v.;X;X;X>X>X>X>X1X1X1X<X2X2X2X2X2X9X9X0X0X0X0X0X0X0X0XtXtXtXtXtXyXtXtXtXtXyXtXtXtXtXiXtXwXtXuX4Xl.W.W.Y.E.rXgXgXjXBXBXBXZXAXZXZXBXhXhXoX X[.[.Q.Q.Q.Q.Q.!.!.!.[.!.U.U.U.U.!.~.~.~.!.U.!.~.}.}.}.|.|.|.|.|.|.XX|.}.}.{.{.{.{.}.}.}.}.}.}.|.|.|.}.^.^.^.^.^.^.^.~.~.~.I.I.I.I.I.I.U.U.U.!.!.!.!.!.U.U.U.I.U.U.U.U.U.U.U.U.U.U.U.U.U.U.L.L.L.Q.Q.Q.L.L.R.Q.Q.Q.Q.Q.L.J.J.H.H.H.H.H.H.1.1.;.;.1.-.-.*.-.-.-.-.-.C [ -.:.:.:.} } :.i.i.i.i.y.9.<.&.&.&.&.&.&.&.%.$.+.+.+.+.+.@.+.+.@.@.@.] ] @.o.o.] ] ] ] o.] ] ] ] ] ] ] ] ] ] ] ] ] ' ' ' ' ' ' ' ' ` ` ` ` ` ` / ~ ~ ~ ~ W W W W P W P P j j j j j j j g g g g g g g g g j j j j j j j j B B B B B B B B B W W / / / ) ` ` ` ` ` ' ] ] o.o.o.@.@.@.@.@.$.$.&.&.&.&.&.9.7.9.y.y.y.y.y.y.y.y.y.y.y.y.y.' O 4 g g g d d d d d d d d d g d d d d d d d d d d d 4 4 4 4 4 4 4 4 4 4 4 4 4 4 4 4 ",
"E E E E L L E E N E E E E E E E E E E E W W W W W W E W E E E W W W W W W W W W W +.+.+.+.+.+.#.#.#.#.#.$.$.&.&.8.8.7.7.7.7.7.7.7.7.q.q.q.u.u.u.u.d.d.f.d.f.f.f.f.k.h.h.h.h.h.g.k.j.k.g.g.h.h.h.k.g.k.x.x.h.x.x.x.v.v.v.v.v.v.v.v.v.v.v.v.v.v.v.c.c.k.c.c.c.c.c.c.c.c.c.c.c.c.c.c.c.c.c.c.v.v.v.v.v.;X;X;X>X>X>X>X>X1X1X1X<X2X2X2X2X9X0X0X0X0X0X0X0X0X0X0XtXtXtXyXtXyXyXyXyXyXtXtXtXuXuXwXwXuX4Xl.b.p.p.W.gXgXgXBXBXBXBXAXAXZXZXBXBXNXhXoXoXhX.X[..X{.[..X.X{.{.{.}.}.}.}.}.}.{.{.!.U.U.U.U.[.{.}.}.}.}.}.}.}.}.{.{.[.[.{.{.{.}.}.}.}.}.^.^.~.~.~.~.~.^.^.^.^.~.~.~.I.I.I.I.I.I.!.!.~.!.!.!.!.!.U.U.U.U.I.U.U.U.U.U.U.U.U.U.U.U.Q.Q.Q.Q.Q.!.Q.Q.Q.Q.Q.[. X X[.[.L.J.H.H.H.H.H.H.H.H.1.3.3.3.;.;.S *.-.-.-.-.*.-.-.:.:.:.:.:.:.4.i.i.y.y.9.&.&.&.&.&.&.&.%.%.%.%.+.+.+.+.@.@.+.+.@.] o.o.@.@.] ] @.@.} ] ] ] ] ] ] ] ] ] ] ] ] ] ] ] ' ' ' ' ' ' ' ` ` ` ` ) ` ` ~ ~ ~ ~ W W W P P P P P j j j j j j g g g g g g g g g g g g j j j j j j j B B B B B B B B W W / / ) ) ` ` ` ` ' ] ] ] o.o.o.@.@.@.@.@.$.&.&.&.&.9.7.9.7.9.y.y.y.y.y.y.y.y.y.y.y.y.y.^ O 4 j g d d d d d d d d d d d d d d d 4 d d d d d d 4 4 4 4 4 4 4 4 4 4 4 4 4 4 4 4 ",
"L E E E L L E E E E E E E E E E E E E E W W W W W W W W E E E W W W W W W W W W W +.+.+.+.+.+.#.#.%.$.$.&.&.8.8.8.7.7.7.7.7.q.q.q.q.q.q.u.u.d.d.d.d.d.f.f.h.h.h.k.k.h.k.k.k.h.k.k.k.k.k.h.h.k.h.k.k.x.x.x.x.c.c.c.v.v.v.v.v.v.v.v.v.v.v.v.v.v.v.v.v.c.c.c.c.c.c.c.c.c.c.c.c.c.c.c.c.c.c.c.v.v.v.c.v.;X;X;X>X;X>X>X>X>X1X1X1X<X1X1X2X2X9X9X9X0X0X0X0X0X0X0X0XtXtXyXtXyXyXyXyXyXyXyXtXuXuXwXwXuX4Xl.l.p.Y.E.rXgXgXBXZXZXZXAXZXZXBXBXhXNXhXhXhXMXoX.XoXXXXXXXXXXXXXXXXXXXXXXX|.|.}.{.!.!.U.U.!.[.{.}.}.}.}.{.{.}.}.{.{.{.{.{.}.}.{.{.{.~.~.~.~.~.~.~.~.~.^.^.^.^.^.~.~.~.!.U.U.I.!.~.~.~.~.~.~.~.~.U.U.U.U.U.U.U.U.U.U.U.U.U.Q.Q.Q.Q.Q.Q.Q.!.Q.!.Q.Q.Q.Q.[.[.[.[.[.L.J.H.H.F.H.H.H.H.H.H.5.1.5.3.3.-.-.-.-.-.S -.-.>.>.:.=.4.4.:.4.i.i.y.y.9.&.&.&.&.&.&.&.&.$.%.+.+.+.+.+.@.@.+.+.@.] o.o.o.o.] ] @.} } ] } ] ] ] ] ] ] ] ] ] ] ] ] ] ' ' ' ' ` ` ` ` ` ` ) ) / ~ ~ ~ W W W W W P P P P j j j j j j g g g g g g g g g g g g k g j j j j j j j B B B B B B B W W / / ) ) ` ` ` ' ' ] ] o.o.o.@.@.@.@.$.$.$.&.&.<.9.9.9.9.9.y.y.y.y.y.y.y.y.y.y.y.y.y.y.^ O 4 j g d d d d d d d d d d d d d d d d 4 d d d d d 4 4 4 4 4 4 4 4 4 4 4 4 4 4 4 4 ",
"L j E E E E E E E E E E E E E E E E E E W W E E W W E E W W W W W W W W W W W W E %.+.+.%.%.%.%.%.%.&.&.&.&.7.7.7.7.7.7.q.q.u.u.u.q.u.u.u.u.d.d.d.f.f.f.f.f.f.k.k.k.k.h.h.h.h.h.h.k.k.k.h.h.h.h.k.k.x.x.c.c.c.c.c.v.v.v.v.v.v.v.v.v.v.v.v.v.v.v.v.v.v.k.c.c.c.c.c.c.c.c.c.c.c.c.c.v.c.c.c.c.v.v.c.v.;X;X;X;X;X;X;X>X>X>X>X1X1X1X1X1X1X2X9X2X9X9X0X0X0X0X0X0X0XtXtXtXyXyXyXyXyXiXyXtXiXuXwXwXwX4Xl.l.p.W.E.rXgXgXjXZXZXZXZXZXZXBXBXhXNXhXoXoXhXoXoXMXMXXXXXXXXX@XXXXXXXXXXXXXXX|.}.{.{.{.{.{.}.|.|.XX|.|.|.|..X}.}.{.{.{.}.}.}.{.{.{.}.}.}.}.}.}.^.^.^.^.^.^.^.^.^.~.~.~.~.~.~.~.~.~.~.~.~.~.~.~.~.~.~.U.U.U.U.U.U.U.U.Q.Q.Q.Q.Q.Q.Q.U.U.Q.!.Q.Q.Q.U.Q.!.[.[.!.Q.L.J.H.H.F.H.H.H.H.H.H.H.H.H.3.3.;.;.1.-.-.-.-.-.-.:.=.=.4.4.,.4.y.i.y.y.y.7.&.&.&.&.&.&.%.%.%.+.+.+.+.+.@.@.@.@.@.] ] ] o.o.] ] } } ] ] ] ] ] ] ] ] ] ] ] ] ] ] ] ] ] ' ] ' ` ` ` ` ` ` ` / ~ ~ ~ W W W W W P P P P l l j j j j g g g g d d d d d g g g g g g g k k j j j j B B B B B B W W W / / / ) ` ` ' ' ] ] ..o.o.o.@.@.@.@.$.$.<.,.<.<.9.9.9.9.9.y.y.u.u.y.y.y.y.u.y.y.y.y.y.' O 4 j g d d d d g d d d d d d d d d d d d d d d d d 4 4 4 4 4 4 4 4 4 4 4 4 4 4 4 4 ",
"N N E E L L E E E E E E E E E E E E E E W E E E W W E E W W W W W W W W W W W W E %.%.%.&.&.&.&.&.&.&.&.&.&.7.7.7.7.7.q.q.u.u.u.u.u.u.u.d.d.d.f.f.f.f.f.h.h.h.k.k.k.h.h.h.h.h.h.h.h.h.h.h.h.k.k.k.c.c.c.c.c.c.c.c.v.v.v.v.v.v.v.v.;X;X;Xv.v.v.v.v.v.v.c.c.c.c.c.c.c.c.c.c.c.c.c.v.v.v.c.c.c.c.c.c.c.v.;X;X;X;X;X;X;X>X>X>X>X>X1X1X1X1X9X9X9X9X9X9X0X0X0X0X0XtXtXqXqXtXyXyXyXyXiXiXiXuXuXwXwXeX4Xb.b.Y.W.E.rXgXgXjXBXBXZXZXZXZXZXBXBXBXhXhXoXhXhXoXMXMXXXXXXX.XXXXX.XXXXXXXXXXX.X}.{.}.{.{.|.XXXXXXXXXXXXXXXXXXXX}.}.{.{.}.}.}.}.}.{.}.}.}.}.|.}.}.|.|.|.^.^.^.^.^.^.~.~.~.~.~.~.~.~.~.~.~.!.I.I.~.~.~.U.U.U.U.U.U.U.Q.Q.!.!.Q.Q.Q.Q.!.Q.U.U.U.U.U.U.!.[.[.[.Q.Q.L.J.G.H.H.H.H.H.H.H.H.H.H.3.1.1.1.1.;.-.-.-.-.-.-.-.=.=.:.,.:.4.i.i.y.9.y.7.&.&.&.&.&.%.%.%.%.+.+.+.+.+.@.@.@.@.@.] ] ] o.o.] ] ] ] ] ] } ] ] ] ] ] ] ] ] ] ] ] ] ] ' ' ] ' ` ` ` ` ` ` ` / ~ ~ W W W W W W P P P L l j l l j j g g g d d d d d u d d d d g g g k k j j j j j B B B B B W W W / / / ` ` ` ' ' ] ] ..o.o.o.@.@.@.@.$.<.<.,.<.<.9.9.9.9.9.y.y.u.u.y.y.y.y.y.y.y.y.y.y.^ O 4 j g d d d d d d d d d d d d d d d d d d d d d d 4 4 4 4 4 4 4 4 4 4 4 4 4 4 4 4 ",
"N E E E E N N N E E E E E E E E E E E E W W E E W W E E W W W W W W W W W W W W E %.%.%.&.&.&.&.&.&.&.&.7.7.7.7.7.7.q.q.u.u.u.u.u.u.u.d.d.d.f.f.f.f.f.h.h.h.k.k.k.h.h.k.h.h.h.h.k.k.k.k.k.k.k.c.c.c.c.c.c.c.c.c.v.v.v.v.v.v.v.v.;X;X;X;X;X;Xv.v.v.v.v.v.c.c.v.v.c.c.c.c.c.c.v.v.v.v.v.c.c.c.c.c.c.v.v.;Xv.;X;X;X;X;X>X>X>X>X1X1X1X1X1X2X9X9X9X9X0X0X0X0X0X0X0XtXqXtXtXyXtXtXiXiXsXiXuXuXwXwXwX4Xb.b.T.W.W.].rXgXgXjXBXBXBXBXZXBXBXBXBXNXNXhXhXMXhXoXXXXXMX.XXXXXXXXX.XXXXXXXXXXX}.{.}.}.}.}.|.XXXXXXXXXXXXXX+XXX|.{.}.}.}.}.}.}.}.}.}.|.XXXXXXXXXX|.|.|.^.~.~.^.^.^.^.^.^.^.^.^.~.~.~.~.~.~.I.I.~.~.~.U.U.U.U.U.Q.Q.Q.Q.!.!.!.Q.Q.Q.Q.U.L.L.L.L.L.L.Q.[.[.[.!.Q.L.J.J.G.H.H.H.H.H.H.H.;.3.1.;.;.;.;.-.-.-.-.-.-.-.-.-.=.=.} } <.i.i.i.y.y.7.&.&.&.&.&.%.%.%.%.+.+.+.+.+.@.@.@.+.+.@.] ] o.@.@.} ] ] ] ] ] ] ] ] ] ] ] ] ] ] ] ] ] ] ] ' ] ] ' ' ` ` ` ` / ~ ~ ~ W W W W W P P P L L l l j j j j g g d d d d d d u d d d d g g g g k j j j j j B B B B B W W W / / ) ` ` ` ' ' ] ] ..o.o.o.o.@.@.@.<.<.<.<.<.<.9.9.<.9.9.y.y.y.y.y.y.y.y.y.u.y.y.y.y.^ O 4 j g d d d d d d d d d d d d d d d d d 4 d d d d 4 4 4 4 4 4 4 4 4 4 4 4 4 4 4 4 ",
"E E E E N N N N E E E E E E E E E E E E W W E E W W E E W W W W W W W W W W W W E %.%.%.&.&.&.&.&.&.&.7.7.7.7.7.7.u.q.u.u.u.u.d.d.d.d.d.d.f.f.f.h.h.k.k.k.k.k.k.k.k.k.k.k.k.k.k.c.c.=X=X=X=Xc.c.c.c.c.c.c.c.c.v.v.v.v.;X;X;X;X;X;X;X;X;X;X;X;Xv.v.v.v.v.v.v.c.v.c.c.c.c.c.c.v.v.v.v.v.c.c.c.c.c.c.c.v.v.;X;X;X;X;X;X;X>X>X>X>X>X1X1X1X1X2X2X9X9X9X9X0X0X0X0X0XtXqXtXtXtXtXiXiXiXiXiXiXuXuXwXeX4XW.W.W.W.W.E.rXgXgXjXjXBXBXBXBXjXBXBXBXMXBXBXhXMXhXXXhXMXMXMXXX@XXXXX.XXXXX.XXXXX.X}.{.{.{.{.|.XXXX.XXXXXXXXX@XXX|.{.}.}.}.{.}.}.{.{.}.|.XXXXXXOXXX|.}.|.^.^.^.^.^.^.^.^.^.^.^.^.~.~.~.~.~.~.~.U.~.~.U.U.U.U.U.U.Q.Q.Q.Q.!.!.!.!.Q.Q.U.L.L.J.L.L.L.L.Q.Q.!.Q.Q.L.L.J.G.H.F.H.H.H.H.F.Z.;.3.1.;.;.;.;.-.-.-.-.-.-.-.-.-.[ } [ ] %.i.i.i.y.y.9.<.&.&.&.%.%.%.%.%.+.+.+.+.+.@.@.@.@.+.@.@.@.@.@.@.} ] ] ] ] ] ] ] ] ] ] ] ] ] ] ] ] ] ] ] ] ] ' ' ` ` ` ` / / ~ ~ ~ W W W W W P P P L L j j j j j j g g g d d d d u u d d d d g g g g g j j j j j j B j B B W W W / / ) ` ` ` ' ' ] ' ' o.o.o.o.@.@.@.$.<.<.<.<.<.<.9.<.9.9.y.y.y.y.y.y.y.y.y.y.y.y.y.y.^ O 4 j d d d d d d d g d d d d d d d d d d 4 4 4 d d 4 4 4 4 4 4 4 4 4 4 4 4 4 4 4 4 ",
"E E E E E E E E E E E E E E E E E E E E W W W W E E W W W E E W W W W W W W W W E %.%.%.&.&.&.&.&.&.7.7.7.7.9.9.9.u.u.u.u.u.u.u.d.d.d.d.f.f.h.h.h.k.k.k.k.k.k.k.k.k.k.k.k.k.k.=X=X=X=X=X=X=X=X=Xc.c.c.c.c.=Xc.;Xv.;X;X;X;X;X;X;X:X:X:X:X;X;X;X;X;X;X;X;Xv.v.v.v.c.c.c.c.c.c.v.v.v.v.v.c.c.c.c.c.c.c.v.v.;X;X;X;X;X;X;X;X>X>X>X>X1X1X2X9X9X9X9X9X0X0X0X0X0XtXtXtXqXqXtXtXyXyXyXiXyXiXiXtXuXuXaXeX4XW.W.W.W.E.rXgXgXjXjXjXBXBXjXhXhXBXBXhXBXNXhXMXhXMXMXMXMX@X|.+X+XXX.XXX.X.X.XXXXX.X}.}.{.{..XXXXXXX.XXXXX+X+XXXXX.X{.{.}.|.}.}.}.}.}.|.XXXXXXXXXXXX|.|.|.^.^.^.^.^.^.^.^.^.^.~.~.~.~.~.~.U.U.U.~.U.U.U.U.U.U.!.!.!.Q.!.!.!.!.Q.Q.Q.U.L.J.J.L.L.Q.Q.[.!.Q.U.L.J.G.G.F.F.F.F.F.F.H.F.F.H.F.;.;.;.;.;.-.-.-.-.-.-.-.-.-._ [ } ] :.i.i.i.y.9.9.9.&.&.%.%.%.$.%.%.%.+.+.+.+.@.@.@.@.+.@.@.@.@.@.] ] ] ] ] ] ] ] ] ] ] ] ] ] ] ] ] ] ] ] ] ' ` ` ` ` ` ` / / / ~ ~ W W W W W W W P P L L l l j j j j g d d d d u u u u u d d d d d g g j j j j j j j j j j B W W W W / ) ` ` ` ` ' ' ' ....o.o.o.o.@.@.@.<.<.,.<.<.9.9.&.9.9.9.y.y.y.y.y.y.9.y.y.y.y.y.y.' O 4 j g g d d d d d d d d d d d d d d d d d d d d 4 4 4 4 4 4 4 4 4 4 4 4 4 4 4 4 4 ",
"E E E E E E E E E E E E E E E E E E E E W W W W E W W W W E E W W W W W W W W W E %.%.%.&.&.&.&.7.7.7.7.7.7.9.y.u.u.u.u.u.u.u.d.d.d.f.d.h.h.k.k.k.k.k.k.k.k.k.k.k.k.k.k.k.k.c.c.;X=X;X;X=X=X=X=X;X;X;X;X;X=Xc.;Xv.;X;X;X;X;X;X;X;X:X:X:X;X;X;X;X;X;X;X;X;X;Xv.v.v.v.c.c.c.c.v.v.v.v.v.c.c.c.c.c.c.c.v.v.;X;X;X;X;X;X;X;X>X>X>X>X1X1X1X9X2X9X9X9X9X9X0X0X0X0X0XtXqXqXtXtXyXyXiXyXyXtXyXtXuXuXaXaX4XW.W.W.W.E.rXgXgXjXjXBXBXBXBXhXhXBXBXMXNXNXMXMXhXMXMXXXMX+X|.XXXX.X.XXXXX.XXXXXXX.X.X{.{.{..XXXXXXXXXXXXXXX+XXXXX.X.X.X.X.X}.}.}.}.}.}.|.|.|.XXXXXX|.|.}.|.|.|.|.|.|.}.^.~.~.~.~.~.~.~.~.U.U.U.U.U.U.U.U.U.!.!.!.!.Q.!.!.!.Q.Q.Q.!.Q.L.L.J.L.L.!.!.!.!.Q.L.G.F.F.F.F.F.F.F.F.F.H.H.F.H.H.F.;.1.;.;.-.S S -.-.-.-.*.[ _ =.} ] :.i.i.i.y.y.9.9.&.&.%.%.%.$.%.%.%.+.%.+.+.@.+.+.@.+.@.@.o.o.] ] ] ] ] ] ] ] ] ] ] ] ` ' ' ] ] ] ] ] ] ] ' ` ` ` ` ` / / / / ~ ~ W W W W W W W P P L L l l j j j j g g d d d u u u d u u d d d d d g g j j j j j j j j j B W W W W ~ / ` ` ` ` ' ' ' ....o.o.o.@.@.@.@.$.<.,.<.<.9.9.<.9.7.9.9.y.y.y.y.y.7.9.y.y.y.y.y.' O 4 j g g g d d d d d g g d d d d d d d d d d d d 4 4 4 4 4 4 4 4 4 4 4 4 4 4 4 4 4 ",
"E E L E E N E E E N E E E E E E E E E E W W W W E E W W W W E W W W W W W W W W E %.%.%.e.e.e.e.7.y.y.9.9.y.y.u.u.u.u.u.u.u.d.d.d.d.f.f.h.h.k.k.k.k.k.k.k.k.k.k.k.k.k.c.k.c.c.c.;X;X;X;X;X;X;X;X;X;X;X;X;X;X;X;X;X;X;X;X;X<X<X:X:X:X:X:X;X:X;X;X;X;X;X;X;X;Xv.v.v.v.v.c.c.v.v.v.c.c.c.c.c.c.c.c.c.c.v.v.;X;X;Xv.v.v.;X;X>X>X>X>X1X1X1X2X1X2X9X2X9X2X9X0X0X0X0X0XqXtXtXtXyXyXiXyXyXyXyXtXuXaXaXaXW.W.W.W.W.E.gXgXjXBXBXBXBXBXBXhXhXhXNXMXNXBXBXNXMXMXMXXX@XXX{.{.XX|..XXXXX.XXXXXXX.X.X{.{.{..XXXXXXXXXXXXXXX+XXXXXXXXXXXXXXX|.|.}.}.}.}.}.}.|.|.XXXXXXOXXXOXOX|.|.|.|.|.}.^.}.^.^.^.~.~.~.~.U.U.U.U.U.U.U.U.U.!.!.!.Q.Q.!.!.!.!.Q.Q.!.U.L.L.L.L.L.L.L.J.J.G.F.F.F.F.F.F.F.F.F.F.F.F.H.F.F.F.;.;.;.;.G S S -.-.-.-.-.[ [ =.=.] @.i.i.i.y.y.y.9.&.&.&.%.%.$.%.%.%.+.%.+.+.+.o.o.o.+...@.@.] ] ] ] ] ] ] ] ] ] ] ' ` ` ` ' ' ' ' ' ] ] ] ' ` ` ) ) ` / / ~ ~ W W W W W W W W P P L L j j j j j j j g g d d d u u d d d d d f d d d g g g j j j j j j j j j B W W W ~ ~ ` ` ` ` ' ' ' ' ..o.o.o.@.@.@.@.@.<.<.<.<.<.<.&.9.9.9.9.y.y.y.y.y.7.y.y.y.y.y.y.' O 3 j g d d d d d d d d d d d d d d d d d d d d d d 4 4 4 4 4 4 4 4 4 4 4 4 4 4 4 4 ",
"E E L j j N E E E N E E E E E E E E E E W W W W E E W W W W E W W W W W W W W W E %.%.&.e.y.y.y.y.y.y.y.y.y.y.u.u.u.u.u.u.d.d.d.d.f.f.h.k.k.k.k.k.k.k.k.k.k.k.k.k.k.=X=Xc.c.c.=X;X;X;X<X;X;X;X;X;X;X;X;X<X;X;X<X<X<X<X<X<X<X:X:X:X:X:X:X:X:X;X;X;X;X;X;X;X;Xv.v.v.v.v.c.c.c.c.v.c.c.c.c.c.c.c.c.c.c.v.v.v.;Xv.v.v.v.v.;X;X>X>X>X>X1X1X2X1X2X2X2X2X2X9X0X0X0X0X0XqXqXtXtXyXyXiXiXiXiXiXtXuXuXaXaXW.W.W.W.W.rXjXBXZXZXZXBXBXBXBXNXhXhXNXNXNXNXNXMXMXNXMXXXXXXX{.|.}.{..XXXXX.XXXXX.X.X.X.X.X.X.XXXXX+X+XXXXXXXXXXXXXXXXXXX.X.X|.|.|.|.|.|.|.|.XXXX+X+X+X+X+X+X+XOXOXOXOX|.|.|.|.|.|.}.}.}.~.~.~.U.U.!.!.!.!.!.!.!.!.!.Q.Q.!.!.Q.Q.Q.!.Q.Q.L.L.J.G.G.F.F.F.Z.Z.Z.Z.F.F.F.F.F.F.F.F.H.F.F.F.F.3.;.;.;.;.G G G -.-.-.-.-.-.*.-.=._ @.i.i.i.i.y.y.9.<.&.&.%.%.%.%.+.+.+.+.+.+.o.] ] ] o.] ] ] ] ] ] ] ] ] ] ] ] ] ' ' ` ` ) ' ) ) ` ` ' ' ' ' ) ) ) / / ~ / ~ W W W W W W W W W P P L L j j j j j h h g d d d u u d d d d d d d f d d g g g j g j j j j j j j B W W W ~ ~ ` ` ` ` ` ' ' ' ..o.o.o.@.@.@.@.@.$.$.<.<.<.<.&.9.7.7.9.y.y.y.9.9.7.7.y.y.y.y.y.' O 3 j g d d d d d d d d d d d d 4 4 4 d d d d d d d 4 4 4 4 4 4 4 4 4 4 4 4 4 4 4 4 ",
"E j j N N N j E E E E E E E E E E E E E E E E E E W W W W W W W W W W W W W W W E %.&.&.y.y.y.y.y.y.y.y.y.y.u.u.u.u.u.u.d.d.d.f.f.h.h.k.k.k.k.k.k.z.k.k.k.k.*X=X=X=X;X;X;X;X=X=X;X;X;X;X;X<X<X<X<X<X<X<X<X<X<X<X<X<X<X<X<X:X:X:X:X:X:X:X:X:X:X;X;X;X;X;X;X;X;Xv.v.v.c.v.c.c.c.c.c.c.c.c.c.c.c.c.c.v.v.v.v.v.v.c.v.v.v.v.v.;X;X>X>X1X1X1X2X2X2X2X2X9X9X0X0X0X0X0XqXqXtXtXtXiXiXiXiXiXiXuXuXuXaXeX4XW.W.W.W.gXjXZXAXAXAXZXZXZXZXBXNXMXNXMXhXhXoX.XXXMXXXXXXXXXXXXX.X{..XXXXX.XXXXXXXXXXXXX.XXXXXXX@X@X@XXXXXXXXXXXXXXX.X.X.XXX.XXXXX+XXXXXXX+X+X+X@X@X+X@X+X+X+X+X+X+XOXOXOXXXXXXX|.|.}.|.}.^.~.~.!.~.!.!.!.!.!.!.!.!.!.Q.Q.Q.Q.Q.Q.Q.Q.L.L.J.G.G.F.A.A.A.A.Z.A.A.Z.F.F.F.F.F.F.F.F.H.F.F.F.Z.;.3.3.;.;.G -.;.;.3.1.-.-.=.-.=.] =.i.i.i.i.y.y.y.9.&.&.%.%.%.+.+.+.+.+.+.{ ] ' ' ' ] ] ] ] ] ] ' ' ' ' ' ' ] ' ' ' ` ` ` ` ) ) ` ` ` ` ` ` ` ) / / / ~ ~ ~ W W W W W W W W P P P L j j j j j j h h d d d d d 1 1 1 t d d d d d d d d g g g g g j j j j j j j W W W W ~ ) ) ` ' ` ' ' ' ..o.o.o.o.@.@.@.@.$.$.,.<.<.&.&.7.7.7.7.9.y.y.9.7.7.7.y.y.y.y.y.' O 3 j g d d g g d g d d d d d d d 4 4 4 d d d d d d 4 4 4 4 4 4 4 4 4 4 4 4 4 4 4 4 ",
"N N E E N N E L E E E E E E E E E E E E W E E E E E W W W W W W W W W W W W W W E %.&.&.y.y.y.y.y.y.y.y.u.u.u.u.u.u.u.f.f.f.f.f.h.k.k.k.k.k.k.k.z.z.;X;Xz.k.*X=X=X;X;X;X;X;X;X;X;X;X;X;X;X<X<X<X>X>X>X<X>X>X>X<X<X>X>X,X<X:X:X:X:X:X:X:X:X:X:X:X;X;X;X;X;X;X;Xv.v.v.c.c.v.c.c.c.c.c.c.c.c.c.c.c.c.v.v.v.v.v.v.c.v.c.c.v.v.;X;X;X>X>X1X1X1X2X2X9X2X9X9X0X0X0X0X0XqXqXtXtXyXiXiXpXsXiXsXuXuXuXaXeX4XW.W.rXgXjXZXAXAXJXHXAXAXZXBXNXMXMXhXhX.X.X X.X.XXXXX.X.XXXXXXX{.{.{.XXXX.XXXXXXX.XXXXX.X.XXX+X@X@X@XXXXXXXXXXXXXXX.X.XXXXXXXXX+X@X@X@X@X@X@X@X@X@X@X@X+X+X+X+X+X+X+X+X+X+X+XOXOXXXXX|.}.}.~.~.~.~.~.~.!.!.!.!.!.!.!.!.!.!.Q.Q.U.L.L.J.J.G.G.G.G.F.A.A.Z.A.A.A.Z.F.F.F.F.F.F.F.F.H.H.F.F.F.F.3.3.3.;.;.;.;.;.3.1.-.-.-.:.:.} :.i.i.i.i.y.y.y.9.&.&.%.%.%.+.+.+.+.+.+.{ ' ' ' ' ' ' ] ] ' ' ' ' ` ` ` ` ' ' ' ' ` ` ` ` ) ) ' ` ` ` ` ` ) ) ) / ~ ~ ~ ~ W W W W W W W W P P P L j j j j j j h d d d d d d 1 1 < < d d t d d d d d d d g g g g j j j j j j B W W W ~ / ) ` ` ` ` ' ' ..o.o.o.@.@.@.@.@.$.$.$.<.<.&.&.&.7.7.7.9.y.y.9.7.7.7.y.y.y.y.i.' O 3 j g d d d d d d d d d d d d d d d 4 d d d d d d 4 4 4 4 4 4 4 4 4 4 4 4 4 4 4 4 ",
"E E E E N N E E E E E E E E E E E E E E W W E E W W W W W W W W W W W W W W W W E &.&.&.y.y.y.y.y.y.y.u.u.u.u.d.u.d.f.f.h.h.h.h.k.k.k.k.k.k.*X*X*X;X;X;X;X;X;X=X;X<X;X;X;X;X<X<X;X<X<X<X<X<X<X<X<X<X<X>X>X>X>X<X1X<X1X<X<X<X<X:X:X:X:X:X:X:X:X;X;X;X;X;Xv.v.;Xv.v.v.v.v.v.v.c.c.c.c.c.c.c.c.c.c.c.c.v.v.v.c.c.c.c.c.c.c.c.v.;X;X;X>X1X1X2X2X2X9X2X9X9X0X0X0X0X0XqXqXtXtXyXiXiXiXiXiXiXuXuXuXaXeX4XW.rXgXjXZXZXAXHXLXHXAXZXBXhXgXhXhX.X XoXoX X.X.X{.{.}.{.~.~.~.!.!.~..X.X{.XXXXXX.X.X.X.X.XXX+X@X@X+XXXXXXXXXXXXXXXXXXXXX+X@X@X@X@X@X@X@X@X@X@X@X@X@X+X+X+XOXOX+X+X+X+X+X+X+X+X+X+X+XOX|.}.|.^.~.~.!.!.!.!.!.!.!.!.!.!.!.!.Q.Q.U.J.G.G.G.G.G.G.G.F.A.Z.Z.A.A.F.Z.Z.F.F.F.F.F.F.F.H.F.F.F.F.3.3.3.3.3.3.;.;.;.3.1.1.-.-.>.:.} ,.i.i.i.i.y.y.y.9.&.&.%.%.%.+.+.+.+.+.+.' ' ` ' ' ` ` ' ' ` ` ` ` ` ] ` ` ' ' ' ) ) ) ` ` ` ' ` ` ` ` ` ) ) ) / / / ~ ~ W W W W W W W W W P P P L j j j j j h h d d d f d d d 1 < t t 1 t d d d d d d d g g g g g j j j j j B W W W ~ / ) ` ` ` ` ' ' ..o.o.o.@.@.@.@.%.$.$.&.<.&.&.&.&.7.7.7.7.y.y.9.7.7.7.y.y.y.y.i.' O 4 j g d d d d d d d d d d d d d d d d d d d d d d 4 4 4 4 4 4 4 4 4 4 4 4 4 4 4 4 ",
"E E E E E E E E E E E E E E E E E E E E W W W W W W W W W W W W W W W W W W W W E &.&.&.y.y.y.y.y.u.u.u.u.d.u.u.f.f.f.h.h.h.k.k.k.k.k.k.k.z.*X*X*X;X;X;X;X;X;X;X;X<X<X<X<X<X<X<X<X<X<X<X<X<X<X<X<X<X<X>X>X>X1X>X1X1X1X<X<X<X<X<X:X:X:X:X:X:X:X;X;X;X;X;Xv.v.;Xv.;Xv.v.v.c.v.c.c.c.c.c.c.c.c.c.c.c.c.v.v.c.c.c.c.c.c.c.c.c.v.;X;X;X>X1X1X2X2X2X9X2X9X9X9X0X0X0X0X0XqXtXtXyXiXiXiXiXiXiXuXuXuXaXaXeXW.rXjXZXZXAXAXHXHXZXBXjXjXgX X X.X X[..X.X[..X.X[.[.[.U.U.U.U.Q.Q.!.{.{.{..XXXXXXXXX.X.X.XXX@X@X@X@X+X+X+X+X+X+X+XXXXX+X@X@X@X@X@X@X@X@X@X@X@X@X@X@X+X+XXXOXOXOX+X+X+X+X+X+X+X+X+X+X+XOXXX}.}.~.~.!.!.!.!.!.!.!.!.!.!.Q.Q.Q.Q.L.J.G.G.F.F.F.F.F.F.F.Z.Z.Z.A.A.A.A.F.F.F.F.F.F.F.H.F.F.F.F.3.3.3.;.3.3.;.;.-.3.>.1.-.-.>.:.=.:.i.i.i.y.y.y.y.y.&.&.%.%.%.+.+.+.+.+.+.' ' Q Q ` ` ` ` ` ` ` ` ` ) ` ` ` ` ' ) ) ` ` ` ` ` ` ` ` ` ` ` ` / ` ) / / ~ ~ W W W W W W W W W P P P L j j j j j h h d d d f f d d < < < t t t t d d d d d d d d g k k k j j j j j W W W W ~ ) ` ` ` ` ' ] ....o.o.@.@.@.@.%.$.$.&.&.&.&.&.&.&.7.7.9.y.y.9.7.7.7.y.y.y.y.y.' O 4 j g d d d d d d d d d d d d d d d d d d d d d d d 4 4 4 4 4 4 4 4 4 4 4 4 4 4 4 ",
"E E E E E E E E E E E E E E E E E E E E E E E W W W E E E E E W W W W W W W W W E &.&.7.y.y.y.y.y.u.u.f.u.f.d.f.f.k.k.h.k.h.k.k.k.k.k.k.z.;X;X;X;X;X;X;X<X<X<X<X<X<X<X<X<X<X<X<X<X<X<X<X<X<X<X<X>X>X>X<X>X1X1X1X1X1X1X1X1X<X<X,X,X,X,X,X:X:X:X:X;X;X:X;X;X;X;X;Xv.v.c.c.c.c.c.c.c.c.c.c.c.c.c.c.c.c.c.c.c.c.c.v.v.c.c.v.v.v.=X=X;X>X1X1X1X2X2X9X2X9X9X9X0X0X0X0X0X0XqXtXyXiXiXpXiXiXiXuXuXaXaXaXrXrXgXZXZXZXZXZXZXBXjXhXgXgX XR.R.Q.Q.Q.Q.Q.Q.Q.U.U.U.U.U.U.U.P.U.U.!.~.{.{.{.{..X.X.XXX.X.XXX+X@X@X@X@X@X@X@X@X+X+X@X@X@X@X@X@X@X@X@X@X@X@X@X@X+X+X+X+X+X+X+X+X+X@X@X@X@X@X@X@X@X@X@X+X+X+X+XXX.X.X{.!.Q.Q.!.!.Q.Q.!.!.Q.U.U.L.L.J.G.F.F.F.F.F.F.F.F.F.Z.Z.A.A.A.F.F.F.F.F.F.F.F.H.F.F.F.F.3.3.3.;.3.3.;.;.;.1.1.1.-.-.:.:.:.,.i.i.i.y.y.y.y.e.&.&.%.%.%.+.+.+.+.+.+...' ` ` ` ` ' ' ' ' ` ` ` / ) ` ` ` ) ` ` ` ` ` ` ` ` ) ) ` ` ` ` ` / / ~ ~ ~ / ~ W W W W W W W W W P P L j j j j j h h d d d f d d d t < 1 1 t t d d f d u u d d d g k k k k j j j j B W W W ~ ~ ` ` ' ] ' ] ] ......+.+.@.@.@.$.$.$.&.&.&.&.&.&.&.&.9.9.y.9.9.9.9.y.y.y.y.y.' O 4 j g d d d d d d d d d d d g g d d d d d d d d d d 4 4 4 4 4 4 4 4 4 4 4 4 4 4 4 ",
"E E E E E E E E E E E E E E E E E E E E E E E E W W W W E E W W W W W W W W W W W &.y.e.u.u.y.u.u.i.f.f.f.f.f.f.k.k.k.h.h.k.k.k.k.k.*X*X;X;X;X;X;X;X<X<X<X<X<X<X<X<X<X1X1X<X<X<X<X<X<X<X<X<X<X<X<X<X>X>X<X1X1X1X1X1X1X1X1X<X<X<X,X,X,X,X:X:X:X:X:X;X;X;X;X;X;X;X;X;Xc.c.c.c.c.c.c.c.c.c.c.c.c.c.c.c.c.c.c.c.c.c.c.c.c.v.v.v.;X;X;X>X>X1X1X1X1X2X1X2X9X9X0X0X0X0X0X0XtXtXyXiXpXiXiXiXiXuXfXfXaXaXaXgXgXjXZXZXjXgXgXgX X].].E.R.K.L.J.J.J.G.G.G.J.J.J.J.J.J.J.J.J.P.U.U.!.~.{.{.{.{.}.{..X.X.X.X.X@X@X@X@X+X+X+X+X+X+X+X+X@X@X@X@X@X+XXXXXXXXXXXXXXXXXXXXXXX|.XXXXXX+X+X+X+X@X@X@X@X@X@X@X@X@XXXXXXXXX.X{.[.!.!.!.[.[.[.[.[.!.Q.Q.L.L.J.G.F.F.F.F.F.F.F.F.F.Z.A.F.F.F.F.F.F.F.F.F.F.H.H.F.F.F.3.3.3.;.;.;.;.;.;.;.1.-.-.-.>.:.:.,.i.i.i.y.y.y.y.e.&.&.%.%.%.#.#.+.+.+.+.....] ] ' ' ' ' ' ' ' ' ` ` ` ` ` ` ` ` ` ` ` ` ` ` ` ) ) ` ` ` ` ` ` ` ` ~ ~ ~ ~ W W W W W W W P P P P j j j j j j d d d d d d d t t t t 1 t t t d f d d u u d d d u u g k k j j j j B B W W ~ ~ ` ` ' ] ' ] ] ' ....+.+.+.+.+.$.$.$.$.%.&.&.&.&.&.&.7.9.9.9.9.9.9.y.y.y.y.y.' O 4 j g d d d d d g d d d d d d d 4 d d d d d d 4 d d 4 4 4 4 4 4 4 4 4 4 4 4 4 4 4 ",
"E j N E N N L L N N N E E E E E E E E E E E W W W W W W W W W W W W W W W W W W W <.y.y.i.u.i.i.f.f.f.f.f.f.f.k.k.k.k.k.k.k.c.=X*X*X*X*X;X;X;X<X<X<X<X<X<X<X<X1X<X<X<X1X1X1X1X1X<X<X<X1X1X1X<X1X>X>X>X>X1X1X1X1X1X1X1X1X1X<X<X<X>X>X,X,X:X:X:X<X:X;X;X;Xv.v.;X;Xv.v.v.v.c.c.c.c.c.c.c.c.c.c.c.c.c.c.c.c.c.c.c.c.c.c.c.c.c.v.;X;X;X;X>X>X1X1X1X1X1X1X2X9X9X9X9X9X0X0XqXqXyXyXiXiXiXiXuXuXfXaXaXaXxXjXgXgXBXjXgXE.T.T.Y.H.H.5.5.3.3.F.F.F.F.F.F.F.F.F.F.F.G.G.G.G.J.P.U.U.!.~.~.!.!.!.{.}.}.|.XXXXXX+X+X+XXXXXXXXXXXXXXXXX+X+X+X+XXX|.}.}.|.|..XXXXXXXXX.X.X.X.X.X.X.X.X{.}..XXXXXXXoXoXXXoXoXXXXX.X.X.X.X.X{.{.{.{..X.X{.[.[.[.[.U.L.J.G.G.F.F.F.F.F.G.F.F.F.F.F.G.G.G.F.F.F.F.F.F.H.H.F.F.F.3.3.3.;.3.3.3.;.;.1.1.1.-.-.>.:.:.,.i.i.y.y.y.y.y.4.&.&.%.%.#.#.#.+.+.+.+.......] ] ....' ' ' ' ' ' ` ` ` ` ` ` ` ` ` ` ` ` ` ` ` ` ` ` ` ` ` ` ` ` ~ / ~ ~ W W W W W W W P P P P j j j j j h h d d d d f d t t t t t t t t t f f f u u u d d d f f k k k j j j B B B W ~ ~ ` ` ` ] ' ' ' ' ] ..+.+.+.+.+.+.$.$.$.%.%.%.&.&.&.&.&.7.9.9.9.9.9.y.y.y.y.y.' O 3 j g d d d g d d d d d d d d d d d d d 4 d d 4 d d 4 4 4 4 4 4 4 4 4 4 4 4 4 4 4 ",
"L j N E N N N N N N N E E E E E E E E E E W W W W W W W W W W W W W W W W W W W W 9.u.u.d.d.d.f.f.f.f.k.f.f.k.k.k.k.c.k.k.c.=X;X=X*X;X;X;X;X<X<X<X<X<X<X<X<X1X1X<X<X1X<X1X1X1X1X<X1X1X1X1X1X1X1X>X>X>X<X1X1X1X1X1X1X1X1X1X<X<X<X1X>X,X:X:X:X;X<X<X:X;X;X;Xv.v.v.;X;Xv.v.c.c.c.c.c.c.c.c.c.c.c.c.h.c.c.c.c.c.c.c.c.c.c.c.c.c.c.;X;X;X>X>X1X1X1X1X1X1X9X9X9X9X9X9X0X0X0X0XyXyXyXiXiXiXuXuXaXaXeXaXxXjXrXrXgXrXT.>.-.1.1.-.-.-.-.-.-.-.G F F G G G ;.Z.B.Z.F.F.G.G.G.J.P.U.U.U.U.U.!.!.!.!.{.}.}.|.XXXX|.|.}.}.}.}.}.}.}.}.}.|.|.|.}.}.{.{.}.{.{.}..X.X{.{.[.[.[.[.[.[.[.[.[.[.[. X X X X X X[.[.[.[.[. X.X.X.X.X.X.X X{.{..X.X[.[.Q.L.L.J.G.G.F.F.F.F.G.G.F.F.F.F.F.F.F.F.F.F.F.F.F.H.F.H.F.F.3.3.;.3.3.F.3.3.3.3.3.1.>.>.>.:.:.,.i.i.y.y.y.y.y.4.&.&.%.%.%.#.+.+.+.+.+.........] ......' ' ' ' ' ' ` ` ` ` ` ` ` ` ` ` ` ` ` ` ` ` ` ` ` ` ` ` ` ` / / ~ ~ W W W W W W P P P P j j j j j h d d d d d f f d t t t t t t t t u t d u u u d d f f f f k k k j j j B B B W ~ ` ` ` ' ' ' ' ' ] ..+.+.+.+.+.+.#.#.$.$.$.$.%.%.&.&.&.&.&.&.&.7.9.9.y.y.y.y.' O 4 j g d d d d d d d d d d d d d d d 4 d d d d 4 d d 4 4 4 4 4 4 4 4 4 4 4 4 4 4 4 ",
"E E N N E E E E E E E E E E E E E E E E E W W W W W W W W W W W W W W W W W W W W 9.u.u.d.d.d.f.f.f.f.h.g.k.k.k.c.c.c.c.k.=X=X;X=X;X;X;X;X<X<X<X<X<X<X<X1X1X1X1X<X1X1X<X1X1X1X1X1X1X1X1X1X1X1X1X<X>X1X1X1X1X1X1X1X1X1X<X<X1X1X1X>X<X>X,X:X:X<X<X:X:X:X;X;X;Xv.;X;X;Xv.v.c.c.c.c.v.c.c.c.c.c.c.k.k.k.c.c.c.c.c.c.c.c.c.c.c.c.v.v.c.;X;X>X>X1X1X1X1X2X2X9X9X9X9X0X0X0X0X0X0XyXyXyXiXiXuXuXaXaXeXaXgXjX].].].T.>.*.C S C C m m m m m m Z Z Z Z S D D G G B.B.B.B.F.F.G.G.L.P.U.U.U.U.U.!.!.!.!.!.{.{.{.{.{.{.{.[.[.[.[.[.[.{.{.[.{.{.[.!.!.!.!.!.!.!.!.Q.Q.Q.Q.Q.Q.Q.R.R.R.R.Q.R.R.R.R.R.L.L.L.K.L.J.L.R.[. X.XoXoX X X[.[..XoX{.[.!.U.L.J.G.G.G.F.F.F.G.G.F.F.F.F.F.F.F.F.F.F.F.F.F.F.H.F.F.F.Z.;.3.3.F.F.3.3.3.5.3.3.1.>.>.:.-.:.4.i.i.y.y.y.y.4.&.&.%.%.%.$.+.+.+.+.+...+.......] ' ' ' ' ' ' ' ' ' ` ` ` ` ` ` ` ` ` ` ` ` ` ` ) ) ` ` ` ` ` ` ` / / / ~ W W W W W W W P P j j j j j h h d d d d f d d d t 1 t 1 t t t t t u u u u u f d f f f u f k g j j j B B B W W Q ` ` ` ` ' ` ] ] ] ..+.+.+.+.+.+.+.#.$.$.$.%.$.%.%.&.&.&.&.7.9.9.y.y.y.y.y.^ O 3 j g d d d d d d d d d d d d d d d d d d d d d d d 4 4 4 4 4 4 4 4 4 4 4 4 4 4 4 ",
"E E N N E E E E E E E E E E E E E E E E E W W W W W W W W W W W W W W W W W W W W y.u.u.d.d.d.f.f.k.k.k.k.k.k.c.c.c.=X=X=X=X;X;X;X<X<X;X<X<X<X<X<X<X<X1X2X2X1X1X1X1X2X2X1X1X1X1X1X1X1X1X<X1X1X1X1X1X1X1X1X1X1X1X1X1X1X1X<X1X1X1X<X<X>X>X,X;X<X<X:X:X;X:X;X;X;X;X;X;X;Xv.c.c.c.v.c.c.c.c.c.k.k.k.h.h.k.k.k.k.k.k.k.k.k.k.c.c.c.c.c.;X;X>X>X>X1X1X1X1X8X9X9X9X9X9X9X0XqX0X0XqXyXyXtXiXuXuXaXaXeXrXgXrXW.E.T.>.*.C c c u - = 0 0 0 0 t t q u i i i m Z D D D G G B.B.A.F.G.J.L.P.U.U.U.U.U.U.U.U.U.U.!.!.U.U.U.U.U.U.U.U.U.U.U.U.U.U.U.U.U.L.L.L.L.U.Q.R.R.L.L.J.J.J.H.H.H.H.F.F.F.F.F.F.3.;.;.;.;.;.F.H.K.R.[. X X{.[.[.[. XoX X[.Q.Q.L.J.J.G.G.F.F.F.G.G.F.F.A.F.F.F.F.F.F.F.F.F.F.F.F.F.F.Z.;.;.3.3.3.3.3.3.3.3.3.3.1.>.1.4.-.4.4.i.i.y.y.y.y.4.&.&.&.&.%.$.+.%.+.+.+.+.+.....] ] ' ' ' ' ' ' ' ' ' ` ` ` ` ` ` ` ` ` ` ` ` ` ` / ) ` ` ) ` ` ` ` / / / ~ W W W W W W W P P j j j j h d d d d d d f d d d t 1 1 1 < t t t t t t t u u f d f f f f f k g j j j B B B W W ~ ~ ` ` ` ` ` ` ' ] ..+.+.+.+.+.+.+.#.#.#.#.%.$.%.%.%.&.&.&.&.7.9.y.9.y.y.y.^ O 4 j g d d d d d d d d d d d d d d d d d d d d d d d 4 4 4 4 4 4 4 4 4 4 4 4 4 4 4 ",
"E E N N E L E E E E E E E E E E E E E E E W W W W W W E E W W W W W W W W W W W E 9.d.u.d.d.d.f.f.g.k.h.h.k.k.k.c.=X=X=X=X=X;X;X<X<X<X<X<X<X<X<X<X<X1X1X2X2X2X2X2X2X2X2X2X2X2X2X1X1X1X1X<X1X<X1X1X1X1X1X1X1X1X1X1X1X1X1X1X1X1X1X<X>X>X>X>X<X<X<X:X:X;X;X;X;X;X;X;X;X;X;Xc.c.v.v.v.c.c.c.c.k.k.k.h.h.h.h.h.h.k.k.k.k.k.k.k.c.c.c.c.;X;X>X>X>X1X1X1X8X9X9X9X9X9X9X9X0XqX0X0XqXyXyXtXiXuXwXaXaXeXaXrXW.T.T.5.*.C z u u - - & - - - - - - - - - - = 0 q i i Z D D G G B.B.F.G.G.J.P.P.P.P.P.U.P.P.P.U.U.U.U.U.U.U.U.U.U.U.U.U.U.U.P.L.L.J.J.G.G.G.G.J.L.L.J.H.H.S.S.;.;.*.G S S S S S S G S S S S S G G ;.F.K.R.[.[. X[.[. XoXXX X[.[.!.U.L.J.G.G.G.F.F.F.G.G.A.A.A.F.F.F.F.F.F.F.F.F.F.F.F.F.F.3.;.;.3.3.3.3.3.;.;.;.-.-.-.3.3.4.4.4.i.i.y.y.y.y.4.&.&.&.&.&.$.$.%.+.+.+.+.....] ] ' ' ' ' ' ' ' ' ' ' ` ` ` ` ` ` ` ` ` ` ` ` ` ` ` ` ~ ~ / ) ) ` ` / / / ~ W W W W W W W P P j j j j h d d d d d d d d d t t 1 1 < < t t t t t t t t u f u f f d f k g g j j j B B B W W ~ ~ ` ` ` ` ` ' ] ] ..+.+.+.+.+.+.+.+.+.#.#.#.$.$.$.%.%.&.&.&.&.7.9.y.9.9.y.^ O 4 j g d d d d g d d d d d d d d d d d d d d d d d d 4 4 4 4 4 4 4 4 4 4 4 4 4 4 4 ",
"L L N N E L L L E E E E E E E E E E E E E W W W W W E E E W W W W W W W W W W W E 9.d.u.d.d.d.f.f.g.k.k.k.h.h.c.c.=X=X=X=X=X=X-X;X<X<X<X<X1X<X1X<X1X2X1X2X2X2X1X2X2X2X2X2X2X1X1X1X1X1X1X1X1X1X1X1X1X1X1X1X1X1X1X1X1X1X1X1X1X1X1X<X<X<X<X;X<X;X<X<X<X;X;X;X;X;X;X;X;X;X;X;Xv.v.v.v.v.v.c.c.k.k.k.h.h.h.h.k.k.k.k.k.k.k.k.k.k.v.c.c.;X;X>X>X>X1X1X1X8X8X9X9X9X0X9X9XqXqX0X0X0XyXyXyXiXuXuXaXaXeXrX].T.Y.5.1.C z u - - - & & & # # # # # # # # # # $ & 0 q q i v Z D A G B.A.G.G.G.J.J.J.P.J.J.J.J.J.L.L.L.L.P.P.U.P.U.P.P.P.L.L.L.J.G.F.A.Z.B.G ;.;.A.;.;.;.;.*.*.S S x i i i i i i i i m m m m i m S D ;.F.K.L.[.[. X XoXoXoX X[.[.[.!.L.J.G.G.F.F.F.G.G.G.G.A.A.F.F.F.F.F.F.F.F.F.H.F.F.F.3.3.;.;.;.;.3.;.;.;.-.-.-.-.-.-.3.4.4.4.i.i.y.y.y.y.4.&.&.&.&.&.%.#.+.+.+.+.+.+.....] ] ' ' ' ' ' ` ` ` ' ` ` ` ` ` ` ` ` ` ` ` ` ` ` ~ ~ ~ ~ / / / / ~ / / / ~ W W W W W W W P P j j j h d d d d d d d f d d t t t < < , , < < t t t t t t u u d d d d d g g j j j B B B W W ~ ~ ` ` ` ` ` ' ] ....+.+.+.+.+.+.+.+.+.+.+.#.$.$.$.$.$.&.&.&.&.9.9.9.y.9.y.^ O 4 j g d d d d g d d d d d g d d d d d d d d d d d d 4 4 4 4 4 4 4 4 4 4 4 4 4 4 4 ",
"E E E E E E E L N N N E E E E E E E E E E E W W W W W W W W W W W W W W W W W W E y.f.d.f.d.d.f.g.k.h.k.h.h.h.c.=X=X-X-X=X-X-X-X<X<X<X<X1X1X1X1X2X2X2X2X2X2X1X2X2X2X2X2X2X2X2X1X1X1X1X1X1X1X1X1X1X1X1X1X1X1X1X1X1X1X1X1X1X1X1X>X>X>X>X<X<X<X;X;X;X;X;X;X;X;X;X;X;X;X;Xv.v.v.v.v.v.v.v.c.v.k.k.k.h.h.h.h.k.k.k.k.k.k.k.k.k.k.k.v.c.;X;X<X>X>X>X1X1X1X8X9X9X9X9X9X9XqXqX0XqXqXqXyXtXiXuXuXaXaXeXrXW.5.>.-.C m u - - - - & & # # . + # # # # # # + + # $ $ $ 0 q i i Z D D G B.F.F.G.G.G.G.G.G.G.G.G.G.G.J.J.J.L.L.L.L.L.J.J.G.G.G.F.Z.B.G G D D Z v v i i i i t t t 0 0 & & & & $ & & = 0 q q q 0 q i i S G F.K.L.L.[.[. X X X X[.[.[.Q.U.L.G.F.F.A.A.G.G.G.G.A.S.F.F.F.F.S.F.F.F.H.H.F.F.3.;.;.3.;.;.;.;.;.;.;.-.-.-.-.-.-.>.4.4.4.i.i.y.y.y.y.4.&.&.&.&.&.&.$.+.+.@.@.+.+...] ' ' ' ' ' ` ` ` ` ` ` ` ` ` ` ) ` ` ` ` ` / / / / / / / / / / / / ~ ~ / ~ W W W W W W W P j j j j j j d d d d d d d f d d t t t t < , , , t t t t t t t d u d d d d d g g g j j B B B W W W ~ ~ ` ` ` ` ' ] ....+.+.+.+.+.+.+.+.+.#.#.$.$.$.$.$.$.&.&.&.&.7.9.9.y.9.y.^ O 4 j g d d d d d d d d g d d d d d 4 d d d d d d d d 4 4 4 4 4 4 4 4 4 4 4 4 4 4 4 ",
"E E E E E E E L N N E E E E E E E E E E E E W W E E W W W W W W W W W W W W W W E y.f.d.h.h.h.h.k.k.k.c.k.k.h.c.=X-X-X-X-X-X-X<X<X<X<X<X1X1X1X1X1X1X2X2X2X2X1X1X2X2X2X3X0X0X0X1X1X1X1X1X1X1X1X1X1X1X1X1X1X1X1X1X1X1X1X1X1X1X1X>X>X>X>X>X;X;X;X;X;X;X;X;X;X;X;X;X;X;X;Xv.v.v.v.v.v.v.v.v.z.k.k.k.k.k.k.k.k.k.k.k.k.k.k.k.k.k.z.k.c.;X;X<X>X>X>X1X1X1X1X9X9X9X9X9X9XqXqXqXqXqXtXyXyXiXuXuXaXaXrXrXT.1.-.*.C u t - - - # # # + . . . . X . . . . . . + # # $ & 0 0 q q v Z D G B.B.A.A.V.V.G.G.G.G.G.G.G.G.G.G.J.J.J.J.G.G.G.F.B.B.B.F D Z Z Z i q q 0 0 0 & & $ $ # # + + + + # $ # $ $ = 0 0 0 0 = 0 q i D ;.F.H.H.L.L.[.[.[.[.[.[.[.[.U.J.G.F.A.A.A.G.G.G.G.G.S.G.F.F.F.F.F.F.F.H.F.F.F.;.;.;.3.;.;.;.;.;.;.;.-.-.-.-.-.-.-.>.4.4.i.i.i.y.y.y.4.&.&.&.&.&.&.$.+.+.+.+.+.+.......' ' ' ' ' ` ` ` ` ` ` ` ) ) ` ` ` ` ` ` / / / / ~ ~ ~ ~ / / / / ~ ~ ~ ~ W W W W W W W P j j j j j j d d d d d d d f d d t t t t < , < , , t t t t t t d d d d d f d d k k j j B B B W W W W / / ` ` ` ' ] ..+.+.+.+.+.+.+.+.+.+.#.#.#.$.$.$.$.%.&.&.&.&.&.9.9.9.9.y.^ O 4 j g d d d d g d d d d d d d d d 4 d d d d 4 d d d 4 4 4 4 4 4 4 4 4 4 4 4 4 4 4 ",
"N N N N E E E E E E E E E E E E E E E E E E W W E E E E E W W W W W W W W W W W E u.f.f.h.h.h.k.h.h.x.c.h.h.h.c.=X-X-X-X-X-X-X<X<X<X<X<X1X1X1X2X1X1X1X1X1X1X1X1X1X1X3X3X3X3X1X3X1X1X1X1X1X1X1X1X1X1X1X1X1X1X1X1X1X1X1X1X<X<X>X>X>X>X;X;X;X;X;X;X;X;X;X;X;X;X;X;Xv.;X;Xv.v.v.v.v.v.v.v.v.z.k.k.k.k.k.k.k.k.k.k.k.k.h.k.k.k.k.k.k.v.v.;X;X>X>X>X>X>X1X1X8X9X9X9X9X9XqXqXqXqXqXtXyXyXyXuXuXaXaXrXrXT.-.-.C m u - - & # + + + . . . . . . . . . . . . . . . . + # $ $ 0 q i Z D A G B.B.B.V.V.V.V.V.F.F.F.G.G.G.G.G.G.G.F.B.B.B.G F A e e q q q 0 7 $ & & $ # # # + + . . + + + + + # # $ & = 0 0 0 = 0 q i Z G ;.;.F.F.H.L.L.L.U.Q.!.Q.!.U.J.G.F.F.G.G.G.G.J.J.G.G.G.G.G.H.H.H.F.F.H.F.F.3.3.;.;.;.;.;.;.;.;.;.;.-.-.-.S S -.-.>.4.4.i.y.i.y.y.y.4.&.&.&.7.&.&.$.+.$.+.+.+.+.......' ' ' ' ' ' ` ` ` ` / ` ) / / / ~ ~ ~ ~ / / / / / W ~ ~ ~ ~ ~ ~ ~ ~ ~ W W W W W W W W W j j j j j j g g d d d d d f d d d t t < t < < , , , t t t t t d u d d d f d f k k j j B B B W W W W / / ` ` ` ] ] ..+.+.....+.+.+.+.+.+.+.#.#.#.$.$.%.$.&.&.&.&.&.&.9.9.9.y.^ O 4 j g d d d d d d d d d d d d d d d d d d d 4 4 d d 4 4 4 4 4 4 4 4 4 4 4 4 4 4 4 ",
"E N N N E E E E E E E E E E E E E E E E E E W W E E E E W W W W W W W W W W W W E u.h.h.h.h.h.h.k.h.c.c.c.c.c.=X=X-X-X-X-X-X<X<X<X<X1X1X1X1X2X2X1X1X1X1X2X2X1X1X1X1X1X3X3X9X9X8X9X0X9X9X8X8X8X8X8X8X8X8X8X1X1X1X1X1X1X1X<X>X>X>X>X>X;X;X;X;X;X;X;X;X;X;X;X;X;X;X;X;X;Xv.v.v.v.v.v.v.z.z.k.k.k.k.k.k.k.k.k.k.k.k.k.k.k.k.k.k.k.k.c.v.;X;X<X<X>X>X>X1X1X8X9X9X9X9X9XqXqXqXqXqXtXyXyXyXuXuXeXeXrXrXs.*.S m t - # # # . . . . . . . . .       . . . . . . . . . + + $ $ $ 0 q i Z A D G B.B.B.B.B.B.F.F.F.F.F.F.F.F.A.B.B.B.F D A Z e q q 0 0 7 $ $ $ + + + . . . . . . . . + + + + + + # $ $ $ & $ $ 0 q q i D D G G G Z.F.G.J.L.L.L.Q.Q.U.L.G.G.G.G.J.J.J.J.J.J.G.G.G.H.H.H.H.H.F.H.F.F.;.;.;.;.;.;.;.;.;.;.;.;.;.-.-.S S -.-.-.4.4.i.y.i.i.y.y.&.&.&.7.7.7.&.%.+.$.@.@.+.+.+.....' ' ' ' ' ' ` ` ` ` ` ` / / / / / ~ ~ / / / / ~ ~ W ~ ~ ~ ~ ~ ~ ~ ~ ~ W W W W W W W W B j j j j j j g g d d d d d u d u d t t < t < , , , t t t t t t d u u u d d d f k k j j B B B W W W W / / ` ` ` ] ] ..+.+.....+.+.+.+.+.+.+.+.$.$.%.%.%.$.&.&.&.&.&.&.9.9.9.y.^ O 4 j g d d d d d d d d d d d d d d d d d d d 4 4 d 4 4 4 4 4 4 4 4 4 4 4 4 4 4 4 4 ",
"j j N N N N N N j j N N E E E E E E E E E E W W W W W W W B B B W W W W W W W W E u.h.h.h.h.h.k.h.k.c.c.c.c.c.=X-X-X-X-X-X-X<X<X<X<X<X1X1X2X1X2X2X2X1X1X1X1X1X1X1X1X1X1X0X0X9X9X9X9X9X9X8X8X1X1X8X8X8X8X1X1X1X1X1X1X1X1X1X>X>X>X>X;X;X;X;X;X;X;X;X;X;X;X;X;X;Xv.;X;X;Xv.v.v.v.v.v.z.z.z.z.k.k.k.k.k.k.k.z.z.k.k.k.k.k.k.z.k.k.k.k.v.;X;X;X<X>X>X>X>X>X8X8X9X9X9X9X0XqXqXqXqXyXyXyXuXuXaXeXrXrXrX5.C C u - $ # + + . . . . . . . . . . . . . . . . . . . . . + + + + $ $ 0 q i Z D D F G B.B.B.B.B.B.B.B.B.B.B.B.B.B.G A A Z v e e q 7 7 7 $ $ $ # + + + . . . . . . . + + + + + + + + + + # @ $ $ $ 7 0 q q Z D F G G B.F.F.G.J.L.L.U.U.U.J.J.J.J.J.J.L.L.J.J.J.G.G.G.G.H.H.H.H.F.F.Z.;.;.;.;.;.;.;.3.;.;.;.-.-.-.S S S -.-.-.4.4.i.i.y.i.y.y.2.&.&.&.7.7.&.%.$.$.+.+.+.+.+.......' ..' ' ' ' ` ` ` ` / / / ~ ~ ~ ~ / ~ / / ~ ~ W W ~ ~ W W W W W W W W W W W W W W W B j j j j j j g d d d d d d d u u t t t < t t , , , , t t t t t u u u u f d d f k j j j B B B W W W W / / ` ` ` ] ] ....+.....+.+.+.+.+.+.+.+.$.$.$.%.%.%.&.&.&.7.&.&.9.9.9.y.^ O 4 j g d d d g d d d d d d d d d d d d d d d d d d 4 4 4 4 4 4 4 4 4 4 4 4 4 4 4 4 ",
"N N N N N N N N N N N N N N N N N N N N N N W W N W W W B B B B W W W W W W W W ! u.h.k.k.h.k.k.k.c.c.c.c.c.=X-X-X<X<X<X-X<X1X1X1X1X1X1X1X2X2X2X0X0X2X2X1X1X1X3X1X1X8X8X0X9X0X0X9X9X9X0X9X9X8X8X8X8X8X8X1X1X1X1X1X1X1X1X>X>X>X>X>X;X;X;X;X;X;X;X;X;X;X;X;X;Xv.v.;X;Xv.v.v.v.v.v.z.z.z.k.z.k.k.k.k.k.k.k.z.z.k.k.k.k.k.k.k.z.k.k.k.v.v.;X;X;X;X>X>X>X>X1X8X9X9XqX0X0XqXqXyXyXyXyXsXuXuXaXaXrXrXrXY.C i t $ + + + + # # - - - t t t , - & # # . . . . . . . . + + + + + # $ 0 q q i Z A A D G G G G G G G F F F F A D A Z Z e e e q 7 7 7 $ $ $ $ # # # + . . . # # # & - - 0 0 0 0 0 0 0 0 0 7 $ $ $ $ $ 7 0 q v Z D G G G Z.F.G.J.L.L.U.U.L.J.J.J.J.L.U.U.P.J.J.J.J.J.J.H.H.H.F.F.F.Z.;.;.;.;.;.;.3.3.;.;.G G -.-.S S S S -.-.4.4.i.i.y.i.y.y.2.7.&.&.7.7.&.$.$.$.@.+.+.@.+...o.......' ' ' ' ' ` ` ` / / / ~ ~ ~ ~ / / W W ~ ~ W W W ~ W W W W W W W W W W W W W W W B j j j j j j g g d d d d f f u u t t t < t t , , , , t t t t t u u u f f d d f k j j j B B B W W W W / / ` ` ` ' ' ....+.....+.+.+.+.+.+.+.+.$.$.$.$.%.%.&.&.&.7.&.&.9.9.9.y.^ O 4 j g d d d g d g d d d d d d d d d d d d d 4 4 d 4 4 4 4 4 4 4 4 4 4 4 4 4 4 4 4 ",
"N N N N N N N N N N N N N N N N N N N N N N N N N N W W W W B B W W W W W W W W ! d.z.k.k.k.k.k.k.c.=X=X=X=X=X-X<X<X<X<X<X1X1X1X1X1X1X1X1X2X0X0X0X0X0X0X1X1X3X3X1X1X8X9X0X0X0X0X0X0X0X9X9X9X9X9X8X8X8X8X1X1X1X1X1X1X1X1X>X>X>X>X>X;X;X;X;X;X=X=X;X;Xv.v.v.v.v.v.;X;Xv.v.v.v.v.z.z.z.k.k.z.k.z.k.k.k.k.k.z.z.z.k.k.k.k.k.z.z.k.k.k.v.v.v.;X;X;X;X>X>X>X>X8X8X9X9XqX0XqXyXqXyXyXyXsXuXuXaXaXrXaXrXY.C u 0 # + + & t z *.1.5.5.5.5.5.1.;.S i t & # + . . . . . . . . . + + # $ $ 0 q i v Z D A A D A A A A Z Z Z Z Z Z Z e e e q q q 0 7 7 $ $ $ $ # # # # # # % & - u C *.;.1.H.H.H.H.H.H.Z.;.F S i q 0 0 q q q q e Z F G G B.F.F.G.J.L.U.U.P.L.J.J.J.L.U.Q.Q.L.J.J.J.J.G.H.H.H.H.F.F.;.;.;.;.;.;.;.;.;.;.;.G S -.S S S S S -.-.4.4.4.i.i.i.y.y.e.&.&.&.7.&.&.%.$.$.%.@.@.@.@.@.@.o.....' ] ' ` ` ` ` ` ~ ~ ~ ~ ~ ~ ~ ~ ~ W ~ ~ W W W W W W W W W W W W W W W W W W W W B j j j j k j g g g d d d d u u u d t t < t t t t , t t t t t t u f f f f d d d k g j j B B B W W W W / / ` ` ` ` ' ] ..+...+.+.+.+.+.+.+.+.#.$.$.$.$.$.%.&.&.&.&.&.&.7.9.9.y.^ O 3 j g d d d d d d d d d d d d d 4 4 d d d d d d d 4 4 4 4 4 4 4 4 4 4 4 4 4 4 4 4 ",
"N N N N N N N N N N N N N N N N N N N N N N N N N N W W W W B B W W W W W W W W ! d.v.k.k.k.k.k.c.c.=X=X=X=X-X-X<X<X<X<X1X1X1X1X1X1X1X1X3X2X0X0X0X0X0X0X3X3X3X9X9X9X9X9X0X0X0X0X0X0X0X0X0X9X0X9X9X8X8X8X1X1X1X1X1X1X1X1X>X>X>X>X>X;X;X;X;Xc.=X=Xc.c.v.v.v.v.v.v.v.v.v.v.v.z.z.z.z.z.z.z.k.k.z.k.k.k.k.z.z.z.z.k.k.k.k.k.k.z.k.k.k.c.v.v.;Xv.;X;X;X>X>X,X8X8X9X9XqX9XqXyXyXyXuXpXsXuXaXaXaXaXaXrXY.C u 0 - # - C 3.W.].gXgX].W.E.E.R.Y.H.H.1.*.V t - & # + . . . . . . + + # $ $ 0 q q i v Z Z Z v v v e e e e v v e e e e q q q q 0 7 7 $ $ $ $ $ $ $ & - t f x _ 3.Y.E.E. X XoXoXoXoXoX XQ.L.H.G S i w e e w q w Z D F G G Z.F.G.G.J.L.L.L.J.J.J.J.J.L.Q.Q.L.J.J.J.G.H.H.H.H.H.F.F.;.;.;.;.;.;.;.;.;.;.;.G S S S S S S S -.-.4.4.4.i.i.i.y.y.y.7.&.&.7.&.&.%.$.$.%.%.@.@.@.@.@...o.....] ] ` ` ` ` ` ` ~ ~ ~ ~ ~ ~ ~ ~ W W ~ W W W W W W W W W W W W W W W W W W B B B j j j j k j j g g d d d d u u u d t t < t t t t , t t t t t u u f f f f d d d g g j j B B B W W W W / / ` ` ` ` ] ] +.+...+.+.+.+.+.+.+.+.#.$.$.$.$.$.&.&.&.&.&.7.7.9.9.9.y.^ O 3 j g d d d d d d d d d d d d d 4 4 4 d d d d d d 4 4 4 4 4 4 4 4 4 4 4 4 4 4 4 4 ",
"N N N N N N N N N N N N N N N N N N N N N N N W W W N N B B B B B B W W W W W W ! d.v.k.c.k.k.c.k.=X=X=X-X-X-X-X<X<X1X1X1X1X1X1X1X1X2X2X2X2X0X3X3X3X0X0X1X1X1X8X9X9X9X0X0X0X0X0X0X0X0X0X0X0X0X9X9X8X8X8X8X1X1X1X1X1X<X<X>X>X>X>X>X;X;X;X;X;X;Xc.v.v.v.v.v.v.v.v.v.v.v.z.z.z.z.z.z.z.z.z.z.z.z.z.k.z.z.z.z.z.z.z.z.z.z.z.k.k.k.k.k.c.v.v.;X;X;X;X;X>X>X,X1X8X9X9X9X9XqXtXyXyXuXuXiXuXuXaXaXrXrX].Y.S t = - 0 *.E.gXjXjXjXgXrXW.T.T.T.Y.H.Y.Y.H.-.V f t & # + + . . . . . + + $ $ $ $ 0 q q e e e v v Z Z e e e e e e e q q q q q q q 7 7 7 $ $ $ 0 0 0 t u C -.3.5.Y.E. X XoXoXoX.XoX.X X X X X[.J.H.A.;.Z v Z v v Z Z F G A.F.F.F.G.J.J.J.L.J.J.J.J.L.U.Q.U.L.J.J.J.G.H.H.F.H.H.F.F.F.;.;.;.;.;.;.;.;.;.G G S S S S S S S -.-.4.4.4.i.i.i.i.y.9.7.7.&.&.&.&.%.$.$.$.%.%.@.+.+.+.+.....] ' ` ` ` ` ` ) ) ~ ~ ~ ~ ~ W ~ ~ ~ ~ W W W W W W W W W W W W W W W W W W W W W B j j j j j j j g g g d d d u d u d t t < , < , , < t t t t t d u u f f f f f d d g g j j B B W W W W / / ` ' ` ' ] ] +.+.+.+.+.+.+.+.+.+.+.#.$.$.%.%.&.&.&.&.&.&.7.7.9.9.9.y.^ O 4 j g d d d d d d d d g d d d d d d d d d d d d d 4 4 4 4 4 4 4 4 4 4 4 4 4 4 4 4 ",
"N N N N N N N N N N N N N N N N N N N N N N N W W W B W B B B B B B W W W W W W ! d.v.k.c.k.k.c.k.=X=X-X-X-X-X>X<X<X1X1X1X1X1X1X1X1X1X2X2X2X3X3X0X0X0X0X0X3X0X0X9X9X0X0X0X0X0X0X0X0X0X0X0X0X0X9X9X8X8X8X8X1X1X1X1X1X1X<X>X>X>X>X>X;X;X;X;X;Xc.c.c.c.c.c.v.v.v.v.v.v.z.z.z.z.z.z.z.z.z.z.z.z.z.z.k.k.z.z.z.z.z.z.z.z.z.z.k.k.k.k.k.v.v.;X;X;X;X;X;X>X>X,X,X9X9X9X9X9XqXtXyXtXuXyXtXtXuXaXaXeX].W.5.S t - t S T.gXgXgXgXE.H.3.-.-.-.-.-.*.*.*.*.C C x u - $ # + + . . . . + # # # $ $ $ 0 q q e e e e e e e e e e e e q q q q q q q q q q q 0 0 0 q i i i x S -.;.5.Y.R.Q. X X XoX X.X.X.X X X.X XR.R.L.J.F.Z.G D Z D F F G Z.F.G.F.G.G.J.J.L.J.J.J.J.U.Q.Q.L.J.J.J.J.G.H.G.F.H.H.H.H.F.;.;.;.;.;.;.;.;.;.G G G S S S S S S *.-.4.5.4.4.i.y.y.y.9.9.7.7.7.&.&.&.$.$.$.%.%.%.+.+.+.+.....] ' ` ` ` ` ` ` ) / ~ ~ ~ ~ W W ~ ~ ~ W W W W W W W W W W W W W W W W W W W B W j j j j j j j j g g g d d d u d d d t t t < < , < t t t t t d d u u u f f f f d d g j j B B B W W W W / / ` ' ` ' ] ] +.+.+.+.+.+.+.+.+.+.#.$.$.%.&.&.&.&.&.&.7.&.9.9.9.9.9.y.^ O 4 j g d d d d g d d d d d d d d d d d d d d d d d 4 4 4 4 4 4 4 4 4 4 4 4 4 4 4 4 ",
"N N N N N N N N N N N N N N N N N N N N N N N W W W W W W W W W B B B W W W W W W u.v.k.k.k.k.k.k.=X=X-X-X-X<X<X<X<X1X1X1X1X1X1X1X2X2X0X0X0X0X0X0X0X0X0X0X0X0X0X0X0X0X0X0X0X0XqX0X0X0X0X0X0X0X0X9X8X8X8X8X8X1X1X1X1X<X<X<X>X>X>X>X;X;X;X;X;X=Xc.c.c.c.c.c.c.v.v.v.z.z.z.z.z.z.z.z.z.z.z.z.k.k.k.k.k.k.z.z.z.z.k.z.z.k.k.k.k.k.k.z.z.v.v.;X;X;X;X;X,X,X,X,X9X9X9X8X9X0XtXtXtXyXyXtXtXuXaXeXeX].W.5.S t 0 C 5.].gXT.1.-.*.C C C C C *.C C c c x V C V u , & # # # + + . . + + # + + $ $ 0 q q i v e v v e e e e e q q q q q q q q q q q q q q q q i i i x m S *.;.1.H.H.J.R.R.R.R.Q.Q.Q.[. X X X.X[.Q.Q.Q.R.J.H.Z.G F F D F G B.F.A.F.F.G.J.J.J.J.J.L.Q.Q.Q.U.L.J.J.J.J.G.G.H.H.H.H.H.F.F.;.;.;.;.;.;.G G G ;.G G S S C C S -.-.>.5.4.4.<.<.y.y.9.9.7.7.&.&.&.&.%.$.$.%.%.@.+.+...+.....] ' ` ` ` ` ` ` ) ) / ~ ~ ~ ~ ~ ~ ~ ~ ~ W W W W W W W W W W W W W W W W W W B B j j j j j j j j g g g d d d u d d d 1 t t t , < < t t t t t t d u u u u f f f d d g g j B B B W W W ~ ~ / ` ` ` ` ` ' ....+.+.+.+.+.+.$.$.$.$.$.&.&.&.&.7.&.&.7.9.9.9.9.y.y.y.' O 4 j g g d d d d d d d d d d d d d d 4 d d d d d d 4 4 4 4 4 4 4 4 4 4 4 4 4 4 4 4 ",
"N N N N N N N N N N N N N N N N N N N N N N N W W W W W W W W W B B B W W W W W E u.v.k.c.c.k.c.*X=X-X-X-X-X<X<X<X1X1X1X1X1X1X1X1X2X2X0X0X0X0X0X0X0X0X0X0X0X0X0X0X0X0XqX0XqX0XqXqX0X0X0X0X0X0X0X9X8X8X8X8X1X1X1X1X1X<X<X<X1X>X>X>X>X;X;X;X;X=Xc.c.c.c.c.c.v.v.z.z.z.z.z.z.z.z.z.z.z.z.z.k.k.k.k.k.k.k.k.k.k.k.k.k.h.k.h.k.k.k.k.k.z.v.v.;X;X;X;X;X,X,X,X,X9X9X9X9X9XtXyXyX0XyXsXuXuXuXaXeXeX].W.5.S u x 1.T.Y.5.S u t u i f u , u u u u t , , u f u , - - # # + . . . . . . + + + @ $ 0 i v Z D F G G F D Z Z e e e e e e q q q q q q q q q q i i i i i i i S ;.1.1.H.H.H.J.L.J.J.J.L.R.R.R.Q.Q.Q.Q.Q.Q.R.R.R.L.G.Z.G D D F G B.Z.F.F.G.G.G.G.G.J.L.Q.!.!.Q.L.J.L.J.J.J.J.G.J.G.H.H.F.F.;.;.;.;.;.;.G G G G G S S m m C S -.1.>.5.5.5.i.i.0.0.9.9.9.7.&.&.&.&.%.$.$.%.%.@.+.+.+.+.+.....' ` ` ` ` ` ` ` ) / ~ ~ ~ W ~ ~ ~ ~ W W W W W W W W W W W W W W W W W W W B j j j j j j j j j g g d d d d d d d d d t t t t < < t t t t t t d u u u f f f f d d g g j j B B W W W ~ / ` ` ` ` ' ] ] ....+.+.+.+.+.+.$.$.$.$.$.&.&.7.7.7.7.7.7.9.9.9.y.y.y.y.' O 4 j j g d d d d d d d d d d d d d d d 4 d d d d d 4 4 4 4 4 4 4 4 4 4 4 4 4 4 4 4 ",
"N N N N N N N N N N N N N N N N N N N N N N N N W W W W W W W W W W W W W W W W ! u.v.k.c.c.k.=X=X=X-X<X<X<X<X<X<X<X<X1X1X1X1X1X0X0X0X0X0X0X0X0X0X0X0X0X0X0X0X0X0XqXqXqXqXqXqXqXqXqX0X0X0X0X0X0X9X8X8X8X8X1X1X1X1X1X1X1X1X1X1X>X>X>X;X;X;X;X;Xc.c.c.c.c.c.v.v.z.z.z.z.k.k.k.k.k.k.k.k.k.k.k.k.k.h.h.k.k.k.k.k.h.h.h.h.h.h.h.k.k.k.k.v.v.;X;X;X;X:X,X,X,X,X,X9X9X9XwXtXuXyXtXyXsXuXuXaXaXeXrXrXW.5.*.C -.5.5.*.i z z u - & # + + + . . . X . # * , % % % % % # X . . . . . . . + + $ 7 q v F Z.A.J.J.L.J.G.G.B.B.A Z e e e e e q q q 7 q q q q q q q q q q t i S S *.1.1.1.H.H.H.H.H.H.H.H.H.H.H.H.H.R.R.R.R.R.R.R.J.F.G D G G Z.F.F.G.G.G.G.G.G.J.J.U.Q.Q.Q.J.J.J.J.J.J.J.J.G.G.H.F.F.F.;.;.;.;.G ;.;.G ;.G D S Z m m S S ;.;.3.5.5.5.0.>.0.<.9.9.9.7.7.&.&.&.%.%.$.%.%.@.@.+.+.+.+...' ' ' ` ` ` ` ` ` ) / ~ ~ ~ W W ~ ~ ~ ~ W W W W W W W W W W W W W W W W W W W j j j B j j j j j k g k g d d d f u d d t t t t t t t t t t t d u u u u f f f d d d g g j j B B B W W ~ ~ ` ` ` ` ' ] ] ........+.+.+.+.%.$.$.$.$.&.&.&.7.7.7.7.9.7.9.9.y.y.y.y.^ O 3 j j j d d g d d d d d d d d d d d d d d d d d d 4 4 4 4 4 4 4 4 4 4 4 4 4 4 4 4 ",
"N N N N N N N N N N N N N N N N N N N N N N N N W W W W W W B W W W W W W W W W ! u.v.k.c.c.k.=X=X-X<X<X<X<X<X<X<X1X1X1X1X1X2X1X3X3X0X0X0X0X0X0X0X0XqXqXqXqX0XqXqXqXqXqXqXqXqXqXqXqXqX0X0X0X0X0X9X9X8X8X8X8X1X1X1X1X1X1X1X1X1X>X>X>X;X;X;X;X;Xc.c.c.c.c.c.v.k.k.z.z.k.k.k.k.k.k.k.k.k.k.k.k.h.h.h.h.h.h.k.k.h.h.h.h.h.h.h.h.h.k.k.v.v.v.;X;X;X;X,X,X,X,X,X,X9X9X9XwXtXyXtX0XyXsXsXuXaXaXrXaXrXW.5.*.S 1.5.-.z 0 t u - # + . . # # .   . . . # , : % X X . X # % # # # # + . + + + $ q v G S.J.L..X.XXXXXXX{.U.P.G.B.D Z Z e e e e q q 0 7 7 0 q q 0 0 0 0 0 0 & & & & & & - t t t t z z x x S *.;.;.;.Z.H.H.K.R.Q.Q.J.F.;.;.G G F.F.G.G.G.G.G.G.J.J.U.Q.Q.Q.L.J.L.J.J.J.J.J.J.G.H.F.F.F.Z.;.;.;.G G F D D D S Z Z Z i m S ;.5.H.5.5.5.>.,.,.0.0.9.9.7.7.&.&.&.%.%.$.$.%.@.@.+.+.+.+.+...' ' ` ` ` ` ` ` ) / ~ ~ ~ W ~ ~ ~ ~ W W W W W W W W W W W W W W W W W W W W j j j B j j j j j k j g g g d d f u d d t t t t t t t t d d d u u u u f f f f d d d g g j j j B B W W ~ ~ ` ` ` ` ` ` ' ] ......+.+.+.+.%.#.$.$.$.&.&.&.&.7.7.7.9.9.9.9.y.y.y.y...O 3 j j j d d g d g d d d d d d d d d d d d d d d d 4 4 4 4 4 4 4 4 4 4 4 4 4 4 4 4 ",
"N N N N N N N N N N N N N N N N N N N N N N N N W W W W B B B B W W W W W W W W ! u.v.c.c.c.c.=X=X-X<X<X<X<X1X1X1X1X1X1X1X1X1X2X0X0X0X0X0X0X0X0X0XqXqXqXqXqXqXqXqXqXqXqXqXqXqXqXqXqX0X0X0X0X0X0X9X0X8X8X9X8X1X1X1X1X1X1X1X1X1X>X>X>X;X;X;X;X;Xc.c.c.c.c.v.v.k.k.z.z.k.k.k.k.k.k.k.k.k.k.k.h.h.h.h.h.f.h.h.h.h.f.f.f.f.f.h.h.k.k.k.k.v.v.;X;X;X:X,X,X,X,X,X2X9X9X9XwXwXtXtXtXtXyXuXuXuXaXaXgXgXW.5.-.-.3.1.m 0 - $ # . . # & , t , # . . . . o % % o .     . o o % % % # # + + + + $ w S A.J.Q.!.MXMXMXMX@X@X+X|.U.J.B.G A A v e e q q 7 7 7 0 0 0 0 0 0 7 $ # + + + . . . . + # # # # # # & & t i t t i Z *.F.H.L.[.Q.L.H.F.F.G Z.F.F.F.F.G.G.G.J.U.Q.!.Q.Q.L.L.L.L.J.J.J.J.J.J.H.F.F.F.F.;.;.G G F D Z S S S Z Z Z v Z S 1.H.H.Y.T.T.Y.p.0.0.i.9.9.9.7.&.&.&.&.%.$.$.%.%.%.+.+.+.+.+.+.' ' ' ' ' ` ` ` ) / / ~ ~ ~ ~ ~ ~ ~ W W W W W W W W W W W W W W W W W W W W W P j j j j j k k k j j g g d f d f d d d t t t t t t t t u u u u u f f f f d d d d g g j j j B B W ~ ~ / / ` ` ` ` ` ' +.+.{ { +.+.+.+.+.#.#.#.$.$.$.&.8.7.7.7.7.9.9.y.y.y.y.y...O 5 j j d d d d d d d d d d d d d d d d d 4 d d d d 4 4 4 4 4 4 4 4 4 4 4 4 4 4 4 4 ",
"N N N N N N N N N N N N N N N N N N N N N N N N W W B B B B B B W W W W W W W W ! u.v.c.c.c.c.=X=X-X<X<X<X<X1X1X1X1X1X1X1X2X2X2X0X0X0X0X0X0X0XqX0XqXqXqXqXqXqXqXqXqXqXtXqXqXqXqXqX0X0X0X0X0X0X0X0X0X0X8X9X8X8X1X1X1X1X1X1X1X1X>X>X>X;X;X;X;X;Xv.v.v.c.v.v.k.k.k.z.z.k.k.k.k.k.k.k.k.k.k.h.h.h.f.f.f.f.f.h.h.h.f.f.f.f.f.f.h.h.k.k.v.v.v.;X;X;X:X:X,X,X,X,X,X,X9X9X9X9XtXtXtXtXyXuXuXuXaXaXxXgXT.5.3.1.3.-.t & $ # . # # - f ( =.f % . . .   . . . . . . . % % o % % % # # + + + @ 7 i F S.U.^..X@X@X@X@XMXMX@X@XXXU.J.F.B.F A Z e q 7 7 7 0 0 7 7 7 0 0 $ $ $ & & , & % o . X # # & % # + + + + + # $ $ 0 i Z D ;.H.L.K.K.K.G.F.Z.Z.Z.F.G.G.J.J.J.U.!.!.Q.U.L.U.L.L.J.J.J.J.J.H.H.H.F.F.F.Z.;.;.;.G G G ;.;.;.;.;.;.;.*.;.F.H.H. XgXgXgXW.p.,.,.9.9.9.&.&.&.&.&.%.$.$.%.%.%.+.+.+.+.+.+.+.' ' ' ' ' ` Q ) ) Q ~ ~ W W W ~ ~ W W ~ W W W W W W W W W W W W W W W W W W W P j j j j k k k j j j g k f d d f d d d d t t u t u u u u u u u f f f f d d f k g g j j j j B W ~ ~ / / ` ` ` ` ` ' o.o.{ { +.+.+.+.+.#.#.#.#.$.$.$.$.7.7.9.7.9.9.y.y.u.u.y...O 4 j j d d d d d d d d d d d d d d d d d 4 4 4 d d 4 4 4 4 4 4 4 4 4 4 4 4 4 4 4 4 ",
"N N N N N N N N N N N N N N N N N N N N N N N N E N W W W W W W B B B W W W W W ! u.c.c.c.k.k.=X=X-X<X<X1X1X1X1X1X1X1X1X1X3X2X0X0X0X0X0XqXqXqXqXqXtXtXtXqXqXqXqXqXqXqXqXqXqXqXqXqXqX0X0X0X0X0X0X0X0X9X9X8X1X1X1X1X1X1X1X1X1X>X>X<X;X;X;X;X;X;Xv.z.v.k.k.v.k.k.k.k.k.k.k.h.h.h.h.k.h.h.h.h.h.h.f.f.f.f.f.f.f.f.f.f.f.f.f.h.h.h.h.k.k.z.v.v.;X;X;X:X:X,X,X,X,X,X,X2X9X9X9XtXtXtXtXtXuXuXuXfXjXgXT.H.1.-.S i = + + # # # & u ( :.>.( : . . . . . . . . . . % d h : X # % - - & # + + 8 v ;.J.U.~.^.+X+X+X+X@X@X@X@X+X}.U.J.G.B.G A e q 7 7 7 7 7 q q 0 7 $ $ 7 y S 1.Y.p.f X   . . . X X . . . + + . + + + + $ 0 q i D G ;.F.G.J.G.Z.Z.F.F.G.J.J.L.U.U.!.!.Q.Q.U.U.U.L.J.J.L.J.J.J.H.H.H.H.F.F.Z.;.;.;.;.F.F.H.H.H.J.R.L.H.H.L.R.R. X XgXjXgXW.p.0.0.9.9.<.&.&.&.&.%.%.$.%.%.@.@.+.+.@.+.+.+.' ] ' ' ' ' ` Q Q Q ~ ~ ~ ~ ~ ~ ~ W W Q W W W W W W W W W W W W W W P W W W W W j P j j j j j k k k k k f d d d f u u u u u u u u f u u u u u f f d d f f f g g g j j j j B W ~ / / / ` ` ` ` ` ' ] { +.+.+.+.+.+.+.+.#.#.#.#.$.$.$.7.7.7.9.9.y.y.y.u.u.u.' O 4 j j g g d d d d d d d d d d d d d d d d d d d 4 4 4 4 4 4 4 4 4 4 4 4 4 4 4 4 4 ",
"N N N N N N N N N N N N N N N N N N N N N N N N N N W W W W W W B B W W W W W W ! u.c.c.c.k.k.=X=X-X<X<X1X1X1X1X1X1X1X1X0X3X0X0X0X0X0XqXqXqXqXtXtXtXtXtXtXqXqXqXqXqXqXqXqXqXqXqX0X0X0X0X0X0X0X0X0X0X9X9X8X9X1X1X1X1X1X1X1X>X>X>X<X;X;X;X;X;X;Xv.v.v.z.z.k.k.k.k.k.k.k.h.h.h.h.h.h.h.h.h.h.f.f.f.f.f.f.f.f.f.f.f.f.f.f.f.h.h.h.h.k.k.z.v.v.;X;X;X:X:X,X,X,X,X,X,X,X2X2X9XtXtXtXtXtXuXuXeXfXjXgXT.H.5.-.m q & + # u & t x c ( :.,.*., .     . . . . . . X , ' o.l % . # t i t $ + @ 0 b A.J.U.^.|.OXOXOXOXOX+X+X@X+X|.~.U.J.G.B.B.Z e q 7 7 0 0 q 0 $ @ + $ i 1.Y.E.rXW.*.% .       .     . . . . # & & + + + @ $ 7 q Z Z D G Z.F.G Z.F.G.G.J.L.P.U.U.U.!.!.!.Q.Q.U.L.L.L.L.L.J.J.J.H.H.H.F.F.Z.;.;.F.Z.F.F.J.J.K.R.R.R.R.R.R.R.R.E.E.E.rXrXrXW.s.,.<.<.<.<.&.&.&.%.%.$.%.%.@.@.@.@.+.+.+.+...] ' ' ' ' Q Q Q Q Q ~ ~ ~ ~ ~ ~ W W W Q W W W W W W W W Q Q W W W W W W W W W W P j j j j j k k k k k f f f d d f f u u u u f f f f f f d u u d f f f f k k g g j j j j B W ~ / / ` ` ` ` ` ` ' ' { +.+.+.+.+.+.$.#.#.#.#.#.$.$.$.7.7.9.9.9.y.y.u.u.u.u...O 4 j j g g d d d d d d d d d d d d d d d d d d d 4 4 4 4 4 4 4 4 4 4 4 4 4 4 4 4 4 ",
"N N N N N N N N N N N N N N N N N N N N N N N N N N N B B B W W B B B W W W W W ! u.c.c.=X*X=X=X=X-X<X<X<X1X1X1X1X1X2X2X0X0X0X0XqXqXqXqXqXtXqXtXtXtXtXtXtXtXqXtXtXtXqXqXqXqXqXqXqX0X0X0X0X0X0X0X0X0X0X9X2X2X1X1X1X1X1X>X1X>X>X<X<X;X;X;X;X;Xv.v.v.z.z.z.z.z.k.k.k.k.k.h.h.h.h.h.h.h.h.h.f.f.f.d.d.d.d.d.f.f.f.f.f.f.f.f.h.h.h.h.k.k.z.v.v.v.;X;X:X:X:X,X,X,X,X,X,X,X2X2XtXtXwXtXtXuXeXeXaXjXgXW.T.R.1.S 0 - & 0 T.*.*.5.*.*.*.:.=.f # .   . . . . . . # k 0.p.=.f # + - i S i @ 7 i F A.J.!.|.|.OXOXOXOXOXOXOXOXOX}.~.U.P.J.G.F.F v q w v v q 7 @ + + $ y S H.E.E.rXW.( X . X . . .     . . . + 0 i x 0 $ + + + $ $ q i v Z F G B.F.J.L.J.J.P.U.U.U.U.U.!.!.Q.U.L.L.L.L.L.L.J.J.J.J.H.H.F.Z.Z.;.;.Z.Z.F.H.J.L.L.R.R.R.R.R.R.R.R.R.E.E.E.E.rXrXW.,.<.<.<.<.<.&.&.&.%.%.$.%.%.@.@.%.%.%.+.+.+...' ] ' ' ' ` Q Q Q ~ ~ ~ ~ ~ ~ W W W W Q W W W W W Q Q Q Q Q Q W W W W W W W W P P P j j j k k j j k k k f f f f f f f f f f f f f f f u u d d d f f f k k g g j j j j B W ~ / / ` ` ` ` ` ` ' +.+.+.+.+.+.+.+.$.#.#.#.#.#.$.$.$.7.7.9.9.9.9.y.u.u.u.u...O 5 j j j g d d d d d d d d d d d d d d d d d d d d 4 4 4 4 4 4 4 4 4 4 4 4 4 4 4 4 ",
"N N N N N N N N N N N N N N N N N N N N N N N N N N N B B B B B B B B W W W W W ! u.c.k.=X*X=X=X=X-X<X1X1X1X1X1X2X2X2X0X0X0X0X0XqXtXtXtXtXtXtXtXtXtXtXtXtXtXtXtXtXqXqXqXqXqX0X0X0X0X0X0X0X0X0X0X0X0X0X9X2X2X1X1X1X1X1X>X>X>X<X<X<X;X;X;X;X;Xv.v.v.z.z.z.z.k.k.k.k.k.k.h.h.h.h.h.h.h.h.f.f.f.d.d.d.d.d.d.d.f.f.f.f.f.f.f.h.h.h.h.k.k.z.z.v.v.;X:X:X:X:X,X,X,X,X,X,X,X2X1X9XwX2XwXtXuXeX4XaXjXgX].E. XK.;.m i i C  XY.*.1.1.*.*.-.1.( t # . . . . . . . & ( p.p.,.( - # $ 0 S S w i v Z.J.!.|.|.|.|.OXOXOXOX|.|.^.~.~.I.I.I.P.P.J.F.G Z Z Z i 8 @ @ 7 7 q i ;.H.E.].rXW.=.%   .     .         . # x 1.1.S 0 $ $ $ @ @ $ q q v D F B.F.L.U.L.P.U.!.!.U.U.U.!.!.Q.L.U.L.L.L.L.L.L.J.J.J.H.H.F.Z.;.;.Z.Z.Z.F.G.J.L.L.L.L.J.L.R.R.R.L.J.L.Y.E.E.E.E.T.,.,.,.<.<.<.<.<.&.&.&.$.%.%.%.%.%.%.%.+.+.+.+...] ' ' ' ` Q Q Q ~ ~ ~ ~ ~ ~ ~ W Q Q Q Q Q W W W Q Q Q Q Q ~ ~ W W ~ ~ W W W P P P P j j j k j j k k k k f f f f f f f f f f f f f f u u u d f f f k k k j j j j j j B W ~ / ` ` ` ` ` ` ` ' o.{ +.+.+.+.%.%.$.#.#.$.$.$.$.$.&.7.7.9.9.9.9.y.u.u.u.i...O 5 j j j j d d d d d d d d d d 4 4 d d d d d d d d 4 4 4 4 4 4 4 4 4 4 4 4 4 4 4 4 ",
"N N N N N N N N N N N N N N N N N N N N N N N N N B B B B B B W W W W W W W W W ! u.c.c.=X=X=X=X-X<X<X<X1X1X1X2X2X2X0X0X0X0XqXqXtXtXtXtXtXtXtXtXtXtXtXtXtXtXtXtXtXtXqXqX0X0X0X0X0X0X0X0X0X0X0X0X0X9X9X9X2X9X2X1X1X1X1X>X<X<X<X<X<X;X;X;X;X;X;Xv.z.z.z.z.k.z.z.z.k.k.k.h.h.h.h.h.h.f.f.f.f.d.d.d.d.d.f.f.d.d.d.d.d.d.f.f.h.h.h.h.h.k.k.k.z.v.;X:X:X:X:X,X,X,X,X,X,X,X2X,X2X2X2XwXwXwXeX4XaXjXgX].]. XK.5.;.;.;.3.Y.Y.Y.1.-.-.-.-.1.-.x - # + . . + & t V 1.Y.5.*.*.x i 0 q S ;.;.S ;.J.^.XX|.|.|.|.|.OX|.^.~.~.I.I.I.I.I.I.U.U.U.U.G.A.F v 7 7 w Z F v i v ;.H.Y. XrXgXY.< . . . . .   . . . + - 1.H.H.*.x i i q 0 7 7 q q i Z Z G F.G.L.U.U.U.[.{.!.!.!.~.~.!.Q.Q.Q.L.L.L.L.L.L.L.J.H.H.F.Z.;.;.Z.F.F.G.J.J.J.J.G.H.F.F.F.A.A.;.A.A.H.Y.Y.Y.E.Y.>.,.<.<.<.<.<.<.&.&.&.$.%.%.%.%.%.%.@.@.+.+.+...+.' ' ' ` ` ` Q Q Q ~ ~ ~ ~ ~ ~ ~ Q Q Q W W W Q Q Q Q Q Q ~ ~ ~ ~ W W W W W W W P j j j j j j j l l k k k f f f f f f f f f f f f f d d u d u f k k k k j j j j j j B W ~ / ` ` ` ` ` ` ` ' o.{ o.+.+.+.%.%.$.$.$.$.$.$.8.8.7.7.9.9.9.9.9.y.u.u.u.i...O 5 j j h j d d d d d d d d d d d d 4 4 d d d d d d 4 4 4 4 4 4 4 4 4 4 4 4 4 4 4 4 ",
"N N N N N N N N N N N N N N N N N N N N N N N N N B B B B B W W W W W W W W W W ! u.c.c.=X=X=X=X-X<X<X1X1X1X2X2X2X3X0X0X0X0XqXtXtXtXtXtXtXtXtXtXtXtXtXtXtXtXtXtXtXqXqXqX0X0X0X0X0X0X0X0X0X0X0X0X9X9X9X9X2X2X2X1X1X1X1X>X<X<X<X;X;X;X;X;X;X;Xv.v.z.z.z.k.z.z.k.k.k.k.k.h.h.h.h.f.f.f.f.d.d.d.d.d.d.d.d.f.d.d.d.d.d.d.f.f.h.h.h.h.h.k.k.k.z.v.v.;X:X:X:X,X,X,X,X,X,X,X2X<X2X2X2X4X4XeXeX4XaXjXgXrX X XR.Y.K.K.R.R.;.3.H.3.;.1.1.;.1.5.1.x t & & t x 1.5.Y.E.E.Y.1.5.3.;.S i S ;.;.F H./.MX@XOX}.}.|.|.|.^.~.I.I.I.P.P.P.P.I.U.U.~.}.U.G.B.v w e F A.A.;.F ;.H.H.Y.E.gXgXW.( % . . . . . . # # - x H.Y.H.1.*.S S v i q q q w e Z F B.F.G.L.U.U.[.{.{.{.{.~.!.!.Q.Q.Q.Q.U.L.L.L.L.L.L.J.H.F.F.;.;.;.Z.F.H.G.J.J.J.J.H.F.Z.Z.;.G F F ;.;.1.H.H.Y.E.Y.1.,.,.<.<.<.<.<.&.&.&.&.%.%.%.%.%.%.%.+.+.+.+.+.+.+.' ' ' ` ` ` Q Q Q Q ~ ~ ~ ~ ~ ~ Q Q Q Q Q Q ~ ~ ~ ~ ~ ~ ~ ~ ~ ~ ~ W W W W W P P P P j j l l l l l k k k f f f f f f f f f f f f d d d d u f k k j j j j j j j j B W ~ / ` ` ` ` ` ` ` ] o.o.o.+.+.+.%.%.%.%.$.$.$.$.7.7.7.9.9.9.9.9.9.u.u.u.u.i...O 5 j j h d d d d d d d d d d d d d d 4 4 d d d d d 4 4 4 4 4 4 4 4 4 4 4 4 4 4 4 4 ",
"N N N N N N N N N N N N N N N N N N N N N N N N N W B B W W W W W W W W W W W W ! u.c.c.=X=X=X=X-X<X<X1X1X1X2X2X3X3X0X0X0X0XqXtXtXtXtXtXtXtXtXtXtXtXtXtXtXqXqXqXqXqXqX0X0X0X0X0X0X0X0X0X3X1X3X1X9X9X9X9X9X1X2X1X1X1X1X1X<X<X<X<X;X;X;X;X;X;Xz.z.z.z.k.k.k.k.k.k.k.k.k.h.h.h.f.f.f.d.f.d.d.d.d.d.d.d.d.u.u.d.d.d.d.f.f.f.f.f.f.f.h.h.h.k.z.v.v.;X:X:X:X:X:X:X:X,X,X,X4X,X2X4X2X4X,X4XeXeXgXjXgXgXgXjXgX X X]. XR.3.3.3.;.;.;.;.1.1.H.H.1.1.*.*.1.Y.E.E.E.R.E.Y.Y.Y.H.H.;.G F F F A..XNXNX@XOX|.|.|.OXOX^.I.I.I.P.P.P.P.P.P.I.~.}.{.U.G.A.G G Z.Z.Z.;.A.A.S.H.Y.Y.rXgXgXrXp.d X . . . . . % , c 1.Y.Y.H.1.;.*.S S S Z v v v Z F B.F.G.J.U.U.[.{.}.}.}.~.~.!.Q.Q.Q.Q.Q.Q.L.L.J.L.L.L.J.H.F.F.Z.;.;.Z.Z.F.G.G.J.G.H.G.S.A.;.G F F F F F ;.1.H.H.Y.Y.1.>.,.<.<.<.<.<.&.%.&.%.$.%.%.%.%.%.%.+.+.+.+.+.+.{ { ' ' ' ` Q Q Q Q Q Q Q ~ ~ ~ Q Q Q Q Q Q Q Q Q Q Q Q ~ ~ ~ ~ ~ W ~ W W W W W P j j j l l l l l l l l k k k k f f k k f f f f f d d g g k k k k j j j j j j j j W W ~ / ` ` ` ` ` ` ] ] o.o.o.+.+.+.%.%.%.$.$.$.&.8.7.7.7.9.9.9.9.9.y.u.u.u.u.i...O 5 j j h d d d d d d d d d d d d d d d d d d d d d 4 4 4 4 4 4 4 4 4 4 4 4 4 4 4 4 ",
"N N N N N N N N N N N N N N N N N N N N N N N N N W B B W W W W W W W W W W W W ! u.c.c.=X=X=X-X<X<X<X1X1X1X2X0X3X3X0X0X0XqXqXtXtXtXtXtXtXtXtXpXpXpXtXtXtXqXqXqXqXqX0X0X0X0X0X0X0X0X0X1X3X3X3X2X9X2X9X9X1X1X1X1X1X1X1X<X<X<X<X;X;X;X;X;X*X*X*X*Xz.z.k.k.k.k.k.k.k.k.h.h.h.f.f.f.f.d.d.d.u.u.u.u.u.d.u.u.u.d.d.d.d.u.f.f.f.f.f.f.f.h.h.h.z.z.z.v.;X;Xb.:Xb.:X,X:X,X,X2X,X2X4X,X4X,X4XeXrXxXjXgXgXjXBXhXhXhX XgX].H.3.;.;.;.*.*.;.*.*.;.1.F.1.;.S.H.Y.H.H.1.1.1.1.1.;.;.;.G F F F J.BXAXNX+X|.OXOXOXOXOX^.I.I.P.P.P.P.P.P.P.I.~.}.U.P.G.G.A.A.A.A.A.Z.A.F.H.H.Y.E.E.E.E.E.].Y._ u t , - - f *.5.E.E.E.H.F.;.F S ;.F.Z.;.G G G B.B.F.G.J.U.U.[.{.}.}.{.{.~.!.!.!.Q.Q.Q.Q.L.L.L.L.L.L.J.J.H.F.Z.;.;.Z.F.G.G.J.J.J.J.G.A.G D v i w i v v v ;.1.H.H.H.1.>.,.<.<.<.<.<.&.&.%.%.$.%.%.%.%.%.+.+.+.+.+.+.+.+.+.{ ' ' ' ' ^ ^ Q Q Q Q Q Q Q Q Q Q Q Q Q Q Q Q Q Q Q ~ ~ ~ ~ ~ ~ W W W W W W P P P j l l l l l l l l l k k k k k k k k k k k d d g g k k k k k j l j j j j B B W W ~ ~ / ` ` ` ` ' ] ] +.+.o.+.+.+.%.%.$.$.$.&.&.8.7.7.7.9.9.9.9.9.y.u.u.u.u.i...O 5 j j h g d d d d d d d d d d d d d d d d d d d d 4 4 4 4 4 4 4 4 4 4 4 4 4 4 4 4 ",
"N N N N N N N N N N N N N N N N N N N N N N W W N W B B B B B B W W W W W W W W ! u.c.c.=X=X-X<X<X<X<X1X1X1X1X3X0X0X0X0X0X0X0XqXpXpXpXpXpXpXpXtXpXpXtXtXpXtXtX0X0X0XqXqX0X0X0X0X0X0X3X3X2X2X2X2X2X2X9X2X1X1X1X1X1X1X1X<X<X<X<X;X;X;X;X*X*X*X*Xz.k.k.k.k.k.k.k.k.k.k.k.h.h.f.f.d.d.d.u.u.u.u.u.u.u.u.u.u.u.u.f.f.d.u.u.u.d.d.d.f.f.f.h.h.l.l.z.z.z.v.v.v.v.b.:X:X,X,X,X<X,X,X,X4X4X4X4XaXgXjXjXjXZXZXBXjXjXhXhX XR.H.;.G G S S S Z v Z Z S S S S S S S S S F *.*.S S S G ;.F S ;..XSXJXVX+X|.OXOXOX|.^.~.I.I.P.P.P.P.P.P.P.P.I.I.U.U.P.G.A.B.B.G F F F F F ;.;.;.S.H.H.K.R.Y.Y.H.H.5.5.Y.T.E.E.E.Y.H.F.;.;.;.Z.G.J.J.L.J.J.J.J.U.U.!.[.[.{.{.{.}.}.}.{.~.!.!.!.!.Q.Q.R.L.L.L.L.L.L.J.J.H.F.;.;.;.Z.F.G.G.G.J.J.G.A.F v w 7 7 7 7 7 @ 7 i S ;.H.Y.>.>.,.,.,.<.<.<.&.&.&.&.%.%.%.%.+.+.+.+.+.+.+.+.+.+...+.' ' ' ' ^ ^ ^ ^ ^ Q ^ Q Q Q Q Q ~ Q Q Q Q Q Q ^ ^ ^ ^ ^ Q Q Q ~ ~ W W W W W P P P l l l l l l l l l k k k k k k k l k k k k k k k k k k k k j j l l B B B B W W / / / / ` ` ` ' ......+.+.+.+.+.%.%.%.$.$.&.&.8.7.7.7.9.9.9.9.9.y.u.u.i.u.u...O 5 j j g d d d d d d d d d d d d d d d d d d d d d 4 4 4 4 4 4 4 4 4 4 4 4 4 4 4 4 ",
"N N N N N N N N N N N N N N N N N N N N N N W W N W B B B W B B W W W W B W W W ! u.c.=X=X-X-X<X<X<X1X1X1X3X3X3X0X0X0X0X0X0XqXqXtXtXtXtXtXtXpXpXpXpXpXtXpXtXtX0X0X0X0X0X0X0X3X3X3X3X3X3X3X2X1X2X2X2X2X1X1X1X1X1X1X1X1X<X<X<X;X;X;X;X*X*X*Xk.k.k.k.k.k.k.k.k.k.k.k.k.h.f.f.f.d.d.d.u.u.u.u.u.u.u.u.u.u.u.u.u.u.u.u.u.d.u.u.d.d.d.f.f.f.h.l.l.z.z.z.v.v.v.v.:X:X:X:X:X:X:X:X:X:X:X4X4X4XaXgXjXjXBXZXZXBXBXBXBXjXhX[.H.;.F S S Z v v v v v v Z S S Z Z S S F F F ;.*.;.F ;.;.F ;.J.NXJXJXVX+X+XOXOXOX|.^.~.I.I.P.P.I.I.I.P.P.P.P.I.U.!.U.J.G.A.A.G F F F F F F F F G G ;.;.;.1.1.1.F.H.K.Y.Y.Y.H.H.H.;.;.;.;.Z.S.G.L.L.U.U.U.U.!.[.}.{.}.}.}.|.|.|.{.{.{.{.!.!.!.!.Q.U.L.L.L.R.L.L.L.J.J.G.F.Z.;.;.Z.S.H.G.J.L.J.A.F v w 7 7 7 @ @ @ @ 7 y v *.H.Y.1.>.,.,.,.<.<.<.&.&.&.%.&.%.%.$.%.+.+.+.+.+.+.+.+.+.+.+.' ..+.....^ ^ ^ ^ Q ^ ^ Q Q Q Q ~ ~ Q Q Q Q Q ^ ^ ^ ^ ^ ^ Q Q Q ~ W ~ W W W W W P P P P U l l l l l l k l l k l l l l l k k k k k k k j k j l j l B B B B W W W / / W / ` ` ' ' ......+.+.+.+.+.%.%.%.$.$.&.7.7.7.7.7.9.9.q.q.q.u.u.u.d.u.u...O 4 j j g d d d d d d d d g d d d d d d d 4 d d d d 4 4 4 4 4 4 4 4 4 4 4 4 4 4 4 4 ",
"N N N N N N N N N N N N N N N N N N N N N N W W N W B B B W B B W W W W B W W W ! u.c.c.=X-X-X<X<X1X1X1X1X3X3X3X0X0X0X0XqXqXqXqXtXpX0X0XpXpXpXpXpXpXpXpXpXpXtX0X0X0X0X0X0X0X3X3X3X3X3X3X1X1X1X1X1X1X2X1X1X1X1X1X1X1X1X<X<X<X;X;X;X;X*X*Xk.k.k.k.k.k.k.k.k.k.h.h.f.k.h.f.f.f.d.d.u.u.u.u.u.u.u.u.u.u.u.u.u.u.u.u.u.u.d.d.d.d.d.d.d.f.h.h.h.h.z.z.z.v.v.v.v.b.:X:X:X:X:X:X:X:X:X:X4X4X4XgXjXjXjXZXZXZXZXZXZXBXBXhX XR.3.D Z i i i i v v v v Z D Z b v D F G Z.Z.A.A.A.Z.Z.;.F A.Q.VXPXJXVX+X+X+XOXOX|.|.^.~.I.I.I.I.I.I.P.P.P.P.P.U.!.~.Q.P.G.A.A.F F F F F S S S F F F S F F ;.;.;.;.;.;.;.;.;.;.;.;.;.;.A.F.J.L.Q.Q.!.!.~.{.}.|..X.XXXXXXXXXXX|.}.{.{.{.!.{.!.!.U.L.L.L.L.L.L.L.J.J.H.F.F.Z.Z.Z.Z.Z.G.J.J.J.G.Z.v v b v b v 8 7 @ 7 7 0 i *.H.5.1.>.,.,.,.<.<.<.&.&.&.&.&.%.%.%.+.+.+.+.+.+.+.+.+.+.+.+.+.+.+.+.+.+.{ { ^ ^ ^ ^ ^ ^ Q Q Q Q Q Q Q Q ^ ^ ^ ^ ^ ^ ^ ^ Q Q Q ` ~ ~ ~ W W W W W W W U / l l l l l j j l l l l l l j j j j j j j k j j j l l l l B B B W W W / / / ` ` ` ' ' ..o.@.@.+.@.@.%.%.%.$.$.&.&.7.7.7.7.7.9.q.q.q.q.u.u.u.d.u.u...O 4 j j g d d d d d d d d d d d d d d 4 d 4 4 d d d 4 4 4 4 4 4 4 4 4 4 4 4 4 4 4 4 ",
"N N N N N N N N N N N N N N N N N N N N N N W W N W B B B B B B W W W W W W W E ! u.c.c.=X-X>X<X<X1X1X1X1X3X3X0X0X0X0XqXqXqXqXqXqXqX0XqXpXpXpXpXpXpXpXpXpXtXtX0X0X0X0X0X0X0X3X3X3X3X3X3X1X1X1X1X1X1X1X1X1X1X<X<X<X1X1X<X<X<X;X;X;X;X*X*Xk.k.k.k.k.k.k.k.k.k.h.f.f.h.f.f.f.d.d.d.u.u.u.u.u.u.u.u.u.u.u.u.u.u.u.u.u.u.u.i.u.d.d.d.d.d.f.h.h.h.h.z.z.z.z.v.v.v.b.v.:X:X:X:X:X:X:X:X:XW.eXxXjXjXBXZXAXAXAXAXZXBXBXhX XR.H.G Z i q q w i i v v Z D Z b v D F F A.A.S.S.A.Z.A.Z.Z.L. XVXPXJXVXMX@X+XOXOX|.|.|.~.I.I.I.I.I.I.P.P.P.P.P.P.U.~.~.U.P.G.S.A.B.G F F S b b S S b v v Z F F F F ;.;.G G G F F F F Z.A.G.L.Q.!.!.{.{.}.|.|.XXXXXXXXXXXXXX}.|.}.{..X{.!.!.!.Q.L.L.L.L.R.L.L.J.J.H.G.F.Z.Z.Z.Z.Z.Z.J.J.G.A.A.Z.F F G.Q.!.P.A.b w 8 7 8 i *.5.5.>.>.,.,.<.<.<.9.<.&.&.&.&.%.%.%.%.%.+.+.+.+.+.+.+.+.+.+.+.+.+.+.+.+.+.+.^ ^ ^ ^ ^ ^ ^ ^ Q ^ ^ ^ ^ ^ Q ^ ^ ^ ^ ^ ' ' ' ` ` ` ` ` / / / / W W W W / / / / / P W W P l l l l l l l j j l j l l l l l l l l l B B W W W W W / / / ` ` ' ] ..o.o.@.@.@.@.@.%.%.%.$.$.&.&.7.7.7.7.7.9.9.q.u.u.u.u.u.d.u.u...O 3 j j j d d d d d d d d d d d d d d d 4 4 4 d d d 4 4 4 4 4 4 4 4 4 4 4 4 4 4 4 4 ",
"N N N N N N N N N N N N N N N N N N N N N N W W N W B B B B B B W W W W W W W E ! u.c.c.-X-X-X<X1X1X1X1X3X3X3X0X0X0X0XqXqXqXqXqX0X0XqXqXpXpXpXpXpXpXpXpXpX0X0X0XqX0X0X0X0X0X0X3X3X3X3X1X3X1X1X1X1X1X1X1X1X1X1X<X<X1X<X<X<X;X;X=X;X*X*X*Xk.k.k.k.k.h.h.h.k.k.f.f.f.f.d.d.d.u.u.u.u.u.u.u.u.u.u.y.y.y.y.y.y.y.u.u.u.u.u.u.u.u.u.u.u.d.f.f.h.h.h.l.h.z.z.z.v.v.v.v.;X:X:X:X:X:X:X:Xv.b.eXxXjXjXjXZXAXAXAXAXZXBXBXhXoX[.J.;.S v i q q q w v v Z D F F F F F ;.A.A.S.A.Z.;.A.S.H.Q.gXAXPXPXSXNXMX@X+XOXOXOX|.|.~.I.I.I.I.I.I.P.P.P.P.P.U.~.~.~.!.U.J.G.S.A.A.Z.F S b b b b b v v v v Z Z D D D D F F F F F A.F.J.U.!.!.~.{.}.}.XXXXXXXX+XXXXXXXXXXXXXXX{.{..X[.!.!.Q.L.L.L.L.L.L.L.J.H.H.F.F.Z.Z.Z.Z.Z.Z.G.G.A.A.A.A.A.A.P.{.+X.X!.P.A.b 8 w v *.H.Y.>.>.,.,.<.<.<.9.<.&.&.&.&.%.%.%.%.+.+.+.+.+.+.+.+.+.+.+.+.+.+.+.+.+.+.+.+.+.^ ^ ^ ^ ^ ^ ^ ^ ^ ^ ^ ^ ^ ^ ^ ^ ^ ^ ' ' ' ` ` ` ` ` / / / / / / ~ W / P W W P P W W W W P l l l l l l l l l l l l l l l B B B W W W W W W W / / ` ` ' ] ] ..o.@.@.@.@.@.+.+.%.+.$.$.7.7.7.7.7.7.7.9.q.u.u.u.u.u.u.u.u.i...O 3 j d d d d d d d d d d d d d d d d d d d d d d d 4 4 4 4 4 4 4 4 4 4 4 4 4 4 4 4 ",
"N N N N N N N N N N N N N N N N N N N N N N B W N W B B B B B B B W W W W W W E ! u.c.c.-X-X-X<X1X1X1X1X3X3X3X0X0X0XqX0XqXqXqXqX0X0XqXqXpXpXpXpXpXpXpXpXpX0X0X0X0X0X0X0X0X0X0X3X3X3X3X1X3X1X1X1X1X1X1X1X1X<X<X<X<X<X<X<X;X=X=X=X*X*X*Xk.k.k.k.k.h.h.h.h.h.f.f.f.d.d.d.d.u.u.u.q.q.9.7.7.7.7.7.7.7.9.9.9.9.9.9.9.y.y.y.y.u.u.u.u.u.u.d.f.f.h.h.h.h.h.z.z.z.v.v.v.;X;X;X;X:X:X:Xv.b.b.eXgXjXjXjXZXAXAXAXAXAXAXBXBXhX XR.H.;.S Z v v i v v D F G A.A.A.A.A.A.A.S.A.Z.Z.Z.S.S.Y./.gXAXPXPXSXVXMX@X+XOXOXOXOXOX^.I.I.I.I.I.I.I.P.P.P.P.I.~.~.^.^.^.!.P.J.J.S.A.Z.F F v b b v v v v v v v v v Z Z Z Z F B.Z.G.J.U.!.~.~.~.{.}..XXXXXXX+X+X+X+XXXXXXXXXXX{.}..X!.Q.Q.Q.L.L.L.L.L.L.J.J.G.F.F.F.Z.Z.Z.Z.;.;.Z.A.Z.Z.A.J.G.G.J.Q.^..X.X.XQ.A.w y S 1.H.Y.>.>.>.,.<.<.<.9.<.<.&.&.&.&.%.%.%.%.%.%.+.+.+.+.+.+.+.+.+.+.+.+.+.+.+.+.+.+.+.+.+. .^ ^ ^ ^ ^ ^ ^ ^ ^ ^ ^ ^ ^ ^ ' ' ' ` ` ` ` ` ` ` ` ` ` / / / / / / / / / / / W / W W W P P P P P W W W W W W B B B B W W W W W W W / ~ / ` ` ' ] ..o.o.@.@.@.@.@.@.+.%.$.$.%.7.7.7.7.9.9.9.9.q.u.u.u.u.u.u.u.u.d...O 3 j g g g g d d d d d d d d d d d d d d d d d d d 4 4 4 4 4 4 4 4 4 4 4 4 4 4 4 4 ",
"N N N N N N N N N N N N N N N N N N N N N N W W N W B B B B B B B B W W W W W E ! u.c.=X-X-X-X<X1X1X1X1X3X3X3X0X0X0X0XqXqXqXtXtXiXiXpXpXpXpXpXpXpXpXpXpXpX0X0X0X0X0X0X0X3X3X3X3X3X3X3X3X1X1X1X1X1X1X1X<X>X>X<X<X<X;X<X<X;X=X*X*X*X*X*Xk.h.k.k.k.h.h.f.f.f.f.d.d.d.d.d.u.q.q.q.7.7.7.7.7.7.7.7.7.7.7.7.7.7.7.7.7.9.9.y.y.y.y.y.u.u.u.u.f.f.h.h.h.h.h.l.z.z.v.v.v.v.v.v.v.;X:Xv.v.b.l.4XgXjXjXjXZXHXHXHXHXHXAXAXBXhXoX XR.J.F.;.G G G G G ;.A.S.G.G.G.G.G.G.G.S.S.S.S.S.J.R./. XhXSXPXJXSXNXMX@X@XOXOXOXOXOX^.~.I.I.I.I.I.I.P.P.P.P.U.U.~.|.|.}.{.!.U.J.J.S.S.A.Z.F F F F F F D v Z F F F F F G B.A.G.J.U.!.{.}.}.{.}.}.|.XX+X+X+X+X@X@X@X@X@X@X+X+X{.{..X!.Q.U.U.U.L.L.L.L.L.J.H.F.F.F.Z.;.;.;.Z.Z.;.Z.G D Z F S.J.J.L.Q.!.{..XXX^.S.b v S 1.H.Y.>.>.>.,.<.<.<.<.9.&.<.&.&.&.&.&.%.%.%.%.%.%.#.#.+.+.%.%.%.+.+.+.+.+.+.+.+.+.+.+.+.+.+.+.^ ^ ^ ^ ^ ^ ^ ^ ^ ^ ^ ^ ^ ^ Q Q ` ` ` ` ` ` ` ` ` ` / / / / / / / / / / / / / / / / W W W W / / W W W / W / / / W W W / W W / ~ ~ ` ` ` ' ' ..o.o.o.@.@.@.@.@.+.$.$.%.&.7.7.7.7.9.9.9.q.u.u.u.u.u.u.u.d.u.d...O 3 g g g g g g d d d d d d d d d d d d d d d d d d 4 4 4 4 4 4 4 4 4 4 4 4 4 4 4 4 ",
"N N N N N N N N N N N N N N N N N N N N N N W W N W B B B B B B B B W W B W W E ! u.c.=X-X-X-X<X1X1X1X1X3X3X3X0X0X0X0XqXqXqXtXtXiXiXpXiXpXpXpXpXiXpXpXpXpX0X0X0X0X0X0X0X3X3X3X3X3X3X3X1X1X1X1X1X<X<X<X>X<X<X<X<X=X;X;X;X=X*X*X*X*X*Xk.k.k.k.h.h.h.d.f.f.f.f.d.d.u.u.u.u.q.q.7.7.7.7.7.7.7.7.7.7.7.8.7.7.7.7.7.7.7.9.9.9.y.y.y.u.u.u.u.u.f.f.f.h.h.h.h.h.z.z.z.v.v.v.z.z.v.v.v.b.l.l.rXxXjXjXZXAXHXHXJXJXHXAXZXBXBXhXhXoX[.R.J.H.H.H.F.F.F.H.J.J.G.H.G.G.J.J.J.J.E./././. XgXhXZXJXPXJXAXNXMXMXMX+XOXOXOXOX^.~.I.I.I.I.I.I.I.I.P.P.U.U.~.^.}.|.}.{.!.Q.P.J.J.G.S.S.S.S.A.A.N.F F F A.A.A.G.G.J.J.U.!.{.|.XXXXXXXX}.|.XXXXXX+X+X@X@X@X@X@X@X@X@X@X+X{.{.XX!.Q.U.U.U.L.L.J.J.J.G.G.F.F.Z.;.G ;.;.;.A.;.G v w w w v G S.J.Q.^..X.X.X^.J.b v S 1.Y.Y.>.>.,.,.<.<.9.9.9.9.9.7.&.&.&.&.&.&.&.%.%.%.%.%.%.%.%.%.%.%.%.%.%.+.+.+.+.+.+.+.+.+.+.+.+. .+.+.+.+.+. . .^ ' ' ^ ^ ' Q ` ` ` ` ` ` ` ` ` ` ` ` ` ` / / ' ' ' ' ` ` ` ` / / W W W / / / W / / W W W / / / / / / / / / / ` ` ` ` ' ....o.o.o.@.@.@.@.@.#.$.$.$.&.7.7.9.9.9.q.q.q.u.u.u.u.u.u.d.f.u.d...O 3 g g g g g g d d d d d d d d d d d d d d d d d d 4 4 4 4 4 4 4 4 4 4 4 4 4 4 4 4 ",
"N N N N E N N N N N N N N N N N N N E E N N W W B W B B B B B B B B B B W W W E ! u.c.c.-X-X-X<X1X1X1X1X1X3X3X0X0X0X0XqXqXqXtXtXpXpXpXpXpXpXpXpXpXpXpXpXpXtX0X0X0X0X0X0X3X3X3X3X3X1X1X1X1X1X1X<X<X<X<X<X<X<X=X=X=X=X;X=X=X*X*X*X*Xk.k.k.k.k.k.k.f.d.d.d.d.d.d.u.q.q.q.7.7.7.7.7.8.8.8.8.$.8.$.$.8.8.8.8.8.7.7.7.7.7.7.7.9.9.9.9.u.u.u.u.d.f.f.f.f.h.h.h.l.l.z.z.v.v.v.v.v.v.v.l.l.b.rXjXjXjXZXAXHXJXJXPXJXHXAXZXVXBXBXMXhXoX[.Q.Q.R.L.L.L.L.J.H.H.S.H.H.J.L.Q./.hXhXhXhXgXgXNXAXPXPXSXVXNXNXNXNX+XOXOXOX|.^.~.~.I.~.~.~.~.~.~.!.I.!.~.^.^.|.|.|.|.|.~.!.U.P.J.J.J.J.J.J.J.P.P.P.P.P.U.U.U.!.U.!.}.+X@X@X@X+X+XOXXXXXXX+X+X+X@X@X@X@X@X@X@X@X@X@XXX}.{.!.!.Q.Q.U.U.L.J.J.J.J.G.G.F.Z.;.G G G ;.Z.Z.Z.F e 7 7 @ 7 w v G S.Q.!.^.^.U.P.F y b H.Y.Y.>.>.,.,.<.9.9.9.9.9.<.&.&.&.&.&.&.&.&.&.&.&.&.&.%.%.%.%.%.%.%.%.%.%.%.%.#.#.+.#.+.+.+.+.+.+.+.+.+.+.+.+.+.+.+.....' ' ' ' ' ' ' ' ' ' ' ' ' ' ' ' ' ' ' ' ' ' ' ' ' ' ' ' ` ` / W W W / / / / / / / / / / / / / ~ / / / ` ` ' ] ] ....o.o.@.@.@.#.#.$.$.$.$.&.&.7.7.9.9.q.q.q.u.u.u.u.u.d.d.d.f.d.d...O 4 g g g d d g d d d d d d d d d d 4 d d d d d d d 4 4 4 4 4 4 4 4 4 4 4 4 4 4 4 4 ",
"N N N N W N N N N N N N N B B B B B B B B B W W B W B B B B B B B B W W W W W E ! u.c.c.-X-X-X<X<X1X1X1X1X3X3X3X0X0X0XqXqXqXtXtXpXpXpXpXpXpXpXpXiXpXpXpXtX0X0X0X0X0X0X3X3X3X3X3X1X1X1X1X1X1X1X<X<X<X<X<X<X;X=X=X=X=X=X=X*X*X*X*X*Xk.k.k.k.k.k.k.f.d.d.d.d.d.u.q.q.7.7.7.7.7.7.8.8.8.$.$.$.$.$.$.$.$.$.8.$.8.&.7.7.7.7.7.7.7.9.9.9.q.u.u.u.d.f.f.f.f.h.h.h.h.z.z.z.z.z.z.l.l.l.l.l.b.rXjXjXjXZXAXHXJXPXPXPXJXAXAXVXVXVXBXMXhXoXoX X[.[.Q.Q.R.J.H.H.H.H.J.R. X.XhXNXNXhXgXgXgXBXAXPXPXSXAXNXMXMX@X+XOX|.OXOX^.~.~.~.~.~.^.^.^.^.^.~.~.^.^.^.|.|.|.OXOX|.{.!.U.J.J.J.J.P.U.!.~.{.{.}.XX+X+X+X+X+X+X@X@XMXMX@X@X+X+X+X+X+X+X@X@X@X@X@X@X@X@X@X@X@X@XXX.X{.!.!.Q.U.U.L.J.J.G.G.G.H.F.Z.;.G G G G ;.Z.H.A.Z q 7 @ @ @ 7 8 e F S.J.P.Q.U.P.F i b H.Y.Y.>.>.,.<.9.9.9.9.9.9.<.&.&.&.&.&.&.&.&.&.&.&.&.&.&.&.&.&.&.&.&.&.&.&.%.%.%.%.%.#.#.#.+.+.+.+.+.+.+.+.+.+.+.+.+.+.+.+.+...................] ' ..' ' ' ' ' ' ' ' ' ' ' ' ' ' ' ` ` ` / / / / ` / / / / / / / / / / ) ` ` ` ` ' ] ] ....o.o.@.@.@.#.#.$.$.$.$.&.&.&.7.7.q.q.q.q.q.u.u.u.d.d.f.d.f.f.d.d...O 4 g g g d d g d d d d d d d d d d 4 d d d d d d d 4 4 4 4 4 4 4 4 4 4 4 4 4 4 4 4 ",
"N N N N B N N N N N N N N B B N B B B B B B W W B B B B B W B B W W W W W W W E E u.c.c.=X-X-X-X<X1X<X1X1X1X3X3X3X0X0X0XqXqXtXtXtXpXpXpXpXqXpXpXpXpXpXtXtX0X0X0X0X3X3X3X3X3X3X3X3X1X1X1X1X<X<X<X<X<X<X<X=X;X=X=X=X=X=X*X*X*X*Xk.k.k.k.k.k.k.h.f.f.d.d.u.d.u.u.q.7.7.7.7.7.7.7.8.8.8.$.$.$.$.#.#.$.$.$.$.$.$.$.$.&.7.7.7.7.7.9.q.9.q.q.u.u.u.d.d.f.f.f.h.h.h.l.l.l.l.l.l.l.l.l.l.l.l.rXxXjXjXZXZXHXHXJXPXPXJXAXZXVXBXBXMXhXoXoX X X X X[.Q.R.L.L.L.L.R./..XMXBXBXBXBXhXhXhXhXZXSXPXPXSXVXNXMX@X@X+XOXOXOXOXOX^.~.~.~.^.^.^.|.|.^.^.^.^.^.^.|.|.OX+X@X+XXX{.!.Q.U.U.P.U.!.^..X.X.X+X@X@X@X@X@X@X@XMXMXMXMX@X@X@X@X@XMXMX@X@X@X@X@X@X@X@X@XMX@X@X@XXX.X{.!.!.Q.U.L.J.J.J.G.G.G.G.F.Z.G G D D G Z.F.J.H.Z 7 @ @ @ @ @ 7 8 e F A.A.G.U.P.F i v 1.Y.Y.>.>.,.<.9.9.9.9.9.9.9.7.7.7.7.7.7.7.7.7.7.&.7.&.&.&.&.&.&.&.&.&.&.&.&.&.&.%.%.%.%.%.#.#.#.+.+.+.+.+.+.+.+.+.+.+.+.+.+.+.+.+.+.+.........o...o.o.' ' ' ' ......' ' ' ' ` ' ' ` ` ` ` ` ` ` ` ' ` ' ' ' ' ` ` ' ' ` ` ` ' ] ] ] ....o.o.o.@.@.#.#.$.$.$.$.$.&.7.7.7.7.9.9.u.u.u.u.u.u.f.f.f.d.f.f.f.d...O 4 g g d g d g d g d d d d d d d d d d d 4 4 d d d 4 4 4 4 4 4 4 4 4 4 4 4 4 4 4 4 ",
"B B B B B B B B B B B B B B B B B B B B B B W W B B B B B W B B W W W W W W W E E u.c.c.=X-X-X-X<X<X<X<X1X1X3X3X3X0X0X0XqXqXqXtXtXtXtXpXpXtX0X0XpXpXtXtX0X0X0X0X3X0X3X3X3X3X3X1X1X1X1X1X1X<X<X<X<X;X;X=X=X=X=X=X=X=X=X=X*X*Xk.k.k.k.k.k.h.h.f.f.d.u.u.u.u.u.q.7.7.7.7.7.7.8.7.7.8.$.$.$.$.$.#.$.$.$.$.$.$.$.$.$.&.&.7.7.7.7.9.q.9.9.q.q.u.u.u.u.d.d.f.f.h.h.h.h.h.h.h.h.l.l.l.l.l.l.rXgXjXjXBXZXAXHXJXJXJXJXAXAXVXBXBXMXhXoX X[.[. X X X X X X X.XhXMXNXBXAXAXAXAXBXhXhXNXBXZXJXPXPXAXNXMX+X@X@X+XOXOXOXOXOXOX^.^.^.^.+X+X+XXX|.^.^.~.~.^.|.|.OX+X@X@X@X+XXX{.~.~.!.!.^.|.XX+X+X@X@XMXMXMX@XMXMXMXMXMXMXMXMXMXMXMXMXMXMXMX@X@X@X@X@X@X@X@X@X@X@XXX}.{.[.!.Q.U.L.J.J.G.G.H.H.F.Z.Z.G D D D G Z.H.L.R.G 8 @ @ 7 7 7 7 w w D N.A.A.P.P.N.v v 1.Y.5.>.,.,.<.9.9.9.9.9.9.9.7.7.7.7.7.7.7.7.7.7.7.7.7.7.&.&.&.&.&.&.&.&.&.&.&.&.&.&.&.%.%.%.%.#.#.#.#.#.#.+.+.+.+.+.+.+.+.+.@.@.@.@.@.@.@.@.@.@.o.o.o.o.o.o.o.o.o.o.....' ' ' ' ' ' ' ' ' ' ' ' ' ' ' ' ' ] ' ] ] ] ] ] ' ' ' ] ] ......@.@.@.@.#.#.$.$.$.$.$.8.7.7.7.7.9.9.q.u.u.u.u.u.f.f.f.f.f.f.f.f.d.+.O 4 g g d d d g d d d d d d d d d d d d d d 4 4 d d 4 4 4 4 4 4 4 4 4 4 4 4 4 4 4 4 ",
"B B B B B j j B B B B B B B B B B B B B B B W W B B B B B W W B W W B B W W W E E u.c.c.=X-X-X-X-X-X<X1X1X1X1X3X3X0X0X0XqXqXqXqXpXpXpXpXtXtXtXtXqX0X0X0X0X0X0X0X3X3X3X3X3X3X1X1X1X1X1X1X1X<X<X<X=X=X=X=X=X=X*X*X*X*X*X*Xk.k.k.k.k.k.k.h.f.f.f.f.d.u.u.u.u.q.7.7.7.8.8.8.8.7.8.8.$.#.#.#.#.#.#.#.#.#.#.#.#.$.$.$.$.&.&.&.7.7.9.9.7.q.q.q.q.u.u.u.u.d.d.f.f.h.h.h.h.h.h.h.h.l.l.l.l.l.rXxXjXjXBXZXAXAXHXJXJXHXAXAXVXVXBXBXMXoX.X X X.XoX.XhXhXNXBXBXAXAXSXSXAXAXAXZXBXMXBXZXZXAXJXPXJXBXMXMX+X+X+XOXOXOXOXOXOXOXOX|.^.OXOX+X+X+XXX^.^.~.~.^.|..XOX+X@X@X@X@X@X+XXXXX|.{.|.XX+X+X@X@XMXNXNXNXMXMXMXMXMXMXMXMXMXMXMXMXMXMXMXMXMXMX@XMX@XMX@X@X@X@X@XXX}.{.[.!.Q.L.J.J.J.G.G.G.G.F.Z.G F D D F ;.F.J.Q. XJ.e @ @ 7 7 7 w w e b N.A.G.P.J.N.v v 1.Y.5.,.,.,.<.9.9.9.9.9.9.9.9.9.7.7.7.7.7.7.7.7.7.7.7.7.7.7.7.&.&.&.7.7.&.&.&.&.7.&.&.&.&.&.&.&.$.$.$.#.#.#.#.#.#.#.#.#.+.%.%.%.%.%.%.@.@.@.@.@.o.@.@.o.o.o.o.o.o.o.o.o.....o...o.......' ] ] ] ] ] ] ] ] ] ] ] o.o.o.] ] ] ..o...+.@.@.@.@.@.#.$.$.$.$.$.$.$.8.7.7.7.7.7.9.q.u.u.u.u.u.d.f.f.f.d.f.f.f.f.+.O 4 g g d g g g d d d d d d d d d d d d d d d d 4 4 4 4 4 4 4 4 4 4 4 4 4 4 4 4 4 4 ",
"B B B B B B j B B B B B B B B B B B B B B B W W B B B B B B B B W W B B W W W E ! u.c.x.=X=X-X-X-X-X-X<X<X1X1X1X3X3X0X0XqXqXqXqXqXqXtXqX0XtXtXtX0X0X0X0X0X0X0X3X3X3X3X3X1X1X1X1X1X1X<X<X<X<X<X-X=X=X=X=X=X=Xk.*Xk.k.k.k.k.h.k.k.k.k.h.f.d.f.d.d.u.q.q.q.q.7.7.8.8.8.8.8.8.8.#.#.#.#.#.#.#.#.X.X.@.@.@.#.#.#.$.$.$.$.$.&.9.7.9.9.7.q.q.q.q.q.q.u.u.u.d.d.f.f.h.h.h.h.h.h.h.l.h.l.l.l.rXjXjXjXBXZXZXZXAXAXAXAXAXVXBXNXhXhXhXhXoXoXoXoXoXoXhXNXBXBXAXAXSXSXSXSXSXHXAXBXBXZXAXZXAXJXPXSXNXNXMXMX@X+X+XOXOXOX@X@X+X+XOXOXOX+X@X@X+X+XXX^.^.^.|.+X+XOX+X@X@X+X@X@X@X+X+XXXXXXXXX+X+X@X@XMXNXNXNXMXMXMXMXMXMXMXMXMXMXMX@X@XMXMXMX@XMX@XMX@X@X@X+X+XXXXX{.{.[.!.!.Q.U.J.J.J.G.G.F.F.Z.Z.G F D D G Z.H.J.Q..XQ.D 7 7 7 7 w w e v D N.B.G.G.G.A.v v 1.Y.5.,.,.,.<.9.9.9.9.9.9.9.9.y.7.y.y.7.7.7.7.7.7.7.7.7.7.7.7.7.7.7.7.7.7.7.7.7.7.7.7.7.7.&.&.&.&.&.&.&.#.$.$.#.#.#.#.#.#.#.$.$.$.$.$.$.@.@.@.@.@.@.@.@.@.@.@.@.@.@.o.o.o.o.o.o.@.@.@.o.o.o.o.o.o.o.] ] ] ] ] @.@.@.@.@.@.@.@.@.@.+.@.@.@.$.$.$.$.$.$.$.#.$.$.8.7.7.7.7.7.9.q.u.u.u.u.d.f.f.f.f.f.f.f.f.f.+.O 4 g g d g g g d d d d d d d d d d d d d d d d d d 4 4 4 4 4 4 4 4 4 4 4 4 4 4 4 4 ",
"B B B B B B B N B N B B B B B B B B B B B B W W W B B B B B B B W B B B W W W E ! u.c.x.=X=X-X-X-X-X-X-X1X1X1X3X3X3X0X0X0XqXqXqXqX0X0X0X0X0XqXqX0X0X0X0X0X0X3X3X3X3X3X1X1X1X1X1X1X<X<X<X<X<X<X<X;X;X=X=X*X*X*Xk.k.*Xk.k.k.k.k.k.k.h.f.d.d.d.u.u.u.q.7.7.7.7.8.8.#.#.8.#.#.#.#.#.#.#.X.X.X.X.X.X.X.X.X.@.@.@.#.#.@.$.$.$.$.$.7.7.9.q.q.q.q.q.q.q.u.u.u.d.f.f.h.h.h.h.h.h.h.h.h.l.l.l.rXjXjXjXBXZXBXBXBXAXAXAXVXBXBXhXhXhXhXhXhXhXhXoXoXhXMXNXBXBXAXAXAXAXAXAXSXSXAXZXZXAXAXAXSXPXSXBXNXNXNXMXMX@X+X+X+X@X@XMX@X+X+X+X+X+XMX@X+X+X|.^.^.^.+X+X|..X+X+X@X@X@X@X+X+X+X+X+X+XXXXX+X+X@X@XMXNXMXMXMXMXMXMXMXMXMXMXMXMX@X@XMXMXMX@X@X@X@X@X@X+XXXXXXXXX{.[.!.!.!.Q.U.L.J.J.G.F.F.A.A.;.G F D G G F.H.L.Q.{.!.B.w w w w w e v v b F F N.N.A.A.v v 1.Y.1.,.,.,.<.9.9.9.9.9.9.9.9.9.9.y.y.9.y.y.y.y.y.y.y.7.7.7.7.7.7.7.7.7.7.7.7.7.7.7.7.7.7.7.7.7.8.8.&.8.&.&.&.&.&.$.$.$.$.$.$.$.$.$.$.$.$.@.@.@.@.@.@.<.<.<.<.@.@.@.@.o.o.o.@.@.@.@.@.@.@.@.o...o.....o.] @.@.@.@.@.@.@.@.@.@.@.@.@.@.@.$.$.$.$.$.&.$.$.#.$.$.7.7.7.7.7.9.q.q.u.u.u.d.d.f.f.f.f.f.f.f.f.f.+.O 3 6 g d g g g d d d d d d d d d 4 4 d d d d d d d 4 4 4 4 4 4 4 4 4 4 4 4 4 4 4 4 ",
"B j j B B B B N N N B B B B B B B B B B B B W W W B B B B B B B B B B B W W W E ! u.c.x.=X=X-X-X-X-X-X-X<X1X1X1X3X3X3X0X0X0X0X0X0X0X0X0X0X0X0X0X0X0X0X3X0X3X3X3X3X1X1X1X1X1X1X1X<X<X<X<X-X-X-X=X=X=X=X*X*X*X*Xk.k.k.k.k.k.k.k.k.h.h.d.d.u.u.u.u.q.7.7.7.8.8.$.#.#.#.#.#.#.#.#.#.X.X.X.X.X.X.X.X.X.X.X.o.o.@.@.#.@.@.@.@.$.$.$.9.9.9.q.q.9.9.9.q.u.u.u.d.d.d.h.h.h.h.h.h.h.h.h.l.l.l.rXxXgXjXjXBXBXBXBXBXZXVXZXBXBXBXNXhXhXhXhXhXhXhXhXMXNXBXVXAXAXAXAXAXAXAXAXAXAXBXZXAXAXAXPXPXAXMXMXNXMX+X+X+X+X+X+X@XMXNXMX@X+X+X+X+XMX@X+X+XXX^.^.^.|.|.|.OX+X@X@X@X@X+X+X+X+X@X@X+X+X+X+X+X@XMXMXNXMXMXMXNXMXMXMXMXMXMXMXMX@X@XMXMXMXMXMXMX@X@X@X+X+XXXXXXX[.[.!.!.!.Q.U.L.J.J.G.F.F.Z.Z.G G D D G ;.F.J.L.R.[.[.A.v w e w w e v e v b b F N.A.A.S b 1.Y.1.,.,.,.<.9.9.9.9.9.9.9.9.y.9.y.y.y.y.y.y.y.y.y.y.y.y.y.y.9.9.9.9.9.9.9.9.y.7.7.7.7.7.7.7.7.7.7.7.8.8.8.&.&.&.&.&.&.&.&.&.$.&.&.&.&.$.$.$.$.$.$.<.<.<.<.<.<.<.@.@.@.@.@.@.$.$.$.$.@.@.@.@.@.@.@.@.+.+.@.@.@.+.+.+.%.%.%.%.@.@.@.@.$.$.$.$.$.&.&.$.$.$.$.8.7.7.7.7.7.q.q.u.u.u.u.d.f.f.f.f.f.f.h.h.f.f.+.O 3 g g g g g g d d d d d d d d d 4 4 4 d d d d d d 4 4 4 4 4 4 4 4 4 4 4 4 4 4 4 4 ",
"B B N N B B B B B B B B B B B B B B B B B B W W B B B B B B B B B B B W W W W E ! u.c.x.=X=X=X-X-X-X-X<X<X<X1X1X1X1X2X0X0X0X0X0X0X0X0X0X0X0X0X0X0X0X0X3X3X3X3X3X1X1X1X1X1X<X<X<X<X<X<X<X-X-X-X<X=X=X=X*X*X*Xk.k.k.k.k.k.k.k.f.f.h.h.d.u.u.u.u.u.q.7.8.8.8.8.#.#.#.#.#.#.X.#.X.X.X.X.X.X.X.X.X.X.X.X.X.......o.@.o.@.@.@.@.$.$.$.$.9.9.9.q.9.q.q.q.q.u.u.u.u.d.d.h.h.h.i.h.h.h.l.l.l.rXjXjXjXjXjXBXBXhXNXBXBXBXBXBXMXhXhXhXhXhXhX.XhXMXBXBXBXBXZXAXAXAXZXZXAXAXAXZXZXAXAXZXAXPXSXBXNXNXNXMXMX+X+X+X+X+X@XNXNXNXMX@X+X+X+X@X@X+X+X+X^.^.^.|.+X+X+X@X@X@X+X+X+X+X+X+XXXXX+X+X+X+X@XMXMXMXMXMXMXMXMXMXMXMXMXMXMXMXMXMX@XMXMXMXMXMX@X@X@X@X+X+XXXXXXX[.[.[.[.!.!.U.L.J.G.F.Z.Z.Z.G G F D D F G F.J.L. X[.!.G.v w w e e e e w e v b F F A.A.F ;.H.Y.1.,.,.,.9.9.9.9.9.9.9.y.y.y.y.y.u.y.y.y.y.y.y.y.y.y.y.y.y.y.y.y.y.y.y.y.y.y.9.9.9.9.7.7.7.7.7.7.7.7.7.7.8.8.8.&.&.&.&.&.&.&.7.7.&.<.&.&.$.$.<.<.<.<.<.<.<.<.<.$.$.@.@.@.@.@.$.<.$.$.@.@.@.@.@.@.@.@.@.@.@.@.@.@.@.@.@.%.%.%.%.%.%.$.$.$.$.&.&.7.7.&.&.7.7.7.7.7.q.q.q.u.u.u.d.d.f.f.f.h.h.h.f.h.h.f.f.+.O 4 g g d d d g d d d d d d d d d d d d d d d d d d 4 4 4 4 4 4 4 4 4 4 4 4 4 4 4 4 ",
"B B N B B B B B j j B B B B B B B B B B B B W W B W B B B B B B B B B W W W W W ! u.c.c.=X=X=X-X-X-X<X<X<X<X<X1X1X1X1X1X0X0X0X0X0X0X0X0X0X0X3X3X3X3X3X3X3X1X1X1X1X1X<X<X<X<X<X<X<X<X-X-X-X-X=X=X=X*X*X*X*Xk.k.k.k.k.k.k.k.f.f.f.d.d.d.u.u.u.u.q.7.8.8.8.$.#.#.#.#.#.#.#.X.X.X.X.X.X.X.X.X.X.X.X.X.X.....X.....o.o.@.@.@.@.@.$.$.$.$.<.9.9.q.q.q.9.9.9.q.u.u.u.u.d.i.i.i.h.h.h.i.p.l.rXgXjXjXgXgXgXgXhXhXhXhXNXNXMXhXhXhXhXhXhXhXhXhXNXBXBXBXBXNXBXNXBXBXBXZXAXZXBXBXAXAXAXJXPXAXNXNXNXNXMXMX+X|.+X+X+XNXCXCXNXNX@X+X+X+X+X+X+X+X+X|.^.^.^.+X+X@X@X@X@X+X@X+X@X@X@X+X+X@X@X@X+X@XMXMXMXMXMXMXMXMXMXMXMXMXMXMXMXMXMX@X@X@XMX@X@X@X@X+X+X+XXXXX.X.X[.[.[.[.!.Q.L.L.G.G.F.Z.G G H F F D F G Z.F.J.Q.Q.Q.Q.J.F v v e e e e e e v b F F A.N.F S.Y.Y.>.,.,.<.9.9.9.9.9.9.9.y.y.y.y.u.u.u.y.y.y.y.y.y.y.u.u.u.u.u.u.u.u.u.u.u.u.u.y.y.y.y.9.9.9.7.7.7.7.7.7.7.7.7.7.7.7.7.7.7.7.7.9.9.9.9.<.<.<.<.<.<.<.<.<.,.<.<.<.<.$.@.$.@.$.$.$.$.$.$.$.$.@.@.@.@.@.@.@.@.%.%.%.@.%.@.@.%.%.%.$.%.$.$.$.$.&.&.7.7.7.7.7.7.7.7.7.q.q.u.q.u.d.d.d.f.f.h.h.h.h.h.h.h.h.f.h.+.O 4 g d d d d g d d d d d d d d d d d d d d d d d d 4 4 4 4 4 4 4 4 4 4 4 4 4 4 4 4 ",
"B B B B B j B B B j B B B W B B B B B B B B W W B W B B B B B B B B W W W W W W E u.c.k.=X=X=X-X=X=X-X<X<X<X<X1X<X1X1X1X1X2X0X0X0X0X0X0X0X3X3X3X3X3X3X3X1X1X1X1X1X<X<X<X<X<X<X<X<X-X=X=X=X=X=X=X*X*Xk.k.k.k.k.k.k.k.k.k.f.f.d.d.d.u.u.u.q.q.7.7.8.8.8.#.#.#.#.X.X.X.X.X.X.X.X.X.X.X.X.X.X.X.X.X.X.X.X.X.X.........o.@.@.@.@.$.@.@.@.$.$.9.9.9.7.9.9.q.9.9.9.9.y.y.y.i.i.i.i.i.i.i.p.W.gXgXgXgX X XgXhXhXhXhXhXhXhXhXhXhXhXhXhXhXhXhXNXBXBXNXNXNXMXhXNXBXBXAXAXBXBXBXAXHXHXPXSXNXNXNXNXNXNXMXMXMXMX@X@XMXNXNXNX+X|.|.+X+X+X@X+X+X+X+X|.^.|.+X+X@X@X@X@X@X@X@X@X@X@X@X@X@X@X@X+X@X@X@X@X@X@XMX@X@XMXMXMXMXMXMXMXMXMX@X@X@X@X@X+X+X+X+XXXXXXX.X}.{.[.{.{.[.!.Q.L.L.J.G.F.Z.G G G G F G G Z.F.G.J.L.L.L.L.J.A.F D v v v v v v v b F N.A.Z.;.H.E.Y.,.,.,.<.9.9.9.9.9.9.y.y.y.y.u.u.u.u.u.u.u.y.y.y.u.u.u.u.u.u.u.u.u.u.u.u.u.u.u.u.u.u.u.u.u.9.9.9.7.7.7.7.7.7.7.7.7.7.7.7.9.9.9.9.9.9.9.9.9.<.<.<.<.9.9.9.<.,.<.<.$.$.@.$.$.$.$.$.$.$.$.$.$.$.$.@.%.%.%.%.%.%.%.%.%.$.$.$.$.$.$.$.$.&.$.&.7.7.7.7.7.7.7.7.7.9.q.q.q.u.u.u.d.f.f.f.h.h.h.k.k.h.h.k.k.h.h.+.O 4 g d d d d g d g d d d d d d d d d 4 d d d d d d 4 4 4 4 4 4 4 4 4 4 4 4 4 4 4 4 ",
"B B B B B B B B B B B N B W B B B B B B B B W W B B B B B B W W B B W W W W W W L u.k.k.=X=X=X=X=X=X=X<X<X<X<X<X<X<X1X1X1X2X3X3X3X3X3X3X3X3X3X3X3X3X3X1X1X1X1X<X<X<X<X<X<X-X<X-X-X-X=X=X=X=X=X=Xk.k.k.k.k.k.k.k.f.h.f.f.d.d.d.d.u.u.u.7.7.7.7.7.8.#.#.#.#.#.#.........X.X.X.X.X.X.X.X.| ~ ~ ~ ~ ` ~ ` ` X.X.X.X...........@.@.o...@.@.@.$.$.$.$.$.7.9.7.9.9.9.9.y.y.y.i.u.i.i.i.i.p.W.gXrXgXgXE.[. X X X X X XhXhXhXhXhXhXMXMXMXMXNXNXBXNXNXNXNXhXhXMXNXBXBXBXBXhXZXSXHXPXPXSXNXNXNXVXVXVXNXNXMXMXMXMXNXCXCXNXOX^.+X+X@X@X+X+X+X+X+X|.^.|.+X+X@XMX@X@X@X@X@X@X@X@X@X@X@X@X@X+X+X@X@X+X+X+X@X@X+X@X@X@X@XMXMXMXMXMX@X@X+X+XXXXXXXXXXXXXXXXX.X}.{.{.{.{.[.!.L.L.J.G.G.Z.G G G G D D G G F.F.F.F.G.J.J.J.J.A.A.N.F b b b b b b F N.A.S.A.S.E.E.Y.,.,.,.<.9.9.9.9.9.9.y.y.y.u.u.u.u.u.u.u.u.u.u.u.u.u.u.u.u.u.u.u.u.u.u.u.u.u.u.u.u.u.u.u.u.u.u.u.u.q.q.q.q.9.9.9.9.9.y.y.y.y.y.y.y.9.9.9.9.9.9.9.9.9.9.9.9.9.<.<.<.$.$.<.<.<.<.<.&.&.&.&.$.$.$.$.$.$.%.@.$.%.%.%.%.$.$.&.&.$.$.$.&.&.&.7.7.7.7.7.9.9.7.9.7.u.u.u.u.u.u.d.d.f.f.f.h.k.k.k.k.k.h.k.k.h.h.#.O 3 6 d d d d g d g g d d d d d d d d d d d d d d d 4 4 4 4 4 4 4 4 4 4 4 4 4 4 4 4 ",
"B B B N B N B B N N B N B B B B B B B B B B B B B B B B B B B B B W W W W W W W L u.k.k.=X=X=X=X=X=X=X-X-X<X<X<X<X<X1X1X1X1X2X3X3X3X3X3X3X3X3X3X3X1X1X1X1X<X<X<X<X<X<X<X-X-X-X-X-X=X=X=X=X=Xk.k.k.k.k.k.k.h.f.f.f.d.d.d.d.u.u.u.u.u.7.7.7.7.7.8.#.#.#.#.#.#.X. .X.X.X.X.X.X.X.X.X.X.X.| ~ ~ ~ ` ` ` ` ` ~ ` X.X.X.X...X.....o.......@.@.@.@.$.$.$.$.$.7.7.7.7.7.9.y.y.y.y.y.i.i.i.p.W.rXE. X XE.R.Q.Q. X X X XhXNXBXBXBXNXMXBXBXBXBXBXBXNXNXNXNXhXhXhXhXgX XgXgXhXAXSXHXPXPXSXAXVXAXSXSXSXVXNXMXMXMXNXNXCXSXCX+X+X+XMXMX@X+X+XMX+X+X^.^.^.|.+X@X@X@X@X@XMXMXMXMX@X@X@X@X@X+X+X+X+X@X+X+X+X@X@X+X@X@X@X@X@X@XMXMX@X@X+XXXXXXXXXXX.XXXXXXX.X.X{.{.{.{.[.!.U.L.J.G.G.F.Z.G G G G D D G ;.F.H.F.F.H.J.J.J.G.G.S.A.A.F F F F F F N.A.G.G.Z.S.E.E.5.0.,.<.<.<.9.9.9.9.y.y.y.u.u.u.i.i.u.u.i.i.i.u.u.u.u.u.u.u.u.u.u.u.u.u.u.u.u.u.u.u.u.u.u.u.u.u.u.u.u.u.q.q.q.q.u.y.y.y.y.y.y.y.y.y.y.y.9.9.9.9.9.9.9.9.9.9.9.9.9.9.<.<.<.<.<.<.<.<.<.&.&.&.&.&.&.&.&.&.&.&.&.&.&.&.&.&.&.&.&.&.&.&.&.7.7.7.9.9.9.9.9.q.q.q.u.u.u.u.u.d.d.f.h.h.h.k.k.k.k.k.z.k.k.k.h.h.+.O 3 4 4 4 g d g d d d d d d d d d d d d 4 d d d d d 4 4 4 4 4 4 4 4 4 4 4 4 4 4 4 4 ",
"B B B N B N B B B B B N B B B B B B B B B B W W B B B B B B B W W W W W W W W W L u.z.k.*X=X=X=X=X=X=X-X-X-X<X<X<X<X<X1X1X1X1X2X3X3X3X3X3X3X3X1X1X1X1X<X<X<X<X<X-X-X-X-X-X-X=X=X=X=X=X=X=Xk.k.k.k.k.k.k.k.f.f.d.d.d.d.u.u.u.u.u.u.7.7.7.7.8.8.8.#.#.#.#.#.#.X. . .X. . .X.X.| X.X.| ~ ~ ~ ~ T T T T ` ` ` ` ` ` ` ' X.X...............@.@.#.#.#.#.$.$.$.7.7.7.7.7.9.y.y.y.y.y.i.i.p.W.rXE.E.E.E.R.Q. X X X XoXNXBXZXZXBXBXNXBXAXBXBXBXNXMXMXNXMXhXhXhXhX XQ.E. XhXAXAXSXPXPXSXAXVXSXSXSXSXCXVXNXNXNXVXCXSXJXCX@X+X+X+XMX@X+XMXNX+X|.^.^.^.|.+X@X@X@X@XMXMXMXMXMX@X@X@X@X@X+X+X@X@X@X@X@X@X@X@X@X@X@X@X@X@X@X@X@X+XXXXXXXXX.XXXXX.X.X.X.X|.{.{.{.{.[.!.U.L.J.G.G.G.F.Z.G G G G D D G G Z.F.F.F.F.G.G.J.J.P.J.G.G.N.N.N.N.N.N.A.S.P.J.Z.S.E.Y.1.p.<.<.<.y.9.9.9.9.y.y.u.u.u.u.f.f.d.d.f.f.f.f.f.f.d.f.f.d.u.u.d.d.u.u.u.u.u.u.u.u.u.u.u.u.u.u.u.u.u.u.u.u.u.u.u.u.u.u.y.y.y.y.y.y.u.u.u.u.i.9.9.0.9.9.9.9.9.9.9.9.9.9.9.9.<.<.9.9.9.<.<.<.<.&.<.&.&.&.&.&.&.&.&.&.&.&.&.&.&.&.7.7.7.9.9.9.9.y.y.y.u.u.u.q.u.u.u.u.d.d.f.f.h.k.h.k.k.k.k.k.z.k.k.z.z.h.%.O 3 4 4 4 g g g d d d d d d d d d d d d d d d d d d 4 4 4 4 4 4 4 4 4 4 4 4 4 4 4 4 ",
"B B j B B B B B B B B B B B B B B B B B B B W W W B B B B B B W W W W W W W W W L u.z.k.k.=X=X=X=X=X=X=X=X-X<X<X<X<X<X<X1X1X1X1X1X3X3X3X3X3X1X1X1X1X<X<X<X-X-X-X-X-X-X-X-X-X=X=X=X=Xc.c.k.k.k.h.k.k.k.f.f.f.f.d.d.d.u.u.u.u.u.u.u.q.7.7.8.8.8.8.#.#.#.#.#.X. . . . . . . .| | | | | ~ T T T T T T T T T T T ` ` ` ` ` ' X.' ..........o.@.@.#.#.#.$.$.$.7.8.7.7.&.7.9.y.y.y.y.y.0.p.W.].E.Y.E.R.E.Q. X X X XhXBXAXAXAXAXAXAXAXAXBXNXNXNXhXhXhX.X.X X.X X/.R.R. XBXAXBXAXPXJXAXBXNXSXJXSXSXSXCXVXNXVXVXCXSXJXSXNX+X|.^.|.+X+X+XMX+X^.^.~.^.^.+X@X@X@XMXMXMXMXMXMXMXMXMXMX@X@X@X@XMXMXMXMXMXMXMX@X@XMX@X@X@X+X+XXXXXXXXX.X{.{..X.X{.{.{.{.{.{.[.[.[.!.Q.L.J.G.F.F.F.Z.Z.G G G F D F Z.Z.Z.F.H.Z.Z.A.A.G.P.^.^.J.G.A.A.A.A.A.A.G.J.J.S.S.H.E.Y.1.0.>.4.y.y.y.y.y.y.y.y.u.u.i.i.f.f.f.f.f.f.f.f.f.f.f.f.f.f.f.f.f.f.d.d.d.d.d.d.d.d.d.d.u.d.u.u.u.u.u.u.u.u.u.u.u.u.u.u.u.u.u.u.u.u.i.u.u.u.i.i.i.i.0.0.0.0.0.9.9.9.9.9.9.9.9.9.9.9.9.9.9.9.9.9.9.9.<.<.<.<.&.&.&.&.&.&.&.&.7.7.7.9.9.y.y.u.u.u.u.u.u.u.u.u.u.u.u.d.d.f.f.h.k.k.k.k.k.k.k.k.z.k.z.z.v.z.%.O 4 4 4 4 d g g d d d d d d d d d d d d d 4 d d d d 4 4 4 4 4 4 4 4 4 4 4 4 4 4 4 4 ",
"B B B B B B B B B B B B B B B B B B B B B B W W W B B B B B B B W W W W W W W W L u.z.k.k.=X=X=X=X=X=X=X=X-X-X<X<X<X<X<X1X1X1X1X1X3X3X3X3X1X1X1X1X<X<X<X-X-X-X-X-X-X-X-X=X=X=X=X=Xk.k.k.k.h.k.k.k.h.f.f.f.d.d.d.d.d.u.u.u.u.u.q.u.9.7.7.8.8.8.$.#.#.#.#.X.X.X. . .|  . . . .| | | T T T T T T T T T T T T T T T ` ` ` ` ` ` ` ......X...@.@.#.#.#.#.#.$.$.8.&.7.&.7.9.9.y.y.y.y.<.p.W.W.E.Y.Y.R. X X X XhXBXZXAXHXAXAXAXJXJXAXBXNXMXMXMXhX.XhX.X/.Q.Q.E.Y.H.R.hXBXAXAXAXSXAXBXNXNXSXSXSXSXSXCXCXCXCXVXVXSXJXSXCXMX.XQ.~.^.XX+X+X+X^.^.~.~.^.+X+X@XMXMXMXMXMXNXNXNXMXMXMXMXMXMXMXMXMXMXMXMXMXMXMXMXMXMXMX@X+X+XXXXXXX.X{.{.{.{.{.{.{.{.~.!.!.!.!.Q.Q.U.J.G.F.Z.Z.Z.Z.Z.G G G F D G Z.Z.F.G.F.G G G A.S.Q.+XXXP.A.A.A.A.A.A.A.J.P.J.A.S.E.Y.Y.,.,.>.4.y.y.y.y.y.y.y.y.u.u.u.i.f.f.f.f.f.f.f.f.f.f.f.f.f.f.f.f.f.f.f.f.f.f.f.f.f.f.f.f.d.f.f.f.f.f.f.f.f.f.d.u.u.u.d.d.d.d.d.i.u.u.d.d.d.d.i.u.i.i.0.0.0.0.0.0.0.9.9.9.9.9.9.9.9.9.9.9.9.9.9.9.9.9.9.9.9.<.&.&.7.9.7.9.9.9.7.9.y.y.y.y.u.u.u.u.u.u.u.u.u.u.u.u.d.d.f.f.f.h.k.k.k.k.k.k.k.k.z.k.z.z.v.z.%.O 4 4 4 4 d g g d d d d d d d d d d d d d 4 4 4 d d 4 4 4 4 4 4 4 4 4 4 4 4 4 4 4 4 ",
"B j j B B B N B B B B B B B B B B B B B B B B W B B B B B B B B B B W W W W W W L u.z.k.=Xk.*X*X*X*X=X=X=X-X-X-X-X>X<X<X<X1X1X1X1X3X3X3X3X1X1X1X<X<X<X<X-X=X=X=X=X=X=X=X=X=X=X=Xc.c.c.k.j.j.k.k.j.h.f.f.f.d.d.d.u.u.u.u.u.u.q.9.7.7.7.8.8.8.8.#.#.#.#.#.X.X.X. . .|  . . . .| | | T T T T T T T T T T T T T ~ ~ ~ ~ ~ ` ` ` ` ' ' ..X.X.@.X.#.#.#.#.$.$.$.&.&.&.&.&.&.9.y.y.y.y.<.p.T.W.E.Y.K.R. X X XoXNXZXAXAXAXAXAXAXAXAXAXNXhXMXMXhXhX.X/./././.Q.L.R. XBXBXAXSXZXBXNXMXMXMXNXNXNXNXNXVXCXCXSXSXVXVXSXSXSXSXNXXX!.Q..XXX^.^.^.~.~.~.~.^.^.+X+X+X+X+XMXNXNXNXMXMXMXMXMXMXMXMXMXMXMXMXMXMXMXMXMXMXMXMXMX@X+X+X+XXX.X{.!.!.!.!.!.!.!.!.!.!.Q.Q.U.U.L.G.F.Z.H H G G Z.G G G D D G Z.F.F.F.G D Z G G.!.XX@X^.J.G.S.A.B.A.A.J.P.J.A.A.H.Y.Y.1.>.p.i.y.y.y.y.y.u.u.u.d.f.f.f.f.h.h.h.h.h.h.h.h.h.h.h.h.h.h.h.h.f.f.f.f.f.f.f.f.f.f.f.h.h.h.h.h.h.h.h.f.f.f.f.f.f.f.f.f.f.f.f.f.f.f.f.h.d.i.i.d.d.u.u.u.u.0.0.u.u.u.u.u.i.u.i.9.9.9.y.y.y.y.y.y.y.y.y.y.9.9.y.9.9.9.9.9.9.9.y.y.y.y.u.u.u.u.u.u.u.u.u.u.u.u.d.d.f.f.f.f.f.k.k.k.k.k.k.k.k.k.z.z.z.v.v.z.#.O 4 g 4 4 d d g d d d d d d d d d d d d d d d d d 4 4 4 4 4 4 4 4 4 4 4 4 4 4 4 4 4 ",
"B B N N B B N B B B B B B B B B B B B B B B B B B B B B B B B B B B W W W W W W L u.k.k.k.k.=X=X*X*X=X=X=X-X-X-X-X<X<X<X<X1X1X1X1X1X3X3X1X1X1X<X<X<X<X-X=X=X=X=X=X=X=X=X=X=X=X=Xc.c.j.j.j.j.j.h.f.f.f.f.d.d.u.u.u.u.u.u.u.9.7.7.7.7.8.8.$.$.#.#.#.#.X.X.X.X. . .| | | |  .| | | T T T T T T T T T T T I I I I I ~ ~ ~ ~ ~ ` ` ` ` ....X.X.X.X.#.#.#.$.$.$.$.&.&.&.&.&.9.9.y.y.9.<.p.Y.W.Y.Y.K.K.Q. X XoXNXZXAXAXVXAXAXAXAXAXBXNXhXMXhXhX.X.X/././.L.L.R. XAXJXJXJXAXMX X[..X.X.X.XMXMXMXMXNXNXVXSXSXVXNXVXCXSXSXVXMX{.^.^.^.^.|.^.!.U.!.~.~.^.^.|.OX+X+XMXNXNXNXNXMXMXMXMXMXMXMXMXMXMXMXMXNXNXMXMXMXMXMXMX@X+X+XXXXX.X[.!.!.!.!.!.!.!.!.!.Q.U.U.U.L.J.G.A.B.H G F G Z.G G G F G Z.F.F.H.F.G F F Z.U.XXXX~.J.A.A.A.A.A.A.S.J.J.G.A.F.J.Y.Y.0.0.0.i.i.i.i.i.i.i.d.f.f.f.h.h.h.h.h.h.h.h.h.l.l.h.k.h.h.h.h.h.h.h.h.h.h.h.h.h.h.h.h.h.h.h.h.h.h.h.h.h.h.h.h.h.h.h.h.h.f.f.f.h.h.h.h.h.h.h.h.h.d.d.d.u.u.u.u.u.i.u.i.u.u.u.u.u.u.i.y.u.u.u.u.y.y.y.y.y.y.y.y.y.y.y.y.y.y.y.y.y.y.y.u.u.u.u.u.u.u.u.u.u.u.d.d.d.d.f.f.f.h.k.k.k.k.k.z.z.k.k.k.z.z.z.v.v.v.%.O 1 g 4 4 d d g d d d d d d d d d d d d d d d d d 4 4 4 4 4 4 4 4 4 4 4 4 4 4 4 4 4 ",
"B B B B B j B B N B B B B B B B B B B B B B W W B B B B B B W W B B B W B W W W E u.k.h.k.k.k.=X*X*X=X=X-X-X-X-X<X>X<X<X1X1X1X1X2X3X3X1X1X1X1X<X<X<X-X-X=X=X=X=X=X=X=X=X=X=X=X*Xc.k.j.j.j.j.g.g.f.f.f.d.d.d.u.u.u.u.u.u.9.7.7.7.7.8.8.#.#.#.#.#.#.X.X. .X. . .| | | | | | | T T T T T T T T T T I I I I I P L L P P W W ~ ~ ~ ~ ` ' X...X.X.X.X.#.#.#.$.$.$.&.&.&.&.&.&.9.9.y.9.<.>.s.W.T.Y.Y.K.R.R. XoXhXBXBXBXAXZXZXZXZXBXNXhXhXhXhX.X/././.Q.Q.J.L.hXAXJXJXJXAXNX XQ./.^.!.^..X.XXX.X.X@XMXMXNXNXMXMXMXNXVXAXAXVXMX+X+X+X@XMX+X^.~.~.~.~.~.!.~.|.+X@X@XNXNXMXNXNXMXNXMXMXMXMXMXMXMXNXNXNXNXMXMXMXMXMXMX@X+XXXXXXX{.[.!.!.!.!.!.Q.U.U.U.U.U.L.L.J.G.F.Z.B.G G F G F.G G G F G Z.;.F.G.F.F.J.L.L.{.+X^.J.A.A.A.N.A.G.J.L.J.A.G Z.H.Y.Y.5.5.p.i.i.i.i.i.i.i.d.d.f.f.h.h.h.h.h.l.h.l.l.v.v.v.z.z.z.z.k.k.k.k.k.k.k.k.k.k.k.z.z.z.k.k.z.z.z.z.z.z.k.k.k.k.k.k.h.h.h.h.h.h.h.h.h.g.h.h.h.h.h.h.h.i.i.d.u.u.i.i.i.i.i.i.i.d.u.u.u.u.i.i.i.i.y.y.y.y.y.y.y.y.y.y.y.y.y.y.y.y.y.y.y.u.u.u.u.u.u.u.u.d.d.d.d.d.d.f.f.f.h.h.k.k.k.k.k.z.z.z.k.z.z.z.z.v.v.v.%.O 1 g 4 4 d d g d g d d d d d d d d d d d d d d d d 4 4 4 4 4 4 4 4 4 4 4 4 4 4 4 4 ",
"B B B B B B B B N B j B B B B B B W W B B B W W B B B B B B B B B B B B W W W W E u.k.h.c.j.=X=X=X=X=X=X=X-X-X<X<X<X<X<X1X1X1X1X2X3X3X1X1X1X1X<X<X<X-X-X=X=X=X=X=X=X=X=X=X=X*Xk.c.j.j.j.j.j.f.f.d.d.d.d.d.u.u.u.u.q.u.9.7.7.8.8.8.&.#.#.#.#.#.#.X. . . . . .| | ! | | | | T T I T T T T T I I I I I I I I I L L L P P P P W W W ~ ` ' ......X.X.X.+.#.$.$.$.$.$.$.&.&.&.9.9.y.y.<.,.p.W.T.H.Y.K.L.R.Q. XhXhXBXBXBXBXAXAXBXNXhXhX.X.X X/././.Q.R.L.J.Q.NXAXSXZXBXhX/.Q.Q.Q.Q.Q.!.^.^.^.Q.Q.^..X.XXX.X.X^..XMXMXNXVXVXNXNXNXNXVXCXCXNX+X^.^.~.!.!.~.^.+X+X+X@XMXMXNXNXNXNXMXMXMXMXMXNXNXNXNXNXNXMXMXMXMXMXMX@X+X+XXXXX.X{.!.!.!.!.!.U.U.U.U.U.U.J.J.J.G.A.Z.B.B.G G Z.G.F.F.F.G Z.F.Z.F.G.J.J.[.[.{.^.^.Q.A.N.N.A.G.J.P.Q.L.A.D D A.H.Y.5.1.0.0.y.i.p.i.i.f.f.f.f.f.h.h.h.h.h.z.z.z.v.v.v.v.v.v.v.v.v.v.v.z.z.z.z.z.z.z.z.z.z.z.z.z.z.v.v.v.v.v.v.v.z.z.z.z.z.z.z.k.h.h.h.h.h.h.h.h.h.h.l.l.l.h.h.i.i.i.i.i.i.i.i.i.i.i.i.i.d.d.d.d.d.i.i.i.u.i.u.u.y.y.y.y.y.y.y.y.u.u.u.u.u.u.u.u.u.u.u.u.u.d.d.d.d.f.f.h.f.h.h.k.k.k.k.k.k.z.z.v.z.z.z.v.v.v.v.v.v.%.O 1 g 4 4 d d g d d d d d d d d 4 4 d d d d d d d d 4 4 4 4 4 4 4 4 4 4 4 4 4 4 4 4 ",
"B B B B B B B B B B B B N B B B B B W B B B W W B B B B W B B B W W W W W W W W E u.x.x.j.j.x.=X=X=X=X-X-X-X<X>X<X<X<X<X1X1X2X2X3X3X3X1X1X1X1X<X<X-X-X=X=X=X=X=X=X=X=X=X=X*X*Xk.j.j.j.j.j.g.f.d.d.d.d.d.u.u.q.q.q.q.q.7.7.8.8.8.#.#.#.#.#.#... . . . . . .| | ! ! ! | T T T I I I I I I I I I I I I I I I I L j L L L L P P P P ~ ~ ` ' ......X.X.X.+.#.#.$.$.$.$.&.&.&.7.9.y.y.<.,.p.T.T.H.K.K.R.R.R. XhXhXMXBXBXBXAXAXBXhXhXNX X.X/./././.Q.Q.L.L./.hXhXhX.XR.R.J.J.J.L.P.P.U.Q.Q.Q.Q.Q.Q.!.!.Q.Q.J.J.L.Q.Q.Q..X.X.XMXMXMXNXNXCXVXMXXX^.~.~.!.~.^.|.|.OX@X@XMXNXNXNXNXMXMXMXMXMXMXMXMXMXMXMXMXMXMXMXMX@X@X+X+XXXXX{.!.!.!.!.!.U.U.P.P.U.U.L.J.J.G.F.Z.B.G G B.G G Z.Z.F.F.Z.F.F.F.F.F.F.Z.G.G.S.S.P.Q.U.P.U.Q.U.U.Q.U.Z.D F Z.H.H.5.1.,.>.i.y.i.i.i.i.h.f.f.f.f.h.h.h.h.l.l.z.v.v.v.v.v.v.v.v.v.v.v.v.v.v.v.v.v.v.v.v.v.v.v.v.v.v.v.v.v.v.v.v.v.v.v.v.v.v.v.v.v.v.v.z.h.h.h.h.l.l.l.l.l.l.l.h.h.f.f.i.i.i.i.i.h.h.h.h.h.h.h.f.h.d.d.i.i.i.i.i.i.i.i.u.i.i.i.i.i.i.i.i.i.u.i.d.u.u.u.d.d.f.f.f.f.f.f.f.h.h.h.k.k.k.k.k.z.z.z.;X;Xv.v.v.v.v.v.v.v.v.&.O 1 g 4 4 d d g d d d d d d d d d d 4 4 d d d d d d 4 4 4 4 4 4 4 4 4 4 4 4 4 4 4 4 ",
"B B B B B B B B B B j j B B B B B B W B B B W W B B B B B B B B W W W W W W W W E u.x.x.j.j.j.=X=X=X=X-X-X>X<X<X<X<X<X1X1X1X2X0X3X3X3X1X1X1X1X<X<X-X-X=X=X=X=X=X=X=X=X=X=X*X=Xk.j.j.j.j.j.g.f.d.d.d.d.d.u.u.q.q.7.q.7.7.7.8.$.#.#.#.#.#. . . . . .| | | | | ! ! I I I I I I I I I I I I I I I I I I I L L h h h j j L j L L P P P ! ~ ` ` ......X.X.X.X.#.#.#.#.#.$.&.&.7.9.9.y.<.,.5.T.T.H.K.K.K.R.R. XoXhXhXhXNXBXBXNXhX X X.X/././.Q././././.L.L.Q.E.L.L.L.H.L.J.H.G.S.J.J.L.U.U.U.U.U.U.P.J.J.S.A.A.S.G.H.H.H.J.J.Q.Q.Q./..XMXMXMXXX^.~.~.~.^.^.^.^.^.OX+X@XMXMXMXMXNXNXMXMXMXMXMX@XMXMXMXMXMXMXMX@X@X+X+XXXXX.X{.!.!.Q.Q.Q.U.J.J.J.P.U.J.J.G.F.A.B.G G G G G G ;.Z.Z.Z.Z.Z.F.F.Z.Z.G F G B.A.J.^.XX|.|.|.^.Q.Q.Q.A.v v F.Q.H.F.1.,.>.i.i.i.p.p.p.h.h.h.g.g.h.h.h.h.l.l.z.v.v.v.v.v.v.v.v.v.v.v.v.;X;X;X;Xv.v.;Xv.;X;X;X;X;X;X;X;X;X;X;X;X;X;X;X;Xv.v.v.v.v.v.v.v.z.z.l.h.h.l.l.l.l.l.l.l.l.l.l.l.l.l.l.f.h.h.h.h.h.h.h.h.h.h.h.h.h.d.f.f.i.d.f.f.f.f.f.f.f.f.f.f.f.f.f.f.d.d.d.d.f.f.f.f.f.h.h.h.h.h.h.k.k.k.k.k.z.z.v.v.;X;X;Xv.v.v.v.v.v.b.b.&.O 3 g 4 4 d d g d d d d d d d d d d d 4 4 d d d d d 4 4 4 4 4 4 4 4 4 4 4 4 4 4 4 4 ",
"B B N B B B B N B B B B B B B B B B B B B B W W B B B B B B B B W B W W W W W W E u.x.x.j.j.j.=X=X=X=X-X-X>X<X<X<X1X1X1X1X2X2X0X3X3X3X3X1X1X1X<X<X-X-X=X=X=X=X=X=X=X=X=X=X=Xk.j.j.j.j.j.g.g.f.d.d.d.d.d.u.q.q.q.7.q.7.7.8.8.8.#.#.#.#... . . . . .| | | | ! ! ! I I I I I I I I I I I I I I I I I I I I h h h h h j j j L L L P P I ~ ~ ` ' ......X.X.X.#.#.#.#.#.$.&.&.&.7.9.<.<.:.>.T.T.K.H.H.K.L.R. XoXhXhXMXBXBXMXoX X X X/./././.R.Q.Q.Q.Q.R.Q.Q.L.S.;.*.F *.;.A.Z.G A.A.S.J.J.J.J.G.G.J.F.S.A.Z.Z.Z.;.;.;.;.;.;.A.S.S.J.U.U.~.^.~.Q.~.^.^.^.^.^.~.^.|.+X+X@X@X@XMXNXNXNXNXMXMXMX@XMXMXMXMXMXMX@X@X+XXXXX.X{.{.!.Q.U.U.U.U.U.J.J.J.J.J.J.J.G.A.Z.B.B.G H H G Z.Z.Z.F.Z.Z.Z.Z.F.F.Z.Z.Z.G.J.Q.{.XXXX.X^.U.P.P.P.A.F Z G J.R.A.1.5.p.p.i.p.p.p.p.l.l.l.h.h.h.h.h.h.l.l.z.v.v.v.v.v.v.v.b.v.v.v.v.;X;X;X;X;X;X;X;X;X;X;X;X;X;X;X;X;X;X;X;X;X:X:X;X;X;X;Xv.v.v.v.v.v.v.v.v.v.v.v.v.v.v.z.z.z.z.l.l.l.l.l.l.l.l.h.l.l.l.l.l.h.h.l.h.h.h.h.h.h.f.f.f.f.h.h.h.h.h.h.h.f.f.f.f.f.f.f.f.f.f.f.g.f.f.h.h.h.h.l.h.z.k.k.k.z.z.v.v.v.;X;X;Xv.v.;Xv.;X:X:Xb.&.O 3 6 4 4 d d g d d d d d d d d d d d d d d d d d d 4 4 4 4 4 4 4 4 4 4 4 4 4 4 4 4 ",
"j j N B B B B N B B B B B B B B B B B B B B W W B B B W B B B B B B W B B B B W E y.x.j.j.j.j.=X=X=X-X-X>X<X<X<X<X1X1X1X1X2X2X0X3X3X1X1X1X1X1X<X<X-X-X=X=X=X=X=X=X*X=X=Xk.k.j.j.j.j.j.j.j.g.f.f.d.d.d.u.u.q.q.q.7.7.7.7.8.$.#.#.#.#.#. . . . . . .| | ! ! ! ! I I I I I I I I I I I I I I I I I I L L L 5 h 5 h h h h j j L L L P I ~ ~ ~ ` ' ....X.X.X.o.X.#.#.#.$.$.%.&.&.7.<.<.>.>.s.W.T.5.H.K.R.R.Q. XhXhXhXMXMXhX X X X[./.Q./.Q.L.U.U.U.R.R.L.Q.J.F i i i i S ;.F S ;.Z.Z.A.A.Z.A.F B.G.A.S.A.;.;.;.S S S i i i v b F A.S.J.P.U.U.U.Q.~.^.^.^.^.!.~.|.|.^.+X@X@XMXNXVXVXNXNXMXMXMXMXNXNXNXMXMX@X+XXX.X}.{.~.!.U.U.U.U.U.U.P.J.J.J.J.J.G.F.A.Z.B.B.H H H H Z.F.Z.Z.Z.Z.Z.;.Z.F.G.F.F.G.L.!.{..XXXXXXX!.P.P.J.S.F F A.J.H.F.;.5.p.l.l.l.p.p.l.l.l.l.l.l.h.h.h.h.h.h.l.z.z.v.v.v.v.v.v.b.v.v.:X:X:X;X:X:X;X;X;X;X;X;X;X;X;X<X<X<X;X;X;X;X;X:X;X:X;X;X;Xv.v.v.v.v.v.v.v.v.v.v.v.v.v.v.z.z.z.z.l.l.l.l.l.l.l.l.l.h.h.l.l.h.h.h.h.h.h.h.h.h.h.h.f.f.h.h.f.f.h.h.h.h.h.h.f.f.f.f.f.f.f.f.f.g.h.h.h.h.h.h.h.h.z.z.z.z.z.z.z.v.v.;X;X;Xv.v.>X;X:X:X:Xb.&.O 3 4 4 4 d g g g g g g g g g g d d d d d d d d d d 4 4 4 4 4 4 4 4 4 4 4 4 4 4 4 4 ",
"j j N B B j j j B B B B B B B B B B B B B B B B B B B B B B B B B B B B B B B E E y.x.j.j.j.=X=X=X=X=X-X<X>X<X1X<X1X1X1X2X2X2X2X2X2X2X1X1X1X1X1X<X<X<X-X=X=X=X=X=X=X=X*Xk.j.j.j.j.j.j.j.j.g.f.f.f.d.d.d.q.q.q.q.7.7.7.7.8.#.#.#.#.#. . . . . . . .| ! ! ! ! ! I I I I I I I I I I I I I I I I L L L L K h 5 5 5 5 5 h h j j L L P I ~ ~ ~ ` ' ......X.X.X.X.@.#.#.#.$.$.$.$.7.<.<.4.4.4.T.E.3.H.R.L.R.R. XoXoXoXoXoX.XoX X X XQ.Q.Q.L.J.J.P.P.P.R.L.J.S.b 8 @ @ 0 0 y v ;.F v v Z D Z D D F F G S S S v y 0 0 $ @ @ @ @ 7 8 v F Z.S.J.P.P.P.!.^.|.^.^.^.~.~.^.XX+X+X@X@XMXNXMXMXMXNXMXMXNXNXMXMXMX@X@X+XXX}.{.~.!.U.U.U.U.U.P.U.U.J.J.G.G.G.F.A.Z.B.B.G G G H G H Z.Z.;.Z.Z.Z.Z.Z.F.G.G.J.L.!.{.{.XX@XMX+X^.Q.P.F D F J.R.H.;.;.5.p.p.p.i.l.l.l.l.l.l.l.l.l.h.h.z.z.z.z.v.v.v.v.v.v.v.b.v.:X:X:X:X:X:X:X:X:X:X,X<X<X<X<X;X<X<X<X>X>X,X,X,X,X,X,X,X:X;X;X;X;Xv.v.v.v.v.v.v.v.v.v.v.v.z.z.z.v.v.l.l.l.l.l.l.l.l.l.l.l.l.l.l.l.l.l.l.h.h.h.h.h.h.h.h.h.h.f.f.f.h.h.h.h.h.h.h.h.h.h.h.h.h.h.h.h.h.h.h.h.h.l.l.z.z.z.v.z.v.v.v.v.v.;X;X;X;X;Xv.v.v.:X:Xb.7.O 1 4 d 4 d d d d d d d d d d d d d d d 4 4 4 4 4 4 4 4 4 1 1 1 1 4 4 4 4 4 1 4 4 4 ",
"j j j j B j j N B B B B B B B B B B B B B W W B B B B B B B B B B B B B B W W E E u.c.h.x.x.x.=X=X=X=X-X<X>X>X1X<X1X1X1X2X2X2X2X2X1X2X1X1X1X1X1X1X<X<X<X=X-X=X=X=X=X=X*Xk.j.j.j.j.j.j.j.j.j.j.f.f.d.d.d.q.q.q.q.7.7.7.7.8.#.#.#.#.O. . . . . . . .| ! ! ! ~ ! I T I I I I I I I I J I J L I L L L L K K 5 5 5 5 5 5 5 h j L L L L P ~ ~ ~ ` ` ..' ....X.X.o.X.+.#.#.#.#.#.$.&.&.&.4.4.>.T.E.5.H.K.L.L.R. X XoXoX.XoXhX.X X XQ.Q.Q.Q.L.J.J.P.P.P.R.J.J.S.S 0 @ + + + $ 0 x v i q w i q q w e v S S v i 0 $ @ + + + + + + + @ 8 w b Z.S.J.J.P.!.^.XX^.^.^.~.~.^.|.XXXX+X+X@XMX@X@X@XMXMXMXMXMXMX@X@X@X@X+X}.{.^.~.!.U.P.P.U.P.J.J.J.J.G.G.G.F.A.Z.B.B.G G G G H H G ;.;.;.Z.Z.F.F.Z.F.G.J.L.Q.[..X{..XXX+XXX^.!.Q.A.S.J.R.L.H.3.5.p.i.i.i.i.h.h.l.l.l.l.l.l.z.l.z.v.v.v.v.v.v.v.v.v.:Xv.:Xb.:X:X:X:X:X,X,X,X,X,X>X>X>X<X<X<X<X<X>X>X>X>X>X,X,X,X>X,X,X;X:X;X;Xv.v.v.v.v.v.v.v.v.v.v.v.z.v.z.z.v.l.l.l.l.v.v.l.z.v.v.l.z.l.l.l.l.l.h.l.h.h.h.h.h.h.h.h.h.h.h.h.h.h.h.h.h.h.h.h.h.h.h.h.h.h.h.h.h.h.h.z.h.z.z.z.z.v.v.v.v.v.v.v.v.v.;X;X;X;Xv.v.;Xv.:X,X7.O 1 4 g d d d d d d d d d d d d d d d d 4 4 4 4 4 4 4 4 4 1 4 1 1 4 4 4 4 4 1 4 4 4 ",
"j B j j B j B N B B B B B B N N B B B B B B B B B B W B B B B B B B B B B W W E E u.c.x.c.c.=X=X=X=X=X-X>X>X>X1X1X1X1X1X1X1X2X2X1X1X1X1X1X1X1X1X1X<X<X<X-X-X=X=X=X=X=X*X=Xj.j.j.j.j.j.j.j.j.j.f.f.d.d.d.q.q.q.q.7.7.7.7.8.#.#.#.#.#. . . . . . . .| ! ! ! ! I I I T I I I I I I I I J J K K K K K K K K K 5 5 5 5 5 5 h L L L L P P ~ ~ ~ ` ` ` ' ..........X.X.X.@.+.+.#.$.&.&.&.<.4.,.T.T.H.H.H.J.L.R.[. XoX.XhXhXhX.X X/.Q.L.L.L.J.J.J.P.J.J.J.J.S.S.;.y $ + + + + $ 0 t y q q w q 0 0 q v v i y 7 @ + + + + + + + + + + @ 8 e b Z.S.G.P.~..X+X+X|.^.^.^.^.|.|.|..X+X+X+X@X+X@X@X@X@XMX@X@X@X@X@X+X}.{.}.^.~.!.U.P.J.J.J.G.G.G.G.G.A.A.A.Z.B.B.H H H G G G G G ;.;.;.Z.Z.F.F.Z.F.G.L.Q.[..XXX{..XXX+XXX.X{.{.L.Q./.R.H.H.5.5.p.i.i.i.l.h.l.l.l.l.l.l.z.v.v.v.v.v.v.v.v.v.v.v.:X:X:X:X:X:X,X,X,X,X,X,X,X,X,X,X,X>X>X>X>X>X>X1X1X1X1X>X<X<X<X,X,X>X,X,X;X;X;Xv.:Xb.b.b.v.v.v.v.v.v.v.v.v.v.v.v.v.l.v.v.v.v.v.v.v.v.z.z.l.l.l.l.l.l.z.l.h.h.h.h.l.h.h.h.h.h.h.h.h.h.h.h.h.h.h.h.h.h.h.h.h.h.h.h.h.h.z.z.z.v.v.v.v.v.v.v.v.v.v.v.v.;X;X;Xv.v.v.v.,X,X7.O 4 g g d d d d d d d d d d d d d d d d 4 4 4 4 4 4 4 4 4 4 4 4 4 4 4 4 4 4 4 4 4 4 ",
"B B j j j j B B j B j j j B N N B B B B B B B B B B W B B B B W B B B B B W W W E u.c.x.c.c.=X=X=X=X-X<X>X>X1X1X1X1X1X1X1X2X2X2X1X1X1X1X1X1X1X1X1X1X<X<X-X-X-X-X=X=X=X=X=Xk.j.j.j.j.j.j.j.j.j.f.f.d.d.u.q.q.q.q.7.7.7.8.8.#.#.#.#.#. . . . . . . .| ! ! I I I I T I I I I I I I I I K K K J K K K K K K K K 5 5 5 5 5 h L L L L L P I ~ ~ ~ ~ ` ` ' X...........X.#.+.+.#.#.$.&.%.&.<.,.s.T.H.H.H.J.J.R.[. X X X.X.XoX X XQ.Q.J.J.J.J.G.J.P.J.J.J.S.S.J.H.*.t $ + . + + $ 0 t 0 $ 0 0 7 7 0 i i 0 7 $ $ $ $ $ @ @ + + + + @ @ 8 w v b N.S.J.!.XX+X+X+X+X|.^.^.^.^.|.|.OX+X+X+X+X+X@X+X@X@X@X+X+X+X+XOX}.^.^.^.~.U.U.J.J.G.G.G.G.G.G.A.A.Z.B.B.B.H H H H G G G G G ;.;.;.Z.F.F.F.Z.F.J.Q.[..XXX.X.XXX.XXX.X.X/./..X.X/.R.Y.Y.s.5.p.i.p.h.l.l.l.l.l.l.l.z.v.v.v.v.v.v.v.;Xv.;X:X:X:X:X:X:X,X,X,X,X,X,X,X1X,X,X,X,X,X,X,X>X>X>X1X1X1X1X1X1X1X1X1X1X,X,X,X,X>X:X;X:X:X:Xb.b.b.b.v.v.v.v.v.v.v.v.v.v.v.v.v.v.v.v.v.v.v.v.v.v.l.l.z.l.z.v.z.z.z.z.z.z.z.z.z.z.z.z.z.k.z.z.h.h.h.h.h.h.h.h.h.h.h.h.h.h.l.l.z.v.v.v.v.v.v.v.v.v.v.v.v.v.v.;X;X;X;Xv.>Xv.,X,Xe.O 3 4 g d d d d d d d d d d d d d d d d 4 4 4 4 4 4 4 4 4 4 4 4 4 4 4 4 4 4 4 4 4 4 ",
"B j j j j j N B j N B B B B B N B B B B B B B B B W W B B B B W B B B B B W W W E f.c.x.c.c.=X=X=X<X<X>X>X>X<X1X1X1X1X1X1X1X1X1X2X1X1X1X1X1X1X1X1X1X<X<X<X<X-X-X=X=X=X=X=X=Xj.j.j.j.j.j.j.j.j.f.f.d.d.d.q.q.q.7.7.7.7.8.8.#.#.#.#.#. . . . . . . .| ~ ! I I I I I I I I I I I I I K K J J J J K K K K K K 5 5 5 5 5 5 h L L L L I P P T ~ ~ ~ ~ ` ` ' ' ........X.o.+.+.+.#.$.$.$.$.<.:.p.W.Y.H.L.L.L.R.Q.[.[. XoXoX X XQ.R.J.J.J.J.G.S.J.J.J.J.J.S.J.R.E.H.x t $ + + + + $ 0 0 $ $ $ $ $ 7 q q y y y i i i y y w 0 7 7 7 7 7 8 w w b F A.G.U.^.+X@X+XOX|.^.^.^.^.^.|.OX+X+X+X+XOXOX+X@X@X@X+X+XOX+XOX}.^.~.U.U.U.P.P.J.J.J.G.G.G.A.A.A.Z.B.B.G G G G H G G G G G G G ;.Z.Z.F.F.Z.F.J.Q..XXXXX.X.XXXXXXX.X{././..X XE.Y.5.5.p.p.p.l.l.l.l.l.l.l.l.z.v.v.v.v.v.v.;X:X:X:X:X:X:X,X,X,X,X,X,X,X,X,X2X2X2X2X2X2X1X1X1X1X1X1X1X1X1X1X1X2X2X2X2X1X1X1X1X1X,X,X,X,X:X:X:X:X:Xb.b.v.v.v.v.v.v.v.v.v.v.v.v.v.v.v.v.v.v.v.v.v.v.v.z.z.v.v.v.v.v.v.z.z.z.z.z.z.z.z.z.z.z.z.z.z.z.h.h.h.h.h.h.h.h.h.h.k.k.k.z.z.z.v.v.v.v.v.v.v.v.v.v.v.v.v.v.v.>X>X>X>X>X>X:X,X7.O 3 4 g d d d d d d d d d d d d d d d 4 4 4 4 4 d 4 4 1 1 4 4 4 4 4 4 4 4 4 4 4 4 4 ",
"j j B j j j j B j N B B B B B j B B B B B B B B B B B B B B B B B B B B B W W E E f.v.x.c.c.=X=X;X<X>X>X<X1X1X1X1X1X1X1X1X1X1X1X1X1X1X1X1X1X1X1X1X1X1X<X<X<X-X-X=X=X=X=X=X=Xc.j.j.j.j.j.j.j.j.f.f.d.d.u.q.q.q.7.7.7.7.7.8.#.#.#.#. . . . . . . .| | ! ! I I I I I I I I I I I I K K J J J J J J 5 K K 5 5 5 5 5 5 5 5 h h L L L L P P T I ~ ~ ~ ~ ~ ` ` ' ' ' ..X.X.X.X.+.#.$.$.#.+.&.:.5.T.R.H.L.L.L.R.R.Q.Q. X X.X XQ.R.R.J.G.G.J.S.S.S.S.S.J.J.L.Q./. XE.H.*.p & + . + + $ 0 0 $ $ $ $ $ q i S S S *.*.S S F S v y y 0 8 8 8 w w b F A.S.P.^.@XMX+X+X|.^.^.~.~.^.^.^.|.+X+XOX|.|.|.+X+X+XOXOXOXOXXX|.~.U.U.P.P.P.J.G.G.G.G.G.F.A.A.Z.B.B.B.G G G G H G G G G G G G G ;.Z.F.F.Z.F.H.L.[..X.X.X.X.X.X.X.X.X.X X/.E.Y.Y.5.5.p.p.l.l.l.l.l.l.l.l.z.v.v.v.v.v.b.:X:X:X:X,X:X,X,X,X,X,X,X,X4X4X4X4X2X2X2X2X2X2X2X2X1X1X1X1X1X1X1X2X2X9X9X9X9X9X9X9X9X1X1X1X,X,X,X,X:X:X:Xb.b.b.b.v.v.v.v.v.v.v.v.v.v.v.v.v.v.b.v.v.v.v.v.v.l.v.v.v.v.v.v.v.v.z.z.z.z.v.z.z.z.z.z.z.z.z.z.z.k.h.h.h.h.h.h.k.k.z.z.z.z.z.v.v.v.v.v.v.v.v.v.v.v.v.v.v.v.v.>X>X>X>X>X>X,X,Xe.O 3 4 g d d d d d d d d d d d d d d d 4 4 4 4 4 d 4 4 1 1 4 1 4 4 4 4 4 4 1 4 4 4 4 ",
"j j N j j j j j j B B B B B B B B B B B W B B B B B B B B B B B B B B B B W W E E f.v.c.c.c.=X;X;X>X>X>X1X1X1X1X1X1X1X1X1X1X1X1X1X1X2X2X0X0X2X1X1X1X1X1X<X<X<X-X-X-X-X=X=X=X=Xc.j.j.j.j.j.j.j.f.f.d.d.d.q.q.q.q.7.7.7.7.8.#.#.#.#.O. . . . . . .| ! ! I I I I I I I I I I I K K J J J 5 J J J J 5 5 5 5 5 5 5 5 5 5 5 h h L L L L L P P ~ ~ ~ ~ ~ ~ ~ ~ ` ` ' ....X.X.X.+.#.$.$.#.+.%.@.5.T.E.H.H.H.L.R.R.R.R.Q. X X XQ.Q.R.J.H.G.S.S.S.A.S.J.Q./. XhXhXhXgXE.Y.1.*.0 + + + + $ 0 $ $ $ $ 7 q i F S S S S *.;.;.*.b i w 0 8 8 8 w v b N.S.J.U.|.@XMX@X+XOXOX^.~.~.~.~.~.~.|.OX|.}.}.|.OX+X+XOXOX|.|.|.~.U.U.U.P.P.G.G.G.G.G.G.A.A.Z.A.Z.B.B.B.G G G G G G G G G G G G G ;.Z.Z.F.Z.F.F.J.Q.[..X.X.X.X.X.X.XhX.X/.E.E.Y.5.p.p.p.i.l.l.l.l.l.l.l.v.v.v.v.v.v.:X:X:X,X,X,X,X,X,X,X2X2X4X4X4X4X4X4X4X4X9X9X9X9X9X9X9X9X9X9X9X9X9X9X9X9X0X0X0X0X0X9X9X9X9X9X1X1X,X,X,X,X,X:X:X:Xb.b.b.b.v.b.b.b.b.v.v.b.v.v.b.b.b.b.b.v.v.v.v.v.v.v.v.v.v.v.v.v.v.v.v.v.z.z.z.z.z.z.z.z.z.z.z.z.k.z.z.z.z.k.z.z.z.z.z.v.v.v.v.v.v.v.v.v.v.:Xv.v.v.v.;Xv.;X>X>X>X>X>X>X,X8Xe.O 3 4 g d d d d d d d d d d 4 4 d d d d 4 4 4 d d d d 1 1 1 1 4 4 4 4 1 4 1 1 4 4 4 ",
"j j j j j j j j j j B B B B B B B B B B W B B B B B B B B B B B B B B B B W W E E f.v.c.c.c.;X;X;X>X>X1X1X1X1X1X1X1X1X1X1X1X1X1X1X1X2X2X0X0X2X2X1X1X1X1X1X<X<X<X<X-X-X-X=X=X=X=Xk.j.j.j.j.j.j.f.d.d.d.d.q.q.q.q.7.7.7.7.8.#.#.#.#. . . . . . . .! ! ! I I I I I I I L L K K K J J J 5 5 J J 5 5 5 5 5 5 5 5 5 5 5 5 5 5 h h L L L L P P ~ ~ ~ ~ ~ ~ ~ ~ ` ` ` ....X.X.+.+.+.#.$.#.+.%.:.4.T.E.H.H.H.L.R.Q.Q.R.E. X XQ.R.R.R.J.H.G.G.S.S.S.J./.hXNXBXBXBXBXBXgXgXgXjXE.S - $ # $ $ 7 7 $ $ 0 q i S v v S ;.A.S.S.;.F b v y y w w b F A.S.J.P.~.OX@X@X+X+XOXOX|.^.~.!.~.!.~.^.|.|.~.~.|.|.OXOX|.|.|.|.^.~.U.I.U.U.P.J.G.G.G.G.G.A.A.A.Z.Z.Z.Z.B.B.H H G G G G G G G G G G G ;.Z.Z.F.F.F.G.L.Q.{..X.X.X X.X.X.X/.E.E.E.Y.p.p.p.p.i.l.l.l.l.l.l.l.v.v.v.v.v.:X:X:X:X,X,X,X,X,X2X2X2X4X4X4X4X4X4X4XwXwXwXwXwX9X9X9X9X9X9X0X0X0X0X0X0X0X0X0X0X0X0X0X0X0X9X9X9X9X2X2X,X,X,X,X:X:X:X:X:X:X:Xb.b.b.b.b.b.b.b.b.b.b.b.b.b.b.b.b.v.v.b.b.v.v.v.v.v.v.v.v.v.v.v.v.v.v.v.v.v.v.v.v.z.z.z.z.z.z.z.z.z.z.v.v.v.v.v.v.v.v.v.v.;X:X:X:Xv.v.:X;X;Xv.;X:X:X:X:X,X,X,X8Xe.O 3 g g d d d d d d d d d d d d 4 d d d 4 4 4 d d d 4 4 4 1 1 1 4 4 4 1 1 4 1 1 1 4 ",
"j B j j j j j B j j B B B B N B B B B B B B B B B W W B B B W B B B B B B W W E E h.v.c.c.c.;X;X>X>X>X1X1X1X1X1X1X1X1X1X1X1X1X1X1X1X3X2X0X0X2X2X2X2X1X1X1X<X<X<X<X<X-X-X=X=X=X*Xk.k.j.j.j.j.j.f.d.d.d.d.q.7.7.7.7.7.7.8.8.#.#.#.#. . . . . . . .! ! ! I I I I I I L K K K K J J J J J J 2 5 5 5 5 5 5 5 5 5 2 2 5 5 5 5 h h h h h L L P P T ~ ~ ~ ~ ~ ~ ~ ~ ~ | ..X.X.X.+.#.#.#.#.+.%.:.4.Y.E.J.A.H.L.Q.Q.Q.Q.Q. X XQ.R.R.R.J.G.G.S.H.J.J.Q.MXBXAXAXAXAXAXAXZXBXZXAXZXgXY.*.t 0 7 $ 0 $ $ 7 0 q v v S ;.H.J.J.J.H.S.S.A.A.A.A.A.A.S.G.P.P.I.^.OX+X+X+X+X+XOXOX^.~.I.I.I.~.~.|.|.~.}.|.|.|.^.~.~.}.|.|.~.U.U.U.U.P.G.G.G.G.G.G.A.A.A.A.Z.Z.Z.Z.B.G G G G G G G H G G G ;.;.;.Z.Z.Z.B.Z.F.J.L.Q.Q. X.X.X X/.E.H.H.H.Y.p.p.p.p.p.p.l.l.l.l.l.l.z.v.v.v.v.:X:X:X,X,X,X,X,X2X2X4X2X4X4X4XwX4XwXwXtXtXtXtXtXtX0X0X0X0X0X0X0X0X0X0X0XqXqXqXqXqXqXtXqX0XtX0X9X9X9X9X2X2X2X,X,X:X,X:X:X:X:X:Xb.b.b.b.b.b.b.b.b.b.b.b.b.b.b.b.b.b.b.b.b.b.v.v.v.v.v.v.v.v.v.v.v.v.v.v.v.v.v.v.v.v.v.v.z.z.z.z.v.v.v.v.v.v.v.v.v.;Xv.;X;X:X:X;X;X:X:X:X:X:X:X,X,X,X,X,X,X,X8X8Xe.O 3 g g d d d d d d d d d d d 4 d d d d 4 4 4 4 4 4 4 1 4 4 4 4 4 4 1 1 1 4 4 4 4 4 ",
"B B j j j j j j j j j B B B B B B B N N B B B B B B B B B B W B B B B B B B B W E h.v.c.v.v.;X;X>X>X>X1X1X1X1X2X1X1X1X1X1X1X1X1X1X1X1X2X0X0X2X2X3X2X1X1X1X1X<X<X<X<X<X-X=X=X=X=X*Xk.j.j.j.j.j.f.f.d.d.d.q.7.7.7.7.7.7.8.8.#.#.#.#. . . . . . .| ! ! ! I I I I I L L K K K 5 K 5 J J J J 5 5 5 5 5 2 5 5 5 5 2 2 5 5 5 5 5 h h h h L L P P P ~ ~ ~ ~ ~ ~ ~ ' ~ | ..X.X.+.X.+.#.#.$.@.@.@.4.Y.E.L.H.H.L.Q.Q.Q.Q.Q./. X/.R.L.J.H.S.A.S.H.U./.MXVXAXAXAXAXAXAXAXAXAXAXAXZXZXjX].1.x q $ $ $ $ 7 7 0 i S ;.H.L.Q.Q.Q.Q.Q.Q.Q.Q.!.!.U.P.U.U.I.~.~.^.OX+X+XOX+X+XOXOX~.~.I.I.I.~.^.|.^.}.|.|.|.}.~.~.~.~.}.^.~.U.I.I.P.G.G.G.G.G.G.A.B.B.Z.B.B.Z.B.B.B.G G G G G G H H G ;.;.;.;.Z.;.;.G F F G F.F.J.J.L.Q. XE.E.Y.H.H.Y.p.p.p.p.p.p.l.l.l.l.l.l.l.z.v.v.v.b.:X:X,X,X,X,X,X2X2X4X4X4X4XwXwXtXtXtXtXtXtXtXtXtXtXtX0X0X0XtXtXqXqXqXqXqXqXqXqXqXqXqXyXtXtXtXtXtX9X9X9X9X2X2X,X,X,X,X,X,X,X:X:X:X:X:X:X:X:X:X:Xb.b.b.b.:X:X:Xb.b.b.b.b.b.b.b.b.:X:X;X;X:X;Xb.b.b.:X;X;Xv.v.v.v.v.v.v.v.v.v.v.v.v.v.v.v.v.v.v.v.;X:X:X:X:X:X:X:X:X:X:X:X:X:X,X,X,X,X,X,X1X8X8X8Xy.O 4 g g d d d d d d d d d d d d d d d d 4 4 4 4 4 4 4 1 4 4 4 4 4 4 4 1 1 1 1 4 4 4 ",
"B j j N B B j j B N B B B B B B B B N N B B B B B B B B B B B B W B B B B B B W E h.v.c.v.v.;X>X;X>X>X1X1X1X1X1X1X1X1X1X1X1X1X2X1X1X2X2X0X0X0X2X0X3X2X1X1X1X<X<X<X<X<X-X=X=X=X=X=Xk.j.j.j.j.j.j.f.d.d.d.d.q.q.q.7.7.7.8.8.#.#.#.#. . . . .|  .| ! ! ! I I I I I L K K K K 5 5 5 5 J 5 5 5 5 5 5 5 5 5 5 5 5 2 2 5 5 5 5 h h h h h L L P P P ! ~ ~ ~ ~ ~ ~ ' ` ....X.X.X.o.o.#.#.#.@.@.:.>.s.E.R.R.J.R.Q.Q.Q.R.R.R././.R.L.H.A.Z.A.S.L. XNXAXSXSXSXAXAXAXAXAXAXAXAXAXAXZXBXgXR.H.S q 7 7 7 7 7 0 Z ;.H.R.Q./.^./././././.^.{..X^.^.^.^.^.^.^.OX+X+X+X+X+X+X+XOX^.~.I.I.I.I.~.~.~.~.~.}.|.~.~.I.~.~.~.U.I.P.P.P.G.G.G.A.A.A.A.A.A.A.Z.B.B.B.B.G G H G G G G G G G G ;.;.;.Z.Z.;.;.;.D v Z D F ;.;.Z.H.H.Y.Y.H.1.1.p.p.p.p.p.p.l.l.l.l.l.l.l.l.v.v.v.b.:X:X:X,X,X,X,X2X2X2X4X4X4X4XtXtXtXtXtXtXtXtXtXtXtXtXtXtX0XqXyXtXtXqXqXqXqXtXqXqXqXqXiXiXiXyXtXtXtXtX9X9X9X9X2X2X2X,X,X,X,X,X,X,X:X:X:X:X:X:X:X,X,X,X,X:X:X:X,X,Xb.b.b.b.b.b.:X:X:X:X:X:X:X:X:X:X:X:X:X;X;X:Xv.v.v.v.v.v.v.v.v.v.v.v.v.v.v.v.v.v.:X:X:X:X:X:X:X:X:X:X:X:X:X,X,X,X1X1X2X2X9X9X8X8Xy.O 3 g g d d d d d d d d d d d d d d d 4 4 4 4 4 4 4 4 1 4 1 4 4 4 4 4 4 4 4 4 4 4 4 ",
"j j B B B B B j B B B B B B B B B B N N B B B B B B B B B B B B B B B B B B B W E h.v.v.v.v.>X>X>X>X>X>X1X1X1X1X1X1X1X1X1X1X1X2X1X1X2X2X0X0X3X0X0X0X2X1X1X1X1X<X<X<X<X<X-X-X=X=X=Xk.j.j.j.j.j.j.f.d.d.d.d.q.q.q.7.7.7.8.8.#.#.#.#.#. . . . .! | ! ! I I I I I I L K K K K K 5 5 J 5 5 5 5 5 5 5 5 5 5 5 5 2 2 2 5 5 5 5 h h h h h L L P P P ! ! ~ ~ ~ ~ ~ ` ` ....X.X.X.o.o.#.#.@.@.@.=.>.5.E.R.R.L.L.R.R.R.R.R.R.Q.Q.R.H.A.;.G S.L..XNXAXSXSXSXAXAXAXAXAXAXAXAXSXSXAXZXhXhX XR.A.v i w q 0 q i F A.J.J.L.Q.Q.!.!./.Q.Q.Q.!.^.^.^.|.|.|.+XOXOX+X+X+X+X+X+XOXOXOX~.I.I.P.P.I.I.I.I.!.~.~.~.~.I.I.U.U.P.P.P.P.P.J.G.G.G.G.G.A.F.F.A.Z.Z.B.B.B.G G H G G G G G G G ;.;.;.;.Z.Z.;.;.Z.Z q q q i v S S G ;.1.5.1.1.1.p.p.p.p.p.l.l.l.l.l.l.l.l.v.v.v.b.:X:X,X,X,X,X,X2X2X2X4X4X4XwXwXtXtXtXtXtXtXtXtXtXtXtXtXtXtXtXtXyXyXyXtXtXtXtXiXqXqXiXiXiXiXiXyXtXtXtXtX0X9XwX9X2X2X2X2X2X,X,X,X,X,X,X,X,X:X:X:X,X,X,X,X,X,X,X,X,X,X:X:Xb.b.b.,X:X:X:X:X:X:X:X:X:X;X:X;X;Xv.;Xv.v.v.v.v.v.v.v.v.v.v.v.v.v.v.v.v.;X:X:X:X:X:X:X:X:X:X,X:X:X,X,X,X2X2X2X2X2X9X9X9X8X8Xy.O 3 g g d d d d d d d d d d d d d d d d 4 4 4 4 4 4 4 1 4 1 4 4 4 4 4 4 4 4 4 4 4 4 ",
"j N B B N j j j j j j B B j j B N B B B B B B B W B B B B B B W B B B W W W B W E h.v.v.v.v.>X>X>X>X>X>X1X1X1X1X1X1X1X1X1X1X1X2X1X1X1X1X2X2X2X0X0X3X3X2X1X1X1X1X<X<X<X-X-X-X-X=X=X=Xj.j.j.j.j.j.f.f.f.d.d.w.q.q.q.7.7.7.8.#.#.#.#.#. . . . .^ ! ! ! ! I I I I I L L L K K K K K 5 5 5 5 5 5 5 5 5 5 5 5 5 5 5 5 5 5 5 5 h h h h h L L P P ! ! ~ ~ ~ ~ ~ ` ` ' ......X.+.#.#.#.#.@.@.@.=.>.s.].E.R.L.L.R.R.R.R.R.R.R.R.J.A.G F ;.J..XBXAXSXSXAXAXAXAXAXAXAXAXAXAXAXAXBXBXNXhX XR.H.;.v v v v e Z G A.S.G.J.L.Q.Q.Q.Q.Q.Q.Q.^.^.^.^.XX+X+X+X+X+X+X+X+XOX+XOXOXOXOXOX~.I.P.P.P.P.P.P.P.I.~.~.!.I.I.U.I.P.P.I.P.P.G.G.G.G.G.A.A.F.A.A.Z.B.B.B.G G G H H G G G ;.H G ;.;.;.Z.Z.Z.Z.Z.Z.i 0 i q q q i S S 1.5.5.1.0.p.p.p.p.p.p.l.l.l.l.l.l.l.v.b.b.b.b.:X,X,X,X,X,X2X4XwXwXwXtXwXtXtXtXtXtXuXuXuXtXtXtXtXyXyXyXyXyXyXqXqXqXqXiXiXiXiXiXiXiXiXiXiXiXyXyXtXtXtX0X9X9XwXwX4X4X4X2X2X2X,X,X,X,X,X,X,X,X,X,X,X,X,X,X,X,X,X,X,X,X,X,X,X,X,X,X:X:X:X:X:X:X:X;X;Xv.v.v.v.v.v.v.v.;Xv.v.v.v.v.v.v.v.v.v.;X;X:X:X:X:X:X:X,X,X,X,X,X,X,X,X,X,X2X2X2X1X2X2X9X9X9X9X9Xy.O 3 4 g d d d d d d d d d d d d d d d d 4 4 4 4 4 4 4 4 4 1 1 4 4 4 4 4 4 4 4 4 4 1 ",
"j B B B N j j j j j j B B j j B N B B B B B B B W B B B B W B B B B B B B B B W E h.b.v.v.v.>X>X>X>X>X>X>X>X1X1X1X1X1X2X2X2X2X2X1X1X1X1X2X2X0X0X0X0X2X3X1X1X1X1X<X<X<X<X<X-X-X=X=X=Xk.j.j.j.j.k.h.f.f.f.f.d.q.q.q.7.7.7.8.8.#.#.#.#. . . . . .! ! ! I I I I I I I I L L K K K K K K 5 5 J 5 5 5 5 5 5 5 5 5 5 5 5 5 5 5 h h h h h j L P P I P ! ~ ~ ~ ~ ` ` ' ` ....X.+.#.@.@.#.@.<.:.=.:.p.].E.Q.R.R.R.R.R.R.R.R.R.J.F.;.F G G.[.BXAXSXSXSXAXAXAXAXAXAXAXAXAXAXAXZXBXNXhXhX X/.R.H.;.;.;.D v D Z.A.G.J.J.L.Q.Q.P.Q.!.^.{.|.XX+X+X+X@X@X@X@X+X+X+X+X+X+X+XOXOXOXOX|.~.P.P.P.P.P.P.P.I.U.!.I.U.U.U.U.U.U.U.P.P.G.G.G.G.A.A.A.A.A.Z.B.B.B.B.G G G G H G G H ;.H H ;.;.Z.Z.Z.Z.Z.Z.G i i F S F ;.J.H.1.>.5.p.p.p.p.p.p.p.p.p.l.l.l.l.l.l.l.b.b.b.b.:X:X,X,X,X2X4X2X4XwXtXtXtXtXtXtXtXtXtXuXuXuXuXtXtXtXyXyXyXyXyXyXyXqXqXqXiXiXiXiXiXiXiXiXiXiXiXiXyXtXtXtXtX9X9XwXwX4X4X4X4X4X2X2X,X,X,X,X,X,X,X,X,X,X,X,X,X,X,X,X,X,X,X,X,X,X,X,X,X,X:X,X:X:X:X:X:X:X;X;Xv.v.v.;X:X:X:X:X;Xv.v.v.v.v.v.v.;X;X;X:X:X:X:X,X,X,X,X,X,X,X,X2X2X2X2X2X2X2X9X9X9X9X9X9X9X9Xu.O 3 4 g d d d d d d d d d d d 4 d d d d 4 4 4 4 4 4 4 4 4 1 1 4 4 4 4 4 4 4 4 4 4 1 ",
"j j B B j j j j j j j j B B B B N N B B B B B B B B B B B B B B B B B B B B B W E h.b.v.v.v.>X>X>X>X>X>X>X>X1X1X1X1X1X2X2X9X9X9X3X1X1X2X2X2X0X0X3X0X0X2X1X1X1X1X1X<X<X<X<X-X-X-X=X=X=Xk.j.j.j.k.k.h.f.f.d.d.q.q.q.q.7.7.8.8.8.#.#.#. . . . . .! ! ! I I I I I I I L L L K K K K K K K K J J 5 5 5 5 5 5 5 5 h h 5 5 5 h h h h h h L L P P P ! ! ~ ~ ~ ~ ` ` ` ` ....X.X.X.@.@.@.o.@.:.} :.5.].].R.L.L.R.R.R.R.R.R.L.H.Z.;.G H.Q.hXVXAXAXAXSXAXAXAXAXAXAXAXAXAXAXZXBXBXNXhXhX.X/.Q.Q.J.S.A.F v F Z.A.J.J.J.J.U.Q.Q.Q.~..XXXXX+X@X@X@XMXMX@X@X@X+X+X+X+X@X@XOXOXOXOXOX~.I.P.P.P.P.P.P.P.P.P.P.P.I.P.I.U.U.P.P.P.G.G.G.A.A.A.A.F.A.B.B.B.B.Z.Z.Z.G G H G H G ;.;.H G B.B.Z.Z.;.;.Z.F v S ;.;.1.H./.E.H.>.>.p.p.p.0.p.p.p.p.p.l.l.l.l.l.b.b.b.b.b.b.,X,X,X,X,X2XwXwXwXwXtXtXtXtXtXtXtXuXuXuXuXuXuXtXyXyXyXyXiXiXiXiXiXiXiXiXiXiXiXiXiXiXiXiXiXiXiXiXiXtXtXtXtX9XwXwXwX4X4X4X4X4X4X4X2X2X2X,X,X,X,X,X,X,X,X,X,X,X,X,X,X,X,X,X,X,X,X,X,X,X,X,X,X,X:X,X:X:X:X:X:X:X:X:X:X:X:X:X:Xv.v.v.v.v.v.;X;X:X:X:X:X:X,X,X,X,X,X,X2X2X2X2X2X2X2X2X9X9X9X9X9X9X9X9X9X9Xu.O 6 6 g d d d d d d d d d d d 4 4 d d d 4 4 4 4 4 4 4 4 4 1 4 4 4 4 1 1 1 4 4 1 1 1 ",
"j j B j j j j j j j j j j j B B B N B B B B B B B B B B B B B B B B B B B B B W E h.b.v.v.v.>X>X:X>X>X>X>X<X>X1X1X<X1X2X2X9X9X9X2X2X2X2X2X2X0X0X0X2X9X0X2X2X1X1X1X1X<X<X<X<X-X-X-X=X=X*Xk.k.k.k.k.k.h.f.f.d.q.q.q.q.7.7.7.8.8.$.#.#.#. . . . .! ! ! ! I I I I I I I L L K K K K K K K K J J 5 5 5 5 5 5 5 5 h h h h h h h h h h h L L P P P ! ! ~ ~ ~ ` ~ ` ` ` ....X.X.X.o.X.o.o.@.:.} :.s.]. XR.J.J.L.L.R.R.R.R.L.H.Z.;.Z.R.hXBXAXAXAXAXAXAXAXAXZXZXZXZXZXZXZXBXBXNXhXhXhX.X XQ./.L.G.A.F F F B.A.J.J.G.J.U.!.^.{.XX+X@X@X@X@X@X@X@X@X@X@X@X@X@X@X@X@X@XOXOXOXOXOX^.~.I.P.P.G.G.P.P.P.P.P.P.P.P.P.P.P.P.P.P.G.G.G.A.A.A.A.A.B.B.B.B.B.Z.Z.Z.G Z.;.H G G ;.;.H G G B.Z.;.Z.;.;.D S G F ;.F.Y.E.E.5.,.0.0.0.0.0.0.p.p.p.p.l.l.l.l.l.b.b.b.b.b.b.,X,X4X4X,X4XwXwXwXtXtXtXtXtXtXtXtXtXuXuXuXuXuXyXuXuXyXyXiXiXiXiXiXiXiXiXiXiXiXiXiXiXiXiXiXiXiXiXiXtXtXtXtXtXwXwXwX4X4X4X4X4X4X4X4X2X2X2X,X,X,X,X,X,X,X,X,X,X,X,X,X,X,X,X,X,X,X,X,X,X,X,X,X,X,X,X,X,X:X:X:X:X:X:X:X:X:X:X:Xv.v.v.v.v.v.;X;X:X:X:X:X:X,X,X,X,X2X2X2X2X2X2X2X2X2X9X9X9X9X9X9X9X9X9X9X9Xu.O 6 6 g d d d d d d d d d d d 4 4 d d d 4 4 4 4 4 4 4 4 4 1 1 4 4 4 4 1 1 4 4 1 1 1 ",
"j j j j B j j j j j B B N j B B B B B B B B B j B B B B B B B B B B B B B B B W E h.b.v.v.v.:X>X;X>X>X>X>X>X1X1X1X1X1X1X9X9X9X9X2X2X2X2X2X0X0X3X3X0X3X3X0X2X2X1X1X1X1X<X<X<X<X-X-X=X=X=Xk.k.k.k.k.k.k.f.f.d.q.q.q.q.7.7.7.8.8.8.#.#.#. . . . . .! ! ! I I I I I I L L K K K K K K K K K 5 5 5 5 5 5 5 5 5 h h h h 5 h h h h h h h L L P P P P I ~ ~ ~ ~ ~ ` ` ` ` ......X.@.X.o.@.@.:.=.:.p.].].R.R.L.K.L.R.Q.R.R.L.H.F.F.H.[.NXVXVXVXVXBXZXZXBXZXBXBXZXBXBXBXBXBXNXhXhXhXhX.X XQ.Q.L.J.G.A.A.A.J.L.Q.!.!.!.!.!.!.{.{.XX+X@X+X+X+X+X@X@X@X@X@X@X@X@X@X@X@X+X+X+XOXOX|.~.I.P.P.G.G.P.P.P.P.P.G.P.P.P.G.G.G.G.G.G.G.G.A.A.A.F.A.B.B.B.B.Z.Z.Z.Z.G Z.G ;.H G ;.G G G G G ;.;.;.Z.Z.;.;.F ;.1.H.E. XE.p.,.0.0.0.0.0.p.p.p.p.p.l.l.l.l.b.b.b.b.b.b.,X4X4X4X4XwXwXwXwXwXtXtXtXtXtXtXtXtXtXtXuXuXyXyXyXyXyXyXyXiXiXiXiXiXiXiXiXiXiXiXiXiXiXiXiXiXiXiXiXtXtXtXtXtXtXwXwX9X2X4X4X4X4X4X2X4X4X2X2X,X,X,X,X,X,X,X,X,X4X4X4X4X4X4X4X4X4X,X,X,X,X2X,X,X,X,X,X,X,X,X,X,X,X:X:X:X:X:X:X:X;X;X;X;X;X;X:X:X:X:X:X:X:X,X,X,X,X,X2X2X2X2X2X2X9X9X9X9X9X9X9X9X9X9X9X9XtXg.O 3 6 g d d d d d d d d d d d d d d d d 4 4 4 4 4 4 4 4 4 1 1 4 4 4 4 1 1 4 4 1 1 4 ",
"j j j j B B j j j j B B j j j B B B B B B B B B j B B B B B B B B B B B B B B W E h.b.v.v.v.>X;X;X>X>X>X>X>X>X1X>X1X1X1X9X9X2X2X2X2X2X2X0X0X0X0X0X0X0X0X0X0X2X2X2X1X1X<X<X<X<X-X-X=X=X=X*Xk.k.k.k.k.k.f.f.d.u.q.q.q.q.7.7.8.8.8.#.#.#. . . . .| ! ! ! I I I I I I L L K K K K K K K K K K 5 5 5 5 5 5 5 h h h h h h h h h h h h h L L L P P P P P ~ ~ ~ ~ ` ` ` ` ......o.o.X.X.@.@.=.=.:.5.'.].[.R.R.L.L.R.R.R.R.L.J.J.L.R.oXBXVXVXBXBXBXBXBXBXBXBXBXBXBXBXBXBXhXhXhX.X X.X.X X[.[.Q.Q.L.J.G.J.Q.!.[.{..X.X.X{.{.}..XXXXX+X@X+XOXOX+X+X@X@X@X@X@X+X+X@X+X+X+X+XOXOX|.~.!.I.P.G.G.P.P.P.P.P.J.P.P.G.G.G.G.G.G.G.G.G.G.G.F.F.A.A.Z.Z.Z.Z.Z.Z.Z.Z.Z.;.;.;.G G G G G G G ;.;.;.Z.F.F.Z.;.F.H.Y.E. XE.5.1.,.0.0.p.0.i.i.p.p.p.l.l.l.l.b.b.b.b.b.W.4X4X4X4XwXeXwXwXwXtXtXtXtXwXtXtXtXtXtXtXtXuXuXyXyXyXuXyXyXiXiXiXiXiXiXiXiXiXiXiXiXiXiXiXiXiXiXiXiXtXtXtXtXtXtXtXwX9XwXwX4X4X4X4X4X4X4X4X,X,X,X,X,X,X,X,X,X,X4X4X4X4X4X4X4X4X4X,X,X,X,X2X2X,X,X2X,X2X,X,X,X,X,X:X:X:X:X:X:X:X:X:X:X:X:X:X:X:X:X:X:X:X,X,X,X,X2X2X2X2X2X2X2X9X9X9X9X9X9X9X0X9X9X9X9X9XtXg.O 3 6 g d d d d d d d d d d d d d d d d 4 4 4 4 4 4 4 4 4 1 1 4 4 4 4 1 1 4 4 1 1 4 ",
"B B j B B B N B j j j B j j j B B B B B B N N B B B B B B B B B B B B B B B B W E h.b.v.v.v.>X;X;X,X>X>X>X>X,X,X<X1X1X2X2X9X9X2X2X2X0X0X0X0X0X0X0X0X0X0X0X0X0X2X2X1X1X1X<X<X<X<X-X-X=X=X*X*Xk.k.k.k.k.k.f.d.u.q.q.q.q.7.7.7.8.8.#.#.#.#. . . .| ! ! ! I I I I I L L L K K K K K K K K K J 5 5 5 5 5 5 h h h h h h h h h h h h h h j L P P P P P P P ~ ~ ` ` ` ` ` ........o.o.o.o.@.:.:.} 4.'.'.R.R.R.R.R.R.R.L.R.L.J.L.R.[.oXVXVXVXBXNXhXBXBXBXBXBXBXBXBXBXNXhXhXhXhX.X X X X[. X{.!.Q.Q.L.L.L.!.!.{..X.XXXXX.X.X{.{.{..X.XXXXX|.XXOXOX+X+X+XOXOXOXOX+X+X+X+X+XOXOX|.^.~.!.P.P.P.P.P.P.P.P.G.G.G.G.G.A.G.G.G.G.G.A.A.A.F.F.A.Z.Z.Z.Z.Z.Z.F.Z.Z.Z.Z.H H G H G G G H G ;.;.G Z.H.J.H.H.H.R.E. X XE.p.,.,.0.0.0.0.i.i.i.p.i.l.l.l.b.b.b.b.b.b.W.4X4X4XwXwXeXwXwXwXwXwXwXwXwXwXuXuXuXuXtXtXtXyXuXyXyXyXuXyXiXiXiXiXiXiXiXiXiXiXiXiXiXiXpXiXiXiXiXiXyXtXtXtXtXtXtXtXtXtXwXwX4X4X4X2X2X2X2X2X2X,X,X,X,X,X,X,X,X,X,X8X8X8X8X,X,X,X,X,X,X,X2X2X2X2X2X2X2X,X,X,X,X:X:X:X:X:X:X:X:X:X:X:X:X:X,X:X:X,X,X,X,X,X,X,X,X2X2X2X1X9X9X9X9X9X9X9X9X9X9X0X9X0X0X0X9XyXg.O 3 6 g d d d d d d d d d d d d d d d d 4 4 4 4 4 4 4 4 4 1 1 4 4 4 4 1 1 4 4 1 1 4 ",
"j j B B B B B j j j j N j j j B B B B B N N N N B B B B B B B B B B B B B B B W E h.b.v.v.v.>X;X;X,X,X>X>X>X,X,X<X1X1X2X2X2X9X9X2X3X0X0X0X0X0X0X0X0X0X0X0X0X3X2X0X2X1X1X<X<X<X-X-X=X=X=X=X=Xk.k.k.k.k.k.f.d.u.q.q.q.q.7.7.7.7.8.8.#.#.#. . . .| ! ! ! I I I I I I L 5 5 K 5 K K K K K K J 5 5 5 5 5 h h h h h h h h h h h h h h h j P P P P P P P P ~ ` ` ` ` ` ` ......o.o.o.o.@.@.,.:.[ >.'.E.R.R.R.R.L.R.L.L.L.L.H.L.Q. XhXBXBXBXBXhXhXhXhXhXhXBXBXBXhXhXhXhXhXhXhX.X X/.Q.Q.[.[.!.Q.Q.U.U.Q.!.!.[.{..XXX.X.X.X{.{.}.{.{.}.}.}.|.XX|.|.|.|.OXOXOXOX@XOXOXOXOXOXOXOX|.^.~.I.P.P.P.G.J.J.J.G.G.G.G.A.A.A.A.A.A.A.A.A.A.F.A.A.B.Z.Z.Z.Z.Z.F.Z.Z.Z.;.H H H H G G G H G ;.G G Z.J.J.J.H.L.E.E. XrXW.5.,.,.0.0.0.0.i.i.i.p.i.l.l.l.l.b.b.b.b.W.W.4X4X4XeXeXeXwXwXwXwXuXwXwXwXwXuXuXuXuXuXuXuXuXuXyXuXuXuXiXiXiXiXiXiXiXiXiXiXiXiXiXpXpXpXiXiXiXiXiXyXtXtXtXtXtXtXtXwXwXwXwXwX4X4X4X2X2X2X2X2X2X,X,X,X,X,X,X,X,X8X8X8X8X8X,X,X,X,X,X4X4X4X2X2X2X2X2X2X,X,X,X,X:X:X:X,X:X:X:X:X,X,X,X,X,X,X,X,X,X,X,X,X,X,X,X2X2X2X2X9X9X9X9X9X9X9X9X9X0X0X0X0X0X0X0X0XyXg.O 3 6 g d d d d d d d d d d d d d d d d 4 4 4 4 4 4 4 4 4 4 4 4 4 4 4 1 4 4 4 4 4 4 ",
"j j j j N j j j j j j j j j j j B B B B N N B B B B B B B B B B B B W W B B B W E h.b.v.b.v.>X;X;X>X:X>X,X,X,X,X<X<X1X1X2X2X2X2X2X2X0X3X3X3X3X0X0X0X0X0X0X0X3X3X9X2X1X1X1X<X<X<X<X=X=X=X=X=X*Xk.k.k.k.k.k.f.d.q.q.q.q.q.7.7.7.8.8.#.#.#.X. . .| ! ! ! I I I I I I K K 5 5 5 5 K K K K K J 5 5 5 5 h h h h h h h h h h h h l l l j j l l P P P P P W / W ` ` ` ` ` ........o.o.o.o.@.,.,.] :.'.'.R.K.K.K.K.K.K.J.L.L.J.L.[.oXMXBXhXhXhXoXoXhXhXhXhXhXNXhXhXhXhXhXhXhXhX.X[.Q.Q.Q.{..X{.!.!.!.Q.Q.!.!.[..X.XXXXXXX.X.X.X.X.X.XXX|.}.|.|.|.}.}.}.|.OXOX+XOXOXOXOXOX+XOXOXOX|.^.!.U.P.P.G.G.J.P.G.G.G.G.G.A.A.A.A.F.A.A.F.F.A.A.B.B.Z.Z.Z.Z.F.F.Z.Z.Z.G G G G G G G G G H Z.;.G Z.J.J.J.H.H.R.E. XrXE.0.,.,.0.0.0.0.i.i.i.i.p.l.l.l.b.b.b.b.b.b.,X,X4XeXeXwXeXwXwXwXuXuXuXuXtXuXuXuXuXuXuXuXuXuXuXyXuXuXuXiXiXsXiXpXsXpXpXiXpXpXpXpXiXiXiXiXiXiXiXiXyXyXyXtXtXtXtXtXtXwXwXwXwXwX4XwX2X2X2X2X2X,X,X,X2X,X,X,X,X,X,X,X,X8X8X8XeX8X,X,X4X4X2X2X2X2X2X2X,X,X,X,X,X,X,X,X:X:X:X,X,X,X,X,X,X,X,X,X,X,X,X,X,X,X<X2X2X2X2X9X9X9X9X9X9X9X9X9X0X0X0X0X0X0X0X0X0XyXg.O 3 6 g d d d d d d d d d d d d d d d 4 4 4 4 4 4 4 4 4 4 4 4 4 4 4 4 4 4 4 4 1 1 1 ",
"j j j j j j j j j j j j j j j j j B B B N N N B B B B B N N B B B B B B B B B W E l.b.v.b.b.:X>X;X>X,X>X,X,X,X<X<X<X1X1X2X2X2X2X2X2X0X0X3X3X3X0X0X0X0X0X0X3X3X3X0X2X1X1X1X1X<X<X<X-X=X=X=X=X=Xk.k.k.k.k.k.f.d.u.q.q.q.q.7.7.7.8.8.#.#.#.#. . . .! ! ! I I I I I I K K K 5 5 5 5 K K K K L L L 5 h L h h h h h h h h h h l l l l j l l l P P P P P / / / / ` ` ` ` ..............o.} :.,.} :.T.].R.K.H.H.H.H.H.J.L.L.L.R.oXhXhXhXoX X X X XoXoXhXhXhXhXhXhXhXBXBXBXBXNXhX.X[.Q.Q.{.{.^.Q.!.Q.Q.Q.!.Q.^.{.|.XXXXXXXXXXXXXXXXXXXX.X}.}.|.}.}.}.}.}.|.OXOXOXOXOXOXOXOXOXOXOX|.}.~.U.U.P.G.G.G.J.G.G.G.G.G.G.F.F.A.F.A.A.A.A.A.A.B.B.Z.Z.Z.Z.F.Z.Z.G G G G G G G G G H G H Z.;.G Z.L.J.J.L.H.R.E.].rXY.1.,.,.0.0.0.0.0.i.i.i.i.l.l.l.b.b.b.b.b.b.b.4X4XeXwXeXwXwXwXwXtXuXtXuXtXwXuXuXuXuXuXuXuXuXuXyXuXuXiXiXsXsXsXpXpXpXpXpXpXpXpXpXpXpXpXpXiXiXiXiXiXyXyXyXtXtXtXtXtXtXwXwXwXwXwX9XwX4X2X2X2X,X,X,X4X2X,X,X,X,X,X,X,X8X8X8XeX8X,X,X4X4X2X2X2X2X2X2X,X,X,X,X,X,X,X,X:X:X,X,X,X,X,X,X,X,X,X,X,X,X,X,X,X,X,X2X2X2X2X9X9X9X9X9X9X9X9X9X0X0X0X0X0X0X0X0X0XyXg.O 3 3 g d d d d d d d d d d d d d d d 4 4 4 4 4 4 4 4 4 4 4 4 4 4 4 4 4 4 4 4 1 1 4 ",
"j j j j j j j j j j B N B B j j j j j B N B B B B B B B N B B B B B B B B B B B N l.b.v.v.b.:X;X;X>X>X>X>X>X>X<X1X1X1X1X1X1X2X2X2X2X0X0X3X3X3X3X0X0X2X3X0X0X0X2X3X1X1X1X1X1X<X<X<X-X=X=X=X=X=X*Xk.k.k.k.k.f.f.u.u.q.q.q.q.7.7.8.8.#.#.#.#. . . .! ! ! I I I I I I L K K 5 5 5 5 5 K K K h h L h L L h h h h h h h h h h l l l l l l l l P P P P P / / / / ` ` ` ` ..............o.] @.,.:.>.T.].R.K.H.H.H.J.K.K.L.R.L.R. XoXoXoX X X[.[.[. X XoXhXhXhXBXBXBXAXAXZXBXNXMXhX.X X[. X X^.!.Q.Q.U.Q.Q.Q.!.{..XXXXXXXXXXX.X.X.X}..X|.}.{.}.~.~.~.~.~.^.}.}.|.|.|.|.|.}.|.|.|.|.|.^.~.U.P.G.G.G.J.G.G.G.G.G.G.F.F.F.F.A.A.F.A.A.A.B.B.Z.Z.Z.Z.F.Z.Z.B.G G G G G G G G G G H Z.G G F.L.J.J.R.R.R.E.E.].Y.1.,.,.,.0.0.0.0.i.i.i.p.l.l.l.b.b.b.b.b.b.4X4X4XeXwXeXwXwXwXwXwXwXtXuXwXwXwXwXwXwXuXuXuXuXuXyXyXuXiXiXiXsXsXsXpXpXpXpXpXpXpXpXpXpXpXpXpXpXiXiXyXyXyXyXyXtXtXtXtXwXtXwXwXwXwXwXwXwXwXwXwX2X,X,X4X2X2X,X,X8X4X,X,X,XeXeX4X4X,X2X4X4X4X2X2X4X2X2X,X,X,X,X,X,X,X,X,X,X,X,X,X,X,X,X,X,X2X,X,X,X,X,X,X,X,X2X2X2X2X9X9X9X9X9X9X9X0X0X0X0X0X0X0X0X0X0X0XyXg.O 3 6 g d d d d d d d d d d 4 d d d d d 4 4 4 4 4 4 4 1 1 1 4 4 4 4 4 4 4 4 4 4 1 4 ",
"j j j j j j j j j j B B B B B N j j B B B B B B B B B B N B B B B B B B B B B B N l.b.v.>Xb.:X;X;X>X>X>X,X,X,X<X1X1X1X1X1X2X2X2X2X2X2X0X0X3X0X0X0X2X2X2X0X0X2X2X2X1X1X1X1X1X<X<X<X<X-X=X=X=X;X*X*Xz.z.k.k.k.f.d.u.u.q.q.q.7.7.7.8.#.#.#.#. . . .| ! ! I I I I I I L K K 5 5 5 5 5 5 5 5 h h L h L h h h h h h h h h h l l l l l l l P l l P P P P / / / / ` ` ` ` ' ............@.o.} ,.>.>.Y.].'.K.H.H.H.H.K.K.L.R.L.R. XoX X X X[.R.R.R.R.]. XhXhXBXBXAXAXZXBXhX X/./.Q.Q.Q.[..X.X.X.X[.!.Q.!.^.^.^.^.^.{..X.XXX|..X{.{.{.}.|.{.{.~.!.!.!.U.U.U.U.~.~.}.|.}.~.~.~.^.|.|.}.}.~.~.U.J.G.G.G.G.G.G.G.G.F.A.B.F.F.A.A.A.A.F.A.B.B.Z.Z.A.Z.F.Z.Z.G G G G G G G G G H H H Z.G G F.R.J.L. XQ.R.E.E.].Y.1.,.,.,.,.0.0.0.i.i.i.p.l.l.l.b.b.b.b.b.b.,X4X4XeXeXeXwXwXwXtXwXwXwXuXwXwXwXwXtXwXuXuXuXuXuXyXyXuXiXiXiXsXsXsXsXpXpXpXpXpXpXpXpXpXpXpXpXpXpXpXiXyXyXyXyXtXtXtXtXtXtXwXwXwXwXwXwXwXwXwXwXwX,X,X2X2X2X2X,X8X,XwX2X,X,XeXeX4X,X2X4X4X2X2X2X2X2X2X,X,X,X,X,X,X,X,X,X,X,X,X,X,X,X,X2X2X2X2X,X,X,X,X,X,X2X2X2X2X2X9X9X9X9X9X9X0X0X0X0XqXqXqXqXqXqXqXqXyXg.O 3 6 g d d d d d d d d d d d 4 4 d d d 4 4 4 4 4 4 4 1 1 1 4 4 4 4 4 4 1 4 4 4 1 4 ",
"j j j j j j j j j j j j j j j j j B B B B B B B B B B B j B B B B B B B B B B W N l.b.v.>X>X,X>X;X>X,X,X,X,X,X<X1X1X1X1X1X2X1X1X2X2X2X0X0X0X0X0X0X0X0X0X0X2X2X2X3X2X1X1X1X1X<X<X<X-X-X-X-X=X;X;Xk.k.z.k.k.k.f.d.d.u.q.q.q.q.7.7.8.8.#.#.#.#. . . .| ! ! I I I I I L L K K 5 5 5 5 5 5 K L L L L h h h h h h h h h h l l l l l l l l l l l l P P P U / / ` ` ` ` ` ' ] ..........@.@.} ,.4.:.5.'.'.K.K.H.H.H.K.K.L.R.R.[. XoX X[.[.R.R.Y.R.R.R. XhXhXBXBXBXBXhX/.L.A.;.Z.A.S.H.J./..X.X.X.X.X.X.X.X{.!.Q.Q.P.Q.!.^..X.X.X.X.X|.|.{.{.~.!.!.U.U.U.U.U.U.U.~.~.~.U.P.I.U.~.}.}.}.{.U.U.G.G.G.G.G.G.G.F.F.B.B.B.B.A.B.A.F.F.A.A.Z.B.Z.F.Z.Z.F.Z.Z.G G G G G G G G G G G G G G G F.J.J.L.R.E.E.E.E.].Y.1.,.,.,.,.<.0.0.0.i.i.i.l.l.l.l.b.b.b.b.W.4X4XeXeXeXwXwXwXtXtXwXwXtXtXtXtXtXtXtXuXuXuXuXuXuXyXyXuXuXuXpXpXpXpXpXpXpXpXpXpXpXpXpXpXpXpXpXpXpXpXpXuXyXyXyXuXtXtXtXtXtXwXwXwXwXwXwXwXwXwX2X2X2X,X2X2X2X2X2X,X2XeXeX4X4X4XwXwX9X9X4X4X4X4X4X2X2X2X,X,X,X,X,X,X,X,X,X,X,X,X,X,X,X,X2X2X2X2X2X,X,X,X,X,X2X2X2X2X2X9X9X9X9X9X9X0X0X0X0X0X0X0XqXqXqXqXqXyXg.O 3 6 g d d d d d d d d d d d 4 d d d d 4 4 4 4 4 4 4 4 4 1 4 4 4 4 4 1 1 4 4 1 1 4 ",
"j j j j j j j j j j N N j j j j j j B B B B B B B B B B j B B B B B B B B B B B N l.b.v.b.>X,X>X>X>X,X,X<X<X<X1X2X1X2X2X1X1X1X1X2X2X2X3X0X0X0X0X0X0X0X0X2X2X2X2X2X2X1X1X1X1X<X<X<X<X-X<X-X<X;X;X;Xk.z.z.k.k.f.d.d.u.q.q.q.q.7.7.8.8.#.#.#.#... . .| ! ! I I I I L L L K 5 5 5 5 5 5 5 5 L L L L h h h h h h h h h h l l l l l l l l l l l l P P P U / / ` ` ' ' ` ' ] ............@.] =.,.=.5.E.].R.K.H.H.H.K.K.L.R.L.R.[. X X[.R.K.H.K.Y.R.R. X XoXoX.X XR.H.;.F b v b S F F Z.S.J.L.Q.Q.Q./.^.Q.U.J.S.S.A.S.J.P.Q.^.{..X.X.X.X|.{.^.!.Q.Q.U.U.U.P.P.P.U.U.U.P.P.P.U.~.{.}.}.~.U.U.J.J.J.G.G.G.F.F.F.B.B.B.B.B.B.A.A.F.F.A.Z.Z.F.F.Z.F.Z.Z.Z.Z.G G G G G G G G G G G G G G F.G.J.L.Q.Q.E.E.].].p.1.,.,.,.,.,.0.0.0.i.i.i.l.l.l.b.b.b.b.b.W.4X4XeXeXeXwXwXwXtXtXwXtXtXuXtXtXtXtXtXtXuXuXuXuXuXyXyXuXuXuXpXpXpXpXpXpXpXpXpXpXpXpXpXpXpXpXpXpXpXpXpXuXuXyXyXyXuXtXtXtXtXwXwXwXwXwXwXwXwXwXwX2X2X4XwX2X2X2X,X2X9X9XwXwX4XwXwXwX9X9X4X4X4X4X4X2X2X,X,X,X,X,X,X,X,X,X,X,X,X,X,X,X2X4X2X4X2X4X2X4X2X,X,X2X2X2X2X2X2X9X9X9X9X9X9X0X0X0XqX0X0X0XqXqXqXqXqXyXg.O 3 6 g d d d d d d d d d d d d d d d d 4 4 4 4 4 4 4 4 4 1 1 4 4 4 4 1 1 4 4 4 1 4 ",
"j j j j j j j j j B B N B B j j j j B B B B B B B N B B j B B B B W B B B B B W j l.b.v.>X>X,X>X>X,X,X,X1X1X1X1X2X2X2X2X2X2X1X1X2X2X2X0X0X0X0X0X0X0X0X0X2X9X3X2X0X2X2X2X1X1X1X1X<X<X<X<X<X<X<X;X;Xk.z.z.k.k.f.f.d.d.u.u.q.q.7.7.8.8.#.#.#.#.+. . . .! ! I I I I L L L K 5 5 5 5 5 5 5 5 5 5 L L h h h h h h h h h h l l l l l l l l l l l l P P U / / / ( ' ' ` ` ' ] ............@.@.@.=.} >.T.].R.T.H.H.H.L.R.R.R.L.L.R. X X[.K.3.;.3.H.H.K.R.E.E.R.H.F.;.S v i i i v v b b b F F Z.A.A.A.A.S.A.A.A.N.F F F F A.S.J.P.Q.!.^.^.{.{.^.!.!.Q.P.P.P.J.J.J.J.P.P.P.P.U.U.!.~.~.{.!.U.P.J.J.J.G.G.G.F.F.F.F.B.B.B.A.Z.A.F.F.F.F.Z.Z.Z.Z.F.F.F.Z.Z.Z.G G G G G G G G G G G G G Z.F.G.J.R.Q./.E.E.].E.p.1.,.,.,.,.,.0.0.0.i.i.i.l.l.l.b.b.b.b.b.W.4X4XeXwXeXwXwXtXtXtXtXuXtXuXtXtXtXtXtXtXuXuXuXyXuXyXuXuXuXuXuXuXpXpXpXpXpXpXpXpXpXpXpXpXpXpXpXpXpXpXpXuXuXuXyXyXuXuXtXtXtXwXwXwXwXwXwXwXwXwXwX2X2X2XwXwX,X,X2X2X2X2X2X2XwXwXwXwX4X4X4X4X4X4X4X2X2X,X,X,X,X,X,X,X,X,X,X,X,X,X,X2X2X4X2X4X4X4X4X4X2X2X2X2X2X2X2X2X2X9X9X9X9X9X9X0X0X0XqXqX0X0XqXqXqXqXqXyXg.O 3 6 4 d d d d d d d d d d d d d d d d 4 4 4 4 4 4 4 4 4 1 1 4 4 4 4 4 1 4 4 1 1 4 ",
"j j j j j j j j j B B B B j j j j j B B B B B B N N B B B B N N B W B B B B B B j l.b.b.b.>X,X>X>X,X,X1X2X2X2X2X2X2X2X2X2X1X1X1X2X2X0X0X0X0X0X0X0X0X0X0X9X9X3X3X0X0X2X2X1X1X1X1X<X<X<X<X<X<X<X<X;Xk.v.z.z.k.f.f.f.d.u.u.q.q.7.7.8.8.#.#.#.#.#. . . .! ! I I I I I L L K K 5 5 5 5 5 5 5 5 5 h h h h h h h h h h h h l l l l l l l l l l l l P U / / / / ( ' ' ' ' ' ] ........] ..@.@.] [ [ :.5.'.R.K.H.H.K.L.R.R.R.R.R.R.[. XR.3.S S S S *.;.H.H.H.;.S v y y w w w y y y v v v b b b F F F b b b b b b b b b b b b F F A.S.J.P.Q.Q.Q.Q.Q.P.J.J.J.J.A.A.G.G.J.J.J.P.U.U.U.U.U.U.P.J.G.G.G.G.F.F.F.F.F.F.B.B.B.A.Z.A.F.F.F.F.F.Z.Z.F.Z.Z.Z.Z.Z.Z.G G G G G G G G G G G G G Z.F.H.J.R.Q. X/.].].E.5.,.,.,.,.,.,.0.0.0.i.i.i.l.l.l.b.b.b.b.b.W.4X4X4XwXeXwXwXwXwXtXtXtXtXtXtXtXtXtXtXtXyXyXyXyXyXyXuXuXuXuXuXuXpXpXpXpXpXpXpXpXpXpXpXpXpXpXpXpXpXpXpXpXuXuXyXyXyXyXtXtXtXwXwXwXwXwXwXwXwXwXwXwXwX2X4XwXwXwX2X2X2X4X2XwXwXwX4XwXwXwX4X4X4X4X4X4X2X,X,X,X,X,X,X,X,X,X,X,X,X,X,X2X4X4X4X4X4X4X4X4X2X2X2X2X2X2X2X2X2X9X9X9X9X9X9X0X0X0XqXqX0XqXqXqXqXqXqXyXg.O 3 6 4 d d d d d d d d d d d d d d d d 4 4 4 4 4 4 4 4 4 1 1 4 4 4 4 4 4 4 4 1 4 4 ",
"j j j j j j j j j B B B B B N j j j B B B B B B N B B B B B B N B B B B B B B B N l.b.v.>X>X,X:X>X,X,X1X2X2X2X2X2X2X2X2X2X2X2X2X2X2X0X0X0X0X0X0X0X0X0X3X2X3X0X3X3X3X0X3X2X1X1X1X1X<X<X<X<X<X<X<X;Xk.;Xz.z.k.h.f.f.f.u.u.u.q.7.7.8.8.#.#.#.#.#. . . .! ~ I I L L I L L K 5 5 5 5 5 5 5 5 5 5 5 h h h h h h h h h h h l l l l l l l l l l l l l U / / / / / ' ' ' ' ' ] ..........] ..o.] ] [ =.5.T.T.T.H.H.K.K.R.R.R.[.R.R.R.R.H.G i q 0 t i S -.*.S i y 0 7 7 7 8 0 w w w w w y e v v b b b b b b b b b b b b b b b v v b b F N.S.H.J.J.J.H.G.S.S.A.A.A.A.A.A.G.G.J.J.P.P.P.P.J.J.J.G.G.G.F.A.F.G.G.F.F.F.Z.B.Z.Z.Z.F.F.F.F.F.Z.F.Z.Z.Z.Z.Z.Z.G G G G G G G G G G G G G H ;.F.H.L.R.Q./. X XE.E.5.,.,.,.,.,.,.0.0.0.i.i.i.l.l.l.b.b.b.b.b.b.,X4X4X4XwXwXwXwXwXtXtXtXtXtXtXtXtXtXyXyXyXyXyXyXyXyXuXuXuXyXyXpXuXuXpXpXpXpXpXpXpXpXpXpXpXpXpXpXpXpXuXuXyXuXyXyXyXyXuXtXtXtXwXwXwXwXwXwXwXwXwXwXwX2X4X4X2X2X2X2X4X4X9XwXwXwX4XwXwXwXwX4X4X2X4X4X2X,X,X,X,X,X,X,X,X,X,X,X,X,X,X2X2X2X4X4X4X4X2X2X2X2X4X4X2X2X2X2X2X9X9X9X9X9X9X9X9X9XqXqXqXqXqXqXqXqXqXyXg.O 3 6 g d d d d d d d d d d d d d d d d 4 4 4 4 d 4 4 1 1 4 4 4 4 4 4 4 4 4 4 4 4 4 ",
"j j j j j j j j j B B B B B j j j j B B B B B B B B B B B B B N B B B B B B B B N l.b.v.b.>X,X:X,X,X1X2X2X2X9X9X9X2X9X2X2X2X2X2X2X2X0X0X0X0XqXqX0X0X0X3X0X2X3X3X3X3X3X3X3X2X1X1X1X1X<X1X<X<X<X<X<X*X;Xz.z.k.h.f.f.f.u.u.u.q.7.7.8.8.8.#.#.#.#.X. . .| ~ ! I I L I I L L K K 5 5 5 5 5 5 h h L h h h h h h h h h h k l l l l l l l l l l l l l U U / / / / ' ' ' ' ' ' ..............] ] ] [ =.>.Y.T.T.H.H.K.K.L.R.[.[.[.L.K.H.;.i 0 $ $ $ & 0 t t 0 7 $ $ @ @ @ $ 7 8 8 8 8 8 8 8 8 8 w w w w r v b b r v b b b b v e r r e v v F F ;.Z.Z.Z.Z.;.F F F F F F B.A.A.G.J.J.J.J.J.J.J.J.J.J.G.G.G.G.G.G.G.F.F.F.B.F.F.F.F.F.F.F.F.Z.Z.Z.Z.Z.Z.Z.G G G G G G G G F F G G G F G G Z.H.L.L.R.E.E. XE.E.1.1.,.,.,.,.,.0.0.0.0.i.i.l.l.l.b.b.b.b.b.b.,X,X4X4X4XwXwXwXwXtXtXtXtXtXtXtXtXtXyXyXyXyXyXyXyXyXuXuXyXyXyXyXyXuXpXpXpXyXyXpXpXpXpXpXpXpXpXpXpXpXuXuXyXyXyXyXyXyXuXtXtXtXwXwXwXwXwXwXwXwXwX9XwXwXwXwX2X2X2X2X4XwXwXwXwXwXwXwXwXwXwXwX4X2X4X4X2X,X,X,X,X,X,X,X,X,X,X2X2X2X2X2X2X2X4X4X4X4X2X2X2X2X4X4X2X2X2X2X2X9X9X9X9X9X9X9X9X9XqXqXqXqXqXqXqXqXqXyXg.O 3 6 g d d d d d d d d d d d 4 d d d d 4 4 4 4 d 4 4 1 1 4 4 4 4 4 4 4 4 4 4 1 4 4 ",
"j j j j j j j j j j j j j j j j j j B N B B B B j j B B B B B B B W B B B B B B N l.b.b.b.>X,X>X,X1X1X2X2X9XwXwX9X9X9X9X2X9X2X2X2X2X0X0X0X0X0X0X0X0X0X0X9X2X2X2X2X2X0X0X9X1X1X1X1X1X1X<X1X1X1X<X<X*X;Xv.z.k.h.f.f.f.f.u.u.u.q.7.7.8.8.$.$.#.#.X. . .| ~ T I I I I I I L L L 5 K 5 5 5 L L L L h h h h h h h h h h l l l l l l l c l l l l l l U U / / / / ( ' ' ..' ' ..............] ] } [ } -.5.T.K.5.H.H.H.K.R.R.[.R.K.H.;.S i - $ # + + # $ $ $ $ @ @ + + @ @ @ @ @ 7 8 8 7 7 7 7 7 7 @ 7 8 8 8 w w w w w w w w w w w w w w w y y v v b b b v e w w v v b F B.A.G.G.J.J.J.J.L.P.P.L.J.J.G.G.G.G.G.F.F.F.B.B.Z.F.F.F.F.F.F.Z.Z.Z.Z.Z.Z.Z.G G G G G G G F F F G G F F F G F.H.L.L.R.R.E.].E.E.1.1.,.,.,.,.,.0.0.0.0.i.i.l.l.l.b.b.b.b.b.b.,X,X4X4X4X4XwXwXwXtXtXtXtXtXtXtXtXtXyXyXyXyXyXyXyXyXyXyXyXyXuXuXuXuXuXuXpXpXpXpXpXpXpXpXpXpXsXpXuXuXuXyXuXyXyXyXyXyXyXuXtXtXwXwXwXwXwXwXwXwXwX9X9XwXwX2X2X2X4XwXwXwXwXwXwXwXwXwXwXwXwXwXwX2X4X2X2X,X2X,X2X2X,X,X,X,X2X2X2X2X2X2X2X4X2X2X4X4X4X4X4X4X4X4X2X2X2X2X2X9X9X9X9X9X9X9X9X9X0X0XqXqXqXqXqXqXqXyXg.O 3 6 g d d d d d d d d d d d 4 4 d d d 4 4 4 d d d d 1 1 4 4 1 1 4 4 4 4 4 1 1 1 4 ",
"j j j j j j j j j j j j j j j j j j B N N B B B B j j B B B B B W W B B B W B B N l.b.b.b.>X,X>X,X1X2X2XwXwXwXwXwXwXwXwXwX9X9X9X2X2X3X0X0XtXtX0X0X0X0X2X9X2X2X2X2X2X9X9X9X9X8X1X1X1X1X1X>X1X1X<X<X;X;X;Xz.k.k.h.h.f.f.u.u.u.q.7.7.8.8.8.8.#.#.X... .| | T T I I I I I I L L K K K L L h h L h h h h h h h h h k h l l l l l l l c c l l l l l U U / / / / ( ' ' ' ' ' ' ........' ] ' ] } } } =.5.T.K.5.H.H.K.K.K.L.L.L.H.;.G Z q $ $ # + + + + + + @ @ @ + + @ @ @ @ @ @ 7 7 7 7 7 7 @ @ @ @ 7 7 7 8 8 8 8 8 8 8 8 8 8 8 8 8 8 @ 7 8 8 8 w w w w 7 7 7 8 w w v F B.A.F.G.J.J.J.J.L.L.U.L.J.G.G.G.G.F.F.F.B.B.B.B.F.F.F.F.F.F.F.F.Z.Z.Z.Z.G G G G G G F F F F F F F D D F G Z.F.K.K.R.E.E.].E.Y.1.1.1.,.,.,.,.0.0.0.0.i.i.l.l.l.l.b.b.b.b.b.,X,X4X4X4X2XwXwXwXwXtXtXtXtXtXtXtXtXyXyXyXyXyXyXyXyXyXyXyXyXpXpXyXuXuXuXyXpXpXpXpXpXpXpXpXpXsXpXuXuXuXuXuXyXyXyXyXyXyXuXuXtXtXwXwXwXwXwXwX9X9X9X9X9XwX2X2X2X2XwX9XwXwXwXwXwXwXwXwXwXwXwXwX2XwX2X2X2X2X,X2X2X2X2X,X,X2X2X2X2X2X2X2X4X4X4X4X4X4X4X4X4X4X4X2X2X2X2X2X2X9X9X9X9X0X0X0X0X0X0X0XqXqXqXqXqXqXyXg.O 3 6 g d d d d d d d d d d d 4 4 d d d 4 4 4 d d d d 4 4 4 4 1 1 1 1 4 4 4 1 1 1 4 ",
"j j j j j j j j j j j j j B j j j j B B N N B B B B B B B B B B B B B B B B B B j l.W.b.b.b.,X,X,X2X9X9XwXwXwXwXwXwXwXwXwXwX9X9X9X9X9X9XtXtXtX0X9X0X9X9X9X9X9X9X9X9X9X9X8X8X8X1X1X1X1X1X<X<X<X1X<X;X;X;Xk.k.k.h.h.h.f.f.u.u.q.7.7.7.8.8.8.#.#.X.X. .| | ~ ~ T I I I I I L L h L h L L h h h h h h h h h h h h h l l l l l l l c l l l l l l c c / / / / / / ' ' ' ' ' ' ' ' ' ' ] ..] ] } } } } 4.5.K.5.5.H.H.K.K.R.R.L.H.;.G S i 0 0 - & $ # + $ 0 y y x x x y y 8 8 8 7 7 7 @ @ 7 7 7 7 7 7 7 7 7 7 7 7 7 7 7 7 7 7 8 8 8 8 8 8 7 @ @ @ @ @ @ @ @ @ @ @ @ 7 i v D F A.F.G.J.J.J.J.L.L.P.J.J.G.G.G.F.F.F.B.B.B.B.Z.F.F.F.F.F.F.F.F.Z.Z.;.G G G G F D D D D D F D D D D D G F.H.K.K.R.R.R.E. XY.*.,.5.,.,.,.,.0.0.0.0.i.i.l.l.l.l.b.b.b.b.:X,X,X,X4X4X4X2XwXwXwXwXtXtXtXtXtXtXtXyXyXyXyXyXuXyXpXuXpXyXpXyXyXuXuXuXyXyXuXuXuXpXpXpXpXpXpXsXsXsXuXuXuXuXyXyXyXyXyXyXtXuXtXtXwXtXtXwXwXwX9X9XwX9XwX2X2XwXwXwXwX2X2X9XwXwXwXwXwXwXwXwXwXwXwXwXwX2X2X2X2X2X2X2X2X2X2X2X2X2X2X2X2X2X4X4X4X4X4XwXwXwX4X4X4X2X2X2X2X9X9X2X9X9X9X0X0X0X0X0X0X0XqXqXqXqXqXqXpXg.O 3 3 4 d d d d d d d 4 d d d d d d d 4 4 4 4 4 4 4 4 4 4 4 4 1 1 1 1 4 4 1 1 1 1 1 ",
"j j j j j j j j j j j j B B j j j j B B N N B B j B B B B B B B B B B B B B B B j l.W.b.b.:X,X,X,X2X9X9XwXwX4XwXwXwXwXwXwXwXwXwXwXwXtXtXtXtXtXtXtX9X0X9X9X9X9X9X9X9X9X9X9X9X9X8X8X1X1X1X<X<X<X<X<X;X;X;Xk.k.k.h.h.h.f.f.u.u.q.7.7.7.7.8.8.8.#.X.X. .| | | ~ T T I I I I I I I h h h L h h h h h h h h h h h h h l l l l l l l c l l l l l c c c c / / / / / / ' ' ' ' ' ' ' ' ' ] ] o.] @.@.@.} :.5.T.K.H.H.H.K.K.L.R.L.H.;.G S Z i i 0 0 t x *.H.E. XhXBXBXhX/.E.S.1.b b b r r r r r r y r r r r r r r r r r r r b b b b b b R b b y y w 8 8 7 7 7 $ $ @ @ 7 w v Z F Z.A.G.G.J.J.J.J.J.L.J.J.G.G.G.F.F.F.B.B.B.B.Z.F.F.F.F.B.Z.Z.Z.Z.;.;.G G G F F D D D D D D D D S D D G F.H.H.K.R.R.R.E.gXT.-.:.:.,.,.,.,.0.0.0.0.i.i.i.l.l.l.l.b.b.b.:X,X,X,X,X,X,X,X2XwX9XwX9XwXtX0X0X0XtXtXyXyXpXyXpXpXpXyXpXyXyXyXyXuXuXuXyXyXuXuXuXpXpXpXpXpXpXpXsXsXuXuXuXuXyXuXyXyXyXyXyXyXtXtXtXwXtXwXwXwX9X9XwX9X9X2X2X9X9X9X9X2X2X9XwXwXwXwXwXwXwXwXwXwXwX9X9X2X9X2X2X2X2X2X2X2X2X2X2X2X2X2X2X2X2X4X4X4X4XwXwXwXwX4X4X2X2X2X2X2X9X2X9X9X9X0X0X0X0X0X0X0XqXqXqXqXqXqXuXg.O 3 3 4 d d d d d d d 4 4 d d d d d d 4 4 4 4 4 4 4 4 4 4 4 4 1 1 4 1 4 4 1 1 1 1 1 ",
"j j j j j j j j j j j j B B j j j N B B B N B B j j B B B B B N B B B B B B B B j l.W.b.b.,X,X,X2X9X9X9X2X4X4X4XwXwXwXwXwXwXwXwXwXtXtXtXtXtXtXtXtXtXtX9X9X0X0X0X0X9X9X9X9X9X8X8X8X1X1X1X<X<X1X<X<X;X;X;Xk.k.k.k.h.h.h.f.d.u.q.7.7.7.7.7.8.#.#.X.X. .| | | ~ ~ T T I I I I I I L h h h h h h h h h h h h h h k l l l l l l l l c l l l c c c c c c V / / / / / / ' ( ' ' ' ' ' ' ' ] ] o.@.@.@.} =.4.Y.T.K.H.H.K.K.K.K.K.H.;.G S Z i i i x ;.Y.gXBXAXSXSXJXSXBXhXhX/./././.P.D.D.S.S.S.S.S.S.S.S.S.S.D.D.D.S.S.D.P.P./././././././.L.J.H.S.;.*.F b b v v v w i v v F G Z.A.F.J.J.J.J.L.L.P.L.G.G.G.G.F.F.F.B.B.B.B.F.F.F.Z.Z.B.B.B.;.;.;.;.G G G F F D D D D D D S S S S F ;.F.H.H.K.R.R.R.].gXE.1.>.*.,.,.,.,.,.0.0.0.0.i.i.i.l.l.l.b.b.b.b.,X,X,X,X,X,X,X,XwX9X9X9X9X9X0X0X9XtX0XyXyXpXiXpXpXpXyXyXyXyXyXyXuXuXuXyXyXyXpXuXuXuXuXpXpXsXpXsXsXuXuXuXuXuXuXyXyXyXyXyXuXtXtXtXtXtXwXwX9X9X9X9X9X9X2X9X9X9X9X9X2X2XwXwXwXwXwXwXwXwXwXwXwXwXwXwXwX9X9X2X2X2X2X2X2X2X2X2X2X2X2X2X2X2X2X2X4X4XwXwXwXwX4X2X2X2X4X2X9X9X2X9X9X0X0X0X0X0X0X0X0XtXqXyXyXyXyXuXg.O 3 3 d d d d d d d d d 4 d d d d d d 4 4 4 4 4 4 4 4 4 4 4 4 4 4 4 4 4 4 1 1 1 1 4 ",
"j j j j j j j j j j j N j N j j j B B B B B B B j B B B B B B N B N B B B B B W j l.W.b.,X,X,X,X2X9X9X9X2X4X4X4XwXwXwXwXwXwXwXwXtXtXtXtXtXtXtXuXtXtXtX0XtX0X0X0X0X9X9X9X9X9X9X8X9X1X1X1X1X<X1X<X<X;X;X;Xc.k.k.k.h.h.h.h.d.u.q.7.7.7.7.7.8.#.#.X.X.X. .| | | ~ T T T I I I I I I h h h h h h h h h h h h h h l l l l l l P l c c l c c c c c c c c V / / / / / / / ' ' ' ' ' ' ' ' ] ] ] @.@.@.} _ >.s.T.K.H.H.K.K.K.H.K.H.Z.G S S i i S ;.H.E.gXBXAXSXSXAXBXhX/./.7X7X7X/././././././././././././././././././././././.7XMXMXMXMXhX.X/./.R.J.J.J.S.A.Z.A.;.S v v F F G A.A.F.G.J.J.P.U.U.L.J.G.G.F.F.F.F.Z.B.B.B.B.Z.F.Z.Z.B.B.G G G G G G G G F F D D D D D D S D Z S S F ;.F.H.H.K.R.R.R.E. XgXY.5.=.o.,.,.,.,.<.0.0.0.i.i.i.l.l.l.l.b.b.b.,X,X,X,X,X,X,X,X9X9X9X9X9X9X9X9X0X0XqXtXyXyXpXpXpXyXyXyXyXyXyXyXyXyXyXyXyXuXuXuXuXuXuXuXuXuXuXuXuXpXuXuXyXyXyXyXyXyXyXyXtXtXtXtX0XtXwX9XwX9X9X9X9X9X9X9XwXwX9X9X9XwXwXwXwXwXwXwXwXwXwXwXwXwXtXwXwX9XwX2X2X2X2X2X2X2X2X2X2X2X2X2X2X2X2X2X2X4X2X2X2X,X,X,X,X,X,X,X2X9X2X9X9X0X0X0X0X0X0X0X0XyXqXyXyXyXyXuXg.O 3 3 4 d d d d d d d d 4 4 d d d d 4 4 4 4 4 4 4 4 4 4 4 4 4 4 4 4 4 4 4 1 1 1 1 1 ",
"j j j j j j j j j B B N j j j j j j B B B B B B j j B B B B B B B B B B B B B B j l.W.b.,X,X8X8X2X2X2X2X2X2XwXwXwXwXwXwXwXwXwXwXtXtXtXuXuXuXuXuXuXuXtXtXtX0X0X0X9X9X0X9X9X9X9X9X9X9X1X1X1X1X1X1X<X<X<X;Xc.k.k.k.k.k.h.h.f.u.u.q.q.q.7.7.8.8.#.X.X.X. .| | | ~ T ~ T T I I I I I I L h h h h h h h h h h h h k k l l l l P P P l c c c c l l c c c V / / / / / / / ' ' ' ' ' ' ' ' ] ] ] @.@.@.} _ -.5.T.K.H.H.K.K.H.H.H.H.;.G G S S ;.F.H.R.R.E.E.gXhXhXNXhX/././././././././././././././././././.7X7X^./././.7X7XMXMXMXMXMXMXhX/./././.R.J.J.J.S.A.A.A.A.;.F F F G B.Z.Z.A.G.G.J.J.L.J.J.G.G.F.F.F.F.B.B.B.G B.B.Z.Z.B.B.B.B.G G G ;.H G G G D D D D D D D S Z Z Z S D G ;.F.H.K.R.R.R.R.E.E.gXgX5.=.*.,.,.,.<.<.0.0.0.0.i.i.l.l.l.l.b.b.b.b.:X,X,X,X,X,X,X,X8XwX9X9X9X9X9X9XwXqXtXyXyXyXpXpXyXyXyXyXyXyXyXyXyXyXyXuXuXuXuXuXuXuXuXuXuXuXuXuXpXuXpXyXyXuXyXyXyXyXyXyXtXtXqXtX0XwXwX9X9X9X9X9X9X9XwXwX9X9X9X9XwXwXwXwXwX4XtXtXtXtXtXtXtXwXwXwX9XwXwX2X2X2X2X2X2X2X2X2X2X2X2X2X2X2X2X2X2X2X2X,X,X4X4X4X4X,X,X2X2X2X2X9X0X0X0X0X0X0X0X0XqXyXyXyXyXyXpXg.O 3 4 d d d d d d d d d d 4 d d d d 4 4 4 4 4 4 d 4 4 4 1 1 1 4 4 4 4 4 1 1 1 1 1 1 ",
"j j j j j j j j j B N N j j j B j j B B B B B B B B B B B B j B B B B B B B B B j b.4Xb.8X8X8X8X2X2X2X2X2XwXwXwXwXwXwXwXwXwXwXwXtXtXtXuXuXuXuXuXuXuXuXtXtXtXqXqX0X9X0X0X0X0X9X9X9X9X1X1X1X1X1X1X<X<X<X;X;Xc.k.k.k.k.k.h.f.u.u.q.q.q.7.7.8.8.#.#.X.X. .| | | | ~ ~ ~ T I I I L I I I h h h h h h h h h h h h k k l l l c P P P P c c c c l l c c c c / / / / / / / / ' ' ' ' ' ' ' ' ] ] o.@.@.} _ =.>.5.K.H.K.K.H.H.H.H.F.;.;.;.;.Z.H.K.R.R.Y.H.H.H.E./.gXhXgXgX/././././././././././././././././././././././.7X7X7X7X7X7X^./././.Q.L.J.S.A.A.Z.;.;.A.S.G.S.A.A.A.A.Z.Z.B.A.F.G.G.G.G.G.G.G.F.F.F.B.B.B.B.G G G B.B.B.B.B.Z.Z.G G G G G H G F D D D D D D S Z Z Z S S D G ;.H.H.K.R.R.R.E.Y.T.gXjX5.*.*.,.,.,.<.,.<.0.0.0.i.i.i.l.l.l.l.b.b.b.b.b.,X,X,X:X,X,X,XwXwX9X9X9X9X9X9XtXtXyXyXyXyXyXyXyXyXyXyXyXyXyXuXyXyXyXyXyXyXuXyXuXuXuXuXuXuXpXpXuXyXyXyXuXuXyXyXyXyXyXtXtXqXqX0X9XwX9X9X9X9XwX9X9XwXwXwX9X9X9XwXwXwXwXwXtXtXtXtXtXtXtXtXwXwXwXwXwX9X2X2X2X2X2X2X2X2X2X2X2X2X2X2X2X2X2X2X2X,X,X,X,X,X,X,X,X,X2X2X2X2X2X9X9X0X0X0X0X0X0XqXyXyXyXyXyXuXg.O 3 4 d d d d d d d d d d d d d d 4 4 4 4 4 4 4 d 4 4 4 1 1 1 4 4 4 4 4 1 1 1 1 1 1 ",
"j j j j j j j j j B j j j j B B j j j B B B B B B N B B B B j B B B B B B B B B j l.eX,XeX8X8X8X2X2X2X2X4XwXwXwXwXwXwXwXwXwXtXtXtXtXuXuXuXuXuXuXuXuXuXuXyXtXqXqX0X0X0X0X0X0X0X0X9X0X1X1X1X1X1X1X1X<X<X<X;Xv.k.k.k.k.k.h.f.u.u.q.q.q.7.7.7.8.#.X.X.X.X. .X.| | | | ~ T I I I I L L I I h h h h h h h h h h h k k l l l c l P P P c c l l l l c c c V / / / / / / / / / ' ' ( ' ' ' ' ] ] ] @.@.} } =.-.1.5.H.H.H.H.H.H.H.F.;.;.;.Z.H.K.L.L.R.Y.H.H.S.S.H.E./././././././././././././././././././././././././././././././././.U.P.J.S.A.;.F F F F F ;.A.J.J.J.G.G.F.A.A.Z.B.B.B.F.G.G.G.G.G.A.B.B.B.B.B.B.B.G B.G G G G G G B.;.Z.Z.;.G G G G D D D D D D D S Z Z Z S D G ;.F.H.H.K.R.R.R.K.5.T.gXBXE.>.=.,.,.,.<.,.<.0.0.0.0.p.i.l.l.l.l.l.b.b.b.b.:X,X,X,X,X,X,X9XwXwX9X9X9X9X9X0XtXtXyXyXyXyXyXyXyXyXyXyXyXyXyXyXuXyXuXyXyXyXyXuXuXuXuXuXuXuXuXuXuXyXyXuXuXuXyXyXyXyXtXtXtXtXtXtXwXwXwXwX9XwXwXwXwXwXwXwX9XwXwXwXwXtXtXtXtXtXtXtXtXtXtXwXtXwXwXwX9X9X2X2X2X2X2X2X2X2X2X2X2X2X2X2X2X2X2X2X,X,X,X,X,X,X,X,X,X2X2X2X2X2X9X9X0X0X0X0X0X0XqXyXyXyXyXyXpXg.O 3 6 d d d d 4 d d d d d d d d d 4 4 4 4 4 4 4 d 4 4 4 4 1 1 4 4 4 4 1 1 1 1 1 1 4 ",
"j j j j j j j j j j j j j j B B j j j j B B B B B B B B B N N B B B B B B B B B j b.eX,XeX8X8X9X2X2X2X2X2XwXwXwXwXwXwXwXtXtXtXtXtXuXuXuXuXuXuXuXuXuXuXuXuXtXyXqXqX0XqX0X0X0X0X0X0X0X9X9X1X1X1X1X1X<X<X<X;Xc.c.k.k.k.k.h.f.d.u.u.q.q.7.7.8.8.#.#.X.X.X.X.X.X.| | | | T T I I I L L L L h h h h h h h h h h h k l l l l l c P P P l l l l l l c c c V / / / / / / / / / / ' ' ' ' ' ' ] ] ] ] } } } =.*.-.1.5.K.H.H.H.H.F.;.;.;.;.F.H.K.R.L.L.H.S.S.S.S.S.A.S.S.H.J.J.P.J.J.D.D.D.D.D.D.D.S.D.D.D.D.P.P.D.D.D.P./.P.U.U.U.P.J.S.S.A.Z.F F F F Z.A.A.G.L.Q.Q.L.L.J.J.G.F.A.A.B.B.F.F.G.G.G.F.B.B.B.B.B.B.B.B.B.B.G G G G G G G ;.;.G G G G G F D D D D D D S S Z Z Z S D G ;.F.K.K.K.R.R.R.5.1.T.gXjXgX5.:.,.,.,.,.,.<.,.0.0.0.i.i.l.l.l.l.l.b.b.b.b.b.b.,X,X,X,X8X9X9X9XwX9X9X9X9XwXtXtXyXyXyXyXyXyXyXyXyXyXyXyXyXyXyXuXuXyXyXyXyXuXuXuXuXuXuXuXuXuXpXpXpXuXyXuXuXyXyXyXtXtXtXtXtXtXtXtXwX9X9XwXwXwXwXwXtXtXtXtXtXtXtXtXtXtXtXtXtXtXtXtXtXwX9XwXwXwX9X2X2X2X2X2X,X2X2X2X2X2X2X4X4X2X2X2X2X2X,X,X,X,X,X,X,X,X,X,X1X1X1X2X9X9X9X0X0X0X0X0XqXyXyXyXyXyXpXg.O 3 6 d d d 4 4 d d d 4 4 d d d d 4 4 4 4 4 4 4 4 4 4 4 4 4 4 4 4 4 4 1 1 1 1 1 1 1 ",
"j j j j j j j j j j N N j j j B j j j j B B B B B B N N N B B B B B B j j B W W j b.eX4XeX8X8X9X2XwX4X4XwXwXwXwXwXwXtXtXtXtXtXtXuXuXuXuXuXuXuXuXuXuXuXuXyXyXyXyXtXqXqX0X0X0X0X0X0X0X8X1X1X1X1X1X1X<X<X<X;Xv.c.c.c.c.k.h.f.d.u.u.q.q.q.7.8.8.#.#.X.X.X.X.X.| | | ~ | ~ T T I I I L L L j j h h h h h h h h h l l l l P l P P P U P P P c c c c c c c V / / / / / / / / / / ] ' ] ] ] ' ] ] ] ] } } } *.*.-.3.H.H.F.H.H.3.3.3.;.;.F.H.L.R.R.R.J.S.F.S.A.*.S b b b b b b F ;.b b b b b b b b b b b b N.A.b b b N.N.A.A.A.A.A.N.F F F F F F F A.S.J.J.Q.Q.!.!.U.L.L.J.J.G.F.A.A.A.F.F.G.G.G.F.F.A.B.B.B.B.B.B.B.B.G G G G G G G G G G G G D D D S D Z S Z Z Z Z Z Z Z S S ;.;.3.H.K.'.R.K.H.;.5.].gXgXgXT.*.>.,.,.,.,.<.,.0.0.0.i.i.l.l.l.l.l.v.b.b.b.b.:X:X:X,X,X,X8X8X9X8X9X9XwX9X9X9XtXtXtXtXtXtXyXyXyXyXyXyXyXyXyXyXyXyXyXyXyXyXyXuXuXuXuXsXsXsXuXyXsXsXsXyXyXyXyXyXyXtXtXtXtXtXtXtXtXtXtXtXtXtXtXtXtX0X9XtXtXtXtX4XtXtXtXtXtXtXtXtX9X9XwXwXwXwXwX9X9X2X2X2X2X2X2X2X2X2X2X2X4X4XwXwXwX2X9X,X,X,X,X,X,X,X,X,X,X1X1X1X2X2X9X0X0X0X0X0X0XqXqXyXiXyXqXpXg.O 3 3 d d d d d d d d d 4 d d d d 4 4 4 4 4 4 4 4 4 4 1 1 1 4 4 4 4 4 4 1 1 1 4 1 1 ",
"j j j j j j j j j j j N j j B B j j j j j B B B B B B B N B B B B N B j j B W W j b.eX4XeX8X8X9X2X4XwXwXwXwXwXwXwXtXtXtXtXtXtXtXuXuXuXuXuXuXuXuXuXuXuXuXuXyXyXyXyXtXtXqXqXqX0X0X0X0X9X0X1X1X1X1X1X1X>X<X;X;Xv.c.c.c.k.h.h.d.u.u.q.q.q.7.7.8.#.#.#.X.X.X.X.X.| | ' ~ ~ T T I P I I L L j h h h h h h h h h h h l l l P P P P U P P P P P U c c c c c V V / / / / / / / / / ' ' ' ] ] ] ] ] ] ] ] ] ] =.*.-.1.3.5.3.3.3.;.3.3.3.;.;.F.H.H.L.R.R.H.S.S.;.S i w 0 8 8 8 8 w w w 8 8 8 8 8 8 8 8 8 8 8 r r w w w w r e v b b b b b F F F F G Z.F.J.L.Q.!.!.!.Q.L.L.J.J.G.G.F.A.A.A.F.F.F.F.F.F.F.Z.Z.B.B.B.B.B.B.B.G G G G G G G G G G G D D D S Z Z Z Z Z Z Z Z Z Z Z S S ;.3.3.H.K.H.T.K.3.1.K.]. XgXjX].-.-.:.,.,.,.,.,.0.0.0.i.i.l.l.l.l.l.l.b.b.b.b.b.:X,X,X,X,X8X8X8X8X8X8XwXwX9XwXtXqXqXtXtXtXyXyXyXyXyXyXyXuXyXyXyXyXyXuXuXuXyXyXyXyXuXuXiXsXsXsXsXuXuXuXyXyXyXyXyXyXtXtXtXtXtX0XtXtX0XtXtXtXtXtXtXtX0XtX0XtXtXtXtXtXtXtXtXtXtXtXtXtXtXtXwXtXwXwX9X2X2X2X2X2X2X2X2X2X2X2X4X4XwXwXwX2X2X,X,X,X,X,X,X,X,X,X,X,X1X1X2X2X2X9X9X0X0X0X0XqXqXyXiXyXqXpXg.O 3 3 d d d d 4 4 d d d d d d d 4 4 4 4 4 4 4 4 4 4 4 1 1 1 4 4 4 4 4 4 4 1 4 4 1 1 ",
"j j j j j j j j j j j j j j j j j j j j j B B B B B B B B B B j N N B B B B B B j b.eX4XeX8X9X9X9XwXwXwXwXwXwXwXtXtXtXtXtXuXuXuXuXuXuXuXuXuXuXuXuXuXuXuXuXyXyXyXtXtXqXqXqXqXqX0X0X0X0X9X0X9X1X1X1X>X>X>X<X;Xv.c.c.c.k.k.h.f.u.u.u.u.q.7.7.8.#.#.#.#.X.X.X.X. .| ~ ~ ~ T T T P P I I P L j h h h h h h h h h h l l l l l P U U P P P P P P U c c U U V V / / / / / / / / / / ` ` ( ( ] ] ' ] ] ] _ ] *.=.*.-.1.1.3.3.;.;.;.3.3.3.;.F.H.H.J.L.H.A.A.H.A.Z w 0 7 7 7 $ @ @ 7 7 @ @ @ @ @ @ @ @ @ @ @ @ @ @ @ 7 7 7 8 w w e v v v D G Z.A.A.F.J.L.U.Q.!.!.!.Q.U.L.L.G.G.G.A.A.A.A.A.F.F.F.F.A.B.B.B.B.B.B.B.Z.Z.B.H G G G G G G G G G D D D S Z Z Z Z v v i i i Z Z S G ;.;.5.5.H.K.5.H.3.-.5.T.]. XgXjXgX5.-.,.,.,.,.,.,.0.,.0.i.i.p.l.l.l.l.b.b.b.b.b.b.,X,X,X,X,X,X,X8X8X8X9X9X9X9X9XtXtXtXqXtXtXqXqXyXyXyXyXyXyXyXyXyXyXuXuXuXuXyXyXyXuXuXuXiXiXuXuXsXsXsXsXuXuXyXyXyXyXyXtXtXtXtXtX0X0XtXtXtXtXtXtXtXtXtXtXtXtXtXtXtXtXtXtXtXtXtXwXtXtXtXtXtXtXtX9X2X2X2X2X2X2X2X2X2X2X2X2X2X4XwX2X2X,X,X,X,X,X,X,X,X,X,X,X,X,X<X1X1X2X2X2X9X9X0X0X0XqXtXyXiXyXyXuXg.O 3 4 d d d d d d d d d d d d d 4 4 4 4 4 4 4 4 4 d 4 4 4 4 4 4 4 4 4 4 4 1 1 1 1 1 ",
"j j j j j j j j j j j j j j j j B j j j j B B B B B B B B j j j N N N B B B B B j b.eXeXeX8X9XwXwXwXwXwXwXwXwXtXtXtXtXtXuXuXuXuXuXuXuXuXuXuXuXuXuXuXuXuXuXuXyXyXyXyXyXtXqXqXqX0X0X0X0X0X9X9X1X1X1X<X1X>X<X;Xv.v.c.c.k.k.k.f.d.u.u.u.q.7.7.8.8.#.#.#.X.X.X.X. .X.~ ~ ~ T T T P P I I P P L j h h h h h h h h h l l l l l P U U P P P P P P P U c c c V V / V / / / / / / / / / ' / ( ' ] ] ] ] ] ] ] *.=.=.-.-.1.3.3.;.;.;.;.3.3.;.H.H.H.H.H.H.;.;.A.;.v q 7 7 $ $ @ @ @ @ @ @ @ @ @ @ @ @ @ @ @ @ @ @ @ @ @ 7 7 7 w w w e v Z F Z.A.G.G.J.L.U.!.!.!.!.!.U.U.L.J.F.F.A.A.A.A.A.A.A.F.A.B.B.B.B.B.B.Z.Z.Z.Z.;.G G G G G G G G G G G D D S S Z Z v i i i i i i Z Z S ;.;.5.H.H.H.K.H.;.S -.T.E.].oXgXgXgXT.>.>.>.,.<.,.,.,.,.0.i.p.l.l.l.l.b.b.b.b.b.b.:X:Xb.,X,X,X8X8X8X8X8X8XwXwX9XwXwXqXqXtXtXyXyXyXyXyXyXyXyXyXyXyXyXuXuXuXuXuXuXuXuXuXuXuXuXuXuXiXiXsXiXsXuXuXuXyXyXyXyXtXtXtXtXtXtXtXtXtXtXtXtXtXtXtXtXtXtXtXtXtXtXtXtXtXtXtXtXwXtXtXtXtXwXtXwX9X9X2X2X2X2X2X2X2X2X2X2X2X2X2X2X2X,X,X,X,X,X,X,X,X,X,X,X,X,X,X,X<X1X1X2X2X2X9X0X0X0XqXtXyXiXyXyXuXg.O 3 4 d d d d d d d d d d d d d 4 4 4 4 4 4 4 4 4 4 4 4 4 4 4 4 4 4 4 4 4 1 1 1 1 1 ",
"j j j j j j j j j j j j j j j j B B B B j j B B B B B B B B B B B B B B B B j j j b.eXeXeXwX9XwXwXwXwXwXwXtXtXtXtXuXuXuXuXuXuXuXuXuXuXuXuXuXuXuXuXuXuXuXuXuXyXyXuXyXyXtXtXqXqXqX0X0X0X0X0X9X9X2X1X1X1X>X<X;X;Xv.c.c.k.k.k.f.d.u.u.u.q.7.7.8.8.#.#.#.#.X.X.X.X.X.~ ~ ~ ~ T T I I I I P P P L h h h h h h h h l l l l l l P P P P P P P P U U U c U c V / / / / / / / / / / ( / / / / ] ] ' ' ] ] ] ] *.=.=.=.-.1.3.1.;.;.-.-.;.;.3.F.H.H.H.H.H.;.;.;.F i q 0 7 $ $ @ @ @ @ @ @ @ @ @ @ @ @ @ @ @ @ @ $ $ 7 7 7 7 8 q w i v Z F G A.F.J.J.J.J.U.U.!.!.!.U.U.L.J.G.A.A.A.A.A.A.A.A.B.B.B.B.B.B.B.B.Z.Z.Z.;.;.G G G G F G G G G F D D D S S Z Z v i i i i i i i Z Z S ;.;.3.H.H.H.H.5.S S 5.T.'.]. XgXgXgX].4.>.>.,.<.,.,.<.0.i.i.p.l.l.l.l.b.b.b.b.b.b.b.b.b.,X,X8X8X,X,X8X8X8X9XwX9XwXwXtXtXtXtXyXtXyXyXyXyXyXyXyXyXyXuXuXyXyXuXuXuXuXuXuXuXuXuXuXuXuXsXsXsXsXuXuXuXuXuXyXyXyXtXtXyXyXtXtXtXtXtXtXtXtXtXtXtX0X3X4X4XtXtXtXtXtXtXtXtXtXtXtXtXwXwXtX9X9X2X2X2X2X,X,X,X<X<X2X2X2X2X2X,X,X,X:X:X:X:X:X,X,X:X:X:X:X,X,X,X1X<X2X2X2X2X9X0X0X0XtXtXyXyXyXyXuXg.O 3 4 d d d 4 4 d d d d d d d 4 4 4 4 4 4 4 4 4 4 4 4 4 4 4 4 4 4 4 4 1 4 1 1 1 1 1 ",
"j j j j j j j j j j j j j j N B B B N N j j B B B B B B B B B B B B B B B B B j j b.eXeXeXwX9XwXwXwXwXwXtXtXtXtXuXuXuXuXuXuXuXuXuXuXuXuXuXuXuXuXuXuXuXuXuXuXuXuXuXyXyXyXtXtXqXqX0X0X0X0X0X9X2X2X1X1X1X1X<X;X;X;Xv.v.v.k.h.f.f.d.u.u.u.q.7.8.8.8.#.#.#.X.X.X.X.X.~ ~ ~ ~ T T I I I I P P L L h h h h h h h h l l l l l l P P P P P P P P U U U U U c / / V V / / / / / ( ( ( ( / / / ] ] ] ' ] ] ] ] *.=.=.=.-.1.3.3.;.-.-.S G ;.;.;.F.;.Z.Z.;.;.F F S v i q 0 0 $ $ @ @ @ @ @ @ @ $ $ $ $ $ $ $ $ $ 7 7 7 7 7 7 q q i v Z F G G Z.F.G.G.G.J.J.U.U.U.U.J.J.J.G.G.A.A.A.F.F.A.Z.A.B.B.B.B.B.B.B.B.Z.Z.;.G G G G G F D D D D D D D S S S Z Z i i i i i i i i Z S S S S ;.;.3.5.5.3.-.S 5.T.T.'.].].gXgXjXgXT.>.-.>.,.,.,.,.0.p.p.i.p.l.l.l.b.b.b.b.b.b.b.b.b.,X8X8X,X8X,X8XeXeXwXwXwXwXwXwXtXtXtXyXtXyXyXyXyXyXyXyXyXuXuXyXyXyXuXuXuXuXuXuXuXuXuXuXuXuXuXuXuXuXuXuXyXyXuXuXuXyXyXtXyXyXyXtXtXtXtXtXtXtXtXtXtX0X3X4X4X4XtXtXtXtXtXtXwXwX9XwXwXwXwXwX9X2X2X2X2X2X,X,X,X,X<X<X,X,X,X,X,X:X:X:X:X:X:X:X:X:X:X:X:X:X,X>X,X,X<X1X2X2X9X9X0X0X0XtXtXyXyXyXyXuXg.O 3 4 d d d d d d d d d d d d 4 4 4 4 4 4 4 4 4 4 4 4 4 4 1 1 4 4 4 4 1 1 1 1 1 1 1 ",
"j j j j j j j j j j j j j N N B j j N j j j N N j j B B B B B B B B B B B B j j j b.eXeXeX9X9XwXwXwXwXwXtXtXuXuXuXuXuXuXuXuXuXuXuXuXuXuXuXuXuXuXuXuXuXuXuXuXuXuXuXyXyXyXtXyXyXqX0X0X0X0X0X0X9X2X1X1X1X1X>X;X;X;Xv.c.c.k.k.f.f.d.d.u.u.q.7.7.8.8.#.#.#.X.X.X.X.X.~ | | | T T T I I I P P L L L h j h h h h h l l l l l l P P P P P P P P U U U U U c / V V V V V V / / ( ( ( ( / / / ( ( ( ] ' ] ] *.*.=.=.=.=.1.>.1.;.-.S S S S S ;.;.;.;.G S Z v v v i i q 0 0 7 $ @ $ $ $ $ $ $ $ $ $ $ $ $ $ $ 7 7 0 0 7 7 0 q q i v Z D F G G Z.A.A.B.F.G.G.G.G.G.G.G.G.A.A.B.A.A.A.A.B.B.B.B.B.B.B.G G G G G G G G G G G F D D D D S D D S S S Z Z i i i i i i i i i S S S S S ;.;.3.3.3.-.C -.K.T.T.'.'.'.gXgXjXjX].-.=.>.,.,.,.>.0.p.p.i.p.p.l.l.b.b.b.b.b.b.b.b.,X,X8X8X8X8X8X8X8XeXwXwXwXwXwXtXtXtXtXtXtXtXtXtXyXyXyXyXyXyXyXuXyXyXuXuXuXuXuXuXuXuXuXuXuXuXuXuXuXuXuXuXyXyXuXuXyXyXyXtXyXyXyXtXtXtXtXtXtXtXtXtXtX3X3X3X3X4X4X4X4XtXtXtXtXwXwXwXwXwX9X9X2X2X2X2X2X,X,X,X,X,X,X,X,X,X,X,X,X,X:X:X:X:X:X:X:X:X:X:X:X:X,X>X>X,X,X1X1X2X2X9X0X0X0XtXtXyXyXyXyXuXg.O 3 6 d d d d d d d d d d d d 4 4 4 4 4 4 4 4 4 4 1 1 1 4 1 1 1 4 4 4 4 1 1 1 1 4 1 ",
"j j j j j j j j j j j j j j B N j j j j j j j j B B B N N B B B B B B B B B j B j b.eXeXeXwXwXwXwXwXwXtXtXtXuXuXuXuXuXuXuXuXuXuXuXuXuXuXuXuXuXuXuXuXuXuXuXuXuXuXuXyXyXyXtXyXyXqX0X0X0X0X0X9X9X1X1X1X1X1X>X;X;X;Xv.c.c.k.k.f.f.f.d.u.u.q.7.8.8.8.8.8.#.X.X.X.X. .| | | | T T T P P I P P P L L h j h h h h h l l l l l l P P P P P P P P P U U U U c c V V V V V V ( / ( ( ( ( ( ( ( ( ( ( ] ] ] ] *.*.=.=.=.=.-.1.1.-.-.S S S S S S ;.;.G G S Z i i i i i q 0 0 0 $ $ $ $ $ $ $ $ $ $ $ $ $ $ $ $ $ 7 0 0 7 0 q w i i v Z D F F G B.B.B.B.A.G.G.G.G.G.G.A.A.B.B.B.B.B.B.B.B.B.G G G G G G G G G G G G G G G D D D D D D S S Z Z Z Z i i i i i i i i i i Z S S S S -.;.3.3.3.3.-.S 3.T.K.T.'.'.'.].].gXjXrX5.-.>.,.,.,.>.0.p.p.p.p.p.l.l.b.b.b.b.b.b.b.b.,X,X,X8X,X8X,XeXeXeXwXwXwXwXwXwXtXtXtXtXtXtXtXtXyXyXyXyXyXyXyXyXyXuXuXuXuXuXuXuXuXuXuXuXuXuXuXuXuXuXuXyXyXyXyXyXyXyXtXtXyXyXyXtXtXtXtXtXtXtXtXtX3X3X3X3X3X4X4X3X4X4XtXtXwX9X9X9X9X9X2X2X2X2X2X2X2X,X,X,X,X,X,X,X,X,X,X,X:X:X:X:X:X:X:X:X:X:X:X:X:X:X,X,X,X,X,X1X1X2X2X9X0X0X0XtXyXyXyXyXyXuXg.O 3 6 d d d d d d d d d d 4 4 4 4 4 4 4 4 4 4 4 4 1 1 1 1 1 1 4 4 4 4 1 1 1 1 1 4 1 ",
"j j j j j j j j j j j j j j N N j j j j B B B j B B B B B B B B B B B B B B B B j b.eXeXeXwXwXwXwXtXuXuXuXuXuXuXuXuXuXuXuXuXuXuXuXuXuXuXuXuXuXuXuXuXuXuXuXuXuXyXuXyXyXyXyXqXqXqXqXqXyX0X0X0X2X1X1X1X1X1X>X;X;X;Xv.c.c.k.k.h.f.f.f.d.u.q.7.7.8.8.8.8.#.#.X. . . .| | | ~ ~ T I P P P I I P L L h j h h h h h l l l l P l P P P P P P P P P P U c c c c c c V V V V / / ( ( ( ( ( ( ( ( ( ( ] ] ] ] ] *.*.*.*.=.-.-.-.-.-.S S C m m m m Z S Z Z i i i i q q q 0 7 7 $ $ $ $ $ $ $ $ $ $ $ $ $ $ $ $ $ $ $ 7 7 0 q q i v Z D D F F F F G F G N.B.B.B.B.B.B.B.B.B.B.B.B.B.B.B.B.G G G G G G G G G G G G G D D D S D D S S Z Z Z Z Z i i i i q q q i i i i Z Z S S S S S -.-.;.-.-.-.5.5.5.K.K.T.'.'.].gXgXjXjXW.>.:.>.,.,.,.0.0.p.p.p.i.l.l.l.l.b.b.b.b.b.b.b.,X,X8X8X8XeX4X4XwXwXwXwXwXwXtXtXtXtXtXtXtXtXtXtXtXtXuXuXtXuXyXuXuXuXuXuXuXuXuXuXuXuXuXuXuXuXuXyXyXyXyXyXyXtXtXyXyXyXyXtXtXtXtXtXtXtXtXtXtXtX0X0X3X3X4X3X4X4X4X4XtXtX0XwX9X9X9X9X2X2X2X2X2X2X,X,X,X,X<X<X,X,X,X,X,X,X,X:X:X:X:X:X:X:X:X:Xb.:X:X:X:X:X,X,X,X,X<X1X2X2X9X0X0XtXtXtXtXyXyXyXuXg.O 3 4 d d d d d d d d d d 4 4 4 4 4 4 4 4 4 4 1 1 4 4 4 4 4 4 4 4 4 4 4 4 1 1 1 1 1 ",
"j j j j j j j j j j j j j j j N j j j j B B B B j j B B B B B B B B B B j B B B j b.eXeXeXeXwXwXwXuXuXuXuXuXuXuXuXuXuXuXuXuXuXuXuXuXuXuXuXuXuXuXuXuXuXuXuXuXuXuXpXuXuXyXyXyXqXqXqXqXyXqX0X0X0X1X1X1X1X1X>X>X;X;Xv.v.c.k.h.k.h.f.h.d.u.q.7.7.7.8.8.8.#.#.X. . . .| | | ~ ~ T I P P P I P P L L h h h h j h h l l l l l P P P P P U P P P P P P c c c c c c V V V V / / ( ( ( ( ( ( ( ( ( ( ] ] ] ( ] ] ] _ _ *.*.-.-.-.S S C m m m m m m i i i q q 0 0 0 0 0 0 0 7 $ $ $ $ $ $ $ $ $ $ $ $ $ $ $ $ $ $ 7 7 7 0 0 q q e v v Z Z Z Z D D D D D D F F F F F F F F F F D F F F G G G G G G G G G G G G F D S D D D S S Z Z Z Z i i i i i q q 0 q q i i i Z m Z S S S S S -.*.S C S -.3.5.5.5.K.K.'.'.].gXgXjXZXgX5.-.,.>.,.,.,.0.p.p.p.i.i.l.l.l.b.b.b.b.b.b.b.b.,X,X,X8X4XeXeXeXeXwXwXwXwXwXwXtXtXtXtXtXtXtXtXtXtXuXuXtXtXtXtXtXuXuXuXuXuXuXuXtXtXtXuXuXtXtXtXtXtXtXtXtXtXtXtXtXtXtXtXtXtXtXtXtXtXtXtXtX0X0X2X3X2X3X3X4X4X4X4X4X4X3X2X2X9X9X2X2X2X2X2X2X2X2X,X,X2X,X,X,X,X,X,X,X,X,X,X,X,X:X:X:X:X:Xb.b.:X:X:X:X:X:X,X,X,X<X2X2X2X9X0X0XtXtXtXtXyXyXyXuXg.O 3 4 d d d d d d d d 4 4 4 4 4 4 4 4 4 4 4 4 1 1 4 4 4 4 4 4 4 4 4 4 1 4 1 1 1 4 1 ",
"j j j j j j j j j j j j j j j N N B B B j B j j j j B B B B B B N B j B j N N B j b.eXeXeXeXwXwXwXuXuXuXuXuXuXuXuXuXuXuXuXuXuXuXuXuXuXuXuXuXuXsXsXsXsXsXuXuXuXuXpXpXsXuXyXyXyXqXyXyXyXqX0X0X0X1X1X1X1X1X>X>X;X;Xv.v.c.k.k.k.h.f.h.f.u.u.q.7.7.8.8.8.#.#.X.X. . .| | | | ~ ! I P P P P P P P P l h h h h l l l l l P P P P P P P P P P P P P P c U c c c c c V V V ( ( ( ( ( ( ( ( ( ( ( ( ( ] ( ( ( ( ( _ _ *.*.-.-.-.S S S m m m m i i i u 0 0 0 0 0 0 0 7 7 7 $ $ $ $ $ $ $ $ $ $ $ $ $ $ $ $ $ $ $ 7 7 7 7 0 0 0 q w w i v v v v v v v v Z v Z D D D D F F F D Z Z D F F F F F G G G G G G G G D S D S S S Z Z Z Z Z i i i i q q 0 0 0 0 0 t i m m C C C S S *.-.S C m C *.-.3.3.3.5.5.K.T.'.].oXgXgXjXjXW.>.>.>.,.,.,.0.p.p.p.p.i.l.l.b.l.b.b.b.b.b.b.b.,X,X,X4X4X4X4X4XeXwXwXwXwXwXwXwXwXwX9X9XtXtXtXtXtXtXtXtXtXtXtXtXtXtXuXuXuXuXtXtXtXtXtXtXtXtXtXtXtXtXtXtXtXtXtXtXtXtXtXtX0X0X0XtXtXtXtXtXtX9X2X2X2X2X3X3X4X4X4X4X4X4X2X9X9X9X2X2X2X2X2X2X2X2X,X2X2X2X2X,X,X,X<X,X,X,X,X,X,X,X:X:X:X:Xb.b.:X:X:X:X:X:X:X,X,X,X2X2X2X2X0X0XtXtXtXtXiXyXyXuXg.O 3 4 d d d d d d d d 4 4 4 4 4 4 4 4 4 4 4 4 1 1 4 4 4 4 4 4 4 4 4 4 1 1 1 1 1 4 1 ",
"j j j j j j j j j j j j j j j j j B B B j j j j j j j B B B B B N B B B B B B B j W.eXeXeXeXeXwXuXuXuXuXuXuXuXuXuXuXuXfXfXfXuXuXuXuXuXuXuXuXuXsXsXsXsXsXsXpXpXsXsXsXsXuXyXyXyXyXyXyXyXyX0X0X0X1X1X1X1X<X>X>X;X;Xv.v.c.k.h.k.k.k.h.f.d.u.q.7.7.8.8.8.#.#.X.X. . .| | | | ~ ! I I P P P L P P P l h h h h l l l l l l P P P P P P P P P P P P P c c c c c c c V V / ( ( ( ( ( ( ( ( ( ( ( ( ( ( ( ( ( ( ] ] _ *.*.*.-.-.-.S S m m m m m m i u 0 0 0 0 0 0 7 $ $ $ $ $ $ $ @ @ @ $ $ $ $ $ $ $ $ $ $ $ 7 7 7 7 7 7 0 0 0 q q w e e v v v v e e v v v Z Z Z Z D Z D D Z Z D D D D D D D D F F G G G F F S S S Z Z Z Z Z i i i i i q q 0 0 0 0 0 0 u i m C C C S S S S *.C i C *.-.-.-.3.3.3.5.K.T.'.'.].oXgXjXBXgXs.>.5.0.,.,.0.p.p.p.p.i.l.l.l.l.b.b.b.b.b.b.b.b.,X,X,X4X4X4X4X4XwXwXwXwXwXwXwXwXwXwXtXtXtXtXtXtXtXtXtXtXtXtXtXtXtXtXtXtXtXtXtXtXtXtXtXtXtXtXtXtXtXtXtXtXtXtXtXtXtXtX0X0X0XtX0XtXtXtXtX9X9X2X2X2X2X2X2X2X2X4X4X4X4XwXwXwX2X4X2X2X2X2X2X2X2X,X,X2X2X2X2X,X,X,X,X,X,X,X:X:X,X:X:X:X:Xb.b.:X:X:X:X:X:X,X,X,X,X,X2X2X2X0X0XtX0XqXtXyXyXyXuXg.O 3 3 d d d d d d d 4 4 4 4 4 4 4 4 4 4 4 4 4 1 1 4 4 4 1 1 4 4 4 4 1 1 1 1 1 1 1 1 ",
"j j j j j j j j j j j j j j j j j j j B B B j j B j j j j B B B B B B B B B B B j W.eXeXuXuXuXuXuXuXuXuXuXuXuXuXuXfXfXfXuXuXuXuXuXuXfXfXfXuXuXuXdXsXsXsXsXsXsXsXsXsXpXuXpXyXyXyXyXyXyXqXqX0X0X2X1X1X1X<X>X>X;X;X;Xv.c.c.h.k.k.h.h.f.d.u.q.7.7.7.8.8.#.#.X. . . . .| | ~ ~ ~ ! I P P P L P L I j h l l l h l l l l l P P P P P U U P P P P l c c c c c c / V V / / ( ( ( ( ( ( ( ( ( ( ( ( ( ( ( ] ] ] ] *.*.*.*.*.-.-.-.-.S C m m m m m i i u 0 0 0 0 7 $ $ $ $ $ $ $ $ @ @ $ $ $ $ $ $ $ $ $ 7 7 7 7 0 0 0 0 0 0 0 q q w w w e e e e e e e e e v v v Z Z Z Z Z Z Z Z Z Z D D D S S D D D F G G G F D S S Z Z Z Z i i i i q q 0 0 0 0 0 0 0 0 u i m S S C C C C S C m m C *.-.-.-.3.3.3.5.K.T.T.'.].oXgXgXjXjXE.5.>.0.0.,.0.p.i.i.i.l.l.l.l.l.l.b.v.b.b.b.b.:X,X,X,X4X4X,X4X4X4XwXwXwXwXwXwXwXwXwXwXwXwXwXtXtXtXwXwXtXtXtXtXtXtXtXtXtXtXtXtXtXtXtXtXtXtXtXtXtXtXtXtXtX0X0X0XtXwXwXwXwXwX9X0X9X9X9X9X2X2X2X2X2X2X2X2X2X2X2X4X4X4X9XwXwX9X2X,X,X,X,X,X,X,X,X,X,X,X,X,X,X,X,X,X,X:X:X:X:X:X:X:X:X:Xb.b.b.b.:X:X:X:X,X:X,X,X,X2X2X9X0X0XtXtXtXtXyXyXtXuXg.O 3 4 d d d d d 4 4 4 4 4 4 4 4 4 4 4 4 4 4 4 4 4 4 4 4 1 1 1 1 1 1 1 1 1 1 1 4 4 1 ",
"j j j j j j j j j j j j j j j j j j j j N B j j B j N j j j j B B B B B B B B B j W.aXeXuXuXuXuXuXuXuXuXuXuXuXuXfXfXfXfXuXuXuXuXuXfXfXfXfXfXdXdXdXdXdXsXsXsXsXsXsXsXsXpXpXyXyXyXyXyXyXqX0X0X0X2X2X1X1X<X>X>X>X;X;Xv.c.c.c.h.h.k.h.h.d.u.q.q.7.7.7.8.#.#.#. . . . . .| | ~ ~ ! I P P P L L L h h j l l l l l h l l l P P P P U U U P P P P l l c c c c c / / / / / ( ( ( ( ( ( ( ( ( ( ( ( ( ( ( ] ] ] ] ] *.*.*.*.-.-.-.-.-.S C C C m m i i u q 0 0 $ $ $ $ $ $ $ $ $ $ $ $ $ $ $ 7 7 7 7 7 0 0 0 7 7 7 7 7 7 7 0 0 w w w e e e e e e e e e e e v v v v v v v Z Z Z Z Z Z Z D S S S D S F G G G G F D S S S Z Z i i i i q q 0 0 0 0 0 0 0 0 t i i m C C C C C C m m m C *.*.*.-.-.-.3.5.5.K.T.T.'.]. XgXgXjXBXgXs.>.>.0.,.0.p.p.i.i.l.l.l.l.l.l.v.v.b.b.b.b.b.,X,X,X4X4X4X4X4X4X4XwXwXwXwXwX9X9X9X9X9X9XwXwXwXwXwXwXwXtXtXtXtXtXtXtXtXtXtXtXtXtXtXwXwXwX9X9X9X9X9X0X0X0X0X0X9X9X9X9X9X9X9X9X9X9X2X2X2X2X2X2X2X2X2X2X2X2X2X2X2X2X2X2X2X2X,X,X,X,X,X,X,X,X,X,X,X,X,X,X,X,X:X:X;X;X:Xb.:Xb.b.b.b.b.b.b.b.:X:X:X:X:X:X,X,X,X2X2X2X9X0X0XtXtXtXtXyXyXyXuXg.O 3 4 d d d 4 4 4 4 4 4 4 4 4 4 4 4 4 4 4 4 4 4 4 4 4 1 1 1 1 1 1 1 1 1 1 1 1 4 1 1 ",
"j j j j j j j j j j j j j j j j j j j j j N j j B B j j j j j B B B B j B B N B j W.aXuXuXuXuXuXuXuXfXfXfXfXuXuXfXfXfXfXfXfXfXfXfXfXfXfXfXfXfXdXdXdXdXsXdXsXsXsXsXsXsXsXuXyXyXyXyXyXyXyX0X0X0X9X2X2X1X<X1X>X>X;X;X;Xv.c.c.k.k.h.k.h.f.u.u.q.7.7.7.8.#.#.#.X. . . . .| | | ~ ! ! I I L L L L h h h j l l h h l l l l P P P P U U U U P P l l l c c c c c V V / / / ( ( ( ( ( ( ( ( ( ( ( ( ( ( ] ] ] ] ( ( ] *.*.*.*.-.-.-.-.-.S S C m m m i q q 0 0 $ $ 7 7 $ $ $ $ $ $ $ $ $ 7 7 0 0 0 q q q q q q 0 0 0 0 q q w w w e e v v v v v v v e v v v v v v v v v v v Z Z Z Z Z Z S S S D S D F G F D S S S S Z Z Z i i i q q q 0 0 0 = = 0 0 0 t u u i m C C C m C C m f m C -.C C S -.3.3.3.5.5.T.'.'.].oXoXjXjXZXjXW.>.,.>.,.0.p.i.i.i.l.l.l.l.l.l.v.v.b.b.b.b.b.,X,X,X4X4X4X4X4X4X4XwXwXwXwXwX9X9X9X9X9XwXwXwXwXwXwXwXwXtXtXtXtXtXtXtXtXtXtXtXtXtXtXwXwX9X9X9X9X9X9X9X9X0X0X9X9X9X9X9X9X9X9X9X2X2X2X2X2X2X2X2X1X2X,X,X,X2X2X2X2X,X2X2X,X,X,X,X:X:X:X:X:X:X:X:X:X:X:X:X:X:X;X:X;Xv.b.b.v.v.v.b.b.b.b.b.b.:X:X:X:X:X:X,X,X,X2X2X2X9X0X0X0X0XtXtXyXyXyXuXg.O 3 4 d d d 4 4 4 4 4 4 4 4 4 4 4 4 4 4 4 1 1 1 4 4 4 4 4 4 4 1 1 1 1 4 1 1 1 1 1 1 ",
"j j j j j j j j j j j j j j j j j j j j N N j j B B j j j j j j B N N j B B N B j W.aXuXuXuXuXuXuXfXfXfXfXfXfXfXfXfXfXfXfXfXfXfXfXfXfXfXfXfXfXfXdXdXdXsXdXsXsXsXsXsXsXsXuXuXyXyXyXyXyXyXqX0X0X0X2X2X1X1X1X>X>X>X;X;Xv.c.c.c.k.k.h.h.f.u.u.q.7.7.7.8.#.#.#.X.X. . . . .| | ~ ! ! I I L L L L h h h h l l l l l l l l P P P P U U P U P P c c c c c c c U c / ( ( ( ( ( ( ( ( ( ( ( ( ( ( ( ( ( *.*.*.] ( ( ] *.=.*.*.-.-.1.1.-.-.-.S C C m i u q q q 0 q q q q q q q w i i i v v Z Z D D D D D F F F F F F F F F F D Z Z v v v v v v v v v v v v v v Z Z Z v v Z Z Z Z v v Z Z S S S S D D D D S S S Z Z Z i i i i q 0 0 0 0 0 - = = 0 0 t i u i m m m x x x z z m C C C C C C -.-.3.3.3.5.5.T.'.'.'. XoXjXjXjXZXrX5.:.>.>.0.p.i.p.p.l.l.l.b.l.v.v.v.b.b.b.b.b.,X,X4X4X4X4X4X4X4X4XwXwXwXwXwXwX9X9X9X9X9XwXwXwXwXwXwXwXwXtXtXtXtXwXtXtXtXtXtXtXtXtXwXwX9X9X9X9X9X9X9X9X9X2X2X9X9X2X2X2X2X1X1X2X2X2X2X2X2X1X,X2X,X,X,X,X,X,X,X,X,X,X,X,X,X:X:X:X:X:X:X;X:X:X:X:X:X:X:X;X;X:X;X;Xv.v.v.v.v.v.v.v.v.b.b.:X:X:X:X,X:X:X,X,X,X2X2X2X9X0X0X0XtXtXtXyXyXtXuXg.O 3 4 d d d 4 4 4 4 4 4 4 4 4 4 4 4 4 4 4 4 1 4 4 4 4 4 4 4 1 1 1 1 1 4 1 1 1 1 1 1 ",
"j j j j j j j j j j j j j j j j j j j j B B B j B N j j j B B B B B B N N B j j j W.aXaXuXuXuXuXuXfXfXfXfXfXfXfXfXfXfXfXfXfXfXfXfXfXfXfXfXdXdXdXdXdXdXdXdXdXsXsXsXsXsXsXuXyXuXyXyXyXyXyXqX0X0X0X2X2X2X1X1X>X>X>X>X;Xv.v.c.c.c.c.h.h.f.d.u.u.q.7.7.8.8.#.#.X.X.X. . . . .| ! ~ ! ! I L L L L j j h h h h l l l l l l P P P P U U P U c c c c c c c c c c V V U ( ( ( ( ( ( ( ( ( ( ( ( ( ( ( ( *.*.*.] ] ] *.*.*.*.=.-.>.>.>.>.1.-.-.*.S S m m i i i i i i i v Z S G ;.Z.Z.F.H.J.J.L.R.Q.Q.Q.U.U.L.U.Q.Q.Q.Q.Q.U.L.J.G.A.B.G F D D D D Z v Z v Z Z Z Z Z Z Z v Z Z v Z Z Z Z Z Z Z S S S S S S S Z Z Z Z i i i i q 0 q 0 0 0 - - = 0 0 t i u u i i i i i f f f f M C C C C C C -.-.3.3.3.5.5.T.'.'.'. XoXhXjXjXjXjXT.>.>.p.p.0.i.p.i.l.l.l.l.l.v.v.v.v.b.b.b.,X,X,X,X4X4X4X4X4X4X4XwXwXwXwXwXwXwX9X9X9X9X9X9XwXwXwXwXwXwXwXwXtXtXtXtXtXtXtXtXtXtXtX9X9X9X9X9X9X9X9X9X0X2X9X2X2X2X2X1X2X2X2X2X2X2X1X1X1X1X,X,X,X,X,X,X,X,X,X,X,X,X,X,X,X:X:X:X:X:X:X:X:X:X:X:X:X:X:X;X;X:X;X:X:Xv.v.v.v.v.v.v.v.b.b.b.b.>X:X:X:X,X:X:X,X,X2X2X2X9X0X0X0X0XtXtXyXyXtXuXg.O 3 3 d d d 4 4 4 4 4 4 4 4 4 4 d 4 4 1 1 4 4 1 1 1 1 1 1 4 1 1 1 1 4 1 1 1 1 1 1 1 ",
"j j j j j j j j j j j j j j j j j j j j B B B j j j j j B B N B B B j N B B B B j '.aXaXaXuXuXuXfXfXfXfXfXfXfXfXfXfXfXfXfXfXfXfXfXfXfXfXfXfXfXdXdXdXdXdXdXdXsXsXsXsXsXsXuXpXyXyXyXyXyXyXqXqX0X0X0X9X2X2X1X>X>X>X>X>X;Xv.v.c.c.c.k.h.f.d.u.u.q.7.7.7.8.#.#.#.X.X.X. . . .| ! ~ ! ! L L L L L L j h h h l l l l l l l P P P P U U P l c c c c c c c c c V V c ( Y ( ( ( ( ( ( ( ( ( ( ( ( ( ( ( ] *.*.] ] ] ] *.*.*.*.=.>.>.4.5.5.1.1.-.*.S S S Z Z S S S D F ;.;.F.J.L.R.Q.Q.Q.[.[..X.X.XXX.X.X{.{..XXXXXXXXXXX.X{.{.!.U.L.J.G.F.Z.A.B.G F F F F F F F D Z Z Z Z Z Z Z Z Z Z Z Z Z S S Z m Z Z Z Z m Z Z i i i i q 0 0 0 0 = - - = 0 0 u u u u u i i f f f u u u f m C C C C C C -.3.3.3.5.5.K.T.'.'.].oXoXjXjXjXZXrXp.>.p.p.p.p.p.l.l.l.l.l.v.v.v.v.v.b.b.:X,X,X,X4X4X4X4X4X4X4XwXwXwXwX4XwXwX9X2X9XwXwX9XwXwXwXwXwXwXwXwXwXwXtXtXtXtXtXtXtXtXwX0X9X9X9X9X9X9X9X9X9X9X2X2X2X2X2X1X1X1X1X2X2X2X,X,X,X,X,X,X,X,X,X,X:X:X:X,X,X,X,X:X:X:X:X:Xv.:X;X;X;X;X;X:X:X:X:X;X;X:X:X:X;X;Xv.b.b.b.v.v.v.b.b.b.b.b.>X:X:X:X,X:X:X,X,X2X2X2X2X0X0X0X0XqXtXyXyXqXuXg.O 3 3 4 u d 4 4 4 4 4 4 4 4 4 4 d 4 1 1 1 4 4 4 4 1 1 4 1 1 1 1 1 1 1 1 1 1 1 1 1 1 ",
"j j j j j j j j j j j j j j j j j j j j B N j j j j j j j j N j N B B B B B B B j '.aXaXfXuXfXuXfXfXfXfXfXfXfXfXfXfXfXfXfXfXfXfXfXfXfXfXfXfXfXfXdXdXdXdXdXdXdXsXsXsXsXsXsXsXuXuXuXuXyXyXyXqX0X0X9X9X2X2X1X1X>X>X>X>X;Xv.v.c.c.c.c.h.h.d.u.u.q.q.7.7.8.8.#.#.X.X.X. . . .| ! ! ! ! ! P L P P P j l l l l l l l l l l P P P U c c l l c c c c c c c c c V ( ( ( Y ( Y Y ( ( ( ( ( ( ( ( ( ( ( ( ( *.*.( ( ( ] ] ] ] ] =.:.>.>.>.>.1.-.-.*.-.-.S G G ;.;.;.F.H.L.R.R.[.[.[. X[.[.[.[.{..X.X.X|.{.{.{.XXXXXXXXXX.X.X.X.X}.{.{.!.!.U.J.J.G.A.A.A.A.Z.G G F F D D Z S Z v Z Z Z Z Z Z Z S S m Z Z Z Z Z i i i i i i q q 0 0 - - - - - = 0 0 t u u u u u f f u u u f M M m C C C C C C -.-.3.3.5.5.T.T.'.'.'. XoXgXjXjXZXjXW.>.>.p.p.p.p.p.l.l.l.b.b.b.b.b.b.b.b.:X,X,X,X4X4X4X4X5X4XwX4XwXwXwXwX4XwX2X9XwXwXwX9XwXwXwXwXwXwXwXwXwXwXwXwXtXtXtXtXtXtX9X0X9X9X9X9X9X9X9X9X9X2X2X2X1X2X1X<X<X<X<X<X<X,X,X,X,X,X:X,X:X:X:X:X:X:X:X:X:X:X:X:X:Xb.b.b.b.b.b.b.b.;Xv.;X;X:X:X:X:X:X:X:X:X;Xb.:Xb.b.b.b.b.b.b.b.b.b.>X:X:X:X:X:X:X,X,X2X2X2X2X9X0X0X0X0XqXtXtXqXuXg.O 3 3 4 d d 4 4 4 4 4 4 4 4 4 d d 4 4 1 1 4 4 4 4 4 4 4 1 1 1 1 1 1 1 1 1 1 1 4 4 1 ",
"j j j j j j j j j j j j j j j j j j j j j j j j j j j j j j j j B B B B B B B B j eXaXaXfXuXfXuXfXfXfXfXfXfXfXfXfXfXfXfXfXfXfXfXfXfXfXfXfXfXfXfXdXfXdXdXdXdXdXdXsXsXsXsXsXsXpXpXuXuXpXyXyXqX0X0X0X9X9X2X1X1X1X1X>X>X>Xv.v.c.c.c.c.h.h.d.u.u.u.q.7.7.8.8.6.#.#.X.X. . . . .! ! ! ! I P L L P P l l l l l l l l l l l P P P P c c c c c c c c c c c c V ( ( ( ( Y ( Y Y Y Y Y Y Y ( ( ( ( ( ( ( ( ( ( ( ( ] ( ( ( ( ] *.=.>.>.>.>.1.-.-.-.-.-.-.;.3.H.H.K.L.Q.[. X[. X X.X X[.!.Q.Q.Q.!.!.!.!.!.!.!.{.|.|.{.{.{.{.{.}.|.|.}.{.{.!.U.U.L.J.J.G.F.A.A.A.Z.G G D D S Z i i Z Z Z Z Z Z S S Z i i m m i i i i i u q 0 0 = $ $ - - - - - = 0 t u u u u u u u u u u M M M m C C C C C C -.-.3.3.3.5.K.T.'.'.'.].oXoXgXjXjXZXrXp.,.p.p.p.p.p.l.l.l.b.b.b.b.b.v.b.:X:X,X,X4X4X4X4X5X5X5XwXwXtXtXwXwXwXwXwXwXwXwXwXwXwXwX4XwXwXwXwXwXwXwXwXwXwXwXtXtXtXwX9X0X9X9X9X9X9X9X9X9X2X2X2X1X1X1X1X<X<X<X,X,X,X,X,X,X:X:X:X:X:X:X:X:X:X:X:X:X:X:X:X:Xb.b.b.b.v.b.v.v.v.v.v.;X;X;X:X;X;X;X:X;X;X;Xb.:Xb.v.b.b.b.b.b.b.b.b.b.b.:X:X:X:X:X,X,X<X1X2X2X9X0X0X0XqXtXtXtXqXyXg.O 3 3 4 d 1 4 4 4 4 4 4 4 4 4 d d d 4 1 4 4 4 4 4 4 4 4 1 1 1 1 4 1 1 1 1 1 1 1 1 1 ",
"j j j j j j j j j j j j j j j j j j j j j j j j j j j j j j j j B B B B B j B j j eXaXfXfXuXfXuXfXfXfXfXfXfXfXfXfXfXfXfXfXfXfXfXfXfXfXfXfXfXfXfXfXfXfXdXdXdXdXdXsXsXsXsXsXsXsXpXpXpXuXuXyXyXqX0X0X0X9X2X1X1X1X1X>X>X>X;Xv.v.c.c.c.k.h.d.u.u.u.q.q.7.7.8.6.#.#.X.X. . . . .! ! ! ! ! W P L P P l l l l l l l l l l l l l P P l l c c c c c x c c c ( ( ( ( ( ( Y ( ( ( ( Y ( ( Y Y Y ( ( ( ( ( ( ] ] ' ] ] ] ( ( ( ] *.=.:.>.>.>.-.*.-.-.-.-.;.1.H.H.K.L.R.[. X X X X[.[.[.!.Q.U.U.U.U.U.U.U.U.U.U.!.!.~.!.!.!.!.~.{.}.}.|.}.{.~.!.!.Q.Q.U.L.L.J.G.F.Z.Z.;.G G F S Z i Z Z Z Z Z Z Z Z Z i i i i i i i q q q 0 0 - - - & = - - - = 0 0 t u u t u u u u u f M m m M M C C C C C C [ -.>.4.3.5.s.T.'.'.'.'.].oXgXgXjXZXjXW.5.p.p.l.i.p.l.l.l.v.v.b.b.b.v.b.:X:X,X,X4X4X4X4X4X4XwXwXtXtXtXwXwX4X4X4XwXwXwXwXwXwX4X4X4X4X4X4X2XwXwXwXwXwXwXwXtXtXtX0X0X9X9X9X9X9X9X9X9X2X2X2X1X<X<X<X<X1X>X>X>X,X,X,X:X:X:X:X:X:X:X:X:X:X:X:Xb.b.b.b.b.v.b.b.b.v.v.v.v.v.v.v.v.v.v.v.v.v.v.:Xv.;X:Xv.v.v.v.b.b.b.v.v.b.b.b.v.b.>X>X>X:X:X:X,X,X,X2X2X9X0X0X0X0XqXyXtXtXuXg.O 3 3 d d 4 4 4 4 4 4 4 4 4 4 4 4 d 4 4 4 1 4 4 4 4 4 4 1 1 1 1 4 1 1 1 1 1 1 1 1 1 ",
"j j j j j j j j j j j j j j j j j j j j j j j j j j j j j j j j B B N B B B B B j eXaXfXfXuXfXfXfXfXfXzXzXfXfXfXfXfXfXfXzXfXfXfXfXfXfXfXfXfXfXfXfXfXdXdXdXdXdXdXsXsXsXsXsXsXsXpXsXpXpXuXyXyXyX0X0X0X9X9X9X1X1X1X,X>X>X>Xv.v.v.c.c.k.h.f.u.u.u.q.q.7.7.8.8.6.#.X.X. . . . .! ! ! ! ! W P L P P P l l l l l P l l l l l P P P l l c c c c c c c c Y ( ( ( ( ( ( ( ( ( ( Y Y Y Y Y Y Y Y ( ( ( ( ( ( ] ] ] ] *.*.*.*.*.*.*.=.:.:.:.-.-.-.-.-.;.1.3.H.H.H.K.L.R.[.[.[.[.Q.Q.U.L.L.J.J.J.J.J.J.J.J.J.P.P.P.P.U.U.U.U.!.!.{.{.}.{.{.~.!.!.Q.Q.Q.U.L.L.J.G.F.Z.;.G G F S Z Z Z i m Z i i m m m i i i q q q 0 0 0 0 = - & & - = = = - = = = t t t u u u u u u u f M m m M M m C C C C C [ -.>.4.3.5.5.T.T.'.'.'.'. XoXgXjXBXZXrXp.0.p.l.p.p.l.l.l.v.b.b.v.b.b.b.:X:X,X,X4X4X4X4X4XwXwXtXtXtXtXwXtX4X4X4XwXwXwXwXwX2X4X2X4X2X2X2X2X9X9X9XwXwXwXwXwXtXtX0X9X9X9X9X9X9X9X9X9X2X2X2X1X<X<X<X1X>X>X>X>X>X>X,X:X:X:X:X:X:X:X>X:Xb.b.b.b.b.b.b.v.v.v.v.v.v.v.v.v.v.v.v.v.v.v.v.v.v.v.v.v.v.v.v.v.v.v.v.v.v.v.v.v.v.v.v.v.>X>X>X:X;X:X,X,X,X2X2X9X0X0X0X0XqXyXtXtXuXg.O 3 3 d d 4 4 4 4 4 4 4 4 4 4 4 4 d 4 4 4 1 4 1 4 4 4 4 1 1 1 1 1 1 1 1 1 1 1 1 1 1 ",
"j j j j j j j j j j j j j j j j j j j j N j B B j j j j B B B B B B B B j B j B j eXaXfXfXuXfXfXfXfXzXzXzXkXzXfXzXzXfXzXzXzXfXfXfXfXfXfXfXfXfXfXfXfXfXfXdXdXdXdXdXdXsXsXsXsXsXsXsXpXpXpXyXyXyX0X0X0X9X9X9X1X1X1X,X>X>X>Xv.v.v.v.c.k.k.f.d.u.u.q.q.7.7.8.8.6.#.#.#.X. . . .! ! ~ ! ! L P P P P P l l l l P P P P l l l l P P l l l c c c c c c c V ( ( ( ( ( ( ( ( ( Y Y Y Y Y Y Y Y ( ( ( ( ( ( ( ( ] ] *.*.*.*.*.*.*.*.*.=.:.-.>.>.1.-.-.1.5.H.F.;.;.F.H.L.L.R.L.L.J.G.G.F.A.A.A.A.A.A.A.A.A.A.A.G.G.G.G.G.J.P.P.U.U.!.~.~.!.!.!.U.U.U.U.U.L.L.J.G.F.Z.;.G F D S Z Z Z i i i i i i m i i i i q 0 0 0 0 = $ & & $ & = 0 0 0 = = = 0 t t t u u u u u u u u M M m M M C C C C C C [ -.-.4.3.5.5.K.K.'.'.'.'.].oXgXjXjXZXjXW.p.p.l.p.p.l.l.l.l.v.b.b.b.b.b.:X,X,X,X4X4X4X4X4XwXwXwX4XtX4XwXwXwX4X4X4X4XwX2XwX4X2X2X2X2X2X2X2X2X9X9X9XwXwXwXwXtXtX9X9X9X9X9X9X9X9X9X2X2X2X1X1X<X<X<X>X>X>X>X>X,X>X:X:X:X:X;X:X>X>X>X:Xb.b.v.v.v.v.v.v.v.v.v.v.v.v.v.v.v.v.v.v.v.v.v.v.v.v.v.v.v.v.v.v.v.v.v.v.v.v.v.v.v.v.v.v.v.v.;X;X;X:X,X,X<X2X2X9X0X0X0X0X0XqXtXtXuXd.O 3 3 d d 4 4 4 4 4 4 4 4 4 4 4 4 d 4 4 4 1 1 4 4 4 4 4 1 1 1 1 1 4 4 1 1 1 1 1 4 1 ",
"j j j j j j j j j j j j j j j j j j j N B B B B B j j j N B B B B B B B B B B B j eXaXfXfXaXfXuXfXfXzXzXzXzXzXkXzXzXzXzXzXzXfXfXlXlXfXfXfXfXfXdXfXdXdXdXdXdXdXdXdXdXdXdXsXsXsXsXsXsXsXpXyXyXyXqX0X0X9X9X9X8X1X1X1X1X>X>X;Xv.v.v.c.c.h.f.d.u.u.u.q.7.7.8.8.6.#.#.#.X. . . .! ! ! ! ! L P P P P P l l l P P P P P l l l l P l l l l c c c c c c c V V ( ( ( ( ( ( Y Y Y Y ( Y Y ( Y ( ( ( ( ( ( ( ( ( ( ( ] *.*.*.*.*.] ] *.*.=.:.>.5.>.-.-.3.K.K.3.G G ;.F.K.L.L.L.J.G.A.A.Z.A.A.A.A.A.A.A.A.A.A.A.A.A.A.A.G.G.G.J.P.U.U.U.U.U.U.U.P.P.L.L.L.L.J.J.G.F.;.G F D S Z Z Z Z m m i i i i i i i i i q 0 0 = $ & $ & & & & = 0 0 0 = = = 0 t t u u u u u u u u u u M M M m C C C C C C C -.-.3.3.3.5.K.K.T.'.'.'.'.].oXjXjXBXZXrXs.p.l.p.p.l.l.l.l.l.v.b.b.b.v.:X:X,X,X4X4X4X4X4XwXwXwX4X4X4X4X4X4X4X4X4X4X4X4X2X2X2X2X2X2X2X2X4X2X9X9XwX9X9X9XwXwXtX9X9X9X9X9X9X9X9X9X2X2X2X1X<X<X<X,X,X,X>X>X>X,X>X:X>X>X;X:X:X:X>Xv.v.v.v.v.v.v.v.v.v.v.v.v.v.v.v.v.v.v.v.v.z.z.z.z.z.v.v.v.v.v.v.v.v.v.v.v.v.v.v.v.v.v.v.v.v.v.v.;X;X;X:X,X,X<X2X2X9X0X0X0X0X0XqXqXqXuXd.O 3 3 4 d 4 4 4 4 4 4 4 4 4 4 4 4 4 4 4 1 1 1 4 4 4 4 4 1 1 1 1 1 1 4 1 1 1 1 1 4 1 ",
"j j j j j j j j j j j j j j j j j j j B B N j j j B B B j j j j B B B B B B B B j eXaXaXfXfXfXfXfXzXzXzXzXzXzXzXfXfXzXzXzXfXfXfXlXlXlXlXlXfXfXfXdXdXdXdXdXdXdXdXdXdXdXdXdXdXdXsXsXsXpXuXyXyXyXyX0X0X0X9X9X9X1X1X1X1X,X>X>X;Xv.v.v.c.k.h.d.u.u.u.q.7.7.8.8.8.6.#.X.X. . .| | ~ ! ! ! P P P P P P l l l P P P l l l P P P l l l l c c c c c c V V V V ( ( Y ( ( Y Y Y Y Y Y Y Y Y Y Y ( ( ( ( ( ( ( ( ( ( ( ] *.*.*.*.( ( ( *.=.=.5.T.5.-.-.3.5.H.;.;.;.;.F.K.K.J.J.J.F.B.B.F F F B.B.B.B.B.B.B.B.B.B.N.B.B.A.G.G.P.P.P.P.P.P.P.U.U.P.J.J.J.J.J.J.G.F.;.G D D Z Z Z m i i i q q q q u i i i q q 0 = $ $ $ $ $ & $ - q q 0 = = - = 0 0 t t u u u u u u u u u u M M M M m C C C C C [ -.-.1.4.5.5.5.K.T.T.'.'.'.].oXgXjXjXjXjXrXs.p.p.p.p.l.l.l.l.l.b.b.b.v.b.:X,X4X4X4X4X4X4XwXwX4X4X4X4X4X4X4X4X4X4X4X4X4X2X2X2X2X2X2X4X4X4X4XwX9X9XwX9X9X9X9X9X9X9X9X9X9X9X8X9X9X2X1X1X1X<X<X<X,X<X>X>X>X>X,X:X:X:X:Xv.:X;X:X:Xb.v.v.v.v.v.v.v.v.v.v.v.v.v.v.v.v.z.z.z.z.z.z.z.z.z.z.z.z.z.z.z.v.v.v.v.v.v.v.v.v.v.v.v.v.v.v.v.;X;X:X,X,X,X<X2X2X0X0X0X0X0X0XtXtXtXuXg.O 3 3 4 d u d 4 4 4 4 4 4 4 4 4 4 d 4 4 4 4 4 4 4 4 4 4 1 1 1 1 1 1 1 1 1 1 1 1 1 1 ",
"j j j j j j j j j j j j j j j j j j j j j j j j B B B B j B j j B B B B B B B B j eXfXfXfXfXfXfXfXzXzXzXzXzXzXzXfXfXzXzXzXzXfXfXlXlXlXlXlXfXfXdXdXdXdXdXdXdXdXdXdXdXdXdXdXdXdXdXsXsXpXuXyXyXyXtXtX0X9X9X9X9X1X1X9X1X,X,X>X;Xv.v.v.v.k.k.d.u.u.u.q.7.7.8.8.8.6.#.X.X. . .| | ~ ~ ! ! ! W P P P P l l l P P P l l l P P P l l l l c c c c c c c V V V V ( c Y Y Y Y U Y Y Y Y Y Y Y Y Y Y Y Y ( ( ( ( ( ( ( ( ( ( ( ( ( ( ( *.*.=.Y.rXY.*.*.;.;.;.;.;.;.;.;.F.F.Z.Z.B.B.G F F F F F F F N.B.B.B.B.B.N.F N.N.B.A.G.G.G.G.G.G.G.G.G.G.G.G.F.A.A.A.F.Z.G G D Z Z Z Z m i i i u q q q q q u t q 0 0 0 $ $ $ $ $ $ & = = - = 0 = = t u 0 0 u t u u u u u u u u u u M M M m m C C C C C *.-.-.1.3.5.5.5.K.T.T.'.'.'.]. XgXjXjXZXZXgXs.4.p.p.p.p.l.l.b.l.b.b.b.b.b.b.,X4X4X4X4X4X4X4XwX4X4X4X4X4X4X4X4X4X4X4X2X2X2X2X,X,X,X,X2X4X4X4X4XwXwX9X9X9X8X8X8X8X1X8X9X1X8X8X8X1X1X2X2X1X<X,X,X,X:X:X<X<X;X;X:X;X:X:X;X;X;X;X:X:Xv.v.v.v.v.v.v.v.v.v.v.v.z.z.z.z.z.z.z.z.z.z.z.z.z.h.h.k.z.z.z.v.v.v.v.v.v.v.v.v.v.v.v.v.v.v.v.;X;X:X,X,X,X<X2X2X0X0X0X0X0X0XtXtXtXuXg.O 3 3 4 4 d d 4 4 4 4 4 4 4 4 4 4 4 4 4 4 4 4 4 4 4 4 4 1 4 4 1 1 1 1 1 1 1 1 1 1 1 ",
"j j j j j j j j j j j j j j j j j j j j j j j j j j B B B B B B B B B B B B B B j eXfXfXfXfXfXfXzXzXzXzXzXzXzXzXzXzXzXzXzXzXzXzXfXzXlXlXlXlXdXkXdXdXdXkXdXdXkXkXkXdXkXkXdXdXdXdXsXsXpXuXyXyXyXqXtX0X0X9X9X9X8X8X9X1X1X,X>X>X>Xv.v.v.k.h.f.u.u.u.q.7.7.8.8.8.#.#.X.X. . .| | ~ ~ ! ~ ! W P P P P l l l l P l l l l P P P l l l l k k k k l c c c c V V ( ( ( ( Y Y U Y Y Y Y Y Y Y Y Y Y Y Y ( ( ( ( ( ( ( ( ( ( ( ( ( ( ( ( *.*.W.gXY.S S -.S ;.G ;.;.G G ;.G F F F F F F F F F F F F F F F F F F F F F F N.B.B.A.A.G.G.G.G.A.A.G.A.A.A.Z.Z.Z.Z.;.G D S Z Z m Z m i i i q q q q q q q q 0 0 = - $ $ # # $ & $ - - - - - - u m u = u u u u u u u u u u u u M M M M M C C C C C C [ -.-.-.1.3.5.5.5.T.T.T.'.'.'.].oXgXjXjXZXjXW.p.p.p.p.p.l.b.b.l.l.b.b.b.,X,X,X4X4X4X4X4X4X4X4X4X4X4X4X4X4X4X4X4X4X4X4X2X2X2X,X,X,X2X2X2X4X4X2X2X2X2X2X2X9X9X,X,X,X,X,X,X,X,X1X1X1X1X2X2X,X,X,X:X:X:X<X<X;X;X;X;X:X:X;X;X:X:X:X:Xv.v.v.v.v.v.v.v.z.z.l.l.z.z.z.z.z.z.z.z.z.z.z.z.h.h.h.h.k.z.z.z.v.v.v.v.z.z.z.z.v.v.v.v.v.v.v.;X:X:X:X,X<X,X2X2X0X0X0X0X0XqXtXtXtXuXd.O 3 3 4 4 d d 4 4 4 4 4 4 4 4 4 4 4 4 1 1 4 1 1 4 1 1 4 1 1 1 1 1 1 1 1 4 1 1 1 1 1 ",
"j j j j j j j j j j j j j j j j j j j j j j j j j j j N B B B j B B B B B B B B j eXfXfXfXfXzXzXzXzXzXzXzXzXzXzXzXzXzXzXzXzXzXlXzXlXlXlXlXlXkXkXkXkXkXkXkXkXkXkXkXkXdXkXdXdXdXdXsXsXpXuXyXyXyXqXtXtX0X9X9X9X9X9X9X1X1X,X>X>X>X>Xv.c.c.h.d.u.u.u.q.7.7.8.8.6.#.#.X. . . .| | ~ ~ ~ ~ ~ W P P P P l l l l l l l l l l P P l l l l k k k k c c c c c V V ( V ( Y Y Y U U Y Y Y Y Y Y Y Y Y Y Y Y ( Y ( ( ( ( ( ( ( ( ( ( ( ( _ *.*.].gXY.S C S S S S S -.G D F F S D D D D D D D D F F F F F F F F F F F F F F N.B.B.B.B.B.A.A.A.B.A.A.B.B.B.B.G G ;.G S S S Z Z m m i u u q q q q t 0 0 0 0 - & $ $ + + & & # # & & - - t u C m , = = u u < u u u u u u u u M M M M M C C C C C C C -.-.-.-.3.4.5.5.s.T.T.'.'.'.].oXgXgXjXjXjXgXW.p.p.p.p.l.b.b.b.b.b.,X4X4X4X,X,X4X4X4X4X4X4X4X4X4X4X4X4X4X4X4X4X4X4X2X2X,X,X,X,X,X,X,X2X2X2X2X2X2X2X,X,X,X,X,X,X,X,X,X:X:X,X,X,X,X,X,X,X,X,X,X:X,X:X;X;X;X;X;X;Xv.v.v.v.v.v.v.v.v.v.v.v.v.v.v.v.z.z.z.h.h.h.z.z.z.z.z.z.z.k.z.h.h.h.h.h.h.k.z.z.z.z.z.z.z.z.z.z.z.z.v.v.v.v.v.v.;X:X:X<X,X,X2X2X0X0X0X0X0X0XqXtXtXuXd.O 3 3 4 4 d d 4 4 4 4 4 4 4 4 4 4 4 1 4 1 1 1 1 1 4 1 1 1 1 1 1 1 1 1 1 4 1 1 1 1 1 ",
"j j j j j j j j j j j j j j j j j j j j B B B B j j B N N N j j B B N N N N B B j rXzXfXzXfXzXzXzXzXzXzXzXzXzXzXzXzXzXzXzXzXzXzXzXlXlXlXlXkXkXkXkXkXkXkXlXlXlXkXkXkXdXkXdXdXdXdXsXsXpXuXuXuXyXyXtXtX0X0X9X9X9X9X9X8X1X,X>X>X>X>Xv.v.c.h.f.u.u.u.q.7.7.8.8.8.#.#.#.X. . .| | ~ ~ ~ ! I P P P P P l l l l l l l l l l P P l l l l k k l l l c c c c V c V V ( ( Y Y Y Y Y Y Y Y U U U U U U U Y Y U U ( ( ( ( V V ( ( ( ( ( ( ( =.rXrXY.*.u C S m S S S S S S S S Z Z Z Z Z Z Z Z Z Z Z Z Z Z Z Z D D D D F F F G N.B.B.B.B.B.B.B.B.B.B.G G G G G G S D S S Z m m m i q q 0 0 0 0 0 = = - - & $ # $ + # - $ # & # # - C _ C u - u , < u u u u u u u u u g M M M M M M C C C C C C C [ -.-.-.1.4.3.5.5.K.T.T.'.'.'.].oXgXgXjXZXZXjXrXW.b.b.b.b.b.b.4X4X4X4X4X,Xb.v.4X4X4X4X4X4X4X4X4X4X4X4X4X4X4X4X2X2X2X,X,X,X,X,X,X,X,X,X,X,X,X,X,X,X,X,X:X:X:X:X:X:X:X:X:X>X>X:X:X:X,X:X;X;X;X;X;X;X;X;X;X;X;X;Xv.v.v.v.v.v.v.v.v.v.v.v.z.z.z.z.k.h.h.h.z.z.z.z.h.z.z.z.k.k.h.h.h.h.h.h.h.h.z.z.z.z.z.z.k.k.z.z.k.k.z.z.v.v.v.;X:X:X:X:X,X2X2X2X2X0X3X0X0X0XqXqX0XuXd.O 3 3 4 4 4 d 4 4 4 4 4 4 4 4 4 4 4 4 1 1 4 4 4 4 4 4 4 1 1 1 1 1 1 1 1 1 1 1 1 1 1 ",
"j j j j j j j j j j j j j j j j j j j N B B B B j j B B j j j j B B N N B B B B j rXxXfXzXzXzXzXzXzXzXzXzXzXzXzXzXzXzXzXzXzXzXzXzXlXlXlXlXlXlXkXkXkXkXlXlXlXkXkXlXdXdXdXdXdXdXsXsXsXuXuXuXuXyXyXyXtX0X0X9X9X9X9X8X8X1X,X>X>Xv.b.v.v.c.h.f.u.u.u.q.7.7.8.8.8.#.#.X.X. . .| | ~ ~ ~ ! ~ P P P P l l l l l l l l l l l l P l l l k k k k k l c c c c V c V c ( ( Y Y Y Y Y Y Y Y Y Y Y Y Y Y Y Y Y U U Y ( ( ( ( V ( ( ( V C ( V >.rX].T.*.u z *.i S S C m m S S Z Z v i i i i i i i i i i v v v v Z Z Z Z Z D D F F G G B.N.G F F F F F D F S D S S S Z Z Z m m m i u t 0 0 0 = = = - - & # # # # # + # & & # # - u _ *.M u - - u < < u u u u u u u u u g M M M m M m C C C C C C C C *.-.-.1.1.3.5.5.5.K.T.'.'.'.].].gXgXgXjXZXZXjXxXaXaXrXeX4X4X4X4X4X4X4X4X4X4X4X4X4X4X4X4X4X4X4X4X4X4X4X4X4X4X4X2X2X,X,X,X,X,X,X,X,X,X,X,X,X:X:X:X:X:X:X:X:X:X:X:X:X:X:X;X;X:X:X:X;X;X;X;Xv.v.v.;X;Xv.v.v.v.v.v.v.v.v.v.v.v.v.v.z.z.z.k.k.h.h.h.h.h.h.h.h.h.h.h.h.h.h.k.h.h.h.h.h.h.h.h.h.h.h.h.h.h.h.h.h.h.h.h.h.k.k.z.z.v.v.;X:X:X:X,X,X,X2X3X3X3X0X0X0XqXqX0XuXg.O 3 3 4 4 4 d 4 4 4 4 4 4 4 4 4 4 4 4 1 4 4 4 4 4 4 4 4 1 1 1 1 1 1 1 1 4 1 1 1 1 1 ",
"j j j j j j j j j j j j j j j j j j j j B j j B j j j B j j j j B B B B B j B j j rXxXfXzXzXzXzXzXzXzXvXzXvXzXzXzXzXzXzXzXzXzXzXlXlXlXlXlXlXlXlXlXlXlXdXlXlXlXlXdXdXdXdXdXdXdXsXsXsXpXuXuXuXyXyXyXtXqX0X9X9X9X9X8X8X1X>X>X>Xv.v.v.v.c.h.f.d.u.u.u.7.7.8.8.8.#.#.X.X. . .| ~ ~ ~ ~ ~ ! P P P P l l l l l l l l l l l l l l l l k k k k k l k c c c c c c c c c Y Y Y Y Y Y Y Y Y Y Y Y Y Y Y U U c c U c ( ( ( V V ( V C C _ C 5.rXrXW.-.u u C C m C m i i i i i i i i i i q q q q q i i i i i i i i v v v v Z Z Z D D F F D D D D D Z Z Z Z Z v i i i i i i i u u t 0 = = = - - - & # # # # # # # # # # # # - M >.-.u * - < u < < < u u u u u u u u u g M M M M M m C C C C C C C [ [ -.-.-.-.>.3.5.5.K.T.T.'.'.'.].].gXgXjXZXZXjXaXgXxXxXzXaXrXW.4X4X4X4X4X4X4XwX4X4X4X4X4X4X4X4X4X4X4X,X4X4X4X2X,X,X<X<X,X,X:X:X:X:X:X:X:X:X:X:X:X:X:X:X:X:X:X:X:Xb.b.b.v.v.;X;X;Xv.v.v.v.v.v.v.v.v.v.v.v.v.v.v.z.v.v.v.v.z.z.z.z.z.h.h.h.h.h.h.h.h.h.h.h.h.h.h.h.h.h.h.h.h.h.h.h.h.h.h.h.h.h.h.h.h.h.h.h.h.h.h.h.h.h.z.z.v.v.;X;X:X:X,X,X,X1X2X3X3X0X0X0X0X0X0XyXg.O 3 3 4 4 4 d 4 4 4 4 4 4 4 4 4 4 4 4 4 4 1 1 4 4 4 4 4 1 4 4 1 1 1 1 1 4 1 1 1 1 1 ",
"j j j j j j j j j j j j j j j j j j j j j j j j j j j B j j j j B B B B B B j j j rXxXfXzXzXzXzXzXzXvXvXvXcXcXzXzXzXzXzXcXzXzXzXzXzXlXlXlXlXlXlXlXlXlXlXlXlXlXlXlXdXdXdXdXdXdXsXsXsXpXuXpXuXuXyXyXtXtXqX9X9X9X9X8X8X1X>X>X>Xv.v.v.v.c.k.d.d.u.u.u.7.7.8.8.8.#.#.#.X. . .| | ~ ~ ~ ~ ! W P P P j h l l l l l l l l l l l l l l k k k l k k k c c c c c c c c c Y Y Y Y Y Y Y Y Y U U U c c c c c x c c c Y c ( V V V V V ( *._ Y.rXrXW.-.C t u C u C u u t t t t 0 0 0 0 0 0 0 0 0 0 0 0 q q q q q i i i i i i i v v Z Z Z Z v Z v v v v i i i i i i i i i i i u u 0 = = - - - - - # # # # # # # . # # X # - C 4.[ < * - , < u < < < < < u u u u u u u g M M M M m C C C C C C C C C [ -.-.-.-.-.3.5.5.5.K.T.R.'.'.'.].gXgXjXjXjXgX].eXaXgXgXfXaXeXeXeX4X4X4X4X4X4X4X4X4X4XeX4X4X4X4X4X4X,X,X,X,X,X2X,X<X,X,X:X:X;X<X<X<X:X:X:X:X:X:X:X:Xb.b.b.b.b.>Xb.v.v.v.v.v.v.v.v.v.v.v.v.v.v.v.v.v.v.v.v.v.v.v.z.z.z.z.k.z.h.h.h.h.h.h.h.h.f.f.f.f.f.h.h.h.h.h.h.h.h.h.h.h.h.h.h.h.h.h.h.h.h.h.h.h.h.h.h.h.h.h.h.h.k.z.z.v.;X;X:X:X<X,X<X1X2X2X2X3X0X0X0X0X0XyXg.O 3 3 4 4 4 d 4 4 4 4 4 4 4 4 4 4 4 4 4 4 4 4 4 4 1 4 1 1 4 1 1 1 1 1 1 1 1 1 1 1 1 ",
"j j j j j j j j j j j j j j j j j j j j N N j j j j j j B B j j j B B N B B B B g rXzXzXzXzXcXzXzXzXcXvXvXvXcXcXcXcXcXcXzXzXzXzXzXlXlXlXlXlXlXlXlXlXlXlXlXlXlXlXlXkXkXdXdXdXdXsXsXsXsXpXpXpXuXuXyXyXtXqXqX9X9X9X9X8X1X>X>X>X>X;Xv.v.c.k.d.d.u.u.q.7.7.8.8.#.#.#.#.X.X. .| | ~ ~ ~ ~ ~ W P P P l l l l l l l l l l l l l l l k k k k k k c c c c c c c c c c c c c c Y Y Y Y Y x x x x x x Y Y Y x x c Y c c c c V V x c C _ *.T.rX].T.>.u # - rXY.u , - # - - & $ $ & & $ $ $ & - 0 0 0 0 0 0 0 0 q i i i q q q q w i i i i i i i i i i i i i i i i i i i i t t 0 = - - # # # # # + + # & # # # # . # - C -.[ g , * , 1 < < < < < < < < u u u u u u M M M M M M M C C C C C C C C C [ *.-.-.-.-.1.3.5.5.K.T.T.T.E.'.].].gXjXjXjXgXaXeXW.W.W.eXaXaXaXxXfXeX4X4Xb.b.:X4X4X4XeXuXuXb.b.b.b.,X,X:X:X,X,X,X,X:X,X;Xv.v.v.v.:X;Xv.v.v.;X;X>X>Xb.b.b.b.b.v.v.v.v.v.v.v.v.v.v.v.v.v.v.v.v.v.v.v.v.v.v.v.z.z.z.k.k.h.h.h.h.h.h.f.f.f.f.f.f.f.f.f.f.f.f.f.h.h.h.h.h.h.h.h.h.h.h.h.h.h.h.h.h.h.h.h.k.h.h.h.h.h.h.h.k.z.z.v.;X;X;X<X:X<X<X<X2X2X2X2X0X0X0X0X0XyXg.O 3 6 4 4 4 d 4 4 4 4 4 4 4 4 4 d 4 4 1 1 1 1 1 4 4 4 1 1 1 1 1 1 1 1 1 1 1 1 1 1 1 ",
"j j j j j j j j j j j j j j j j j j j j j N j j j j j j B B j j B B B B B B B B j rXxXzXcXzXcXcXzXcXcXvXvXcXcXcXcXcXcXcXcXcXzXzXlXlXlXlXlXlXlXlXlXlXlXlXlXlXlXfXlXfXdXdXdXsXdXdXsXsXsXpXpXpXpXuXyXyXtXtXqX9X9X9X9X8X1X>X>X>X>X;Xv.v.c.h.k.d.u.u.u.7.7.8.8.#.#.#.#.X.X. .X.| ~ ~ ~ ~ ~ W P P L h l l l l l l l l l l l l l l k k k k k k c k c c c c c c c c c x x x c c c c x x x x x x x x c c c Y Y Y U c c c V c u x V V -.].rX].W.5.V - & ].gXV , u & # & # & & $ $ # # # $ $ $ $ $ $ $ & $ - 0 0 0 0 0 0 0 0 0 q q q q q q q q q q q q q q q t t i t 0 = = - - # # # # # # # X # # # # # # # & g :.5.[ < % * < 1 < < < < < < < < < < u u u u u M M M M M M M C C C C C [ [ C [ [ *.*.-.-.-.-.1.3.5.5.T.T.T.T.'.'.].gXgXjXjXjXgXeXW.W.W.W.W.4X4XeXxXnXnXfXeXeXeX4XW.W.4XeXeXW.W.W.b.b.b.b.b.b.b.v.v.v.l.z.z.l.z.z.v.v.v.v.v.v.;Xv.>Xv.v.v.v.v.v.v.v.v.v.v.v.v.v.v.v.v.v.v.v.v.v.z.z.z.z.z.z.z.k.k.h.h.h.h.h.f.f.f.f.f.f.d.d.d.d.d.d.d.d.d.f.f.f.h.h.h.h.f.f.f.f.f.f.f.h.h.h.h.h.k.k.k.k.h.h.h.h.k.k.k.k.z.v.v.v.;X<X:X:X<X<X1X1X2X2X2X0X0X0X0XyXg.O 3 6 4 4 d d 4 4 4 4 4 4 4 4 4 4 4 1 1 1 1 1 4 4 4 1 1 1 1 1 1 1 1 1 1 1 1 1 1 1 1 ",
"j j j j j j j j j j j j j j j j j j j j j j j j j j j j B B j j j B B B B B B B g rXxXzXzXzXcXcXcXcXvXcXvXcXcXcXcXcXcXcXcXcXzXzXzXzXzXzXlXlXlXlXzXlXlXlXlXlXlXlXlXlXkXdXdXdXdXdXsXsXsXpXpXpXpXuXuXyXtXtXqX9X9X9X9X8X1X>X>X>X>X;Xv.c.c.c.g.d.u.u.u.7.7.8.8.8.#.#.#.X.X.X.X.| ~ ~ ~ ~ ~ P P P L h h k k l l l l l l l l l l k k k k k k k k k k c c c c c c x x x x x x x x x x x x x x x x x x x x x x Y Y Y Y c V k f c V x :.rXrXW.W.p.*.u # 5.ZX-.u [ < # # # # # # # # # + + + # # # # # # # $ $ - - - & & & $ 0 0 0 0 0 0 0 0 0 0 0 0 0 0 0 0 0 t t 0 = - & - # # # # X X # # # % # X . . # < :.s.4.g = - * - < < < < = - < < < < < < u u u u M M M M M M M M C C C C C [ [ [ [ [ *.*.*.-.-.-.>.3.5.5.5.T.T.T.'.E.].rXrXgXjXjXgXaXrXeXW.W.s.W.W.W.].rXrXxXnXxXgXaXrX'.W.W.W.W.W.W.b.W.s.b.b.b.b.b.b.b.b.b.b.b.b.l.l.b.l.v.b.v.v.v.v.v.b.b.b.v.v.v.v.v.v.v.v.v.v.v.v.v.v.v.v.v.z.h.h.x.x.z.h.h.h.h.h.h.h.f.f.f.d.f.u.u.u.u.u.u.d.u.u.u.d.d.d.d.d.f.f.f.f.f.f.f.f.f.f.f.f.h.h.h.h.h.k.k.k.k.k.k.k.k.k.z.z.z.z.v.v.;X;X;X:X:X<X1X1X1X2X2X3X0X0X0XyXg.O 3 6 3 4 d d 4 4 4 4 4 4 4 4 d 4 4 4 4 1 4 4 4 4 4 1 1 1 1 4 1 1 1 1 4 4 1 1 1 1 1 ",
"j j j j j j j j j j j j j j j j j j j j j j j j B j j j N B j j B B B B N N B B j rXxXzXvXcXcXcXvXcXcXvXvXvXvXcXcXcXvXvXvXcXcXcXzXlXzXzXlXlXzXzXzXzXzXlXlXlXfXfXfXfXfXdXdXdXdXsXsXsXsXpXpXpXpXuXuXuXyXtXqX0X9X9X9X9X8X,X>X>X>X;Xv.v.c.c.k.d.u.u.u.7.7.8.8.8.#.#.#.X.X.X.X.| | ~ ~ ~ ~ P P P L h h k k k k h l l l l l l l k k k k k k k k k x c c c c c x x x x x x x x x x x x x x x x x x x x x x x x c Y c c c x c ( c x >.rXrXW.T.p.:.k # V nXs.B :._ < % # # # + + # # # # # # + # # # # # # # $ $ $ $ $ $ $ & $ $ - 0 0 0 0 0 - - - - - - - = - - - & # # # # # # X X . . X X X # X . # 1 5.s.:.u % * , - - = < < < , , < < < < < u u u u M M M M M M M M M C C C C C [ [ [ [ [ [ *.*.-.-.-.-.1.4.5.5.K.T.T.T.T.].].].rXgXrXaXxXxXxXrXeXW.W.s.s.W.s.p.W.gXgXjXjXgX].W.W.W.W.W.W.W.W.s.s.s.s.s.s.s.b.b.s.s.s.s.l.l.l.b.b.b.b.b.v.v.v.v.v.v.v.v.v.v.v.v.v.v.v.v.v.z.z.z.h.h.z.h.h.h.h.h.h.h.h.h.h.h.f.f.f.d.u.u.u.u.u.u.u.u.u.u.u.u.u.u.u.u.d.d.d.d.d.d.d.d.d.d.d.d.f.f.f.h.h.h.h.h.k.k.k.k.k.k.k.k.z.z.z.z.v.v.;X;X;X:X<X<X1X1X1X1X3X3X3X0X0XyXg.O 3 6 4 4 4 d 4 4 4 4 4 4 4 4 d 4 4 4 4 4 4 4 4 4 1 1 1 1 1 4 1 1 1 1 1 1 1 1 1 1 1 ",
"j j j j j j j j j j j j j j j j j j j j j j B j B B B B j j j j B B B B B B B B j aXnXzXnXcXvXvXvXvXvXvXvXvXvXvXvXvXvXvXvXvXcXcXcXzXzXzXlXlXlXzXzXzXzXlXlXlXlXlXlXfXdXdXfXdXdXdXsXsXsXsXpXpXpXpXyXyXyXtXtX0X9X9X9X9X8X,X>X>X>Xv.v.v.c.c.h.d.u.u.u.7.7.8.8.8.#.#.#.X.X.X.X.| ~ ~ ~ ~ ~ P P P h h h h h k k k h l l l l l l k k k k k k k k k k c c c k x x x x x x x x i x x x i x x x x x x x x x x x x c x x c c c c V c V Y.rXrXW.Y.Y.,.B % , rXgX=.1 } @.< < * # # # # + + # # # # # # + + # # # # # # # $ $ $ $ $ $ $ $ $ & & $ $ $ $ $ $ $ $ # # # # # # # # # X X X X . . . X X . X , } 5.p.C - * - = - , , < < < < , < < < < < u u u u u u g M M M M M M C C C C C C [ [ [ [ [ *.*.*.-.-.-.-.-.1.3.5.5.K.T.T.T.'.].].rX].W.rXaXjXnXnXxXaXeXT.s.W.T.p.5.s.W.'.rXgXgXrX'.W.s.s.s.s.5.5.5.5.5.5.5.5.s.s.Y.Y.s.p.p.p.p.l.s.b.b.b.b.b.v.v.b.v.v.v.v.v.v.z.v.z.z.z.z.z.z.z.h.l.h.h.h.h.h.h.h.h.h.h.h.f.f.f.d.u.u.u.u.u.u.u.u.u.u.u.u.u.u.u.u.u.u.d.d.d.d.d.d.d.d.d.d.d.d.f.f.f.h.h.h.k.h.h.h.h.h.h.k.k.z.z.z.z.v.v.;X;X;X<X:X<X<X1X1X1X1X3X3X3X3XtXu.O 3 6 4 4 4 d 4 4 4 4 4 4 4 4 1 1 4 4 4 4 4 4 4 4 1 1 1 1 1 1 4 4 4 1 1 1 1 1 1 1 1 ",
"j j j j j j j j j j j j j j j j j j j j j j B j B B j N j N j j B B B B B B B B j aXnXxXnXcXvXvXvXvXvXbXbXbXvXvXvXvXvXvXvXvXvXcXcXzXzXzXzXlXlXzXzXzXzXzXlXlXlXlXlXfXfXdXfXdXdXdXsXsXsXsXsXpXpXpXyXyXyXtXtX0X9X9X9X8X8X,X>X>X>Xv.v.v.c.k.g.d.u.u.u.u.7.8.8.8.8.#.#.X.X.X.X.' ~ ~ ~ ~ ~ P P P h h h h h k k k h h l l l k k k k k k k k c k k x c c c k x x x x x x z x i x x x x i i z i i i i i z x x c x x c c c c k k c *.].gXrXW.p.T.,._ * % :.ZX].% 1 4.B _ M u , - # # # # # # # # # X + + + + # # # # # # # $ # # $ # # # # # # # # # # # # # + X . X X X # X X X X X X X X X X X d p.W.5.1 - * - = = < < < , , < < , < < < < < u u u u M u g M M M M M M C C C C C C [ [ [ [ [ [ [ *.-.-.=.=.-.-.>.3.5.5.K.T.T.T.].].].T.p.T.W.aXxXnXnXxXxXgX].W.W.T.s.5.5.5.T.].gXgXrX].'.'.'.'.'.'.K.'.T.K.K.K.5.5.H.H.5.5.5.5.p.p.l.b.b.l.v.v.v.v.v.v.v.v.v.z.v.z.z.z.z.z.z.l.h.h.h.h.h.h.h.h.h.h.h.h.f.h.f.f.f.u.u.u.u.u.u.u.q.q.u.q.q.q.q.q.q.q.q.u.q.q.u.u.u.d.u.u.u.u.d.d.d.d.f.f.f.h.h.h.h.h.h.h.h.h.k.k.z.z.z.z.z.v.;X;X;X;X;X<X<X<X1X1X1X2X2X3X2XtXu.O 3 6 4 4 d d 4 4 4 4 4 4 4 4 4 4 4 4 4 4 4 4 4 1 1 1 1 1 1 1 1 1 1 1 1 1 1 1 1 1 1 ",
"j j j j j j j j j j j j j j j j j j j j j j j j j j j j B B B B N N B B j B B B j aXnXxXnXvXvXbXvXvXbXbXbXbXbXvXvXvXbXbXvXvXvXcXcXzXzXzXzXzXlXlXzXzXzXlXlXlXlXlXlXfXfXfXfXdXdXdXdXdXsXsXsXpXpXuXuXuXyXyXtXqX9X9X9X9X8X8X>X>X>Xv.v.v.c.k.d.d.u.u.u.u.7.8.8.8.#.#.#.#.X.X.X.' | ~ ~ ~ ~ P P L h h h h h h k k h h h l l k k k k k f f k k c k k k c k k x x x x z z x x x x x x i z i i i i x S S S m x x x x x x c x k k c >.rXgXrXW.s.T.4.=.1 % j gXnXj * B ) ,.:.=._ C u u - - # # # # . . . . . . . X X + # # # + # # # # # # # # # # + + + X X . . . . X X . X X X X X X X X # % * / p.W.=.1 # * * - - < < < , - - - < < < < < = < u u u u u g g M M M M M C C C C C C _ [ [ [ [ [ *.[ *.*.*.=.=.-.-.-.>.4.5.5.T.T.T.W.W.T.p.] ,.p.T.W.rXaXaXjXjXgXrX].'.T.T.'.].].gXjXjXZXHXHXHXDXDXDXDXDXDXZXVXjXoX].K.K.T.K.K.H.5.5.p.p.s.l.l.l.v.v.v.v.v.l.l.z.z.z.h.h.h.l.h.h.h.h.h.h.h.h.f.f.f.f.f.f.f.h.h.f.f.f.u.u.u.u.u.u.u.q.q.q.q.q.q.q.q.q.q.q.q.q.q.q.u.u.u.q.u.u.u.u.d.d.d.d.f.f.f.h.f.h.h.h.h.h.h.h.k.z.z.z.z.z.z.v.v.;X;X;X;X<X<X<X1X1X1X2X2X2XtXu.O 3 6 4 4 d d 4 4 4 4 4 4 4 4 4 4 4 4 1 1 4 1 1 1 1 1 1 1 1 1 1 1 1 1 1 1 1 1 1 1 1 ",
"j j j j j j j j j j j j j j j j j j j j j j j j j j j j B B B j N B B B B B B B j aXnXxXnXvXvXbXvXbXbXbXbXbXbXbXbXbXbXbXbXvXvXcXcXzXzXzXzXzXlXlXlXzXlXlXlXlXlXlXlXfXfXfXfXfXdXdXdXdXsXsXsXpXpXuXpXuXyXyXtXqX0X9X9X9X8X8X>X>X>Xv.v.c.c.k.d.d.u.u.u.u.7.8.8.#.#.#.#.#.X.X.X.' ~ ~ ~ ~ ~ P P j h h h h h h k k h h h k h h h h f f f f k k k k c k c k x x x x x z x x x m m m x z i i i S *.;.H.H.J.F.*.x x x x c c f c c c >.gXgXrXT.p.W.p.>.j * % 4.HXb.* , Q @.4.4.4.4.:.=._ M u - % # # X X . . . . X X X . . . X X X X + + + # # . . . X . . . . . . . . . . X X X X X X X X % < :.W.p.B % X * - * * = < = * - - * , < = - < < < u u u u u g u u M M M M C C C C C C C _ [ [ [ [ [ [ [ [ [ [ *.[ =.-.-.-.>.5.5.T.Y.s.Y.s.5.4./ ] *.:.p.T.W.T.].rXgXjXjX].'.].gXZXHXHXHXHXJXIXIXKXKXJXJXJXKXKXKXKXKXJXVXoX[.'.R.R.T.K.5.5.s.p.p.l.b.l.b.l.l.l.l.z.z.z.x.x.h.h.h.h.h.h.h.h.h.f.f.f.f.d.f.f.f.f.f.f.f.f.d.u.u.u.u.u.q.q.q.q.q.q.q.q.q.q.q.q.q.q.q.q.q.q.q.q.q.q.q.u.u.u.u.d.d.d.d.f.f.f.f.h.h.h.h.h.h.h.k.k.z.z.z.z.z.z.v.;X;X;X<X<X<X<X1X1X1X2X2X0Xu.O 3 6 4 4 4 d 4 4 4 4 4 4 4 4 4 4 4 4 4 1 1 1 1 1 1 1 1 1 1 1 1 1 1 1 1 1 1 1 1 1 1 ",
"j j j j j j j j j j j j j j j j j j j j j j j j B B B N B N j j j j j j B B B B j aXnXnXnXvXbXbXbXbXbXbXbXbXbXbXbXbXbXbXbXvXcXcXcXcXzXzXzXzXlXlXzXlXlXlXlXfXlXlXlXlXfXdXdXdXdXdXdXdXsXsXsXsXpXuXpXuXyXyXtXqX0X9X9X9X8X1X>X>X>Xb.v.c.c.k.d.d.u.u.u.u.7.8.8.$.#.#.#.#...X...~ ~ ~ ~ ~ W P P j h h h h h h k k k k h h h k h f f f f f k k k x x x c c x z x z z z z x C i i m i m C -.3.R.oXBXBXMX.X.X/.1.x R x Y c k k f V W.gXrXY.T.p.5.p.4.=.d % 1 aXnX) * g ) ,.5.4.4.4.4.} C f , * # # X . . . . . . . . . . . . . . . . . . . . . . . . . . . . . . . . X . . X X X X X # * ] 4.4.] 1 % % % * * * * = , - - = = < < < < < < u u u u u u u u M M M M M m C C C C C C _ [ [ [ [ [ [ _ [ [ [ [ [ [ *.=.-.-.>.4.5.p.5.Y.s.>.p.W.p.] V =.p.p.5.5.5.K.R.'.[.oXjXVXHXHXHXJXJXHXJXKXKXKXKXKXJXJXJXKXKXKXKXKXKXDXVX#XoXoX[.L.K.K.K.T.Y.Y.s.s.s.s.l.l.l.z.z.x.x.x.x.x.h.l.l.h.h.h.h.i.i.i.f.i.u.u.d.d.d.d.f.d.u.u.u.u.u.q.u.q.q.q.q.q.q.q.q.q.7.7.7.7.7.q.7.q.q.q.q.q.q.u.u.u.u.u.d.d.d.d.d.d.f.f.f.f.f.f.h.h.k.h.k.z.z.z.z.z.v.;X;X;X<X;X<X<X<X1X<X<X<XwXu.O 3 6 4 4 1 d 4 4 4 4 4 4 4 4 4 4 4 4 1 1 4 4 1 1 1 1 1 1 1 1 1 1 1 1 1 1 1 1 1 1 1 ",
"j j j j j j j j j j j j j j j j j j j j j j j j j j B B j j j j j j j j B B j N g aXnXnXnXbXvXbXbXbXbXbXbXbXbXbXbXbXbXbXbXvXcXcXcXcXzXzXzXzXlXlXlXlXlXlXfXfXlXlXlXlXfXfXdXdXdXdXdXdXsXsXsXsXpXuXuXuXyXyXtXqX0X0X9X9X9X1X>X>X>X;Xv.c.c.k.d.d.u.u.u.u.7.8.8.#.#.#.#.#.....` ~ ~ ~ ~ W P P j j h h h h d d h f f f f f d d d f f f f f f f f z z z f f f f z x x x z u i u u m S 3.K.oXVXHXJXJXJXSXNXMX/.S.x x Y Y k f k _ >.W.W.5.5.T.5.5.5.>.=.B 1 X ] nXW.> , d @.4.4.-.4.4.[ C C u - # # .                     .           . . .         . . . . . . . . X X X X X X X X X , } W.p.B * X % * - * * * = < = = , < < < u u < u u u u u u u u M M M M M M M m C C C C C C C [ [ [ [ [ C C [ [ [ [ [ [ =.=.-.:.:.>.4.5.5.5.:.4.T.W.p.>.*.-.p.Y.Y.H.;.G H.L.`.VXDXDXDXDXDXDXDXKXIXKXKXKXIXKXKXKXKXKXKXKXKXKXKXKXKXFXDXDXVXoXoX[.R.K.R.R.Y.Y.Y.Y.s.l.l.z.z.x.x.h.x.h.l.h.l.h.h.i.i.i.i.i.u.u.u.u.u.u.d.d.d.u.u.u.u.u.q.q.q.q.q.q.q.q.q.q.q.q.7.7.7.7.q.q.7.q.7.q.q.q.q.q.u.u.u.u.u.u.u.u.u.d.d.d.d.d.d.d.h.h.h.h.k.k.k.z.z.z.z.v.v.;X;X;X<X<X<X1X1X<X<XwXu.O 3 6 4 4 1 d 4 4 4 4 4 1 4 4 4 4 4 4 1 1 4 1 1 1 1 1 1 1 1 1 1 1 1 1 1 1 1 1 1 1 1 ",
"j j j j j j j j j j j j j j j j j j j j j j j j j j j j j j j j j j j j j j j j j aXnXvXnXbXbXbXbXbXbXbXbXbXbXbXbXbXbXbXbXvXcXcXcXcXcXcXzXzXlXlXlXlXlXlXfXfXfXlXlXfXfXfXfXdXdXdXdXdXsXsXsXsXpXuXuXyXyXyXtXtX0X0X9X9X8X8X>X>X>X;Xv.c.c.k.d.d.u.u.u.u.9.8.8.#.#.#.#.+...` Q ~ Q Q W W P j j h h h d d d d d d d f f f d f d d f f d f f f f z z z u u u u i m m m i u m S 3.'.oXVXHXKXKXJXJXKXJXCXNX^./.S.*.R *.( Y ,.p.W.rXrX5.V 4.T.5.4.5.:.:.[ 1 O < aXxXN % g ) =.:.-.>.>.[ m m u - & # .                                                 . . . . . . . X X X # X . . % u :.p.=.d * % % * * * * - * * - - = < , < < < u < u u u u u u u M M M M M M M M m C C C C C C C [ [ [ [ [ [ C [ [ [ [ [ [ [ =.=.:.:.:.4.4.>.[ _ p.W.W.s.>.=.>.p.E./.Q.A.F J.XX#XFXFXFXFXFXDXDXDXKXKXKXKXKXIXIXKXKXKXKXKXGXGXGXGXGXGXKXKXKXKXJXDXVXoX[.'.L.R.R.Y.T.Y.s.b.l.v.v.l.h.h.h.h.h.h.h.i.i.i.i.i.u.u.u.u.u.u.d.i.u.u.u.u.u.q.q.q.q.q.q.q.q.q.q.7.q.q.q.q.7.q.q.q.q.7.q.7.7.7.q.q.q.u.u.u.u.u.u.u.u.u.u.u.u.u.u.u.d.f.f.h.h.h.h.k.k.z.z.z.v.v.v.;X;X;X;X<X1X<X<X,XwXu.O 3 4 4 4 d d d d 4 4 4 1 1 1 4 4 4 4 4 4 4 1 1 1 1 1 1 1 1 1 1 1 1 1 1 1 1 1 1 1 1 ",
"j j j j j j j j j j j j j j j j j j j j j j j j j j j j j j j j j j j j j j j j j aXnXxXvXbXbXbXbXbXbXbXbXbXbXbXbXbXbXbXbXvXcXcXcXcXcXcXcXzXlXlXlXlXlXlXfXfXfXfXlXfXfXdXfXdXdXdXdXdXsXsXsXsXpXuXuXyXyXyXtXtX0X0X9X9X8X8X>X>X;X;Xc.c.c.k.d.u.u.u.u.u.e.7.8.#.#.#.#.+...' Q Q Q Q W W P j j h h d d d d d d d f f f f f f f f f f u u u f i i z i i u u u m m m m -.3.].jXHXJXKXIXKXKXKXKXKXGXFXCXMXP.J.S.1.*.*.*.p.gXxXgXjXgX5.u >.T.5.4.5.4.4.=.g * O { nXW.4 1 g B =.4.-.-.C m M u - & # . . . . .             .                         . . . . . . . . X X X X # # % M 5.p.C * X % * * * * * - < * * - = < , = < u u u u u u u u u M M M M M M M M m m C C C C C C C C _ _ [ [ [ [ [ [ [ [ [ [ [ [ =.=.=.-.:.4.>._ B -.T.T.W.T.>.*.1.5.Y.E.Q.A.B.I.$XFXFXFXFXFXFX#X#XVXDXDXDXHXJXKXIXKXKXKXKXKXGXGXGXGXGXGXGXGXKXKXKXKXKXHXVXhXoXQ.L.K.K.Y.T.s.s.l.l.i.i.l.l.h.h.h.h.i.i.i.i.i.u.u.u.u.u.u.i.i.u.u.u.u.q.q.q.q.q.q.q.q.q.q.q.q.q.q.q.7.7.7.7.7.7.7.7.7.7.7.q.q.q.q.u.u.u.u.q.u.q.q.u.u.u.u.u.u.u.d.f.f.h.h.h.h.h.k.k.z.z.v.v.;X;X;X;X<X<X<X<X>XwXu.O 3 6 4 4 d d d d 4 1 4 4 1 4 4 4 4 4 4 4 1 1 4 4 4 4 1 1 1 1 1 1 1 1 1 1 1 1 1 1 1 ",
"j j j j j j j j j j j j j j j j j j j j j j j j j j j j j j N N j j j j j j j j j aXnXxXnXbXbXbXbXbXbXbXbXbXbXbXbXbXbXbXbXvXvXcXcXcXcXcXcXzXzXzXlXlXlXlXfXfXfXfXlXlXfXfXfXfXdXdXdXsXsXsXsXsXpXuXuXyXyXyXtXqXqX0X9X9X8X8X>X;X;X;Xc.c.c.k.d.u.u.u.u.e.e.7.8.%.#.#.#.+...^ Q Q Q Q W P L j h h h d d d d d f f f f d d f f f f f u u u u u i i i i i i i i i m 3.K.oXZXJXIXIXIXIXIXKXKXKXKXKXGXFXCX^.S.A.1.*.*.*.p.rXjXjXjXjXgX5.f 1.5.4.4.4.4.5.:.V 1 % * b.nXi.N 4 g _ ,.-.[ C m u u - - # . . . . .         . .                           . . . . . . . . . X X . % g >.p.:.j > X % * * * * - - , < - * - = < = = u M m C C u u M M M M M M M m M M M M C C C C C C C C ) ) _ [ [ [ [ [ [ [ [ [ [ [ [ [ =.=.=.-.:.} V C 5.W.p.T.p.=.( *.1.H.H.Z.N.V.`.$X%X%X%X%X%X&X`.`.`.`.#XFXJXKXKXIXKXKXKXKXKXGXGXGXGXGXGXGXGXGXGXKXKXKXKXKXHXVXVXoX[.L.K.K.5.5.s.p.p.i.p.p.l.l.p.i.i.i.i.i.i.i.u.u.u.u.i.i.u.u.y.y.q.q.q.q.q.q.q.q.q.q.q.q.q.q.q.q.7.7.7.7.7.7.7.7.7.7.7.q.7.q.q.q.q.q.q.q.q.q.q.q.q.q.q.q.u.u.d.d.f.f.f.f.h.h.h.h.k.z.z.z.;X;X;X;X<X<X<X<X>X2Xu.O 3 6 d 4 4 d 4 4 4 4 4 4 1 1 4 4 4 4 4 4 1 1 1 1 1 1 1 1 1 1 1 1 1 1 1 1 1 1 1 1 1 ",
"j j j j j j j j j j j j j j j j j j j j j j j j j j j j j j j N j j j j j j B N j aXnXvXnXbXbXbXbXbXbXbXbXbXbXbXbXbXbXbXvXvXvXcXcXcXcXcXcXcXzXzXlXlXlXlXfXfXfXlXlXlXlXfXfXfXdXdXdXsXsXsXsXsXpXuXyXyXyXyXtXqXqXqXqX9X9X8X>X;X;X-Xc.c.x.g.d.u.u.u.e.e.e.7.8.8.#.#.+.+...Q ~ Q W W W L L j h h d d d d d d f d f f d d d d f f f u u u u u u i i i i q m S 3.].BXHXJXIXIXIXIXKXIXKXDXVXFXGXFXFXCX}.S.b y a x *.5.W.rXrXrXgXjXgX5.f -.5.3.4.4.4.5.:.[ j , % W xXaXi.W 4 B } =.} C m u = - - # . . . . .         . .               . .     . . . . . X X X X . # # . * B 4.p.} , % * * * , - * * - , - = = - - - - 0 t i i m S C u u M M M M M M M M M M M m C C C C C C C ) ) ) _ _ [ [ [ [ [ [ [ [ [ [ [ [ } } =.=.=.V B } p.s.p.s.5.*.*.*.1.H.Z.b b P.OX$X%X%X$X%X%X%X_.V.`.`.`.JXKXKXIXIXKXKXKXKXKXGXFXFXFX&X&XGXGXGXGXGXGXGXKXKXJXJXJXFXVX#XoX[.K.K.K.s.5.5.p.p.p.i.i.i.i.i.i.i.i.i.i.u.u.u.i.i.u.y.y.y.9.q.q.q.q.q.q.q.q.q.q.q.q.q.q.7.7.7.7.7.7.7.7.7.7.7.7.7.q.q.q.q.q.q.q.q.q.q.q.7.q.q.q.q.u.u.u.u.d.f.f.f.h.h.h.h.h.z.z.z.z.;X;X;X;X<X<X<X<X2Xu.O 3 6 d d 1 1 4 4 4 4 4 4 1 1 4 4 4 4 4 1 1 1 1 1 1 1 4 1 4 1 1 1 1 1 1 1 1 1 1 1 1 ",
"j j j j j j j j j j j j j j j j j j j j j j j j j j j j j j j N j N j j j B B N j aXnXnXnXnXbXbXbXbXbXbXbXbXbXbXbXbXbXbXvXvXcXcXcXcXcXcXcXcXzXlXlXlXlXlXfXfXlXlXlXfXfXfXdXdXdXdXdXsXsXsXsXsXpXuXyXyXyXyXyXqXqXqXqX9X8X8X>X;X;X-Xc.c.x.g.d.u.u.r.e.e.e.7.8.%.#.#.#.+. .^ ~ Q W W W L L j h h h d d d d d d d f f d d d d f f f u u u u q 0 q i i A ;.'.jXHXIXIXIXIXIXIXIXJXJXKXDX`.`.DXGXFX#X`.B.v 7 $ y *.Y.Y.W.W.W.rXjXjXrXY.t *.5.5.4.4.4.5.4.=.C B * * <.xXeXi.L d / } } C m u = - * # . . . . . .       . . . .     . . . . . . . . . X X X X X X # % X # - } s.5.g * * - % * - - - * * - - - - - = - & - t i i i t z i u u M M M M M M M m M M m m C C C C C C C C ) ) _ _ [ [ [ [ [ [ [ [ [ } [ [ [ [ =.=.V V ) >.5.p.p.5.5.*.*.*.1.S.;.b b I.$X%X%X%X%X%X%X%XV.e V.`.DXGXJXKXKXKXKXKXKXKXDXDXFXFX&X&X&XGXGXGXFXGXGXGXGXKXKXKXKXKXKXJXDXVXVXoXoX'.T.s.s.p.p.i.i.i.i.i.i.i.i.i.i.u.u.u.u.u.u.y.y.y.9.9.q.q.q.q.q.q.q.q.q.q.q.q.7.7.7.7.7.7.7.7.7.7.7.7.7.7.q.q.q.u.u.u.q.7.7.7.7.7.7.7.7.7.q.u.u.u.u.u.f.f.h.h.h.h.h.z.v.v.v.;X;X;X;X<X<X<X<X2Xy.O 3 6 d d 1 1 1 1 4 4 4 4 1 4 4 4 4 1 1 1 1 1 1 1 1 1 1 1 1 1 1 1 1 1 1 1 1 1 1 1 1 ",
"j j j j j j j j j j j j j j j j j j j j j j j j j j j j j j j j B B j j j B B N j aXnXvXnXnXbXbXbXbXbXbXbXbXbXbXbXbXbXbXvXvXvXcXcXcXcXcXcXcXzXzXlXlXlXlXlXlXlXlXkXlXlXkXkXdXdXdXdXsXsXsXsXsXpXuXyXyXyXyXtXqXqX9XqX9X8X>X>X;X-X-Xc.c.x.g.g.u.u.r.e.e.e.7.8.8.#.#.#... .^ ~ ~ ~ W L L L h h h d d d d d d d f f f d f f f f f f u u u q q m m G K.jXDXJXKXIXIXIXIXIXIXKXKXHXDXoXK.L.#XFXFX#XP.B.Z w @ t *.5.5.1.,.p.Y.rXjXgX XY.t C 5.5.5.3.>.5.4.>.} V > O < W.fXaX<.h j ] ) C C M = - & # # # . . . . . . . . . . . . . . . . X . . . . X X X X X X # % X * 1 4.W.=.< * * - * % * * * * * * - = = = - = - - q i y w w q i i t u u M M M M M M M M M m C C C C C C C C ) ) _ _ _ [ [ [ [ [ [ [ [ [ } [ [ [ [ } =.u V =.4.4.5.s.5.:.] *.*.*.;.Z.b M.P.$X%X%X%X%X%X%X%X#X_.V.V.`.FXKXKXKXKXJXDX#X#X`.`.#X&X&X&XGXGXGXFXFXFXKXKXKXKXKXKXKXKXKXKXKXKXKXJXJXVXoX].K.s.5.p.i.i.i.i.i.i.i.i.i.i.i.i.u.u.u.u.u.y.y.u.9.9.9.q.u.q.9.9.9.9.9.9.7.7.7.7.7.7.7.7.7.7.7.7.7.7.7.9.9.9.9.u.7.9.7.7.7.7.7.7.7.7.q.q.u.u.u.u.f.f.f.h.h.h.h.z.v.v.v.;X;X;X;X<X<X<X;X2Xy.O 3 6 d 1 1 1 1 4 4 4 1 1 1 4 4 4 4 1 1 1 1 1 1 1 1 1 1 1 1 1 1 1 1 1 1 1 1 1 1 1 1 ",
"j j j j j j j j j j j j j j j j j j j j j j j j j j j j j j j j B B B j j j j j j aXnXvXnXbXbXbXbXbXbXbXbXbXbXbXbXbXbXbXvXvXvXcXcXcXcXcXcXcXzXzXzXlXlXlXlXlXlXlXkXkXdXdXdXdXdXdXdXsXsXsXsXsXpXuXyXyXyXqXqXqXqX9X9X9X8X>X>X;X;X-Xc.c.x.k.d.u.u.r.e.e.e.7.8.%.#.#.#.X. . .! ~ ! ! L L L j h h d d d f f f f u u u u f k k k f f u u u i Z ;._.oXVXDXKXKXKXKXKXKXKXKXKXKXJX#X_.V.G.XXFXFXVX}.A.Z 0 7 0 x *.V f c :.p.p.E.jXgXE.Y.y S H.3.5.3.>.4.4.4.=.{ 4 > % @.zXaXeXo.5 B V C C M u - - # # # # . . . .                 . . . . . . X X X X X X X X # X # B 5.s.C < - = = - - - * * * * * - > = < < - - = 0 y v r 8 8 w i z u u u u u M M M M M M M C C C C C C C C ) ) _ ) _ _ [ [ } } } } [ } =.[ [ =.} _ V u V } >.4.5.p.5.4.,.=.*.*.*.*.F b N.I.$X%X%X%X%X%X%X%X%X$X_.V.V._.`.`.`.`.`.`.`.`.`.#X&X&X&X&XFXFXDXDXJXHXJXKXIXKXKXKXJXKXKXKXKXKXKXKXKXJXVXoXoX'.K.s.5.4.4.i.i.i.h.i.i.i.i.u.u.u.u.u.y.y.u.y.9.9.q.q.q.9.9.9.9.7.7.7.7.7.7.7.7.7.7.7.7.7.7.7.7.7.7.7.9.9.7.7.7.7.7.7.7.7.7.7.7.7.7.q.u.u.u.u.u.d.f.g.h.h.h.z.v.z.v.z.z.;X;X<X<X<X;X2Xy.O 4 g d 4 u u 1 4 4 4 1 1 4 4 4 4 4 4 1 1 1 1 4 1 1 1 1 1 1 1 1 1 1 1 1 1 1 1 1 1 1 ",
"j j j j j j j j j j j j j j j j j j j j j j j j j j j j j j j j B B j j j j j j j aXnXvXnXbXbXbXbXbXbXbXbXbXbXbXbXbXbXbXvXvXvXcXcXcXvXcXcXcXcXzXzXzXlXlXlXlXlXlXkXkXdXdXdXdXdXdXdXsXsXsXsXsXpXuXyXyXyXqXqXqX9X9X9X9X8X>X>X;Xv.c.c.c.x.k.d.u.u.u.e.e.e.7.8.%.8.#.#.X. .| ! ! ! E L L j j j h d d d 1 t f d u f u u u f f u f k c S 3.K.`.#XDXKXKXKXKXKXKXKXKXKXKXKXKXDX`.V.G `.#XCXCXVX[.B.v 0 $ $ - t - & , ( p.Y.5.E.jXgXE.Y.i x H.3.5.3.>.4.>.4.:.} ) 4 * j eXaXeX4X@.d d V M u u - - # # # # + + . . . . . . . . . . . . . X # # # # X X X X X X X < =.T.4.u - * - - - = - - * * * - - , , = < < - - 0 y e r r r r w v x i u u u u u M M M M M C C C C C C C C ) ) ) _ ) _ _ _ [ } } } } [ [ } _ _ =.} C u g ) =.:.4.5.4.4.>.>.=.*.*.*.F b v N.I.$X%X%X%X%X%X%X%X%X%X$X#X`.`._._._.`.`.`.#X#X&XFXGX&X&X&X&XDXDXHXHXHXjXZXHXJXJXJXJXJXKXKXKXKXKXKXKXKXJXDXVXVXoX'.K.5.5.4.p.p.i.i.i.i.y.y.y.y.y.u.y.y.9.9.u.u.u.q.q.9.9.9.9.7.7.7.7.7.7.7.7.7.7.7.7.7.7.7.7.7.7.7.7.7.7.7.7.7.7.7.7.7.7.7.7.7.7.7.u.u.u.u.u.d.f.f.h.h.h.z.z.z.z.z.*X;X;X<X<X;X;X,Xu.o 3 g d 4 1 1 1 4 4 4 4 4 4 4 4 4 4 1 1 1 1 1 4 4 1 1 1 1 1 1 1 1 1 1 1 1 1 1 1 1 1 ",
"j j j j j j j j j j j j j j j j j j j j j j j j j j j j j j j j j j j j j j B N j aXnXvXnXnXbXbXbXbXbXbXbXbXbXbXbXbXbXbXvXvXvXvXvXvXcXvXcXcXcXzXzXlXzXlXlXlXlXkXlXkXdXdXdXdXdXdXdXsXsXsXsXsXsXuXuXyXyXqXqXqX9X9X9X9X8X>X;X;Xv.c.c.c.x.k.d.u.u.u.e.e.e.7.8.%.#.#.#.X. .| ! ~ ! E P L j j j g d d d < < t u u u u u t t f V =.p.W.gXBXHXJXKXKXKXKXKXKXKXKXKXKXGXFX&X#X`._._.OXFXCXCX@XL.F w 7 $ # # # . # < =.p.p.p.Y.gXjX/.E.E.s i H.3.5.3.>.3.-.-.4.=.{ g * * j W.aXxXW./ d g B u < , - # # # # # # # + X . . . . . . . . X # # # # # X X X X X X % B p.s._ 1 % * * * * - = - - * - - - = = = = = - - 0 y y r 9 9 9 9 r v i t u u u u u M M M M M m m C C C C C C C ) _ _ ) ) _ _ [ } } } [ [ _ ) _ _ _ V g c _ _ =.:.>.>.>.>.>.:.*.*.*.R b b e b V.$X%X%X%X%X%X%X%X%X%X%X%X%X%X%X%X%X%X%X%X%X%X&X%X%X%X&X&X#XDXHXHXjXeXb.s.W.jXSXJXJXJXJXKXKXKXKXKXKXKXKXKXGXFXDXVX#XoX'.T.5.5.:.>.4.y.y.y.9.9.9.y.y.y.y.u.u.u.u.q.9.9.9.7.7.7.7.7.7.7.7.7.7.7.7.7.7.8.7.7.7.7.7.7.7.7.7.7.7.7.7.7.7.7.7.7.7.7.7.7.u.u.u.u.u.u.f.f.h.h.h.l.z.z.z.z.z.*X;X;X;X;X;X,X9.o 3 4 d 1 1 1 1 4 4 4 4 4 4 4 4 4 4 1 1 1 1 1 1 4 1 1 1 1 1 1 1 1 1 1 1 1 1 1 1 1 1 ",
"j j j j j j j j j j j j j j j j j j j j j j j j j j j j j j j j j j j j j j j N 6 aXnXvXnXnXbXbXbXbXbXbXbXbXbXbXbXbXbXbXbXvXvXvXvXvXvXvXvXcXcXcXcXzXzXlXlXlXlXkXlXkXkXkXkXdXdXdXdXdXsXsXsXsXsXpXuXyXyXqXqXqX9X9X9X9X8X>X>Xv.v.c.c.x.x.k.d.u.u.u.u.e.e.7.8.#.#.#.#. . .| ! ! ! W P j j j g g g d d t t t u u u u u u C 4.W.gXZXLXPXIXKXKXKXKXGXGXGXGXGXGXGXFX#X#X`.`.`.#XCXFXFXVX}.G.v w 0 @ + + . . . 1 ,.s.s.4.5.rXBXjXE.E.E.s i 5.3.5.3.3.3.-.-.-.4.} M , * O / xXaXrXp.j 1 B u , , & # # # # # # # # # X X . X . . X X X # # # # # X X X X X < =.s.s.M * , * * * * - - - - - - - = = = = = = * - 0 y y r 9 9 9 9 9 r b i 0 u u u u u M M M M M m m C C C C C C C ) ) ) _ _ _ _ _ [ [ [ [ [ _ _ [ _ C u c _ =.} =.:.:.:.:.:.:.=.*.*.*.x b v w e V.$X%X$X%X%X%X%X%X%X%X%X%X%X%X%X%X%X%X%X%X%X%X%X%X%X%X&XDXDXDXHXcXa.e.7.i.rXxXgXgXBXZXHXPXPXJXJXJXKXKXKXKXKXGXFXFXFXDXDXjXoX'.T.5.4.4.4.y.y.y.y.9.y.y.y.y.u.u.u.9.9.9.9.7.7.7.7.7.7.7.7.7.7.7.7.8.8.8.8.7.7.7.7.7.7.7.7.7.7.7.7.7.7.7.7.7.7.7.7.7.u.u.u.u.u.u.f.f.f.h.h.h.z.z.z.z.z.z.;X;X;X;Xv.,X9.o 3 4 4 1 1 1 1 4 4 4 4 4 1 4 4 4 4 1 1 1 1 1 1 1 1 1 1 1 1 1 1 1 1 1 1 1 1 1 1 1 1 ",
"j j j j j j j j j j j j j j j j j j j j j j j j j j j j j j j j j j j j j j B N 6 aXnXvXvXbXbXbXbXbXbXbXbXbXbXbXbXbXbXbXbXvXvXvXvXvXvXvXvXvXcXcXcXzXlXlXlXlXlXkXlXkXkXdXdXdXdXdXdXsXsXsXsXsXsXpXuXyXyXqXqXqX9X9X9X9X8X1X;Xv.c.c.c.x.x.k.d.u.u.u.e.e.7.7.8.#.#.#.#. .| ! ! ! W P P j g g g g u u u u u u t t u M *.Y.rXjXHXLXIXIXIXKXKXKXGXGXGXGXGXGXGXGXFX&X#X#X#X#XDXFXFXFXVXU.N.v w $ + + . . . # d ,.p.s.T.p.T.jXZXhXE.H.J.b y 1.3.5.5.3.3.-.-.-.4.:.) ) , * * i.rXaXaX,., 1 d < , & # # & & # # # # # # X X . X . . X X # # # # # # X . % ) 5.p.} j > * * * * * * * * * - , = = = = = = = - - 0 y y r r 9 9 9 9 9 r b y 0 m u u u M M M M M M M M C C C C C C C ) ) ) ) _ _ _ _ ) _ _ _ _ [ :.} C u k _ } [ =.=.=.=.:.:.:.=.] ] ( *.x s y w e A OX$X$X%X%X%X%X%X%X%X%X%X%X%X%X%X%X%X%X%X%X%X%X%X%X&XFXDXDXjX].a.%.7.z.5XxXxX5X5XY.5XxXnXHXHXHXHXJXKXKXGXGXKXKXKXKXKXKXFXDXVXoXoX'.T.5.4.:.4.4.y.y.9.y.y.y.y.y.9.9.9.9.9.7.7.7.7.7.7.7.7.7.7.7.7.8.8.8.8.7.7.7.7.7.7.7.7.7.&.8.8.8.7.7.7.7.7.7.7.u.u.u.u.u.u.f.f.f.f.h.h.k.k.k.z.k.z.;X;X;X;Xv.,X7.o 3 4 d 1 1 1 1 4 1 1 1 4 1 1 1 1 4 1 1 1 1 1 1 1 1 1 1 1 1 1 1 1 1 1 1 1 1 1 1 1 1 ",
"j j j j j j j j j j j j j j j j j j j j j j j j j j j j j j j j j j j j j j B N 6 fXnXvXvXbXbXbXbXbXbXbXbXbXbXbXbXbXbXbXbXvXvXvXvXvXvXvXvXvXcXcXzXzXzXlXlXlXlXlXlXkXkXdXdXdXdXdXdXsXsXsXsXsXsXpXuXyXyXqXqXqX9X9X9X8X8X1X;Xc.c.c.x.x.h.g.d.d.u.u.e.e.7.7.8.#.#.#.#. . .! ~ W E B j j j g g u u u u u u u u C 5.'.gXAXPXIXPXPXPXHXHXDXDXFXGXGXGXGXGXGXGXGXFXFXFXGXFXFXFXFXCXOXP.F w 8 $ + + + . . % k ,.W.s.s.W.T.W.jXBXgXY.S.J.b t -.3.5.5.3.1.-.-.-.-.4.} } d , X > W.eXrXrX/ , , , , # # # # & # # # # # # + + + + . X X + # # . % % X X * } '.s.} 1 * * * - - * - * * * - = , = = = = = = = = t p y r 8 9 9 9 9 9 9 9 b y q m u u M M M M M M M M M C C C C C C C C ) ) ) ) _ _ _ ) ) ) _ [ [ :.V 1 u _ =.} } :.=.} =.:.:.=.} ] ] ( ( x a y w w e N.`.#X$X$X$X%X%X%X%X%X%X%X%X%X%X%X%X%X%X%X%X%X%X%X&X&X#X#XoXs.{ y.v.xXxX5X5Xw.w.5X5XxXnXzXaXgXjXDXHXKXKXKXFXKXKXKXKXKXKXKXKXJXDXVXoX'.T.p.5.4.,.>.<.y.9.9.9.y.9.9.9.9.9.9.7.7.7.7.7.7.7.7.7.7.8.7.8.8.8.8.7.7.7.7.7.7.8.&.&.8.8.8.7.7.7.7.7.7.7.u.u.u.u.u.u.u.f.f.f.f.h.h.k.k.k.k.z.;X;X;Xv.v.:X7.o 3 g 1 1 1 u 1 4 1 1 1 4 1 1 4 4 4 1 1 1 4 1 1 1 1 1 1 1 1 1 1 1 1 1 1 1 1 1 1 1 1 ",
"j j j j j j j j j j j j j j j j j j j j j j j j j j j j j j j j N B B N j j j N 6 fXnXvXbXbXbXbXbXbXbXbXbXbXbXbXbXbXbXbXvXvXvXvXvXvXvXvXvXvXvXcXzXzXlXlXlXlXlXlXlXkXdXdXdXdXdXdXdXsXsXsXsXsXsXpXyXyXyXqXqXqX9X9X9X8X8X1X;Xc.c.c.c.x.h.g.g.g.u.r.e.e.7.7.8.#.#.#. . .^ ~ ~ E N N j j g g g u u u u u C 3.].BXHXLXPXPXPXPXPXHXZXjXVXDXDXFXGXGXGXGXGXGXGXGXFXFXFXFXFXFXFX#XI.A e w w 7 + + + . . % ' 4.s.W.W.W.W.s.].jXjXgXE.S.J.b 0 S 3.5.5.3.-.-.-.-.-.-.=.=.B < % X ) W.s.rXeX/ , , , % # % # # # # # # # # # # # # # + + + # # . . % < =.W.W.4.C 1 , * * * - * * - * * - - = = = = = = - - - - u i y 8 9 9 9 9 9 9 9 r b v w i u M M M M M M M M M M C C C C C C C C ) ) ) _ _ _ ) ) ) ) _ [ } C u u V } =.=.=.=.} } =.-.:.=.} ] _ ( ( x a y 8 w e e e N.G.`.#X$X$X$X$X%X%X%X%X%X%X%X%X%X%X%X%X%X%X%X%X&X#XDXjXjXrXxXnXaXw.,.,.Y.6XxXxXzX3Xj.e.4.gXZXHXDXDXJXJXKXKXKXKXKXKXKXKXKXKXJXHXDXjXoX'.s.5.>.,.4.y.<.9.y.9.9.9.9.7.7.7.7.7.7.7.7.7.7.7.7.7.&.&.&.&.&.&.&.&.7.7.8.8.&.&.&.&.8.8.8.7.7.7.7.7.e.u.u.u.u.d.u.f.f.f.f.h.k.k.k.k.k.k.z.;X;Xv.z.;X7.o 4 d 1 1 d u 1 4 4 4 4 4 4 4 4 4 4 1 1 1 4 4 1 1 1 1 1 1 1 1 1 1 1 1 1 1 1 1 1 1 1 ",
"j j j j j j j j j j j j j j j j j j j j j j j j j j j j j j j j B B B B j j j j 6 fXnXvXbXbXvXbXbXbXbXbXbXbXbXbXbXbXbXbXvXvXvXvXvXvXvXvXvXvXvXcXzXzXlXlXlXlXlXlXlXkXdXdXdXdXdXdXsXsXsXsXsXsXsXpXuXyXyXqXqXqX9X9X9X8X8X1X;Xc.c.c.c.x.j.g.g.g.r.r.e.e.7.8.8.#.#.#. . .^ ! ! E N N j g g g u u u u C K.].jXHXPXPXPXPXLXHXHXHXZXjXgXDXJXKXGXGXGXGXGXGXGXGXGXGXGXFXFX%X$X#XP.A w 7 7 @ @ + . . X % d i.s.W.W.].'.s.p.].gXjXhXE.S.S.*.0 x 1.5.3.3.-.-.-.-.-.-.=.} } g * % % ,.s.W.xXW.h % , % # # & # # # # # # # # # # # # # # # # # X % V p.rX].4.B , * > , * * * * * - - - - - - = = = = = - - - 0 t y 8 8 9 9 n.n.9 9 9 r b v y i i M M M M M M M M M M C C C C C C C C C C ) _ _ _ ) ) ) ) ) [ } , u ) _ [ =.=.=.} } } =.=.:.=.} ] ] / ( x z t 8 8 w w w w w N.P.`.#X$X$X%X%X%X%X%X%X%X%X%X%X%X%X%X%X%X%X&XFXDXDXDXZXHXZXgXE.Y.Y.6XxXxX5X*X*Xj.k.eXnXZXhX[.oXDXKXKXKXKXKXKXGXGXKXKXKXKXKXKXJXHXAXjX].T.5.4.4.,.4.y.y.9.9.9.9.9.7.9.7.7.7.7.7.7.7.7.&.&.&.&.&.&.&.&.7.7.7.8.8.&.&.&.&.&.8.8.8.7.7.7.7.e.e.u.u.u.u.u.u.f.f.f.h.h.h.k.k.k.k.k.;X;Xv.k.;X7.o 4 g 1 1 d u 1 4 4 4 4 4 4 4 4 4 4 1 1 1 1 4 1 1 1 1 1 1 1 1 1 1 1 1 1 1 1 1 1 1 1 ",
"j j j j j j j j j j j j j j j j j j j j j j j j j j j j j j j j j j j j N j j j 6 aXnXvXbXbXvXbXbXbXbXbXbXbXbXbXbXbXbXbXbXvXvXvXvXvXvXcXcXcXcXcXlXlXlXlXlXlXlXkXkXkXkXdXdXdXdXdXsXsXsXsXsXsXsXsXpXyXyXqXqXqX9X9X9X8X8X1X;X=X=Xc.c.j.j.g.g.d.t.r.e.8.8.8.#.#.#.+.^ ! ! ! Q N n n M M u u u C K.].BXHXPXPXPXPXPXHXZXZXHXHXZXgXjXBXJXJXKXGXGXGXGXGXGXGXFXFXFXFX%X$XOXI.N.e w 7 @ + + + . . X : / ,.p.s.W.'.'.s.p.p.rXgXgXBX/.S.S.S.y i ;.3.3.-.-.-.-.-.-.-.} } C M 1 , % , p.l.l.aXl.d % , - % % % # # # # # # # # # # # # # # # # , 4.rXgX'.} N 1 , - * - * * * - - - - - - - - - - - - - - 0 t q y r 9 9 9 9 9 9 9 9 9 r b b y i M f u u M M M M M C C C C C C C C C C C ) _ _ [ B M ) _ _ } C , < g _ :.:.=.=.} } } =.=.=.=.} } } ] =./ c t 0 & $ @ 8 v b e e e A V.I.OX$XFXFX%X%X%X%X%X%X%X%X%X&X%X&X%X&X&XFXFXFXFXDXDXAXVXBXBXBX5Xw.w.k.;XtXnXmXnXgXR.[.VXJXKXJXJXDXDXDXJXKXJXKXKXKXKXKXKXIXPXHXAXjXgX].s.4.:.,.>.4.>.,.<.y.y.9.9.9.9.9.9.9.9.<.<.&.&.&.&.&.&.&.7.7.7.7.7.&.&.&.7.7.7.&.7.7.7.7.7.7.y.y.u.u.u.u.d.u.f.f.f.h.h.h.k.k.k.k.z.v.z.k.v.7.o 4 4 1 1 1 1 1 4 4 4 1 1 1 1 1 1 4 1 1 1 1 1 1 1 1 1 1 1 1 1 1 1 1 1 1 1 1 1 1 1 1 ",
"j j j j j j j j j j j j j j j j j j j j j j j j j j j j j j j j j j j j N j j j 6 aXnXvXbXbXvXbXbXbXbXbXbXbXbXbXbXbXbXvXbXvXvXvXvXvXvXcXcXcXcXcXlXlXlXlXlXlXkXkXkXkXkXdXdXdXdXdXsXsXsXsXsXsXsXsXyXyXqXqXqX9X9X9X9X8X8X1X;X=X=Xc.c.j.j.j.g.d.t.r.e.7.8.#.O. .^ ~ Q { ^ Q Q n n M M C C 3.'.gXAXJXPXIXIXIXPXJXAXBXjXZXAXHXVXBXAXJXKXKXKXGXGXGXGXGXGXFXFXFX$X#X`.G.B.e w 7 @ + + + . . . % , W :.p.s.eX].W.s.p.4.p.gXjXgXHXgX1.S.S.i 0 ;.1.3.-.-.-.-.-.-.-.-.} [ C g g - # : p.l.l.aXb.h % % % % # % % # # # # # # # # # # # * , C '.rX].p.{ 1 , , > * * * * - - - - - - - - - - - - - - - 0 t i y r 9 9 9 9 9 9 9 C.C.r r b F y x x f u u M M M M M M C C C C C C C C C C C _ ) ) ) ) C _ } ) 1 < } _ [ =.-.=.} _ } =.=.=.=.=.} } @.] ] / k t & & @ + $ 8 y y w w w e e A B.G.`.OX#X$X$X%X$X%X%X%X%X%X&X&X&X&X&XFXFXFXFXFXFXDXAXAXAXgXrXW.W.fXmXmXgXrXjXZXJXIXPXHXBX[.K.jXJXKXIXJXJXJXJXKXIXIXIXIXIXPXJXJXHXjX'.5.5.:.-.:.} [ } :.<.<.<.<.<.9.<.<.<.<.<.<.<.<.$.&.&.&.&.&.&.&.&.&.7.7.7.7.7.7.7.7.7.7.7.e.y.y.u.u.u.u.d.d.f.f.h.h.h.h.k.k.k.k.z.k.k.v.&.o 4 4 1 1 1 1 1 4 4 4 4 4 1 1 4 4 4 1 1 1 1 1 1 1 1 1 4 1 1 1 1 1 1 1 1 1 1 1 1 1 1 ",
"j j j j j j j j j j j j j j j j j j j j j j j j j j j j j j j j j j j B N B j j 6 aXnXvXvXbXvXvXbXbXbXbXbXbXbXbXbXbXbXvXbXvXvXvXvXvXcXcXcXcXcXcXlXlXlXlXlXlXkXkXkXkXdXdXdXdXdXsXsXsXsXsXsXpXsXpXyXyXqXqX0X9X9X8X8X8X8X1X;X=X=Xc.c.j.j.g.g.d.r.r.e.7.8.#.+. .' Q Q W N Q N 4 M C =.T.].ZXJXIXIXIXIXIXPXJXJXVXBXMXVXAXJXJXJXJXJXJXKXKXGXGXGXFXFXFX%X%X$XOXI.V.N.e w 7 $ @ + + + . . . # , / ,.p.s.W.rXeXs.4.4.>.T.jXgXgXPXhXS.S.S.S & S 3.3.>.-.-.-.-.-.-.-.-.-.[ C M 1 % . W W.0.4XxXp., o % % % % % # # # # # # # # # X % g 4.].rX'.4.{ M 1 , * * * * - - - - - - - - - - - = = , = = 0 q y y r r 9 9 9 9 9 n.C.NX(.M.8 b S y x C m f M M M M M M M C C C C C C C C C ) [ _ C B _ _ ) [ ) 1 1 B :.=._ _ =.-.=.} } =.=.=.=.=.=.} } ] ] V k t - & # + + @ $ 7 8 w r v e w w e e N.V.I.`.#X$X%X%X$X%X%X%X%X&XFXFX&X&X%XFXFXFXFXFXFXJXHXVXBXjXHXZXgX].jXHXIXIXIXAXjX[.'.oXHXJXJXMX{.VXSXSXSXJXKXIXKXKXKXKXKXKXJXDXjX XT.5.5.1.-.=.:.:.>.,.<.<.<.<.<.<.<.<.<.<.<.<.<.$.&.&.&.&.&.&.&.&.&.7.7.7.7.7.7.7.7.7.7.e.e.u.u.u.u.u.u.d.d.f.f.f.h.h.k.k.k.k.k.k.v.8.O 4 4 1 1 1 1 1 4 4 4 4 4 4 4 4 4 4 1 1 1 1 1 1 1 1 1 4 1 1 1 1 1 1 1 1 1 1 1 1 1 1 ",
"j j j j j j j j j j j j j j j j j j j j j j j j j j j j j j j j j j j j B B j j 6 fXnXvXvXvXvXvXvXvXbXbXbXbXbXbXbXbXbXbXvXvXvXvXvXcXcXcXcXcXzXzXlXlXlXlXlXlXkXkXkXkXdXdXdXdXdXsXsXsXsXpXpXpXpXyXyXyXqXqX9X9X8X8X8X8X8X1X;X=X=Xc.c.j.j.g.g.t.r.e.8.#.O.+.+.' ' ) j 1 3 V } } s.].jXHXHXIXIXIXIXIXIXIXKXJXAXVXVXAXJXJXJXKXJXKXKXKXKXGXFXFXFXFX%X$X$X`.I.N.A e w 7 7 @ @ + + + . . . # : k @.p.b.W.W.].W.i.:.4.:.W.jXgXjXPXgX1.S.S.;.& i 1.3.-.-.-.-.-.-.-.-.-.[ [ _ M 1 , % * p.b.<.eXxX0.: o X % : % # % # . # % % X X * M s.rXrXs.4.{ M 1 < , - * * * - - - - * * - - - - - = = < = = 0 y e r 9 9 9 9 9 9 n.C.7XSXCXD.r b S y x x m M M M M M M M M C C C C C C C C ) [ [ _ B g ) _ [ C 1 < M _ [ [ } =.=.=.=.=.=.=.=.=.=.=.=.} } } [ / B u , - # + . + + @ @ 7 8 w e e e e e e e A N.G.`.#X$X%X%X$X$X%X%X%XFXGXGX%X%X%X%XFXFXFXFXFXDXDXHXDXjXoXjXHXKXKXHXMX[.R.[.BXJXIXAXQ.J.S.NXSXNXMXNXVXAXJXJXJXKXKXKXKXKXJXHXVXhX].K.5.5.>.>.>.:.:.>.,.<.,.,.,.,.,.<.<.<.<.<.&.&.&.&.&.&.&.&.&.&.7.7.7.7.8.7.7.7.7.7.7.u.u.u.u.u.u.u.u.d.d.f.f.f.h.h.k.k.h.h.z.$.O 4 4 1 1 1 u 4 4 4 4 4 4 4 4 4 4 4 1 1 1 1 1 1 1 1 1 1 1 1 1 1 1 1 1 1 1 1 1 1 1 1 ",
"j j j j j j j j j j j j j j j j j j j j j j j j j j j j j j j j j j j j j j j j 6 fXvXvXvXvXvXvXvXvXbXbXbXbXbXbXbXbXbXvXvXvXvXvXvXvXcXcXcXcXzXzXlXlXlXlXlXkXkXkXkXkXkXkXdXdXdXsXsXsXsXpXpXpXpXyXyXyXqXqX0X9X8X8X8X8X8X1X;X=X=Xc.c.j.g.g.g.g.r.e.7.&.%.%.+.] ` / _ ) } s.rXjXHXIXIXIXIXIXIXIXIXJXHXJXJXJXDXDXJXJXJXJXKXKXGXGXGXGXFXFXFXFX%X$XOX_.V.N.A e w 7 @ + + + + . . .   . % , l } <.p.W.eX].W.p.>.} :.4.'.jXgXBXPXgX1.S.S.;.$ t -.3.>.-.-.-.-.-.-.-.[ [ C -.C g < , : : 9.i.#.aXxX9.; o O ; % % % X . % % X X < 4.'.aXrXs.4.{ M 4 , * - - * * * - - - * * * - - - - - - - = = 0 i v r r 9 9 9 9 9 9 9 D.SXSXSX/.b b F x i x m m M M M B C C C C C C C ) ) ) _ _ ) ) ) V M ) _ B < < M ) =._ =.:.-.=.} } =.=.=.=.=.=.=.=.=.} ] [ ) B k t , & # + + + + + @ @ @ @ 7 w y v v e w e e A B.P.`.#X$XFXFXFXFXFXFXFXFXGXFX%X%X%X&XFXFXFXFXFXDXDXDXDXDXFXVX`.L.[.oXHXIXHXhXR.L.NXCX7XD.S.D.^.+X^.[.oXVXFXKXGXGXKXKXKXKXHXAXjX XE.T.Y.5.>.1.-.>.,.,.,.,.,.,.,.,.<.<.<.<.&.&.&.7.&.&.&.&.7.7.7.&.&.&.&.&.7.7.7.7.y.u.u.u.u.u.u.u.u.u.f.f.f.f.h.h.h.h.h.z.$.O 4 4 4 1 1 4 4 4 4 4 4 4 4 4 4 4 4 1 1 1 1 1 1 1 1 1 1 1 1 1 1 1 1 1 1 1 1 1 1 1 1 ",
"j j j j j j j j j j j j j j j j j j j j j j j j j j j j j j j j j j j j j j j j 6 aXvXvXvXvXvXvXvXvXbXvXbXbXbXbXbXvXvXvXvXvXvXvXvXvXcXzXcXzXzXzXlXlXlXlXlXkXkXkXkXkXkXdXdXdXdXsXsXpXpXpXyXyXyXyXyXyXqXqX0X9X8X8X1X8X8X1X>Xc.=Xc.c.g.g.g.g.r.e.7.&.%.+.) W ) *.:.T.].gXZXPXIXIXIXIXIXIXIXIXIXJXVXVXDXJXJXFXFXJXKXGXFXGXGXGXGXFXFXFXCX$XOX`.V.N.A e e w 7 $ @ + + . . .       . % < / :.4.p.s.W.rXW.p.>.:.@.=.5.rXjXjXAXPXE.R S.S.1.0 0 *.3.1.-.-.-.-.-.-.-.-.[ C [ [ C < 1 : X 3 <.#.$.aXfX@.% o O % % % % % % X * _ W.aXfX].s.:.) M 1 1 < , - - - - - - - - - - - - - - - - = = = 0 q e r r 9 9 9 9 9 9 9 9 I.SXSXSX/.r y *.S i z x C C M M B B C C C C C C ) ) [ [ ) C C ) ) C [ B , , M ) _ =.=.=.-.-.=.=.=.=.=.=.=.=.=.=.=.=.} ] _ B B g 1 , - % # + + . . + + + + @ @ @ 8 w w w e w w e e A N.V.`.OX$XFXFX%X%X%XFXFXGXGX%X%X%XFXGXGXFXFXFX&X&XDXDX#X`.L.oXJXJXAX XL.NXNXMXD.M.M.C.M.C.D./.^.[.`.`.VXFXGXKXKXKXKXIXIXJXHXAXjXgX].T.H.3.>.-.>.,.,.,.,.,.,.,.,.<.<.&.&.&.&.&.&.&.&.7.7.&.&.&.&.&.&.&.7.7.7.9.y.u.u.u.u.u.u.u.u.u.u.f.f.h.h.h.f.h.z.&.O 4 4 4 1 1 4 4 4 4 4 4 4 4 4 4 4 4 1 1 1 1 1 1 1 1 1 1 1 1 1 1 1 1 1 1 1 1 1 1 1 1 ",
"j j j j j j j j j j j j j j j j j j j j j j j j j j j j j j j j j j j j j j j j 6 aXvXvXvXvXvXvXvXvXvXvXbXbXbXbXvXvXvXvXvXvXvXvXcXcXcXzXzXzXlXlXlXlXlXlXlXkXkXkXkXkXkXdXdXdXsXsXpXpXpXpXyXyXyXyXqXqXqXqX9X9X8X1X1X1X1X1X;X=Xc.c.x.g.g.g.u.e.7.%.%.{ ) V _ 4.W. XZXLXJXIXIXIXIXIXIXIXIXIXIXIXJXVXVXDXFXKXJXJXGXGXGXFXFXFXFXFXFXCX#X}.P.N.A e e w 7 7 @ + + + . . . . .     . % 1 B } ,.p.b.W.W.W.b.i.,.:.,.=.p.gXjXAXPXAXY.S.S.S.S.t - S 3.1.-.-.-.-.-.-.-.-.-.} C -.[ g 1 : * : 2 h.#.X.fXfX9.2 o O % % : % X 1 p.aXxXaX].s.4.) M 4 < , , - - % - - - - * - - - - - - - - - = 0 0 q i r r 9 9 9 9 M.M.9 9 D.NX+XSXNXS.r r *.*.x z x C C C B B B C C C C C C ) _ [ [ C C ) _ ) ) B , , k ) ) _ } =.=.} =.=.=.=.=.=.=.=.=.=.=.=.=.} _ _ B B k u < , * % # + . . . . . . + + + @ @ @ 8 8 w e v e e 7 w e B.I.}.#X$XCX%X%X%X%X%X%X%X%X&X&X&X&X&X&X&X&XFXFXDX#X#X#XDXVXL.E.SXAXD.C.M.C.m.m.C.M.M.C.N.U.}.`.VXDXFXFXJXKXKXKXJXJXIXPXJXAXjX XR.R.Y.3.-.1.,.,.,.,.,.,.,.<.&.&.&.&.7.&.&.&.&.7.7.&.&.&.&.&.&.&.7.7.7.7.9.u.u.u.u.u.u.u.u.u.u.f.f.f.f.h.f.h.z.&.O 4 4 4 1 1 4 1 1 4 4 4 4 4 1 1 1 4 1 1 1 4 4 1 1 1 1 1 1 1 1 1 1 1 1 1 1 1 1 1 1 1 ",
"j j j j j j j j j j j j j j j j j j j j j j j j j j j j j j j j j j j j j j j j 6 aXvXvXvXvXvXvXvXvXvXvXbXbXbXvXvXvXvXvXvXvXvXvXcXcXcXzXlXlXlXlXlXlXlXlXlXkXkXkXkXkXdXdXdXsXsXsXpXpXpXyXyXyXyXqXqXqXqX0X0X8X1X1X1X1X1X<X>X;Xc.c.x.g.u.y.y.2.&.+.@.=.>.s.].jXAXHXHXHXHXJXJXIXIXIXIXKXHXKXKXJXKXFXGXGXGXGXGXGXFXFXFXFXFXCX$X#X}.P.V.N.e e w 7 7 @ @ + + + . . . . . .   . . % , j / @.<.s.eXeXW.s.p.i.>.=.,.,.T.jXjXHXIXZXgXhXS.S.H.i & C 3.3.-.-.-.-.-.-.-.-.=.-.[ =.[ C g , : % ; X.l...q.zXnXv.> O O O O ; / eXxXxXrX'.s.:.) B M 1 , * - - - - - - - - - - - - - - - - = = = 0 i i r r 9 9 9 9 M.(.D.9 9 ^.SXNX+X/.M.r b b *.v i C C C C M B B C C C C C C ) ) ) _ C _ } } _ V - % M } ) C _ [ [ } } =.=.=.} } =.=.=.=.=.=.=.=.} _ _ ) B B g u u < - * # # + . . . . . . + + + + + @ 7 8 w e v e w w w e A V.`.#X$XFXFXFX%X%X%X%X%X%X&X&X&X&X&X&X%XGXGXFXDX#X#X@X X XVXNXP.M.M.C.C.C.C.C.C.C.S.U.XX#XDXFXGXFXFXKXJXHXHXPXIXJXJXPXJXAXjXoX X'.E.-.1.1.1.,.,.,.,.<.<.&.&.&.&.&.&.&.&.&.7.&.&.&.&.&.&.&.7.7.7.7.9.y.u.u.u.u.u.u.u.u.d.u.d.d.f.f.f.h.z.&.O 4 4 4 1 1 1 1 4 4 4 4 1 4 1 1 1 1 1 1 1 1 4 1 1 1 1 1 1 1 1 1 1 1 1 1 1 1 1 1 1 1 ",
"j j j j j j j j j j j j j j j j j j j j j j j j j j j j j j j j j j j j j j j j 6 aXnXvXvXvXcXcXvXvXvXvXvXvXbXbXvXvXvXvXvXvXvXcXcXcXzXzXzXlXzXlXlXlXlXlXkXkXkXkXkXkXdXdXdXdXsXpXpXyXyXyXqXqXqXqXqXqXqX0X0X1X1X1X1X1X1X>X;Xv.c.c.x.l.h.y.&.%.4.4.s.].jXZXHXLXHXAXAXHXJXHXHXKXIXKXKXDXDXKXKXKXKXGXGXGXFXFXFXFXFXFXCX$XOX}.I.V.A w e w 8 7 7 @ + + . . . .         .   . o % , j ) } ,.p.W.eXeXW.l.p.<.>.>.,.5.].rXgXLXIXHXAXBXS.S.H.S & x 3.3.3.3.3.3.3.>.>.-.-.-.4.-.} _ g , : * > > 7.,X| k.nXnXl.2 o o ; <.fXnXaX].s.4.4.) M g < = * * * - - - - - - - - - - - - - - - = = 0 q i e e 9 9 9 9 b +XSX/.b b U.NXCXSXD.r 9 b b b b x C C C M B B B B C C C C C ) ) ) _ C _ } ) M - , M } } [ [ [ [ } } =.=.=.=.=.=.=.=.=.=.=.} } } } _ _ C B B k g u u 1 , - * # X . . . . . . . . . + + + @ @ 7 7 w e v v v v v A V.~.OXCXFXFXFX%X%XFXGXGX%X%X&X%X&X&XFXFXFXFXFX%X#X`.`.U.[..X^.D.C.C.m.M.M.S./.+XXX@XVXFXJXJXJXJXJXJXVXXXVXPXPXJXJXJXJXJXJXDXMXoX X'.Y.1.-.1.,.,.,.,.,.,.&.&.&.&.<.<.9.9.$.7.$.7.&.&.7.7.7.7.9.9.9.9.q.q.u.u.q.u.u.u.u.u.d.d.f.d.h.k.$.O 4 4 4 1 1 4 4 4 4 4 1 1 4 4 4 4 1 1 1 1 1 1 1 1 1 1 1 1 1 1 1 1 1 1 1 1 1 1 1 1 1 ",
"j j j j j j j j j j j j j j j j j j j j j j j j j j j j j j j j j j j j j j j j 6 aXnXcXvXvXcXcXvXvXvXvXvXvXvXvXvXvXvXvXvXvXcXcXcXcXzXzXlXlXlXlXlXlXlXlXkXkXkXkXkXkXdXdXdXsXsXpXyXyXyXqXqXqXqX0XqX0X0X0X1X1X<X<X>X>X>X,Xv.v.h.h.i.i.i.%.{ 4.'.rXjXHXJXJXJXAXhXhXAXJXJXVXVXKXKXKXKXDXFXGXKXKXGXGXFXFXFXFXFX%X$XOXI.V.N.A e e w 7 7 7 @ + + + + . .               o o O % , j ] %.y.p.b.W.W.W.l.p.p.,.>.p.p.Y.rXrXgXPXPXPXPXMXS.S.J.S & z 3.5.5.5.5.5.3.3.3.3.3.4.5.4.4.=.u < > > > o 2 k.h.6.v.zXnXv.~ L i.xXnXaXb.s.4.{ { M M < * - * * - - - - - - - - - - - - - - - - - = q i e r r 9 9 9 r (.SXSX+XXXQ.N.S.^.(.S.9 9 9 b b b x V C C M B C B B C C C ) C ) ) ) C C ) ) B 1 , k [ } [ [ } } } } =.=.=.=.=.=.=.=.=.=.} } } } } } [ _ C V B M k g g u 1 < = * % # # # # X X X X . + + + + + @ @ @ @ 8 w v b e e e e A V.I.#X$XFXFX%X%X%XGXFX&X%X%X%X&X&X&X%X%XFX%X#X#X`.}.!.{.|.(.D.D.D.^.(.+X+XCXFXFXFXJXJXJXJXSXSXCXMXMXJXPXPXIXIXKXKXKXKXFXDXVXhXoX'.K.5.>.>.5.>.:.:.:.:.:.,.<.<.<.$.$.$.$.$.$.$.7.7.7.9.9.9.9.9.9.q.u.u.y.u.u.u.u.u.u.d.d.u.f.h.#.o 4 4 4 4 1 1 4 4 4 4 1 1 4 4 4 1 1 1 1 1 1 1 1 1 1 1 1 1 1 1 1 1 1 1 1 1 1 1 1 1 1 ",
"j j j j j j j j j j j j j j j j j j j j j j j j j j j j j j j j j j j j j j j j 6 aXvXzXvXcXcXcXvXvXvXvXvXvXvXvXvXvXvXvXvXvXvXvXcXcXlXlXlXlXlXlXlXlXlXlXkXkXkXkXkXkXdXdXdXsXsXpXyXyXyXqXqXqXqX0X0X0X3X3X1X1X<X<X;X;X;Xv.v.l.h.i.i.4.4.s.'.jXZXHXPXIXHXVXhX X XhXAXJXVXoXDXJXFXFXGXGXGXGXGXGXFXFXFXFXFX$X$X}.P.N.A e w w w 7 @ @ + + + . . . .               o o O % , 4 B ] :.i.b.W.W.W.W.s.p.p.p.>.5.Y.T.E.gXgXgXHXPXPXPXhXS.S.H.*.7 z 3.5.5.5.5.5.5.5.5.5.5.5.5.5.s.:.M 1 , , : o o > h.h.#.d.xXnXnXuXfXxXaXb.4.:.{ ) M < < * - - * - - - - - - - - - - - - - - - - - = q i r r 9 9 9 9 9 M.SXSXVXMXSXCXA.w e M.9 9 9 9 b M.b v V C C B C C C C C C _ { _ ) C C C _ ) M < , g _ [ [ [ } } } } } =.=.=.=.=.-.-.=.=.} } ] ] ] } } [ [ ) ) C B B M k g u u < , - * * * * * * * * % # # # + + + + + + + @ @ 8 w r v b e e b N.I.}.#XCXCX%X%X%X%X%X&X%X&X&X&X&X&X&XFXFXFX$X#XXX}.}.^.(.I.(.OX@X#XVXFXJXFXFXKXJXCXNX(.^.7XNXCXSXSXSXJXJXKXKXKXKXKXGXGXFXDXMXoX[.'.R.K.5.3.>.-.:.:.=.,.,.=.<.@.$.$.$.$.$.$.7.7.7.9.q.9.9.9.9.9.9.9.y.y.u.u.u.u.u.u.u.u.f.#.o 3 4 4 4 1 1 4 4 4 4 4 1 4 4 4 4 1 1 1 1 1 1 1 1 1 1 1 1 1 1 1 1 1 1 1 1 1 1 1 1 1 ",
"j j j j j j j j j j j j j j j j j j j j j j j j j j j j j j j j j j j j j j j j 6 aXvXzXvXcXcXcXvXvXvXvXvXvXvXvXvXvXvXvXvXvXcXcXcXlXlXlXlXlXlXlXlXlXlXkXkXkXkXdXdXdXdXdXsXsXsXpXyXyXyXqXqXqX0X0X0X3X3X1X1X<X<X;Xv.v.b.b.b.l.p.p.p.s.].jXHXPXIXIXIXJXVXoXoXoX@XVXDXJXVXDXGXFXFXGXGXGXGXGXGXFXFXFXCX$XOXI.V.N.N.e w w 7 7 @ + + . . .                     . o O : * 1 j / ] :.4.p.b.W.W.W.W.W.s.p.p.p.p.W.rXgXjXgXrXjXLXPXPXhXS.S.J.1.7 i 5.K.5.s.s.K.K.K.K.K.s.s.T.T.s.:.M , 4 > O O     6 k.h.u.k.nXmXuXeXaXeXl.+.} ) M M < < - - - - - - - - - - - - - - - - - - - - = q i e r 9 9 9 9 9 9 S.SXSXAXNXAXAX.XS.M.9 9 9 n.n.M.M.A.x V C C C C C V C C C ) _ ) C C ) _ [ M 1 , u ) _ _ [ } } } } } } =.=.=.=.=.:.-.=.=.} } ] ] ] ] } [ [ _ ) ) V B B M M g g u 1 < < < , , , , , , - * * & & & & $ @ + + + + @ @ 7 w b b b b b N.N.V.I.#X$X$X%X%X%X%X%X%X%X&X&X&X&X%X%X%XFXDXCX#XOXOXOXI.OX#XCXCXDXFXJXKXJXJXMXP.S.D.C.C.(.7X7X/.^.@XCXKXKXGXGXGXGXGXGXGXFXDXDX#XoXoX'.K.K.3.3.-.-.=.=.o.@.$.$.$.<.<.$.<.9.9.9.9.9.9.9.9.9.9.9.9.9.y.y.9.9.u.u.u.u.u.u.+.o 3 4 4 4 1 1 4 4 4 4 4 1 4 4 4 1 1 1 4 4 4 1 1 1 1 1 1 1 1 1 1 1 1 1 1 1 1 1 1 1 1 ",
"j j g j j j j j j j j j j j j j j j j j j j j j j j j j j j j j j j j j j j j j 6 aXvXcXvXcXcXcXvXvXvXvXvXvXvXvXvXvXvXvXcXcXcXcXcXzXlXlXlXlXkXlXlXkXkXkXkXdXdXdXdXdXsXsXsXsXpXyXyXqXqXqX0X0X0X0X9X1X1X1X1X;X;Xv.v.v.b.b.b.l.l.W.aXnXHXLXIXIXIXKXKXJXVX@X@XMXVXCXCXFXFXKXKXGXGXKXGXGXFXFXFXCX$X#XI.V.N.A e e w w 7 @ + + . . .                       . X O % : , 4 j / @.,.y.p.l.s.W.W.W.W.W.s.s.p.T.W.W.gXgXgXgXE.jXPXPXPX7XS.S.J.1.0 i 5.T.K.T.T.T.T.T.T.T.T.T.].T.5.} 1 1 g *     o   o ! v.,Xv.uXwXy.f.uXrXp.Q ) V u u u = < - - - - - - - = - - - - - - - - - - = 0 i v r 9 9 9 9 9 9 9 N.SXJXVXVXVXSXSXSX(.n.n.n.n.n.M.M.A.b S C C C B C V C C C C C C ) [ [ _ B , , M ) [ ) _ } } } } } } } =.=.=.=.=.-.-.=.=.=.} } ] } } } [ [ [ _ ) ) C V B M M g g u u 1 u 1 1 1 1 1 1 < , , , , , , , - & & # + + + @ @ @ 8 e b b b b e e N.V.}.$X$X%XFXFX%X%X%X%X%X&X%X%X%X%X%XFXDX$X$X$X#X$XDXFXFXFXFXJXKXDXMXP.M.M.C.C.C.C.C.D.D.D.CXFXKXFXFXGXGXGXGXGXGXGXGXKXFXDXVX#XoXoX'.K.5.-.-.=.=.,.0.0.0.,.<.<.<.<.<.9.9.9.q.9.q.9.9.q.9.9.9.9.7.7.7.u.u.q.q.u...o 3 4 4 1 4 4 4 4 4 4 4 4 4 4 1 1 1 1 1 1 4 1 1 1 1 1 1 1 1 1 1 1 1 1 1 1 1 1 1 1 1 ",
"j j g g j j j j j j j j j j j j j j j j j j j j j j j j j j j j j j j j j j j j 6 aXvXzXvXcXcXcXcXvXvXvXvXvXvXvXvXvXvXcXcXcXcXcXcXzXlXlXlXlXkXkXkXkXkXkXdXdXdXdXdXsXsXsXsXpXpXyXyXqXqX0X0X0X9X9X9X1X1X>X>X>Xv.v.v.l.l.l.W.'.aXnXHXLXPXIXIXKXKXKXKXFXDXVX@X@X#XCXCXFXGXGXGXGXGXGXGXFXFX$XOX`.I.V.N.A e w 8 7 7 @ + + + . .             . .         X O * > 1 4 j W ` o.:.<.p.s.b.W.W.W.W.W.W.W.T.T.W.W.rXgXgXgXgX].jXPXPXSX/.S.S.J.S.0 i H.T.T.T.T.T.T.T.'.'.'.'.].s.-.C M N 3 %     o o o ; ! u.wXwXf.7.b.eXb.4.j 4 M < < < = - - , , = = = = = - = = = - - - - = 0 0 w v b 9 9 9 9 9 9 9 b F VXVXhXoXNXSXSXSXD.n.n.n.n.n.n.M.A.F S C C C B C V C C C M M B ) } C g < < k } } _ ) } } } } } } } } =.=.=.=.=.-.-.-.=.=.} } } } } } } } } [ _ ) ) C V B M M M g g g g g d u u u u u u u u u d g u u t t & & & # + + @ @ 8 8 w e b b b e e N.V.I.OX$XCXFXFX%X%X%X%X%X%X%X%X%X%X%X%X%X%X%XFXFXFXFXGXGXJXHXMX.XP.D.C.M.C.C.C.C.C.D.D.OXCXFXFXFXFXGXGXGXGXGXGXGXGXGXGXFXFXDXVXjXoXR.K.5.5.1.,.,.,.,.,.<.<.<.<.<.<.$.7.9.9.9.9.9.9.9.9.9.7.7.7.7.7.7.7.q.u...o 3 4 4 4 4 4 4 4 4 4 4 4 4 4 1 1 1 1 1 1 1 1 1 1 1 1 1 1 1 1 1 1 1 1 1 1 1 1 1 1 1 ",
"j j g g j j j j j j j j j j j j j j j j j j j j j j j j j j j j j j j j j j j j 6 aXvXzXzXcXcXcXcXcXvXvXvXvXvXvXvXvXvXvXcXcXcXcXcXzXlXlXkXkXkXkXkXkXkXdXdXdXdXdXdXsXsXsXsXpXyXyXqXqXqX0X0X0X9X9X9X1X1X>X:Xb.b.b.h.<.p.rXxXZXLXPXLXHXHXPXJXHXHXJXDX`.`.`.#XCXFXFXFXKXGXFXFXFXFXFXFX#X`.I.V.N.N.e e w 8 7 @ @ + + + + .                 . . X X O % * : , 4 P ` @.@.@.<.<.p.l.W.W.W.W.W.W.W.W.T.T.W.5XrXrXgXgXgXrXE.BXPXPXSX7XD.S.J.S.0 i H.T.T.E.E.'.'.'.'.'.'.'.'.5.[ M ) g * X       o o o O > 7.b.g.f.eXh.+.Q j 1 1 < < < < < , , , , , , , , , = , , , , = - = 0 i v r 9 9 9 n.9 9 9 A.XXJ.Q.VXVXBXVXMXCXMXM.n.n.n.n.n.n.b A.;.*.C C C C C C C C C B B B C C u - , C } [ [ ) _ } } } } } } } } =.=.=.=.=.-.-.-.=.=.=.=.} =.} } } } } [ _ _ ) ) ) C V M M M g g M g g g g g g g g g j M M M k c u f f t t , & $ + @ @ @ 7 8 w e b N.b e e e N.I.OX$X$X%XFX%X%X%X%X%X%X%X%X%X%X&X&XFXFXFXGXGXGXFXJXDXAXAXNXNX(.D.C.C.C.m.C.C.C.N.OXFXFXFXFXFXGXGXGXGXGXGXGXGXGXGXKXKXJXDXVXBXoX[.Y.H.5.,.,.,.$.<.@.@.$.<.<.9.<.9.9.9.9.<.9.&.&.9.7.7.7.7.7.7.7.7.u. .o 4 4 4 4 4 4 1 1 4 1 4 4 4 4 1 1 1 1 1 1 1 1 1 1 1 1 1 1 1 1 1 1 1 1 1 1 1 1 1 1 1 ",
"j j g g g g j j j j j j j j j j j j j j j j j j j j j j j j j j j j j j j j j j 6 aXvXzXzXcXcXcXcXcXvXvXvXvXvXvXvXvXvXvXcXcXcXcXzXzXlXlXkXkXkXkXkXkXdXdXdXdXsXsXsXsXsXpXpXpXyXyXqXqXqX0X0X0X9X9X8X1X,X:Xb.b.b.b.s.W.jXLXLXPXLXZXjXjXHXPXJXKXKXKX#X`.#XFXFXFXFXFXFXFXFXFXFX$X#XOX`.V.N.A v v e 8 7 @ + + + + . . . .             o o X X % % % * > , 4 j ~ ] @.<.<.<.i.p.l.s.W.W.W.W.W.W.W.s.Y.T.W.rXgXrXrXgXgX].E.BXPXSXAXNX/.S.S.S.y t H.T.T.'.'.'.'.'.'.'.'.'.T.5.C M M , X     o o   o o     ; ! +.y.i.~ 6 N 4 1 u 1 < < < < < , , < < < < < < = , , = = < = 0 i v b r 9 9 n.9 n.9 b ^.VXoX;.Q.NXVXMXVXCXD.n.n.n.n.n.n.9 b b S.*.x M V C C C C C C ) ) C M g - < M } } C ) _ [ } } } } } } } } } =.=.=.=.=.=.=.=.=.=.=.=.=.=.=.} } } [ [ _ _ _ ) ) C C V B M M M M M M M M j j j M M M B B B V V V c V l k f p t & $ @ @ @ @ 7 w w v b b e e e N.V.I.OX$X%XFX%X%X%X%X%X&XFXFXFXGXGXDX#X#X#X#XVXVXDXJXCX!./.(.(.D.D.D.m.C.C.D.OX$XCX%XFXGXGXGXGXGXGXGXGXGXGXGXGXGXGXKXKXKXJXHXVXhXE.H.1.1.,.o.<.@.@.$.$.<.<.<.<.9.<.<.<.<.<.&.7.7.7.7.7.7.7.7.7.7. .o 4 4 4 4 4 4 1 1 4 1 4 4 1 1 1 1 1 1 1 1 1 1 1 1 1 1 1 1 1 1 1 1 1 1 1 1 1 1 1 1 1 ",
"j j j j g g j j j j j j j j j j j j j j j j j j j j j j j j j j j j j j j j j j 6 fXvXzXzXzXcXcXvXvXvXvXvXvXvXvXvXvXvXvXcXzXzXzXlXlXlXkXkXkXkXkXdXdXdXdXdXdXdXdXdXsXsXpXyXyXyXyXyXqXqXqX0X9X8X8X8X8Xb.b.b.'.'.gXZXLXPXPXLXZXgXR.BXAXPXIXIXKXKXKXGXFXGXGXGXGXFXFXFXFXCX$XOXI.V.A e e e w 8 7 @ + + + . . .     .               X O % % * > < 1 d d j W ] } @.>.i.i.i.p.s.s.W.W.W.W.W.W.W.T.W.W.W.rXgXgXrXrXgXgXE. XZXAXBXSXAXD.S.S.J.y 0 H.E.T.'.'.'.'.'.'.'.T.T.s.=.C B 1 O         o o o o o o o o ; 3 3 o : N g , 1 1 < < < < < < < < < < < < < < = = = = u i q i v r 9 9 9 n.n.n.9 D.VXVXAXMXF.{.SXJXCXD.n.n.n.m.n.n.n.9 b R Y.*.x V ) V M c V V C [ [ B < 1 C ) ) ) ) ) _ [ [ [ } } } } } } } =.=.=.=.=.=.=.=.=.=.=.=.=.=.=.=.} } } } [ [ [ [ _ _ _ _ ) C ) V B B B B B B B B B B V C ) ) ) ) ) ) ) ) ) ) / / V x t - & @ + @ @ @ 7 8 w e e b e e e N.P.OX$X$X%X%X%X%X%X%X%XFXFX&X`._.V.V._.V.`.#X#XL.N.N.N.I.OX$X(.I.I.^.OX$X$X$X%X%XFXGXGXGXGXGXGXGXGXGXGXGXGXGXGXKXJXFXJXJXAXBX XE.H.1.*.,.<.$.<.<.<.<.<.<.<.&.&.<.<.<.<.&.&.7.7.7.7.7.7.7.9.^ O 3 4 4 4 4 4 4 1 1 1 4 4 1 1 1 1 1 1 1 4 1 1 1 1 1 1 1 1 1 1 1 1 1 1 1 1 1 1 1 1 1 ",
"j j g j g j g g j j j j j j j j j j j j j j j j j j j j j j j j j j j j j j j j 6 aXvXzXzXzXcXzXvXcXvXvXvXvXzXzXcXcXcXcXzXzXzXlXlXkXkXkXkXkXkXkXdXdXdXdXdXdXdXdXdXsXsXsXyXyXyXqXqXqXqXqX0X9X8X,X,Xb.b.s.'.gXZXPXIXIXJXHXjXR.R.oXJXPXIXIXIXIXKXKXKXGXGXGXGXFXFXCX@XOX~.P.N.F e w w 7 7 7 @ + + + . . . .     . o       o O O O * : , , 1 d B B ) ` [ } :.,.,.4.p.p.p.p.s.W.W.W.W.W.W.W.W.W.W.].].rXgXrXE.].gXgXE.E.gXBXAXPXBXS.S.S.J.y 0 H.E.T.'.'.'.'.'.'.T.T.5.>.C C B *                 o o o         o   o 4 6 , 1 u < < < u < < < < < < < < < < = = u u i i i v r 9 9 n.n.n.9 n.D.NXCXNXSXHXMX+X+X+XD.n.n.n.n.n.n.n.n.r b R *.*.*._ ) C V V V V _ _ B 1 - u ) ) ) ) ) ) _ _ [ [ } } } } } } } } } } } =.=.=.=.=.=.=.=.=.=.=.=.} } } } } } } } [ [ _ _ _ ) ) ) ) C V V B B B B B V V ) ) ) ) ) _ _ _ _ _ _ _ } =._ V V c u t 0 @ + @ @ @ 7 8 e b b e e e N.N.I.OX$X$XCXFX%X%X%X%X%X$X#X#X#X#X#X#X#X#X#X#X@X$XCXCXCX$X$XCXCXFXCX%X%X%X&XGXGXGXGXGXGXGXGXGXGXGXGXGXFXFXFXFXJXJXSXVXNX/.E.Y.S.1.,.<.$.<.<.<.<.<.<.<.,.,.,.,.,.,.&.&.&.&.&.7.7.7.7.7.^ O 3 4 4 4 4 4 4 4 1 1 1 1 1 1 1 1 1 1 4 4 1 1 1 1 1 1 1 1 1 1 1 1 1 1 1 1 1 1 1 1 1 ",
"g g g g j j j j j j j j j j j j j j j j j j j j j j j j j j j j j j j j j j j j 6 aXvXzXzXzXzXzXzXzXzXzXzXzXzXzXzXzXzXzXzXlXlXlXlXkXkXkXkXkXkXdXdXdXdXdXdXdXdXsXsXsXsXuXyXyXyXqXyX0X0X0X9X9X8X8Xb.b.'.].jXHXIXIXIXHXjX XR.H.R.MXJXJXJXKXKXKXKXKXKXGXGXGXFXCX@X}.P.N.F v e w 8 7 @ @ @ + + + . . . .   o o o O O     O % * * , < 1 g k B / _ } } } :.,.,.4.4.4.p.p.p.s.W.W.W.W.W.'.'.'.'.].].rXrXrXrXW.E.E.gXrXE.Y.E.BXPXPXBXD.S.S.J.y 0 5.E.T.'.'.'.'.].'.T.5.1.-.C ) d X                       o o o         , g , < u < < < < u < < u u u < < < < = 0 q i i i e r 9 9 9 n.n.n.9 M.+XSXJXAXVXSXSX+XN.M.m.n.n.m.n.n.n.n.b M.b y t c *._ V C ) ) V ) V g - , M ) ) ) ) ) ) ) _ _ [ [ [ } } } } } } } } } } =.=.=.=.=.=.=.=.=.=.=.=.} } } } } } } } [ [ _ _ _ ) ) ) ) ) C C V B V V V V ) ) _ _ _ _ _ _ _ [ [ [ [ } =.} } } } ) c c p t 0 & $ @ @ 7 8 w b b e e e e N.G.}.$XCXCXFXFXDX%X%X%XFXFXFXFXFXFXDXFXFXFXFXFXFXCXCXFXFXFX%XFX%X%X%X%X&X&X&X&X&X&X&X&XGXGXGXFXFXFXFXCXCXVXMX.XL.S.Y.S.S.1.1.,.<.$.$.<.$.<.<.<.<.$.$.<.$.,.&.&.&.&.&.&.&.7.7.7.7.^ O 3 4 4 4 4 4 4 4 1 4 1 1 1 1 1 1 1 1 1 1 1 1 1 1 1 1 1 1 1 1 1 1 1 1 1 1 1 1 1 1 1 ",
"g g g g j j j j j j j j j j j j j j j j j j j j j j j j j j j j j j j j j j j j 6 aXvXzXzXzXcXzXzXzXzXzXzXzXzXzXzXzXzXlXlXlXlXkXkXkXkXkXkXdXdXdXdXdXdXdXdXsXsXsXsXsXsXuXyXyXqXqX0X0X0X0XqX8X8X).b.'.jXHXKXIXIXIXJXVX[.F.F.L.oXVXCXCXCXJXJXKXKXKXGXFXCX#XOX`.G.F Z e w 8 8 @ @ + + + + . . . . . o o o % > 2 2 > o o : 1 4 g N B ) ) _ _ [ } :.:.:.,.,.4.4.4.p.p.p.s.W.W.W.W.W.'.'.].].].rXrXrXrXrX].T.Y.W.gXrXE.E.hXSXPXPXNXS.S.S.J.b 0 1.E.T.'.'.'.'.'.'.T.3.-.[ _ C :                                       > g 1 < u 1 < < 1 u u u u u u u < < u u t q i v e r 9 9 9 n.n.n.n.b b !.SXPXJXJXJXSX^.9 9 m.n.n.n.m.m.n.b C.S.s & & u V V V V ) _ ) ) u , , M =.[ ) ) ) ) ) ) _ _ [ [ [ } } } } } } =.} } } } =.=.=.=.=.=.=.=.=.=.=.} } } } } } } } [ [ _ _ _ ) ) ) ) ) C C C C C C ) ) ) _ _ [ [ [ [ [ [ } } } } } } } =.:.:.=._ -.*.V x x z 0 $ @ @ @ 8 w r v b e e e b N.I.OX#XCXFXFXFXFX%XFXFXFXFXFXFXFXFXFXFXFX%XFXFXFXFXFX%XFXFX&X&X&X&X&X&X&X&X%X%X&XGXGXGXFX$X$X@X}.G.A.A.A.*.s x Y *.1.0.$.$.$.@.$.$.<.<.$.<.$.$.$.$.&.$.$.&.&.%.&.&.&.&.&.7.^ O 3 4 4 4 d d 4 4 1 1 1 1 1 1 1 1 1 1 1 1 1 1 1 1 1 1 1 1 1 1 1 1 1 1 1 1 1 1 1 1 1 ",
"g j j j g g j j g g j j j j j j j j j j j j j j j j j j j j j j j j j j j j j j 6 aXvXzXzXzXzXzXzXzXzXzXzXzXzXzXzXzXlXlXlXkXkXkXkXkXkXdXdXdXdXdXdXdXdXdXsXsXsXsXsXsXsXuXyXyXyXqXqX0X9XwXwXb.a.a.rXZXKXKXKXKXKXKXKXJXJXVX#XVXJXJXFXFXDXFXJXJXJXFXCX@X`.V.N.A e w w 7 $ @ @ + + . . . . o o o % % ; > 2 3 L ! ~ 3 O O 4 W ) { } } } } =.=.:.,.,.,.,.4.4.p.p.p.p.p.s.W.W.W.W.'.].].rXrXrXrXrXrXrXrX].W.p.Y.E.gX XE.rXAXPXPXPXMXS.S.S.L.b 7 3.R.T.'.E.E.T.T.T.s.1.*.-.[ u X                             o o o   X * g u 1 u u < 1 1 u u u u u u u u u u u q i v v r 9 9 9 n.n.n.D.(.+X+XQ.Q.VXJXJXJXCXN.n.m.n.m.m.m.m.M.b M.S.b 0 t u u B V V C V V C g , , C =.} _ ) ) ) ) ) _ _ _ [ [ } } } } } } } } } } } } } =.=.=.=.=.=.=.=.=.=.} } } } } } } [ [ [ _ _ _ ) ) ) ) ) ) ) C ) ) ) ) ) _ [ [ } } } } } } } } } } =.:.=.:.4.4.>.=.:.>.:.=._ *.x p t $ + @ @ 7 8 r b b b b e e A V.~.#XCXFXFXFXFXFXFXFXFXFXFXFXFXFX%X%X%X%X%X%X&X&X&X&X&X&X&X&X&X&X%X&X%X%X%XFXFXFX$XOXI.V.N.F v v y a y s z Y *.@.$.@.@.$.$.$.$.$.$.$.$.$.$.$.$.$.$.$.%.&.&.&.&.&.&.7.Q O 3 4 4 4 4 4 4 1 1 1 1 1 1 1 1 4 1 1 1 1 1 1 1 1 1 1 1 1 1 1 1 1 1 1 1 1 1 1 1 1 1 ",
"j j j j g g j j g g j j j j j j j j j j j j j j j j j j j j j j j j j j j j j j 6 aXvXzXzXzXzXzXzXzXzXzXzXzXzXzXzXlXlXlXkXkXkXkXkXkXdXkXdXdXdXdXdXdXdXdXdXsXsXsXsXsXsXyXyXyXqXqXqX9X9XwX).a.).jXHXKXKXKXKXKXKXKXKXKXKXJXDXFXJXFXJXJXJXJXJXCXVX}.I.G.N.e w w 7 @ @ + + + + + . . . o o ; ; , 2 2 K I ~ X.$.$.#.3 o ; j ] @.:.:.,.,.,.,.,.>.4.4.4.4.i.p.p.p.p.s.s.s.W.W.W.'.].].rXrXrXrXrXrXrX].].W.Y.5.5.E. X/.E./.AXPXPXSXMXS.S.S.E.*.7 1.R.T.'.T.T.T.T.T.5.1.*.:._ *                     o o o % % % % * * * * g M u u M u u u u u u u u u u u u u u i v b e 9 9 9 n.n.9 C.CXSXSXJXVXR.R.VXJXCX(.M.n.n.m.m.m.m.n.M.M.N.b & & u V M M V ) C C B , * u ) =.=.V C ) ) ) ) ) _ _ _ [ [ } } } } } } } } } } } } } } =.=.=.=.=.=.=.=.=.} } } } } } } [ [ [ [ _ _ ) ) ) ) ) ) ) ) ) ) ) _ _ [ [ } } } } } } } =.=.=.=.=.:.:.:.>.4.,.:.=.>.4.4.>.>.=.( ( x t 0 $ @ @ @ 8 w b b b b e e A N.P.}.#XCXFXFXFXFXFXFXFX%X%X%X%X%X%X%X%X%X%X&X&X&X&X&X&X&X&X&XGXGXGXFXFXFXCX#X`.G.F v v b v y a s x *.*.*.,.=.$.@.$.$.$.$.$.@.$.$.$.$.$.$.$.$.$.$.$.%.&.&.&.&.&.&.~ O 3 4 4 4 4 1 1 1 1 1 1 1 1 1 4 1 1 1 1 1 1 1 1 1 1 1 1 1 1 1 1 1 1 1 1 1 1 1 1 1 1 ",
"j j j j g g g j g g j j j j j j j j j j j j j j j j j j j j j j j j j j j j j j 5 aXzXzXzXzXzXzXzXzXzXzXzXzXzXzXzXlXkXkXkXkXkXkXkXkXdXdXdXdXdXdXdXdXsXsXsXsXsXpXpXyXyXyXyXyXtXqX0X9X9X8X).eXnXHXIXKXKXKXKXKXKXKXKXKXKXKXFXFXFXFXKXFXFXCX@X}.P.A.N.b w 8 7 @ @ + + + + . . o o o ; ; 2 J I T |  .X.#.8.q.u.q.7.5 O > ~ @.>.,.,.,.,.4.4.,.4.5.p.p.p.p.p.p.s.s.s.T.W.W.W.'.'.].rXrXrXrXrXrXrX].].W.T.p.5.5.E././.E./.AXPXSXAXNXP.S.S.E.;.7 ;.R.T.'.T.T.T.T.5.5.-.-.4.g X                 o o O % : * % O O O O X X g M u u M u M M M u M M u u u u u u u i v b r 9 9 n.n.n.M.(.SXJXJXJXJXAXXX!.CXSXD.m.m.n.n.m.n.n.M.M.R s 0 & - u B M B ) _ C g u , < C _ C V ) } ) ) ) ) ) _ _ [ [ [ } } } } } } } } } } } } } } } =.=.=.=.=.=.=.} } } } } } } } [ [ [ [ _ _ _ _ ) ) ) ) ) ) _ _ _ _ [ [ } } } } } =.=.=.=.=.=.=.:.:.:.:.:.:.:.:.=.:.>.4.4.4.4.>.>.:.*.V p 0 $ + + @ @ 8 r b b b b e e b N.P.OX#XCXCX%X%X%X%X%X%X%X%X%X%X%X%X&X&X&X&X&X&X%X%X%X%XGXFXGXFXFX$XOXI.G.F Z e w i y v *.*.1.1.*.( o.o.@.@.@.@.@.@.@.@.@.@.@.@.@.@.@.@.$.$.$.$.%.&.&.&.&.&.Q O < 4 4 4 4 1 1 4 1 1 1 1 1 1 1 1 1 1 1 1 1 1 1 1 1 1 1 1 1 1 1 1 1 1 1 1 1 1 1 1 1 ",
"j j j j g g g j g g g j j j j j j j j j j j j j j j j j j j j j j j j j j j j j h aXzXzXzXzXzXzXzXzXzXzXzXzXzXlXlXlXlXlXlXkXkXdXkXkXdXdXdXdXdXdXdXdXsXsXsXpXyXyXyXyXyXyXyXyXtXqX9X9X8X'.].jXLXIXIXKXKXKXKXKXGXGXGXKXGXGXGXFXFXFX$X#X}.I.A.N.b b r 8 8 @ + + + . . . . . o ; , 2 J I T X.8.8.8.8.8.q.w.f.f.f.q.5 O 3 +.<.4.4.,.,.,.4.4.4.p.p.p.p.p.p.s.s.s.T.W.W.W.'.'.].].].rXrXrXrXrXrXrX].W.W.s.5.5.5.E././.E./.JXPXZXAXAX/.S.J./.;.7 ;.R.T.'.T.T.T.Y.5.4.-.-.:.-                 o X O O % * : : % O O O X X g M u u M u M M u M M M M u u u u u i b b r 9 9 n.n.n.n.D.CXJXJXJXJXAXJXVXB.P.D.C.n.m.n.n.m.m.M.C.N.s 0 & t f u g M ) [ ) M < * g [ [ _ _ ) _ ) ) ) ) ) _ _ _ [ [ [ } } } } } } } } } } } } } } } } =.=.=.=.=.=.} } } } } } } } } } [ [ _ _ _ _ ) ) ) ) _ _ _ _ _ [ [ } } } } } } =.=.=.=.=.:.:.:.,.:.:.:.>.4.>.:.:.>.4.4.>.:.>.>.>.>.-.*.( z t & & @ @ @ @ 8 w v b b e e e A V.`.OX$XDX%X%X%X%X%X%X%X%X%X%X%X%X&X&X&X%X%X&X%X%X%XFXFXCX#X}.G.F Z v v v S.Q.E.1.*.*.1.5.,.=.=.o.@.@.@.@.@.@.@.@.@.@.@.@.@.@.@.%.%.$.$.$.$.%.&.&.%.&.Q O < 4 4 4 1 1 1 4 1 1 1 1 1 1 4 1 1 1 1 1 1 1 1 1 1 1 1 1 1 1 1 1 1 1 1 1 1 1 1 1 1 ",
"j j g g j j j j j j j j j j j j j j j j j j j j j j j j j j j j j j j j j j j j 5 aXzXfXfXzXzXzXzXzXzXzXzXzXzXlXlXlXlXkXkXkXkXkXkXdXdXdXdXdXdXdXsXsXsXsXpXpXyXyXyXyXyXyXtXtXtXwX8X).).'.jXHXIXIXKXKXKXGXGXGXGXGXFXFXGXGXFXFX$XOXG.V.N.b w w 8 8 @ + + + + . . . . .   . % 2 T o.#.8.w.w.w.w.j.j.j.j.j.k.k.f.q.6 O 3 +.4.p.4.4.4.4.4.5.p.p.p.p.p.p.s.s.s.W.W.W.W.W.'.].].].rXrXrXrXrXrXrX].W.W.Y.p.5.5.5.R././.E./.JXPXSXJXSXS.S.J./.1.7 ;.R.T.T.T.T.T.T.s.>.C 4.M X             O O * * : : : : > , > : : > * % , M M u M M M M M M M M M u u u u m S b M.n.n.n.n.n.9 M.7XSXJXJXJXJXJXJXVXM.9 9 m.m.m.m.m.m.M.C.S.b 0 & , f c c V { } ) d , , j _ _ _ [ _ _ _ _ _ _ _ _ _ _ _ [ [ [ [ [ } } } } } } } } } } } } } } } =.=.=.=.=.} } } } } } } } } } } [ [ _ _ _ _ _ _ _ _ _ _ _ [ [ } } } } } } } =.=.=.=.=.:.:.:.,.:.:.:.>.4.4.>.>.>.>.>.4.5.5.4.>.>.>.>.:.*.( z t & @ + + @ @ 8 r r v b b e e A V.`.#X$X$X$X%X%X%X%X%X%X%X%X%X&X&X&X%X&X&X%X%X%X$XOX`.I.B.b w w 8 8 i H.hXhXrXY.>.*.( ] o.=.o.o.@.@.@.@.@.@.@.@.@.@.@.@.@.@.%.@.$.$.$.$.$.%.%.%.%.! O < 4 4 4 1 4 4 1 1 1 4 4 1 1 1 1 1 1 1 1 1 1 1 1 1 1 1 1 1 1 1 1 1 1 1 1 1 1 1 1 1 ",
"j g g g j j j j j j j j j j j j j j j j j j j j j j j j j j j j j j j j j j j j 5 uXzXfXfXfXzXzXzXzXzXzXzXzXlXlXlXlXkXkXkXkXkXkXdXdXdXdXdXdXsXsXsXsXpXyXuXyXyXyXyXyXyXtXtXtX9X8X8X).'.oXDXKXKXKXKXKXKXGXGXGXGXFXGXGXFXCX@XI.V.B.A e w 8 7 @ @ + + + . . . . . . . . . O , ~ 9.w.w.f.j.*X*X*X*X*X*X*X*X*Xk.f.7.2 O 3 +.4.p.4.4.4.4.4.4.p.p.p.p.p.s.s.s.T.W.W.W.W.'.].].rXrXrXrXrXrXrXrX].'.W.T.s.5.5.5.5.R././.E.E.BXJXPXPXVXS.S.S./.S.7 ;.T.T.T.T.Y.s.T.5.-.-.-.* .         o X O O % % % O O O O O O O O O X X * g M u u M M M M M M M M f i i i F F b M.n.n.n.n.n.9 I.SXJXJXSXJXJXJXSX(.M.9 m.n.m.m.m.m.M.C.S.b y & & t k c V [ [ C g , < B _ _ _ _ _ _ _ _ _ _ _ _ _ _ _ [ [ [ [ [ [ } } } } } } } } } } } } } } } } =.=.=.=.} } } } } } } } } } } [ [ _ _ _ _ _ _ _ _ _ [ [ [ } } } } } } } } } =.=.=.=.:.:.:.:.:.:.:.,.>.>.>.4.4.4.4.4.>.4.4.4.4.>.>.>.:.:.=.( f t & & + + @ @ 7 8 w b b b v e e N.G.`.#X$X$X%X%X%X%X%X%X%X%X&X&X&X%X%X%X%X$X#XG.N.F b w 7 7 7 w i *.H.E.].rX].Y.>./ / ' ' ] o.o.@.@.@.@.@.@.@.@.@.@.@.@.@.@.+.+.#.$.$.$.$.%.%.! O < 4 4 4 1 1 1 1 1 1 4 1 1 1 1 1 1 1 1 1 1 1 1 1 1 1 1 1 1 1 1 1 1 1 1 1 1 1 1 1 1 ",
"j j g g j j j j j j j j j j j j j j j j j j j j j j j j j j j j j j j j j j j j 5 uXzXfXfXfXzXzXzXlXzXzXzXlXlXlXlXkXkXkXdXdXdXdXdXdXdXdXsXsXsXsXyXyXyXyXyXyXyXyXyXyXyXtXwX9XwX8X).'.].jXKXKXKXKXKXKXGXGXGXGXGXFXFXCX@X}.G.N.A e w 8 7 @ + + + + . . . . . . . # % % : , I $.w.z.z.*X*X*X*X*X*X*X*X*X*X*Xk.d.8.2 O 6 +.4.i.4.4.4.4.4.p.p.p.p.p.s.s.T.W.W.W.W.W.W.].].rXrXrXrXrXrXrXrX].].W.T.s.p.p.p.5.H.E././.E.H./.ZXPXPXSXP.S.S./.S.0 -.Y.T.T.T.s.5.s.>.=.4.B X .       . X X X X O X X X o o .               X 1 M M u M M M M M M M i i z i v F M.9 n.n.n.n.n.9 M.MXSXJXSXAXJXSXJX@XN.n.n.m.n.m.m.M.M.C.S.b 0 0 t t k c B _ [ B 1 , 1 B _ [ _ _ [ [ _ _ _ _ _ _ _ _ _ [ [ [ [ [ [ [ } } } } } } } } } } } } } } =.=.} =.=.=.=.} } } } } } } } } } } [ _ _ _ _ _ _ _ _ _ [ [ } } } } } } } } } } =.=.=.:.:.:.:.:.:.:.:.,.>.:.>.>.>.4.4.4.4.4.4.>.>.>.>.>.>.>.>.=.*.( f t & & + + + @ @ 8 w r b b v e e N.B.I.OX#X$X%X%X%X%X%X&X&XFXFX&X&X$X#X`.V.F v e w 8 7 w i v S 1.H.T.E.gXjXjXjXrXT.p.=.( ] o.o.@.@.@.@.@.@.@.@.@.@.@.@.@.@.+.+.#.#.$.$.+.%.E O < 4 4 4 1 1 1 1 1 1 1 1 1 1 1 1 1 1 1 1 1 1 1 1 1 1 1 1 1 1 1 1 1 1 1 1 1 1 1 1 1 ",
"j j g g g j j j j j j j j j j j j j j j j j j j j j j j j j j j j j j j j j j j 5 eXfXfXfXfXzXzXzXzXzXzXlXkXlXlXlXdXdXdXdXdXdXdXdXdXdXsXsXsXsXsXyXyXyXyXyXyXyXyXyXyXtXtX9X9XeX'.'.'.jXHXKXKXKXKXKXKXGXGXFXFX$X$XOXI.G.N.F v w 8 @ @ + + + . . . . . . . X # * , , d h P ..0.l.z.*X*X<X<X*X*X*X*X*X*X*X*Xk.g.8.2 ; n %.4.p.4.4.4.4.p.p.p.p.p.s.s.T.W.W.W.W.W.'.W.].].rXrXrXrXrXrXrX].].W.W.Y.p.5.p.s.5.H.E././.E.Y.gXAXPXPXSX/.S.S./.S.8 *.T.T.T.T.5.5.5.>.:.:., . .       X X X X X X X X X X X .             . X > M M u M M M M M M f i i i v N.b b n.n.n.n.n.9 9 e @XSXJXJXJXSXSXCXD.9 n.m.n.n.m.M.M.S.S.b y 0 t z f V ) / } B < * 1 B _ _ _ _ _ [ _ _ _ _ _ _ _ _ _ _ [ [ [ [ } [ [ } } } } } } } } } } } } } =.=.=.} =.} } =.} } } } } } } } } } } [ [ _ _ _ _ _ _ _ _ [ [ } } } } } } } } } =.=.=.=.=.:.:.:.:.:.:.:.:.,.:.>.>.>.>.4.4.4.4.4.>.>.>.>.>.>.>.>.>.:.=.] ( k t & # + + + + @ 7 w v b F F v e e N.G.`.#X$X%X%X%X%X%XFX%X$X$X#X_.A e v v w 8 w y F 1.1.5.Y.E.].].gXjXjXZXZXZXgXrX0.] ] ] o.@.@.@.@.@.@.@.@.@.@.@.@.@.+.+.+.#.$.$.+.%.E O < 4 4 4 1 1 1 1 1 1 1 1 1 1 1 1 1 1 1 1 1 1 1 1 1 1 1 1 1 1 1 1 1 1 1 1 1 1 1 1 1 ",
"j j j j g g g g j j g g j j j j j j j j j j j j j j j j j j j j j j j j j j j j 5 eXzXfXfXfXzXzXlXlXlXkXlXlXlXlXdXdXdXdXdXdXdXdXdXdXdXsXsXyXyXyXuXuXyXyXyXyXyXyXyXtXtXwX9X8X8X'.'.gXHXKXKXKXKXGXGXGXGXFXFX$X}.V.N.b v e w 7 @ @ + + .             . o # % , d k k l / ..,.w.l.b.:X<X<X*X*X*X*X*X*X*X*X*Xj.d.#.2 ; E &.4.i.4.4.4.5.p.p.p.p.s.s.W.W.W.W.W.W.'.].'.'.].rXrXrXrXrXrX].].W.W.Y.s.p.5.p.s.H.H.E././.E./.AXJXPXPXBXS.S.J./.S.8 *.Y.T.Y.T.5.5.4.4.5.V X . . . . X X X X X X X X X X X X X             X X * M M u M M M M M i i i i b b b M.n.n.n.n.n.n.9 e b N.@XJXJXJXSXSXD.n.n.n.m.m.m.n.M.N.A.b t & t z x V _ _ B C , > 1 k B ) _ _ _ _ [ [ [ _ _ _ _ _ _ _ [ [ [ [ [ } } } } } } } } } } } } } } } } } } =.} } } } =.} } } } } } } } } } } [ [ _ _ _ _ _ _ [ [ } } } } } =.=.} } } } =.=.=.=.=.:.:.:.:.:.:.:.:.,.:.,.>.>.>.>.>.4.4.4.>.>.>.>.>.>.>.>.>.>.>.:.=.] ( f , & % + + + + $ 7 8 r b b v e e e A N.`.#X$X$XFXFXDXCX#X#X`.B.e e w w w y S 1.1.Y.T.E.].].].].gXjXjXjXZXZXHXHXjXW.,._ ' o.o.@.@.@.@.@.@.@.@.@.+.+.+.+.+.+.#.%.+.%.E O < 4 4 4 4 1 1 1 1 1 4 1 1 1 4 4 1 1 1 1 1 1 1 1 1 1 1 1 1 1 1 1 1 1 1 1 1 1 1 1 1 ",
"j j j j g g g g j j g g g j j j j j j j j j j j j j j j j j j j j j j j j j j j 5 eXfXfXfXfXzXlXlXkXkXkXkXkXfXfXdXdXdXsXsXsXsXsXsXsXsXpXyXyXyXyXyXyXyXyXyXyXyXyXyXtXtX9X9X8X8X'.rXjXJXKXKXKXKXGXGXFXFX#XOXP.N.e w w 8 7 @ @ + + + .           . X % % , 4 j / ` ] ] o.,.0.w.f.l.z.:X*X*X*X*X*X*X*X*X*X*Xj.r.#.> ; n %.4.4.4.4.p.p.p.p.s.s.s.s.W.W.W.W.W.W.'.'.'.'.].rXrXrXrXrX].'.W.W.Y.s.p.5.p.s.s.H.Y.E././.L.hXPXPXPXSXhXS.S.J./.S.8 *.Y.T.Y.s.5.5.:.5.4.: .   . . . X X X X X X X X X X X X X             .   O u M g g M M M M i i i v b M.b M.n.n.n.n.M.M.N.@XNXA.A.NXSXSXNXD.n.n.n.n.m.n.M.M.M.A.b 0 - t u f M ) _ B d 1 , d B B B ) _ _ _ _ [ [ [ _ _ _ _ _ [ [ [ [ [ [ [ } } } } } } } } } } } } } } } } } =.=.} } } } } } } } } } } } } } } } } [ _ _ _ _ _ _ [ [ } } } =.=.=.=.=.=.=.=.=.=.=.=.=.:.:.:.:.:.:.:.:.:.:.:.>.>.>.>.>.>.>.>.>.>.>.>.>.4.>.>.>.>.>.,.:.=.=.] / f , & # + + + + @ @ @ 8 v b b e e e A N.I.#XFXFXFXCX#X`.B.v e w w i S ;.H.Y.Y.E.E.E.'.].].].rXgXgXjXjXjXZXZXLXLXgX=._ ] ] o.@.@.@.@.@.@.@.@.@.+.+.+.+.@.@.@.+.%.E O < 4 4 4 4 1 1 1 1 4 4 1 1 1 1 1 1 1 1 1 1 1 1 1 1 1 1 1 1 1 1 1 1 1 1 1 1 1 1 1 1 ",
"g g g g j g j j j j g g g j j j j j j j j j j j j j j j j j j j j j j j j j j j 5 eXfXfXfXfXfXkXkXkXfXfXkXfXfXfXdXuXuXsXsXsXsXsXsXpXpXpXyXyXyXyXyXyXyXyXyXqXqXqXyXtX0X9X8X8X).).jXHXKXKXKXFXFX$X#XOX`.G.A e w w 7 @ @ + + + + + .         X O * > 2 5 j Q } =.,.=.:.,.0.i.w.w.f.z.z.z.*X*X*X*X*X*X*Xj.k.f.r.O.> O 6 +.2.4.4.4.4.p.p.s.s.s.s.s.s.s.s.s.W.W.'.'.'.'.].rXrXrXrX].'.W.T.Y.p.p.p.p.p.p.5.Y.Y.E././.E./.PXIXPXAXhXS.S.J./.S.0 S H.T.Y.s.4.:.:.4.B X     . . O O % * * * * O X X X X X X X             . X , M M g M M M i i i v b b b 9 M.n.n.n.C.7X+XCXJXJXVXA.b D.I.C.n.n.n.n.m.m.m.M.N.Z.S t - , c f M C _ B < 1 1 g V C C ) ) _ _ _ _ [ [ _ _ _ _ _ [ [ [ [ [ [ [ [ } } } } } } } } } } } } } } } } } } } =.} } } } } } } } } } } } } } } } [ _ _ _ _ _ [ [ } } } =.=.=.=.=.=.=.=.=.=.=.=.=.=.:.:.:.:.:.:.:.:.:.:.:.>.>.>.>.>.>.>.>.>.>.>.>.4.4.4.4.>.>.>.>.>.>.,.=.] _ / k , & # + + + + + @ @ 8 w e b F A v A N.OXCXCX@XU.B.v w w w v ;.H.R.T.T.E.E.E.E.E.].].'.E.].].rXrXgXjXjXjXZXZXgXp.=.] @.@.@.@.@.@.@.@.@.+.@.@.+.@.@.@.@.%.%.N O 1 4 4 4 1 1 1 1 1 1 1 1 1 1 1 1 1 1 1 1 1 1 1 1 1 1 1 1 1 1 1 1 1 1 1 1 1 1 1 1 1 ",
"g g g g j j j j j j g g g j j j j j j j j j j j j j j j j j j j j j j j j j j j h eXfXfXfXfXfXkXkXkXfXfXfXfXfXfXuXuXsXsXsXsXsXpXpXpXpXuXyXyXyXyXyXyXqXqXqXqXqXqX0X0X9X9X8X'.'.'.HXPXKXKXFXCXOX`.V.A e e w 7 @ @ + + . . . . . .         . X * 1 6 W ` @.%.:.:.,.,.,.i.p.i.w.w.f.z.z.f.j.j.*Xj.j.j.j.j.j.g.r.O.> O 6 +.&.4.4.4.p.p.p.s.s.s.s.s.s.s.W.s.W.W.'.'.'.].].].rXrXrX].W.W.T.s.p.5.5.p.s.p.5.Y.Y.E././.E./.PXPXAXBXBXP.S.J./.S.0 S H.T.T.p.:.[ :.,.>       . X % % * * * * X X X X X X X X X .   . X X . . X * M M g M M m i i v b A.M.9 n.M.n.n.M.(.CXJXJXJXJXJXNXM.9 9 9 n.m.m.m.m.m.M.M.Z.S t & , f M C C ) [ u * 1 g B C ) ) ) ) _ [ _ _ _ _ _ _ _ _ [ [ [ [ [ [ [ [ [ } } } } } } } } } } } } } } } } } } } =.} } } } } } } } } } } } } } } } [ [ _ _ [ _ [ [ } } } =.=.=.=.=.=.=.=.=.:.=.=.=.=.:.:.:.:.:.:.:.:.:.:.:.>.>.>.>.>.>.>.>.>.>.>.>.>.4.4.4.>.>.>.,.>.>.>.:.=.=.] / l d , & # + + + + + + @ 7 w v b v e e N.OXVXU.F v w q w Z ;.H.Y.T.T.W.T.T.T.T.T.T.T.T.T.T.].].].rXgXgXjXgXjXHXjXs.V ] @.@.@.o.@.@.@.@.@.@.@.@.@.@.@.@.@.%.N O 1 4 4 4 1 1 1 1 1 1 1 1 1 1 1 1 1 1 1 1 1 1 1 1 1 1 1 1 1 1 1 1 1 1 1 1 1 1 1 1 1 ",
"g j j j j g j j j j j j j j j j j j j j j j j j j j j j j j j j j j j j j j j j 5 eXfXfXfXfXfXkXfXfXfXfXfXfXdXdXuXuXuXsXuXsXsXsXpXuXyXyXyXyXqXtXqXqXqXqXqX9X0X0X9X9X9X8XW.s.W.jXHXJXJXCX}.V.A e e q 7 @ @ + + + . . .           . X O * > < 4 N Q o.+.:.4.4.4.p.p.p.p.i.i.0.0.f.z.h.w.w.w.j.j.j.j.j.j.j.g.7. .> O 6 +.&.4.4.4.p.p.p.p.s.T.s.s.T.W.W.W.W.W.'.'.'.'.'.rXrX].'.W.W.T.s.s.p.p.p.s.s.s.Y.Y.Y.E././.L./.JXPXBXSXAXJ.S.D./.J.y x 5.T.s.5.[ _ 4.) %       . X % * * * * * % % X X X X X X X X X X X   .   X * g M M M M C i v b b M.M.n.n.m.n.9 M.VXJXJXJXJXJXSXVXN.M.M.n.m.n.m.m.m.M.M.A.F t & - u C [ C [ B 1 , 1 M ) ) ) ) _ ) ) _ _ [ _ _ _ _ _ _ _ [ [ [ [ [ [ [ [ [ } } } } } } } } } } } } } } } } } } =.=.=.=.=.=.=.=.=.} } } } } } } } [ [ [ [ [ [ [ [ [ } } =.=.=.=.:.=.=.=.=.:.=.=.=.:.=.=.=.=.:.:.:.:.:.:.:.:.,.>.>.>.>.4.>.>.>.>.>.>.>.>.>.4.4.>.>.4.>.>.>.,.>.,.=.} ) V l < , & # # + + . . + @ @ 8 w b v v G.J.B.Z q w w ;.1.H.K.T.T.T.T.T.T.T.K.K.K.K.T.T.T.T.T.T.W.'.'.rXgXgXjXZXjXT.C ] ,.o...@.@.@.o.@.@.@.@.@.@.@.@.@.%.N O 1 4 4 4 1 1 1 4 4 4 1 1 1 4 1 1 1 1 1 1 1 1 1 1 1 1 1 1 1 1 1 1 1 1 1 1 1 1 1 1 1 ",
"j j j j g g g g j j j j g j j j j j j j j j j j j j j j j j j j j j j j j j j j 5 eXfXfXfXfXfXfXdXfXfXfXfXfXdXuXuXuXuXsXiXiXuXsXuXyXyXyXyXqXqXqXqXqXqXqX9X9X9X9X9X9X9X4XW.T.rXZXAXVX@X[.F.A e q 7 @ @ + + + + . .           o X % * : , d B Q o.@.<.4.i.i.i.p.p.p.p.p.i.i.9.9.f.h.h.w.w.w.w.j.j.j.j.j.j.d.u.#.> O 3 +.&.4.4.p.p.p.p.s.s.Y.T.T.T.W.W.W.W.'.].].'.'.'.].'.'.W.T.s.s.p.p.p.p.p.s.s.s.T.Y.Y.R././.L. XPXAXhXPXJXL.S.D./.J.y i 5.Y.p.:.) =.:.> .     . X % % * * * * * % % # X X X X X X # X X X X X . . # g C C C C V v b S.M.M.M.n.n.n.9 9 S.SXPXJXJXJXJXJXCXN.n.n.m.m.n.n.m.M.M.N.b a 0 - u C C =.C C < * < C C V ) ) ) ) ) ) ) ) _ _ _ _ _ _ _ _ [ [ [ [ [ [ } } } } } } } } } } } } } } } } } } } } } =.=.=.=.=.=.=.=.=.} } } } } } } } [ [ [ [ [ [ [ [ } } } =.=.:.:.:.:.:.:.:.:.:.:.:.:.=.=.=.=.:.:.:.:.:.:.:.:.,.,.,.>.>.>.>.,.4.>.>.>.>.>.>.>.4.>.>.4.4.>.>.>.>.>.:.=.] ) V k d < * % % X . . . . @ y y 0 y w F A.F i 0 w S ;.3.5.T.T.T.T.T.T.K.s.5.5.5.5.5.s.K.K.Y.Y.T.T.T.'.].rXgXjXZXjX-.} ,.o.' o.@.@...o.@.@.@.@.@.@.@.@.@.j X 1 4 4 4 1 1 1 1 1 1 1 1 1 4 1 1 1 1 1 1 1 1 1 1 1 1 1 1 1 1 1 1 1 1 1 1 1 1 1 1 1 ",
"j j j j j j g g j j g g g g g j j j j j j j j j j j j j j j j j j j j j j j j j 5 eXfXfXfXfXfXdXdXfXfXfXfXfXuXuXuXuXuXuXiXuXuXuXuXuXyXtXtXqXqXqXqXqX9X9X9X9X9X9X9X9X,Xb.W.].jXBXgXJ.Z.Z e w 7 7 7 @ + + . . .         . o O % % , 1 d B ) [ @.,.4.4.i.p.p.p.p.p.p.p.p.p.i.9.9.f.h.f.w.w.w.w.f.j.j.f.w.j.d.u.#.> O 3 o.&.4.4.p.p.p.p.s.s.T.T.T.T.W.W.W.W.'.].].].'.'.'.'.W.W.T.s.p.p.p.p.p.s.s.s.s.T.T.Y.Y././.E.gXSXBXZXPXPX/.S.S.E.L.s p 3.s.5.} } 4.j X       . X % * * * * * % % X X X # # # - = < = % X X . X X X < M M C C S v F S.M.M.M.n.n.n.9 M.^.JXPXHXJXPXJXJXCXM.n.m.m.m.n.n.M.M.M.F y - - u V _ =.=.g < * , B _ C C ) ) _ ) ) ) ) _ _ _ _ _ _ _ _ _ [ [ [ [ [ } } } } } } } } } } } } } } } } } } } } } } =.=.=.=.=.=.=.=.=.=.} } } } } } } [ [ [ [ [ [ [ } } } =.=.:.:.:.:.:.:.:.:.:.:.:.:.:.=.=.:.=.=.:.:.:.:.:.:.:.:.,.,.>.>.>.>.>.>.4.4.4.4.4.>.>.>.4.4.4.4.>.>.>.>.>.>.:.=.} ] / / k < , : % # . . . & V t $ 7 0 0 S i 0 i x *.3.5.5.Y.T.T.Y.K.5.5.5.5.5.5.5.5.5.5.5.5.5.5.K.T.T.'.'.rXgXjXZX].4.,.o.' o.@.@...o.o.o.o.o.o.o.o.o.@.j X 1 4 4 4 1 1 1 1 1 1 1 1 1 1 1 1 1 1 1 1 1 1 1 1 1 1 1 1 1 1 1 1 1 1 1 1 < < 1 1 1 ",
"g g j j j j g g j j g g g g g j j j j j j j j j j j j j j j j j j j j j j j j j h eXfXfXfXfXfXuXuXuXuXuXuXuXuXuXuXuXuXuXuXuXuXuXyXyXtXqXqXqXqXqX9X9X9X9X9X9X8X8X9X9X:Xb.W.rXgXE.*.i w 7 7 @ 7 0 7 $ + . .           o o % % : , g B ) [ =.>.4.4.4.p.p.p.p.p.p.p.p.p.p.l.i.9.q.w.h.f.w.w.w.w.w.w.w.w.w.w.d.u.$.> o 3 o.&.4.4.p.p.p.p.s.s.T.T.T.T.W.W.W.W.'.].].'.'.'.'.W.W.T.s.p.p.p.p.p.p.s.s.s.Y.T.T.Y.Y././.E. XgXhXPXPXPX/.S.S.P.E.x t 1.5.4.[ :.,.*       . X X % * * * * - * # # # * = = = C -.3.3.-.M < . X . X , M C C S S F A.M.M.M.n.n.m.n.M.I.SXJXJXJXAXAXJXSX(.M.n.m.m.n.m.M.M.A.F i 0 - u g C [ =.C - - u V _ ) V C ) ) ) ) ) ) _ _ _ _ _ _ [ _ _ _ [ [ [ [ [ } } } } } } } } } } } } } } } } } } } } } } =.=.=.=.=.=.=.=.=.=.} } } } } } [ [ [ [ [ [ [ } } } } =.:.:.:.:.:.:.:.:.:.:.:.:.:.:.=.=.=.=.=.=.=.:.:.:.:.:.:.:.:.,.,.,.:.>.,.4.4.4.4.4.4.>.>.>.4.4.4.>.>.>.>.>.>.:.:.=.=.] _ V k d d , % & # # # - # # $ & - u t u -.-.5.5.5.5.Y.Y.Y.5.5.5.5.3.3.3.-.3.3.3.3.3.3.3.5.5.5.Y.T.T.].].oXZXjX'.>.] o.o...o.o.o.o.o.o.o.o.o.o...@.j X 1 4 4 4 1 1 1 1 1 1 1 1 1 1 1 1 1 1 1 1 1 1 1 1 1 1 1 1 1 1 1 1 1 1 1 1 < 1 1 1 1 ",
"g g g j j j j j g g g g j g g j j j j j j j j j j j j j j j j j j j j j j j j j h eXfXaXfXfXuXuXuXuXuXuXuXuXuXuXuXuXuXuXuXuXuXuXyXtXtXtXqXqX9X9X9X9X9X9X8X8X8X8X8X9X,Xb.W.W.Y.x 7 8 8 @ @ @ $ q & + . .           o % % , 1 d B _ } :.,.4.4.p.p.p.p.p.p.s.s.s.p.p.p.p.i.i.9.9.w.f.w.w.w.w.w.w.w.w.w.w.w.w.u.$.3 O < { %.4.i.p.p.p.p.s.s.T.T.T.W.W.W.W.W.'.].].].'.'.W.W.W.T.s.p.5.5.5.p.p.s.s.Y.T.W.T.Y.Y.E./.E.E.R.BXIXPXPX/.S.S.D.E.x t =.>.,.} :.B o       X X O % * * * - = - # = = m C S S -.-.-.-.-.s.5.# . . X - M C S S *.;.A.M.M.M.M.n.M.9 D.CXJXHXHXPXNX+XSXCXI.n.n.m.m.m.M.M.N.F i 7 - u C C _ [ g * * g _ ) ) ) C C ) ) ) ) ) _ _ _ _ _ _ _ [ [ [ _ [ [ [ [ [ } } } } } } } } } } } } } } } } } } =.} } } =.=.=.=.=.=.=.=.=.} } } } } } } [ [ [ [ [ [ [ } } } =.=.:.:.:.:.:.:.:.:.:.:.:.:.:.:.=.=.=.=.=.=.=.=.:.:.:.:.:.:.:.:.:.:.,.:.>.>.4.4.4.4.4.>.>.4.4.4.4.>.>.>.>.>.:.:.:.:.:.=.] _ / / / j < , & # . . . # # % - , , *.5.5.Y.5.5.5.5.5.5.5.5.3.1.1.-.-.-.-.-.-.-.-.-.-.3.3.5.5.K.s.T.'.'.jXjXgXp.] @.o.` ..@.o.o.o.o.o.o.o.....o.j X 1 4 4 4 1 1 1 1 1 1 1 1 1 1 1 1 1 1 1 1 1 1 1 1 1 1 1 1 1 1 1 1 1 1 1 1 1 1 1 1 1 ",
"j g g g j j j j g j g g j g g j j j j j j j j j j j j j j j j j j j j j j j j j h eXfXaXuXuXuXuXuXuXuXuXuXuXuXuXuXuXuXuXuXtXtXuXuXtXtX0X0X9X9X9X9X9X9X8X8X8X8X8X8X,X,XW.s.p.*.t 0 y 0 & $ @ + & # . .         . X % : d k / _ } ,.4.4.4.4.p.p.p.p.p.s.s.s.s.s.p.p.p.p.l.i.9.9.q.w.w.w.w.q.w.w.w.w.w.w.w.q.u.8.3 o > ' @.4.i.p.p.p.s.s.s.T.T.T.W.W.W.W.W.'.].].'.W.W.W.W.T.Y.p.p.5.5.p.p.p.s.T.T.T.W.T.Y.E.E./.E.R.hXJXIXPXPXMXS.S.D.E.*.- ( >.=.} ) >       . X O % % * * - - = = $ = m -.3.3.3.K.3.3.C m -.s.3.= X X - z S S S ;.A.C.M.M.M.n.n.M.D.U.NXSXHXJXJXSXSXMXD.N.n.M.n.m.M.M.A.F i 0 0 u C _ _ C 1 * - u ) [ ) ) ) ) ) _ _ _ _ _ _ _ _ _ _ _ _ [ [ [ [ [ [ [ [ [ } } } } } } } } } } } } } } } } } } } } } =.=.=.=.=.} } } } } } } } } } } } [ [ [ [ [ [ } } } } =.=.:.:.:.:.,.:.:.:.:.:.:.:.:.=.=.=.=.=.=.=.=.=.=.:.:.:.:.:.:.:.:.:.:.,.:.>.>.4.4.>.>.>.>.4.4.4.4.>.>.>.>.:.-.-.:.:.:.-.=.=.} ] =._ l d - # * - < u - t u c V >.>.5.5.5.5.5.5.5.5.3.3.1.-.-.-.-.-.-.-.-.-.-.-.-.-.-.3.3.3.5.5.5.T.].gXjX].=.] @.` ' o.o.o.o.o.o.o.......o.j X 1 4 4 4 1 1 4 4 4 1 1 1 1 1 1 1 1 1 1 1 1 1 1 1 1 1 1 1 1 1 1 1 1 1 1 1 < 1 1 1 1 ",
"j j g g g g j j j j j j j j g j j j j j j j j j j j j j j j j j j j j j j j j j h eXfXuXuXuXuXuXiXuXuXuXuXuXuXuXuXuXuXuXtXtXtXtXtXtXtX9X9X9X9X9X8X8X8X8X8X8X8X8X8X,X,XW.s.5.>.1.*.x t & & # + . . . . . X X X % * , k V _ =.:.>.4.4.5.5.p.p.p.p.p.p.s.s.s.s.s.p.p.p.l.l.i.9.7.q.w.w.q.8.8.q.w.w.w.w.w.w.8.q.8.3 o > ) @.4.i.p.5.p.s.s.s.T.T.W.W.W.W.W.W.'.].'.W.W.W.T.T.Y.s.p.5.5.5.p.p.s.Y.T.T.W.T.T.T.R.E.R.E.E.AXPXIXPXPXNXS.S.S.E.*.& V =.} } < X       X % % * * * - - = = = = u -.'.`.oXoXoXoXoXK.S m m T.-.* X # u V x b N.M.M.M.M.M.M.S.(.SX^.J.oXBXJXJXJXSXD.9 n.n.M.n.n.M.S.A.i 7 t C c C *.C < % - B C _ ) ) ) ) C [ _ _ _ _ _ _ _ _ _ _ _ [ [ [ [ [ [ [ [ [ } } } } } } } } } =.} } } } } } } } } } } } } } =.} } } } } } } } } } } } } } [ [ [ [ [ [ } } } } =.=.:.:.,.:.,.:.:.:.:.:.:.:.:.=.=.=.=.=.=.=.=.=.=.=.=.:.:.:.:.:.:.:.:.:.:.:.,.>.>.4.>.,.>.>.4.4.>.>.>.>.>.>.:.:.:.:.:.:.:.>.:.=.=.} ) B d , g V _ :.=.[ _ } >.>.4.5.>.4.4.4.>.>.>.1.1.1.-.-.-.-.-.-.-.-.-.-.-.-.-.-.-.3.-.-.3.3.5.T.].jXjX5.] :.o.' ' ..o.o.o.o.........o.j X < 4 4 4 1 1 1 1 4 1 1 1 1 1 1 1 1 1 1 1 1 1 1 1 1 1 1 1 1 1 1 1 1 1 1 1 1 1 1 1 1 ",
"g g g g g g g j j j j j j j g g g j j j j j j j j j j j j j j j j j j j j j j j h 4XaXuXuXuXuXuXuXuXuXuXuXuXuXuXuXuXuXtXtXtXtXtXtXtX9X9X9X9X8X8X8X8X1X1X1X1X1X8X8X,Xb.b.l.p.rXgXT.*.t # # . . . . X X % % * - , u c ( =.:.>.4.5.5.p.5.p.p.p.p.s.s.s.s.s.s.s.s.p.p.p.p.l.i.9.7.q.q.q.8.8.8.8.w.w.w.w.w.q.8.7.7.3 o > Q @.4.i.p.5.p.s.s.T.T.W.W.W.W.W.W.W.'.'.W.W.T.T.Y.s.s.p.p.5.5.5.p.p.s.Y.T.W.W.T.T.T.E.E.R.E.E.BXPXPXPXPXVXS.S.S.E.1.& V } [ N X         O % * * * - - = = = = = m K.oXDXHXJXDXDXDXjX'.3.0 -.4.* . # t i y b b M.M.M.M.D.(.MXSXSXSXoXJ.J..XVX+XD.M.M.M.n.M.M.M.M.N.v 0 t C *.C C C < % - B C B [ [ ) ) [ ) _ _ _ _ [ _ _ _ _ [ [ [ [ [ [ [ [ [ [ [ [ } } } } } =.} } } } } } } } } } } } } } } } } } } } } } } } } } } } } } } } } [ [ [ [ [ [ } } } =.=.:.:.:.,.:.,.:.:.:.:.:.=.:.=.=.=.=.=.=.=.=.=.=.=.=.=.=.=.:.:.:.:.:.:.:.:.:.:.,.>.>.4.,.>.>.4.>.>.>.>.4.>.>.>.:.:.>.>.>.>.>.>.=.=.=.} V k B _ =.} =.[ } :.4.>.>.>.>.>.>.>.>.>.1.1.1.1.-.-.-.-.-.-.-.-.-.-.-.-.-.-.-.-.3.3.-.3.3.3.K.'.gXjX].:.=.@.' ~ o.o.o.o.o.....' ' o.j X < 4 4 4 1 1 1 1 1 1 1 1 1 1 1 1 1 1 1 1 1 1 1 1 1 1 1 1 1 1 1 1 1 1 1 1 1 1 1 1 1 ",
"g g g g g j j j j j j j j j j g g j j j j j j j j j j j j j j j j j j j j j j j j 4XfXuXuXuXuXuXuXuXuXuXuXuXuXuXuXuXtXtXtXtXtXtXtXwX9X9X9X8X8X8X8X8X8X8X1X>X1X1X>X>Xv.l.p.'.jXnXW.( , # . . . X % * > , < 1 u c C _ =.>.>.4.5.5.p.p.p.p.p.p.s.s.s.s.s.s.s.s.p.p.p.p.p.l.0.9.#.7.q.q.q.8.8.w.q.w.w.w.w.8.q.q.7.3 o : ~ +.>.i.p.5.p.s.T.T.W.W.W.W.W.W.W.W.W.W.W.W.T.s.s.s.p.p.p.p.p.p.p.p.s.T.W.W.T.T.T.T.Y.E.E.E.J.hXJXPXPXPXMXN.S.S./.H.& u } Q > .         O * * * - - - = = = = m 3.oXHXIXKXKXHXHXJXDXVX'.m m -.u # # t v y b M.C.C.M.M.(.SXSXSXPXJXSXAXQ.N.S.M.n.M.M.M.M.n.M.S.S.v 0 t x C _ _ c , - u V ) ) _ _ [ ) _ { { ) [ [ [ [ _ _ [ [ [ [ [ [ [ [ [ [ } [ [ [ } } } =.=.=.=.=.} } } } } } } } } } } } } } } } } } } } } } } } } } } } } } } } [ [ [ [ } } } } =.=.:.:.:.:.:.,.:.:.:.:.:.=.=.=.=.=.=.=.} } } } =.=.=.=.=.=.=.=.:.:.:.:.:.:.:.:.:.,.,.>.>.>.,.,.>.>.>.>.>.>.>.>.>.>.>.>.>.:.:.:.=.=.=.} ) ) [ =.:.>.>.>.>.>.>.>.>.>.>.>.:.>.>.-.-.-.-.-.-.-.-.-.-.-.-.-.-.-.-.-.-.-.-.-.-.-.-.-.3.3.5.5.'.gXjX>.=.:.] o.o.o.o.o...' ' ' ' ] j X 1 4 4 4 1 1 1 1 1 1 1 1 1 1 1 1 1 1 1 1 1 1 1 1 1 1 1 1 1 1 1 1 1 1 1 1 1 1 1 1 1 ",
"g g g g g g g j j j j j j j j j g j j j j j j j j j j j j j j j j j j j j j j j j 4XaXuXuXuXuXuXuXuXuXuXuXuXuXtXtXtXtXwXtXwXwXwXwX9X9X9X8X8X8X8X8X8X1X1X,X>X>X>X>Xv.b.l.b.aXnXjXT._ u * X X X * < u g M M M V _ =.>.4.4.5.5.5.p.p.p.p.p.p.s.s.s.s.s.s.s.s.s.p.p.p.p.p.i.0.$.#.7.q.q.8.7.8.8.w.w.w.w.w.8.q.q.9.5 O : W } >.4.p.5.p.Y.T.T.W.W.W.W.W.W.W.W.W.W.W.T.s.s.p.p.p.5.5.5.p.p.p.s.Y.T.T.W.W.W.T.Y.Y.R./.E.J.NXPXPXPXSXS.b S././.5.# , { 1 X           O , > * * - = = = = q 3.'.DXKXKXKXKXDXJXJXJXJXVX3.m -.u # # 0 s v b M.C.C.C.M.(.SXPXPXSXJXSXSXNXS.9 n.n.n.M.M.M.M.N.S.b 0 0 C C C V g - - t V [ [ [ ) _ _ _ _ _ _ ) { [ [ [ [ [ [ [ [ [ [ [ [ [ [ [ } [ [ [ } } } =.=.=.=.=.=.=.=.=.} } } } } } } } } } } } } } } } } } } } } } } } } } } } } } } } } } } =.=.=.=.:.:.:.:.:.:.:.:.:.=.=.=.=.=.=.=.} } } } } } } =.=.=.=.=.=.=.=.:.:.:.:.:.:.:.:.:.,.,.>.>.>.>.>.>.,.>.>.>.>.>.>.>.>.:.:.:.:.=.=.=.} [ [ } } =.:.>.>.:.:.:.:.:.:.:.:.:.-.-.-.-.-.-.-.-.-.-.-.-.-.-.-.-.-.-.-.-.-.-.-.-.-.-.-.3.3.5.5.T.].jXT.=.] o.....o.o.o...' ' ' ' ] j X 1 4 4 4 1 1 1 1 1 1 1 1 1 1 1 1 1 1 1 1 1 1 1 1 1 1 1 1 1 1 1 1 1 1 1 1 < < 1 1 1 ",
"j j g g g g g j g g j j j j j j g j j j j j j j j j j j j j j j j j j j j j j j j 4XaXuXuXuXuXuXtXuXuXuXuXuXuXuXtXwXwXwXwXwXwXwXwX9X9X1X1X1X1X1X1X1X>X>X>X>X>X>X;Xv.b.l.'.xXnXaXs.} M , # X * M C ) [ [ [ *.-.:.4.5.p.p.p.p.p.s.s.s.s.s.s.s.s.s.s.s.s.T.T.s.s.p.p.p.p.i.0.$.#.7.q.q.7.7.8.8.8.8.8.w.w.8.q.q.9.j O : W } >.4.p.p.p.T.T.T.W.W.W.W.W.W.W.W.W.W.W.s.s.p.p.5.5.5.5.5.5.p.p.s.T.T.W.W.W.W.T.Y.Y.R./.P.E.BXPXPXPX^.M.C.S./.E.x X d B O           . % < , * - < < = = = m '.'.VXJXKXKXJXDXJXJXHXDXjX].K.3.= # # $ y b b C.C.C.C.M.C.MXSXJXJXJXSXNXD.M.M.n.n.m.M.M.N.S.A.v 0 t m C [ C u & - u M C _ _ C ) { { { ) ) [ [ { [ [ [ [ [ [ [ [ [ [ [ [ } } [ [ [ [ [ } } =.=.=.=.=.=.=.=.=.=.=.=.=.=.} =.} =.=.=.=.=.} } } } } =.=.=.=.=.} } } } } } } } } } } } } =.=.=.=.:.:.:.:.:.:.:.:.=.=.=.=.=.=.=.} } } } } } } } } =.=.=.=.=.=.:.:.:.:.:.:.:.:.:.:.:.:.:.,.,.,.>.>.>.>.>.>.>.>.>.>.>.:.=.:.:.:.:.=.} } =.} } =.:.>.:.:.=.=.=.=.=.=.=.-.=.=.-.-.*.-.-.-.-.-.-.-.-.-.-.-.-.-.-.-.-.-.-.-.-.-.-.3.3.3.3.5.'.gX].>./ } ] ..o.o.o.....' ` ` ] j X < 4 4 4 4 1 1 1 1 4 4 1 1 1 1 1 1 1 1 1 1 1 1 1 1 1 1 1 1 1 1 1 1 1 1 1 < < 1 1 1 ",
"j g g g g g g j g g g j j j j j g g j j j j j j j j j j j j j j j j j j j j j j j 4XaXuXuXuXuXtXtXuXuXuXuXuXtXtXtXwXwXwXwXwX4X9X9X9X1X1X1X1X1X1X,X,X,X,X,X>X>X>X>Xb.b.b.aXnXnXrXp.} M , X % u =.-.4.4.4.4.4.4.5.p.p.p.p.p.p.s.s.s.s.s.s.s.s.T.s.s.s.s.T.T.s.s.p.p.p.p.i.9.#.@.7.q.7.8.8.8.8.8.q.8.8.w.q.q.q.q.L O % N } >.4.p.p.s.T.T.W.W.W.W.W.W.W.W.T.W.W.T.s.s.p.5.5.5.5.5.5.5.p.s.Y.T.W.W.W.W.W.E.Y.Y.E./.P.P.NXSXPXSXS.b D.D./.*.# % W < .         . O * , , , < < < = = $ q _.'.VXHXJXJXDXDXHXDXDXjXoXgX].-.# . X + 0 b b M.M.m.C.m.M.D.CXSXJXJXNXD.9 n.M.C.m.M.M.M.S.S.v $ 0 C =.C M u & & u C C _ C C C ) _ { _ ) ) [ [ { [ [ [ [ [ [ [ [ [ } } } } } [ [ [ [ [ } } =.=.=.=.=.=.=.=.=.=.=.=.=.=.=.=.} =.=.=.=.=.=.} } } } =.} } } =.} } } } } } } } } } } } =.=.=.=.=.:.:.:.:.:.:.:.=.=.=.=.=.=.} } } } } } } } } } } } =.=.=.=.=.=.=.=.=.=.=.=.=.:.:.:.=.:.:.:.:.,.>.>.>.>.>.>.>.>.:.:.:.:.:.4.:.=.} } =.=.=.=.=.=.:.=.} } } } } } } } =.*.*.*.*.*.*.*.-.-.-.-.-.-.-.-.-.-.-.-.-.-.-.-.-.-.-.-.3.3.3.3.3.T.].jXp./ } ] ....o.o...' ' ` ` ] j X < 4 4 4 1 1 1 1 1 1 4 1 1 1 1 1 1 1 1 1 1 1 1 1 1 1 1 1 1 1 1 1 1 1 1 1 < < 1 1 1 ",
"j j g g g g g g g g j j j j g g g g j j j j j j j j j j j j j j j j j j j j j j j 4XaXuXuXuXuXtXtXtXuXuXuXtXtXtXtXwXwX4X4X4X4X2X2X2X2X2X2X1X,X,X,X,X,X,X>X>X>X>X>Xv.b.eXnXnXnXrXp.{ M < % - [ 5.p.T.T.Y.s.5.p.p.p.p.p.p.p.p.s.s.Y.T.s.s.s.s.T.T.s.s.T.T.Y.T.s.p.p.p.p.i.9.#.X.7.7.7.7.7.7.8.8.8.q.q.w.w.q.q.9.L O % j [ >.4.p.p.s.T.W.T.W.W.W.W.W.W.W.T.T.T.Y.s.p.p.5.5.5.4.4.5.5.s.Y.T.W.W.W.W.W.E.E.T.R././././.NXSXPX/.b M.D.D.S.8 + d B O           X * > , , , < < < = = = = '.oXoXoX#XDXDXVXDXDXVXoX'.oXoXC # . # $ 0 y b M.m.C.C.m.M.C.CXSXSXSXI.M.M.M.M.C.m.M.M.N.S.v 0 0 u C } C - # * u C _ [ _ C C _ [ { _ _ ) _ [ [ { [ [ [ [ [ [ [ [ [ [ } } } } [ [ [ [ [ } } =.=.=.=.=.=.=.=.=.=.=.=.=.=.=.=.=.=.=.=.=.=.=.=.=.=.=.=.=.=.=.=.} } } } } } } } } } } =.=.=.=.:.:.:.:.:.:.:.:.=.=.=.} } } } } } } } } } } } } } } } } } =.=.=.=.=.=.=.=.=.=.=.=.=.=.=.=.=.=.=.:.>.>.>.>.>.>.>.>.>.,.:.:.:.:.:.=.} [ } =.:.:.:.=.=.} [ [ [ [ _ _ _ _ [ [ [ *.*.*.*.*.-.-.-.-.-.-.-.-.-.-.-.-.-.-.-.-.3.3.3.3.3.3.3.3.3.5.'.jX'.} ] } ] ..o.....' ` ` ` ' g X < 4 3 4 1 1 1 1 1 1 1 1 1 1 1 1 1 1 1 1 1 1 1 1 1 1 1 1 1 1 1 1 1 1 1 1 1 1 1 1 1 ",
"j j g g g g g g g g j j j j g g g g j j j j j j j j j j j j j j j j j j j j j j j 4XaXuXuXuXuXtXtXtXuXuXuXtXwXwXtXwXwXwX4X4X2X2X2X2X2X1X1X1X,X,X,X,X>X>X>X;X;X;Xv.h.,XfXnXnXxXrXp.[ M < - g 5.T.W.W.W.T.T.T.s.p.5.5.5.p.p.p.s.T.T.T.s.s.s.s.Y.T.T.s.T.T.T.T.s.p.p.p.p.i.9.@.X.7.q.8.8.8.8.8.8.q.q.8.w.w.w.q.q.! O % j [ >.i.p.p.s.T.W.W.W.W.W.W.W.W.W.T.T.T.s.p.p.p.5.5.5.4.5.5.p.s.T.W.W.W.W.W.W.E.E.E.E./././.P.MXSXSXS.b C.D.D.b @ t / >   X         O > , , , , < = < < < = = K.oX`.`.oXoX#XVXDXoXoX_.G '.].u # # # & 0 y b M.m.C.m.m.m.M.(.CXSX(.M.M.C.C.m.m.C.M.C.S.v 0 0 M C C M - X * u C C C C C _ _ [ [ ) ) ) { { [ [ [ [ [ [ [ [ [ [ } [ [ [ } } } } } } } } } } =.=.=.=.=.=.=.=.=.=.:.:.=.=.:.=.=.=.=.=.=.=.=.=.=.=.=.=.=.=.=.=.=.=.=.} } } } } } } =.=.=.:.:.:.:.:.:.:.:.:.=.=.=.=.} } } } } } } } } } } } } } } } } } =.} =.=.=.=.=.=.=.=.=.=.=.=.=.=.=.=.=.:.:.,.>.>.>.>.:.:.:.:.:.:.:.=.} } } } } =.=.=.=.} } [ _ _ _ _ _ _ _ _ [ [ [ *.*.*.*.*.-.-.-.-.-.-.-.-.-.-.3.-.-.-.-.-.3.3.3.3.3.-.-.-.3.3.T.gXrX5.] } ] ..o.....' ` ` ` ' g X < 4 4 4 1 1 1 1 1 1 1 1 1 1 1 1 1 1 1 1 1 1 1 1 1 1 1 1 1 1 1 1 1 1 1 1 1 1 1 < 1 ",
"j g g g g j j g g j j j j g g g j j j j j j j j j j j j j j j j j j j j j j j j j W.aXuXuXuXtXtXtXtXtXtXuXtXwXwXwXwXwX4X4X4X2X2X2X2X2X1X1X,X,X,X>X>X>X>X;X;X;X;X;Xv.uXnXZXnXaX'.s.[ g < < [ T.'.].'.'.'.W.T.s.s.p.p.p.s.s.s.T.T.T.T.s.s.s.Y.Y.Y.T.T.T.T.T.T.s.p.p.p.p.0.9.@.X.8.7.8.7.8.8.8.w.q.w.8.w.w.w.q.q.! O % j ] >.p.p.s.T.W.W.W.W.W.W.W.W.W.T.T.T.T.s.p.p.p.p.5.5.4.4.5.p.s.T.W.W.'.'.'.].E.E.E.E./././.D.NXSXMXM.C.D.D.S.r 8 x 1 X           X * , , , , 1 1 < < u = = = 3.oX`.oXoX`.`.oX_.3.`.A ;.hX-.# # # - 0 0 y b M.M.C.C.m.C.M.C.D.(.C.m.C.C.m.m.n.C.S.A.b 0 0 x C C M * . % u V C C C B C _ ) [ [ ) ) ) { { [ [ [ [ [ [ [ } } } } } [ [ } } } } } } } } } } =.=.=.=.=.=.=.=.=.=.=.=.=.=.:.:.:.=.=.=.=.=.=.=.=.=.=.=.=.=.=.=.=.=.=.=.=.=.=.} } } =.=.=.=.:.:.:.:.:.:.:.:.=.=.=.} } } } } } } } } } } } } } } } } } } } } } } } } } } } } } } } =.=.=.=.=.=.=.:.:.:.:.:.:.:.:.:.:.:.=.} } [ } } } =.} } } } } [ [ _ _ ) _ _ _ _ _ _ [ [ [ *.*.*.-.-.-.-.-.-.-.-.-.-.-.-.-.-.-.-.-.3.3.3.3.3.-.-.-.-.3.T.].jX'.[ [ ] ........' ` ` ` ' g X < 4 4 4 1 1 1 1 1 1 1 1 1 1 1 1 1 1 1 1 1 1 1 1 1 1 1 1 1 1 1 1 1 1 < 1 1 1 < < 1 ",
"j g g g g j j j g g j j j g g g j j j j j j j j j j j j j j j j j j j j j j j j j W.uXuXuXuXtXtXtXtXtXtXuXtXwXwXwXwX4X4X4X4X2X2X2X,X,X,X,X,X,X:X>X>X>X>X;X;X;X;X:Xv.aXnXZXnX].W.p.[ u < u :.W.].].].'.'.W.T.s.s.s.s.s.s.s.s.s.s.T.T.s.Y.s.Y.Y.Y.T.T.T.T.T.T.s.s.5.5.4.<.<.X.X.7.7.8.8.8.8.q.q.w.w.8.w.w.w.q.q.! O % j ] >.p.p.s.T.W.W.W.W.W.W.W.W.W.T.T.T.T.s.p.p.p.p.5.5.4.4.5.s.Y.W.W.'.].].'.].].E.E.E./././.D.7XNXS.M.S.D.D.b 8 s *.%   o         X * , < < 1 1 1 < u u < = # m oXoX'.K.K.K.G m m m 3.gX'.= # - = t 0 0 y b M.M.C.C.m.C.m.m.n.n.n.m.m.m.C.M.n.M.D.b & t C *.[ M * X * < c _ C C V C C ) _ [ [ ) ) ) { { [ [ [ [ [ [ [ } } } } } [ } } } } } } } } } } } =.=.=.=.=.=.=.=.=.=.=.=.=.=.:.:.:.:.=.=.=.=.=.=.=.=.=.=.=.=.=.=.=.=.=.=.=.=.=.=.=.=.=.=.=.:.:.:.:.:.:.:.:.:.=.=.=.} } } } } } } } } } } } } } } } } } } } } } } } } } } } } } } } } } =.=.=.=.=.:.:.:.:.:.:.:.:.:.:.=.} } [ { [ } =.=.} } [ [ [ [ } ) ) ) ) ) _ _ C C _ [ [ *.*.*.-.-.-.-.-.-.-.-.-.-.-.-.-.-.-.-.-.3.3.3.3.3.-.-.-.S 5.3.T.jXrX:.] ] ........' ` ' ' ' g X < 4 4 4 1 1 1 1 1 1 1 1 1 1 1 1 1 1 1 1 1 1 1 1 1 1 1 1 1 1 1 1 < < < 1 1 1 < < 1 ",
"g g g g g g g g g g g g j j j g j g g g j j j j j j j j j j j j j j j j j j j j j 4XuXeXuXuXwXwXwXtXtXtXtXwXwXwXwXwX4X4X2X4X,X,X,X,X,X,X>X;X;X;X;X;X;X;X;X;X;Xv.:XeXxXnXnXgXrXW.4.[ u < -.T.].].].'.'.W.T.T.T.s.s.s.s.s.s.s.s.s.s.s.Y.s.s.T.T.T.T.T.T.T.T.T.T.s.5.5.,.,.<.@.@.8.7.8.8.8.8.8.q.q.8.w.q.w.f.h.q.7.% % j ] >.p.p.s.W.W.W.W.W.W.W.W.W.W.W.T.T.T.s.p.p.p.p.5.5.4.5.5.s.T.W.W.'.'.'.'.W.E.E.E.E./././.D.D.D.M.C.D.D.M.r y x t .           X % > 1 1 1 1 1 1 < u u u u = - u K.oX'.'.3.G 3.3.3.'.K.= = - - - = t 0 t i M.M.m.C.C.m.m.C.C.C.m.m.m.m.C.C.M.F v t t c *.C < * X * < c V ) C C C ) C C _ [ _ { { _ [ [ { { [ [ [ [ [ } } } } } } } } } } } } } } } } =.=.=.=.=.=.=.=.=.=.=.=.:.:.:.:.:.=.=.:.=.=.=.=.=.=.=.=.=.=.=.=.=.=.=.=.=.} =.=.=.=.=.=.=.:.:.:.:.:.:.:.:.=.=.=.=.} } } } } } } } } } } } } } } } } } } } } } } } } } } } } } } } } } } =.=.=.=.=.=.=.:.:.:.:.:.:.=.=.=.[ ) ) _ [ } } } } [ _ _ _ [ [ C C C C C ) C C _ _ [ *.-.-.-.-.-.-.-.-.-.-.-.-.-.-.-.-.-.-.-.-.3.3.3.3.3.-.C C C -.>.s.].gXT.} ] ] ..] ' ' ' ' ' ] j X 1 4 4 4 1 1 1 1 1 1 1 1 1 1 1 1 1 1 1 1 1 1 1 1 1 1 1 1 1 1 < < 1 1 1 1 1 1 1 < 1 ",
"g g g g g g g g g g g g j j j g j j g g g j j j j j j j j j j j j j j j j j j j j W.uXwXuXuXwXwXwXwXwXwXwXwXwXwXwX4X4X4X2X2X,X,X,X,X,X,X:X;X;X;X;X;X;Xv.v.v.v.v.,XaXnXnXxXaX].s.4.[ u u -.T.].].].'.W.T.W.T.T.s.p.s.p.p.s.s.s.T.s.Y.Y.s.T.T.T.T.T.T.T.T.T.T.T.s.5.4.,.<.@.@.X.8.8.8.8.8.8.8.7.q.8.w.w.w.f.h.w.7.; % d ] >.p.p.s.W.W.W.W.W.W.W.W.W.W.T.T.s.s.s.p.p.5.5.5.4.4.5.s.Y.T.W.'.].].].'.W.W.W.E.E././.(.D.D.D.D.D.D.D.b 8 b z #           . O > 1 d g d 1 1 < < u u u u u < = = -.oXhX'.'.].].K.m - # = < - - t u t t i N.M.M.C.C.m.m.C.C.C.m.m.m.m.C.M.S.v & t C [ C < X X * < M C C C C ) C ) ) C _ _ _ { { _ [ { { { { [ [ [ [ } } } } } } } } } } } } } } } } =.=.=.=.=.=.=.=.=.=.=.=.=.:.:.:.:.=.=.:.=.=.=.=.=.=.=.=.=.=.=.=.=.=.=.=.=.=.=.=.=.=.=.=.:.:.:.:.:.:.:.:.=.=.=.} } } } } } } } } } } } } } } } } } } } } } } } } } } } } } } } } } } } } =.=.=.=.=.=.=.=.=.:.:.=.=.=.=.} [ ) ) [ } } } [ [ _ ) ) ) ) C C V C C C C C C C C [ } -.-.-.-.-.-.-.-.-.-.-.-.-.-.-.-.-.-.-.-.3.3.3.3.3.S C C C [ -.5.T.gX].:.] ] ..o.' ' ` ' ' ] j X 1 4 1 4 1 1 1 1 1 1 1 1 1 1 1 1 1 1 1 1 1 1 1 1 1 1 1 1 1 1 1 < 1 1 1 1 1 1 < < 1 ",
"g g j j g j g g g g g g j j g g j j g g g j j j j j j j j j j j j j j j j j j j h W.uXwXwXtXwXwXwXwXwXwXwXwXwX4X4X4X4X4X2X,X,X,X,X,X,X:X;X;X;X;X;X;Xv.v.v.v.v.v.4XaXnXnXgXrX].s.:.) u g :.W.].].].W.W.W.W.T.T.s.p.s.p.s.s.s.s.s.s.T.s.s.T.Y.T.T.Y.T.T.T.W.W.T.s.5.>.>.=.o.o.#.8.8.7.8.8.8.q.7.7.q.q.w.w.f.h.w.7.: % d ] >.i.p.T.W.W.W.W.W.W.W.W.W.W.T.s.s.s.p.p.5.5.4.4.4.4.5.p.Y.W.W.].].].].'.'.].W.E.Y././.(.D.D.D.D.D.D.C.r 8 x t .       .   . * < d j j g u u u u u u u u u u < = - u m -.C C u = - - = < < < < u u t t y ;.C.M.C.m.m.m.m.C.C.C.C.C.M.C.S.b 0 - M [ C < . X % < M C C C C C C C C _ _ _ _ _ { [ [ [ [ { { { [ [ [ [ } } } } } } } } } } } } } } } } =.=.=.=.=.=.=.=.=.=.=.=.:.:.:.:.:.=.=.:.=.=.=.=.=.=.=.=.=.=.=.=.=.=.=.=.=.=.=.=.=.=.=.:.:.:.:.:.:.:.:.=.=.} } } } } } } } } } } } } [ [ [ [ [ [ [ } } } } } } } } } } } } } } } } } } } =.=.=.=.=.=.=.:.:.:.=.=.=.=.} } _ ) ) [ } } } [ _ _ ) ) ) C C V C C C C C C C C C [ [ -.-.-.-.-.-.-.-.-.-.-.-.*.*.*.*.S S -.-.3.3.3.3.3.-.C C C C -.5.5.].rX4.} ] o.....' ` ' ' ] j X , 4 1 1 1 1 1 1 1 1 1 1 1 1 1 1 1 1 1 1 1 1 1 1 1 1 1 1 1 1 < < 1 1 1 1 < < < < 1 ",
"g g j j j j g g g g g g j j g g j g g g g g j j j j j j j j j j j j j j j j j j h b.eXwXwXtXwXwX9XwX9XwXwXwX2X2X4X2X4X2X,X,X,X,X:X,X:X:X;X;X;X;X;Xv.v.v.k.v.v.v.'.fXnXjXaXrX'.p.:.C u M 4.'.].'.'.W.W.T.T.T.T.s.s.s.s.s.s.s.s.s.Y.T.s.s.Y.Y.T.s.Y.T.T.T.W.'.T.p.5.4.>.=.o.X.@.8.7.8.8.q.q.8.q.q.8.w.w.w.f.h.d.7.> % 5 ] >.i.p.T.W.W.W.W.'.W.W.W.W.W.T.s.s.p.p.p.5.4.4.4.4.4.p.Y.T.W.W.].].].].].].].W.E.Y././.(.D.D.D.D.D.D.b r s t #         . . O , d j j j g g u u g g g g g u u < u - # # # # # * * - = < u < < < u u t t y *.S.M.m.m.m.m.m.m.C.C.C.M.C.D.M.7 - m C u * X   * < g C C C C C C C C C _ _ _ _ _ { [ [ [ [ { { { [ [ [ [ } } } } } } } } } } } } } } } } =.=.=.=.=.=.=.=.=.=.=.=.:.:.:.:.:.=.=.:.=.=.=.=.=.=.=.=.=.=.=.=.=.=.=.=.=.=.=.} =.=.=.:.:.:.:.:.:.:.:.=.=.} } } } } } } } } } } [ [ [ [ [ [ [ [ [ [ [ [ } } } } } } } } } } } } } } } } =.=.=.=.=.=.=.=.=.=.=.=.=.=.} _ _ ) _ } } } } [ _ ) ) ) ) V C B C C C C C C C C C [ [ -.-.-.-.-.-.-.-.-.-.-.*.*.*.*.C C C S S -.3.3.3.-.S C m M M C >.5.T.].s.@.] ......' ` ' ' ] j X , 4 1 1 1 1 1 1 1 1 1 1 1 1 1 1 1 1 1 1 1 1 1 1 1 1 1 1 1 1 < < 1 1 1 1 < < < < 1 ",
"g g g g j j g g j j j j g g g g j j j j j j j j j j j j j j j j j j j j j j j j h b.eXwXwXtXwXwX9XwX9XwX2X2X2X2X2X2X2X,X,X,X,X,X:X;X;X;X;X;X;Xv.v.;Xv.k.k.k.v.v.'.gXnXjXgX].W.p.=.B 1 M 5.'.].'.].W.T.T.T.Y.s.p.s.s.s.s.s.s.Y.Y.Y.Y.Y.T.Y.Y.Y.s.s.T.T.T.'.].W.5.5.4.,.@...X.o.$.7.7.q.q.q.8.q.q.q.w.q.w.h.k.f.q., % 4 ] >.4.p.T.W.W.W.W.'.W.W.W.W.W.Y.p.p.p.p.p.5.4.4.5.5.5.p.Y.T.W.W.].].].].].].].'.T.E././.(.D.D.D.D.D.C.9 r b & .       . . . % < j j j g g M M M g M M M u u M M u u u M u - < u u u u < < < < < u u u t y F S.M.m.m.C.m.m.m.m.m.m.M.S.S.r 7 u C M *   X * < g M C C _ C C C ) ) ) _ _ _ _ _ { { { { { { { { [ [ [ [ } } } } } } } } } } } } } } } } =.=.=.=.=.=.=.=.=.=.=.=.:.:.:.:.:.=.=.=.=.=.=.=.=.=.=.=.=.=.=.=.=.=.=.=.=.=.=.=.=.=.=.:.:.>.>.:.:.:.:.=.=.} } } } } } } } [ [ [ [ [ [ [ [ [ [ [ [ [ [ [ [ [ } } } } } } } } } } } } } } } =.=.=.=.=.=.=.=.=.=.=.=.} } _ ) ) _ } =.} } [ _ ) ) ) ) V C B C C C C C C C C C C [ -.-.-.*.-.-.-.-.-.-.-.[ C C C C C C C S -.3.3.3.-.S C m M M M -.4.s.].'.=.] ....' ' ` ' ' ] j X < 4 1 1 1 1 1 1 1 1 1 1 1 1 1 1 1 1 1 1 1 1 1 1 1 1 1 < 1 1 1 1 1 1 1 1 < < < < < "
};
